/* XPM */
static char *cyber_wall_north_fallback[] = {
/* columns rows colors chars-per-pixel */
"64 64 4 1 ",
"  c #0A0A12",
". c #00FF99",
"+ c #00FF33",
"@ c None",
/* pixels */
"+.......+.......+.......+.......+.......+.......+.......+.......",
"........................................+.....................+.",
"........................................................+.........",
"........................................+....................+..",
"........................................................+.........",
"........................................+....................+..",
"........................................................+.........",
"........................................+....................+..",
"+.......+.......+.......+.......+.......+.......+.......+.......",
"........................................................+.........",
"........................................+....................+..",
"........................................................+.........",
"........................................+....................+..",
"........................................................+.........",
"........................................+....................+..",
"........................................................+.........",
"+.......+.......+.......+.......+.......+.......+.......+.......",
"........................................................+.........",
"........................................+....................+..",
"........................................................+.........",
"........................................+....................+..",
"........................................................+.........",
"........................................+....................+..",
"........................................................+.........",
"+.......+.......+.......+.......+.......+.......+.......+.......",
"........................................................+.........",
"........................................+....................+..",
"........................................................+.........",
"........................................+....................+..",
"........................................................+.........",
"........................................+....................+..",
"........................................................+.........",
"+.......+.......+.......+.......+.......+.......+.......+.......",
"........................................................+.........",
"........................................+....................+..",
"........................................................+.........",
"........................................+....................+..",
"........................................................+.........",
"........................................+....................+..",
"........................................................+.........",
"+.......+.......+.......+.......+.......+.......+.......+.......",
"........................................................+.........",
"........................................+....................+..",
"........................................................+.........",
"........................................+....................+..",
"........................................................+.........",
"........................................+....................+..",
"........................................................+.........",
"+.......+.......+.......+.......+.......+.......+.......+.......",
"........................................................+.........",
"........................................+....................+..",
"........................................................+.........",
"........................................+....................+..",
"........................................................+.........",
"........................................+....................+..",
"........................................................+.........",
"+.......+.......+.......+.......+.......+.......+.......+.......",
"........................................................+.........",
"........................................+....................+..",
"........................................................+.........",
"........................................+....................+..",
"........................................................+.........",
"........................................+....................+..",
"........................................................+.........",
};
