/* XPM */
static char *cyber_wall_east_fallback[] = {
/* columns rows colors chars-per-pixel */
"64 64 4 1 ",
"  c #0A0A12",
". c #00AAFF",
"+ c #00FFFF",
"@ c None",
/* pixels */
"+.......+.......+.......+.......+.......+.......+.......+.......",
"........................................................+.........",
"........................................+....................+..",
"........................................................+.........",
"........................................+....................+..",
"........................................................+.........",
"........................................+....................+..",
"........................................................+.........",
"+.......+.......+.......+.......+.......+.......+.......+.......",
"........................................................+.........",
"........................................+....................+..",
"........................................................+.........",
"........................................+....................+..",
"........................................................+.........",
"........................................+....................+..",
"........................................................+.........",
"+.......+.......+.......+.......+.......+.......+.......+.......",
"........................................................+.........",
"........................................+....................+..",
"........................................................+.........",
"........................................+....................+..",
"........................................................+.........",
"........................................+....................+..",
"........................................................+.........",
"+.......+.......+.......+.......+.......+.......+.......+.......",
"........................................................+.........",
"........................................+....................+..",
"........................................................+.........",
"........................................+....................+..",
"........................................................+.........",
"........................................+....................+..",
"........................................................+.........",
"+.......+.......+.......+.......+.......+.......+.......+.......",
"........................................................+.........",
"........................................+....................+..",
"........................................................+.........",
"........................................+....................+..",
"........................................................+.........",
"........................................+....................+..",
"........................................................+.........",
"+.......+.......+.......+.......+.......+.......+.......+.......",
"........................................................+.........",
"........................................+....................+..",
"........................................................+.........",
"........................................+....................+..",
"........................................................+.........",
"........................................+....................+..",
"........................................................+.........",
"+.......+.......+.......+.......+.......+.......+.......+.......",
"........................................................+.........",
"........................................+....................+..",
"........................................................+.........",
"........................................+....................+..",
"........................................................+.........",
"........................................+....................+..",
"........................................................+.........",
"+.......+.......+.......+.......+.......+.......+.......+.......",
"........................................................+.........",
"........................................+....................+..",
"........................................................+.........",
"........................................+....................+..",
"........................................................+.........",
"........................................+....................+..",
"........................................................+.........",
};
