/* XPM */
static char *cyber_door_fallback[] = {
/* columns rows colors chars-per-pixel */
"64 64 5 1 ",
"  c #111122",
". c #00FF00",
"+ c #009900",
"# c #001A10",
"@ c None",
/* pixels */
"+.......+.......+.......+.......+.......+.......+.......+.......",
".................................................................",
".................................................................",
".................................................................",
".................................................................",
".................................................................",
".................................................................",
".................................................................",
"+.......+.......+.......+.......+.......+.......+.......+.......",
".................................................................",
".................................................................",
".................................................................",
".................................................................",
"..................+.........................+...................",
"..................+.........................+...................",
"..................+.........................+...................",
"+.......+.......+.+.....+.......+.......+.+.......+.......+.....",
"..................+.........................+...................",
"..................+.......+........+........+...................",
"..................+.......+........+........+...................",
"..................+.......+........+........+...................",
"..................+.......+........+........+...................",
".........+........+.....###########+........+...................",
"..................+....#+###########+.......+...................",
"+.......+.......+.+....##############.......+.......+.......+....",
"..................+....##############.......+...................",
"..................+....###########+##.......+...................",
"..................+....####+#######+#.......+...................",
"..................+....####+#######+#.......+...................",
"..................+....####+#######+#.......+...................",
"..................+....####+#######+#.......+...................",
"..................+....####+#######+#.......+...................",
"+.......+.......+.+....####+#######+#.......+.......+.......+....",
"..................+....####+#######+#.......+...................",
"..................+....####+#######+#.......+...................",
"..................+....####+#######+#.......+...................",
"..................+....####+#######+#.......+...................",
"..................+....##############.......+...................",
"..................+.....#############.......+...................",
"..................+......############.......+...................",
"+.......+.......+.+.......+........+........+.......+.......+....",
"..................+.......+........+........+...................",
"..................+.......+........+........+...................",
"..................+.......+........+........+...................",
"..................+.........................+...................",
"..................+.........................+...................",
"..................+.........................+...................",
"..................+.........................+...................",
"+.......+.......+.+.....+.......+.......+.+.......+.......+.....",
".................................................................",
".................................................................",
".................................................................",
".................................................................",
".................................................................",
".................................................................",
".................................................................",
"+.......+.......+.......+.......+.......+.......+.......+.......",
".................................................................",
".................................................................",
".................................................................",
".................................................................",
".................................................................",
".................................................................",
"................................................................."
};
