/* XPM */
static char *cyber_wall_south_fallback[] = {
/* columns rows colors chars-per-pixel */
"64 64 4 1 ",
"  c #0A0A12",
". c #FF3300",
"+ c #FFFF00",
"@ c None",
/* pixels */
"+.......+.......+.......+.......+.......+.......+.......+.......",
"........................................................+.........",
"........................................+....................+..",
"........................................................+.........",
"........................................+....................+..",
"........................................................+.........",
"........................................+....................+..",
"........................................................+.........",
"+.......+.......+.......+.......+.......+.......+.......+.......",
"........................................................+.........",
"........................................+....................+..",
"........................................................+.........",
"........................................+....................+..",
"........................................................+.........",
"........................................+....................+..",
"........................................................+.........",
"+.......+.......+.......+.......+.......+.......+.......+.......",
"........................................................+.........",
"........................................+....................+..",
"........................................................+.........",
"........................................+....................+..",
"........................................................+.........",
"........................................+....................+..",
"........................................................+.........",
"+.......+.......+.......+.......+.......+.......+.......+.......",
"........................................................+.........",
"........................................+....................+..",
"........................................................+.........",
"........................................+....................+..",
"........................................................+.........",
"........................................+....................+..",
"........................................................+.........",
"+.......+.......+.......+.......+.......+.......+.......+.......",
"........................................................+.........",
"........................................+....................+..",
"........................................................+.........",
"........................................+....................+..",
"........................................................+.........",
"........................................+....................+..",
"........................................................+.........",
"+.......+.......+.......+.......+.......+.......+.......+.......",
"........................................................+.........",
"........................................+....................+..",
"........................................................+.........",
"........................................+....................+..",
"........................................................+.........",
"........................................+....................+..",
"........................................................+.........",
"+.......+.......+.......+.......+.......+.......+.......+.......",
"........................................................+.........",
"........................................+....................+..",
"........................................................+.........",
"........................................+....................+..",
"........................................................+.........",
"........................................+....................+..",
"........................................................+.........",
"+.......+.......+.......+.......+.......+.......+.......+.......",
"........................................................+.........",
"........................................+....................+..",
"........................................................+.........",
"........................................+....................+..",
"........................................................+.........",
"........................................+....................+..",
"........................................................+.........",
};
