/* XPM */
static char * cyber_wall_north_critical_xpm[] = {
"64 64 20 1",
" 	c #000000",
".	c #001122",
"+	c #002244",
"@	c #003366",
"#	c #004488",
"$	c #0055AA",
"%	c #0066CC",
"&	c #0077EE",
"*	c #0088FF",
"=	c #00AAFF",
"-	c #00CCFF",
";	c #00FFFF",
">	c #00FF88",
",	c #00FF44",
"'	c #00FF00",
")	c #FFFF00",
"!	c #FF8800",
"~	c #FF4400",
"{	c #FF0000",
"]	c #FFFFFF",
"................................................................",
"{{{{{{{{{{{{{{{{{{{{{{{{{{{{{{{{{{{{{{{{{{{{{{{{{{{{{{{{{{{{{{{",
"{@#$%&*=-;>,'')>,-=*&%$#@+.+@#$%&*=-;>,'')>,-=*&%$#@+.+@#$%{",
"{@.  ⚠️  CRITICAL SECURITY ZONE  ⚠️  AUTHORIZED ONLY    ..@#{",
"{@. '>'>'>'>'>'>'>'>'>'>'>'>'>'>'>'>'>'>'>'>'>'>'>'>'>'>'>'>  ..@#{",
"{@. .@#$%&*=-;!~{]{~!;-=*&%$#@.,@#$%&*=-;!~{]{~!;-=*&%$. ..@#{",
"{@. '>           '>           '>           '>           '> ..@#{",
"{@. .@#$%&*=-;!~{]{~!;-=*&%$#@.,@#$%&*=-;!~{]{~!;-=*&%$. ..@#{",
"{@. '>'>'>'>'>'>'>'>'>'>'>'>'>'>'>'>'>'>'>'>'>'>'>'>'>'>'>'>  ..@#{",
"{@.  🚨 QUANTUM ENCRYPTION ACTIVE 🚨 NEURAL MONITORING    ..@#{",
"{@. ========================================== ==========  ..@#{",
"{@. @#$%&*   @#$%&*   @#$%&*   @#$%&*   @#$%&*   @#$%&* ..@#{",
"{@. '>'>'>   '>'>'>   '>'>'>   '>'>'>   '>'>'>   '>'>'>  ..@#{",
"{@. @#$%&*   @#$%&*   @#$%&*   @#$%&*   @#$%&*   @#$%&* ..@#{",
"{@. ========================================== ==========  ..@#{",
"{@.  🔒 BIOMETRIC SCAN REQUIRED 🔒 RETINAL VERIFICATION   ..@#{",
"{@. '>'>'>'>'>'>'>'>'>'>'>'>'>'>'>'>'>'>'>'>'>'>'>'>'>'>'>'>  ..@#{",
"{@. .@#$%&*=-;!~{]{~!;-=*&%$#@.,@#$%&*=-;!~{]{~!;-=*&%$. ..@#{",
"{@. '>           '>           '>           '>           '> ..@#{",
"{@. .@#$%&*=-;!~{]{~!;-=*&%$#@.,@#$%&*=-;!~{]{~!;-=*&%$. ..@#{",
"{@. '>'>'>'>'>'>'>'>'>'>'>'>'>'>'>'>'>'>'>'>'>'>'>'>'>'>'>'>  ..@#{",
"{@.  💀 LETHAL FORCE AUTHORIZED 💀 TRESPASSERS ELIMINATED ..@#{",
"{@. ========================================== ==========  ..@#{",
"{@. @#$%&*   @#$%&*   @#$%&*   @#$%&*   @#$%&*   @#$%&* ..@#{",
"{@. '>'>'>   '>'>'>   '>'>'>   '>'>'>   '>'>'>   '>'>'>  ..@#{",
"{@. @#$%&*   @#$%&*   @#$%&*   @#$%&*   @#$%&*   @#$%&* ..@#{",
"{@. ========================================== ==========  ..@#{",
"{@.  🛡️ ACTIVE COUNTERMEASURES 🛡️ PLASMA BARRIERS ON     ..@#{",
"{@. '>'>'>'>'>'>'>'>'>'>'>'>'>'>'>'>'>'>'>'>'>'>'>'>'>'>'>'>  ..@#{",
"{@. .@#$%&*=-;!~{]{~!;-=*&%$#@.,@#$%&*=-;!~{]{~!;-=*&%$. ..@#{",
"{@. '>           '>           '>           '>           '> ..@#{",
"{@. .@#$%&*=-;!~{]{~!;-=*&%$#@.,@#$%&*=-;!~{]{~!;-=*&%$. ..@#{",
"{@. '>'>'>'>'>'>'>'>'>'>'>'>'>'>'>'>'>'>'>'>'>'>'>'>'>'>'>'>  ..@#{",
"{@.  ⚡ HIGH VOLTAGE BARRIER ⚡ ELECTROMAGNETIC FIELD     ..@#{",
"{@. ========================================== ==========  ..@#{",
"{@. @#$%&*   @#$%&*   @#$%&*   @#$%&*   @#$%&*   @#$%&* ..@#{",
"{@. '>'>'>   '>'>'>   '>'>'>   '>'>'>   '>'>'>   '>'>'>  ..@#{",
"{@. @#$%&*   @#$%&*   @#$%&*   @#$%&*   @#$%&*   @#$%&* ..@#{",
"{@. ========================================== ==========  ..@#{",
"{@.  🌐 GLOBAL SURVEILLANCE NETWORK 🌐 SATELLITE LINKED   ..@#{",
"{@. '>'>'>'>'>'>'>'>'>'>'>'>'>'>'>'>'>'>'>'>'>'>'>'>'>'>'>'>  ..@#{",
"{@. .@#$%&*=-;!~{]{~!;-=*&%$#@.,@#$%&*=-;!~{]{~!;-=*&%$. ..@#{",
"{@. '>           '>           '>           '>           '> ..@#{",
"{@. .@#$%&*=-;!~{]{~!;-=*&%$#@.,@#$%&*=-;!~{]{~!;-=*&%$. ..@#{",
"{@. '>'>'>'>'>'>'>'>'>'>'>'>'>'>'>'>'>'>'>'>'>'>'>'>'>'>'>'>  ..@#{",
"{@.  🤖 AI SENTRIES DEPLOYED 🤖 AUTONOMOUS DEFENSE GRID   ..@#{",
"{@. ========================================== ==========  ..@#{",
"{@. @#$%&*   @#$%&*   @#$%&*   @#$%&*   @#$%&*   @#$%&* ..@#{",
"{@. '>'>'>   '>'>'>   '>'>'>   '>'>'>   '>'>'>   '>'>'>  ..@#{",
"{@. @#$%&*   @#$%&*   @#$%&*   @#$%&*   @#$%&*   @#$%&* ..@#{",
"{@. ========================================== ==========  ..@#{",
"{@.  🔥 THERMAL WEAPONS ARMED 🔥 INCINERATION PROTOCOL    ..@#{",
"{@. '>'>'>'>'>'>'>'>'>'>'>'>'>'>'>'>'>'>'>'>'>'>'>'>'>'>'>'>  ..@#{",
"{@. .@#$%&*=-;!~{]{~!;-=*&%$#@.,@#$%&*=-;!~{]{~!;-=*&%$. ..@#{",
"{@. '>           '>           '>           '>           '> ..@#{",
"{@. .@#$%&*=-;!~{]{~!;-=*&%$#@.,@#$%&*=-;!~{]{~!;-=*&%$. ..@#{",
"{@. '>'>'>'>'>'>'>'>'>'>'>'>'>'>'>'>'>'>'>'>'>'>'>'>'>'>'>'>  ..@#{",
"{@.  ☠️  MAXIMUM SECURITY PROTOCOLS ENGAGED  ☠️          ..@#{",
"{@. ========================================== ==========  ..@#{",
"{@. @#$%&*   @#$%&*   @#$%&*   @#$%&*   @#$%&*   @#$%&* ..@#{",
"{@. '>'>'>   '>'>'>   '>'>'>   '>'>'>   '>'>'>   '>'>'>  ..@#{",
"{@. @#$%&*   @#$%&*   @#$%&*   @#$%&*   @#$%&*   @#$%&* ..@#{",
"{@. ========================================== ==========  ..@#{",
"{@.  🎯 TARGETING SYSTEMS LOCKED 🎯 ELIMINATION IMMINENT  ..@#{",
"{@. '>'>'>'>'>'>'>'>'>'>'>'>'>'>'>'>'>'>'>'>'>'>'>'>'>'>'>'>  ..@#{",
"{@#$%&*=-;>,'')>,-=*&%$#@+.+@#$%&*=-;>,'')>,-=*&%$#@+.+@#$%{",
"{{{{{{{{{{{{{{{{{{{{{{{{{{{{{{{{{{{{{{{{{{{{{{{{{{{{{{{{{{{{{{{",
"................................................................"
};
