/* XPM */
static char *cyber_wall_west_fallback[] = {
/* columns rows colors chars-per-pixel */
"64 64 4 1 ",
"  c #0A0A12",
". c #FF8800",
"+ c #FFAA00",
"@ c None",
/* pixels */
"+.......+.......+.......+.......+.......+.......+.......+.......",
"........................................................+.........",
"........................................+....................+..",
"........................................................+.........",
"........................................+....................+..",
"........................................................+.........",
"........................................+....................+..",
"........................................................+.........",
"+.......+.......+.......+.......+.......+.......+.......+.......",
"........................................................+.........",
"........................................+....................+..",
"........................................................+.........",
"........................................+....................+..",
"........................................................+.........",
"........................................+....................+..",
"........................................................+.........",
"+.......+.......+.......+.......+.......+.......+.......+.......",
"........................................................+.........",
"........................................+....................+..",
"........................................................+.........",
"........................................+....................+..",
"........................................................+.........",
"........................................+....................+..",
"........................................................+.........",
"+.......+.......+.......+.......+.......+.......+.......+.......",
"........................................................+.........",
"........................................+....................+..",
"........................................................+.........",
"........................................+....................+..",
"........................................................+.........",
"........................................+....................+..",
"........................................................+.........",
"+.......+.......+.......+.......+.......+.......+.......+.......",
"........................................................+.........",
"........................................+....................+..",
"........................................................+.........",
"........................................+....................+..",
"........................................................+.........",
"........................................+....................+..",
"........................................................+.........",
"+.......+.......+.......+.......+.......+.......+.......+.......",
"........................................................+.........",
"........................................+....................+..",
"........................................................+.........",
"........................................+....................+..",
"........................................................+.........",
"........................................+....................+..",
"........................................................+.........",
"+.......+.......+.......+.......+.......+.......+.......+.......",
"........................................................+.........",
"........................................+....................+..",
"........................................................+.........",
"........................................+....................+..",
"........................................................+.........",
"........................................+....................+..",
"........................................................+.........",
"+.......+.......+.......+.......+.......+.......+.......+.......",
"........................................................+.........",
"........................................+....................+..",
"........................................................+.........",
"........................................+....................+..",
"........................................................+.........",
"........................................+....................+..",
"........................................................+.........",
};
