/* XPM */
static char *_1741f0db908463dcde41b34694c1a28VhYDojE3HBYq2H4K[] = {
/* columns rows colors chars-per-pixel */
"504 503 256 2 ",
"   c #00060D",
".  c #01090E",
"X  c #040508",
"o  c #000613",
"O  c #010B15",
"+  c #00071A",
"@  c #010D1B",
"#  c #090D19",
"$  c #041116",
"%  c #03111D",
"&  c #09131D",
"*  c #0A1317",
"=  c #111015",
"-  c #010E22",
";  c #000E2A",
":  c #070B23",
">  c #021324",
",  c #091524",
"<  c #051926",
"1  c #0A1925",
"2  c #02152B",
"3  c #09162A",
"4  c #04192C",
"5  c #091B2C",
"6  c #011632",
"7  c #031B33",
"8  c #091D33",
"9  c #00163A",
"0  c #021D3B",
"q  c #091E3A",
"w  c #091631",
"e  c #0D182D",
"r  c #0A212E",
"t  c #052135",
"y  c #0A2135",
"u  c #04223C",
"i  c #0A233B",
"p  c #0B293D",
"a  c #11253A",
"s  c #132530",
"d  c #011D42",
"f  c #011D49",
"g  c #011D53",
"h  c #032343",
"j  c #0A2542",
"k  c #052945",
"l  c #0B2A44",
"z  c #02254B",
"x  c #032A4C",
"c  c #0A2C4B",
"v  c #09264A",
"b  c #122B46",
"n  c #0C314D",
"m  c #06314C",
"M  c #13324C",
"N  c #012552",
"B  c #022C53",
"V  c #0A2D53",
"C  c #022D5B",
"Z  c #062959",
"A  c #043155",
"S  c #0B3254",
"D  c #03335C",
"F  c #0A345B",
"G  c #04395D",
"H  c #0B3A5D",
"J  c #0B3956",
"K  c #123453",
"L  c #12395B",
"P  c #112C53",
"I  c #012D62",
"U  c #042C67",
"Y  c #023463",
"T  c #0A3562",
"R  c #033A64",
"E  c #0B3B64",
"W  c #01356A",
"Q  c #033C6B",
"!  c #0A3D6B",
"~  c #0A366A",
"^  c #123C63",
"/  c #133B68",
"(  c #023D73",
")  c #053B76",
"_  c #133A73",
"`  c #243665",
"'  c #0B4165",
"]  c #04426D",
"[  c #0B426C",
"{  c #064469",
"}  c #12436B",
"|  c #144468",
" . c #034373",
".. c #0B4473",
"X. c #044A75",
"o. c #0C4A75",
"O. c #03447B",
"+. c #0B457A",
"@. c #034B7B",
"#. c #0B4B7B",
"$. c #134B74",
"%. c #124C7B",
"&. c #144675",
"*. c #09517D",
"=. c #14527C",
"-. c #1D4769",
";. c #023E84",
":. c #024583",
">. c #034C83",
",. c #0B4C83",
"<. c #034C8B",
"1. c #094A88",
"2. c #134D84",
"3. c #035284",
"4. c #0B5384",
"5. c #03538B",
"6. c #0B548B",
"7. c #0C5B8C",
"8. c #055A8A",
"9. c #135383",
"0. c #135B8C",
"q. c #165689",
"w. c #034C93",
"e. c #0C5C93",
"r. c #065796",
"t. c #145B95",
"y. c #1C4F90",
"u. c #076599",
"i. c #166599",
"p. c #0B6691",
"a. c #055BA4",
"s. c #0D5BA7",
"d. c #0668A7",
"f. c #1668A5",
"g. c #0576AA",
"h. c #1674A9",
"j. c #016CB4",
"k. c #036CB8",
"l. c #0173BC",
"z. c #017ABD",
"x. c #0576B6",
"c. c #1675B6",
"v. c #24679B",
"b. c #0175C2",
"n. c #017BC4",
"m. c #017DCA",
"M. c #087AC7",
"N. c #0B79CA",
"B. c #237AC4",
"V. c #0686B8",
"C. c #098AB6",
"Z. c #2684BA",
"A. c #0182C5",
"S. c #0183CC",
"D. c #018ACD",
"F. c #0986CB",
"G. c #0294CB",
"H. c #0285D2",
"J. c #028BD4",
"K. c #0A8BD4",
"L. c #038DDA",
"P. c #0A8DDA",
"I. c #0985D4",
"U. c #0193D5",
"Y. c #009AD5",
"T. c #0394DB",
"R. c #0B93DC",
"E. c #029BDC",
"W. c #0A9ADE",
"Q. c #0A92D6",
"!. c #1396DC",
"~. c #148CD0",
"^. c #01A2DD",
"/. c #04A8DA",
"(. c #0BADD5",
"). c #0495E1",
"_. c #0B95E2",
"`. c #039CE3",
"'. c #0B9CE3",
"]. c #0B9DE9",
"[. c #049CE9",
"{. c #129CE4",
"}. c #139AE6",
"|. c #0690E5",
" X c #03A3E4",
".X c #0AA3E5",
"XX c #02ABE5",
"oX c #04A4EA",
"OX c #0BA4EB",
"+X c #04ACEB",
"@X c #0BABEC",
"#X c #0AAAE6",
"$X c #12A4EB",
"%X c #12ABED",
"&X c #16A4E8",
"*X c #01B2E5",
"=X c #03B3EC",
"-X c #0BB3ED",
";X c #02BBEC",
":X c #07B9E9",
">X c #15B5EB",
",X c #0CACF2",
"<X c #06AAF2",
"1X c #13ACF3",
"2X c #18AAF3",
"3X c #04B4F2",
"4X c #0BB4F3",
"5X c #04BCF3",
"6X c #0BBBF4",
"7X c #0CBCFA",
"8X c #07B8F9",
"9X c #13B3F4",
"0X c #12BBF5",
"qX c #13BCFB",
"wX c #19B7F9",
"eX c #22B6F5",
"rX c #258FCF",
"tX c #01C3ED",
"yX c #03C9EB",
"uX c #03C3F4",
"iX c #0BC3F5",
"pX c #03CBF4",
"aX c #04C4FA",
"sX c #0CC4FB",
"dX c #04CCFA",
"fX c #0CCBFC",
"gX c #0ACBF5",
"hX c #13C3FC",
"jX c #13CBFD",
"kX c #19C7FA",
"lX c #02D3F4",
"zX c #02DBF5",
"xX c #03D4FB",
"cX c #0BD3FC",
"vX c #03DCFB",
"bX c #0BDCFD",
"nX c #0AD6F5",
"mX c #13D3FE",
"MX c #17D9FD",
"NX c #0BCEEC",
"BX c #25D7FD",
"VX c #25CAF8",
"CX c #03E3FC",
"ZX c #0BE3FD",
"AX c #02EBFC",
"SX c #06E8F9",
"DX c #16E8FE",
"FX c #02F3FD",
"GX c #07F6FD",
"HX c #19F5FE",
"JX c #00E5EE",
"KX c #26E9FE",
"LX c #26F6FE",
"PX c #33F0FE",
"IX c #09C5DC",
"UX c #40CEF5",
/* pixels */
"O o O .   O O o . . o O o   o O O   o o O O O o o o o O O O O O O o     o @ o o o O . O O o o o o o o o O o O O O O O o . o O O O o O o o   o O O O o     O O O $ O . o O O o o O @ @ @ @ @ O   O o o O O O O O O o o O @ O o O O @ @ @ @ @ O o O O O O O @ @ O O @ @ O @ @ % @ o @ O @ O @ % @ O   o o @ @ @ o O . o % @ O O O O O % @ O O O @ @ @ @ @ @ O @ O O @ @ @ @ @ @ O O O @ O O O O @ @ O @ $ @ @ @ @ @ @ @ @ o o O O @ @ $ O @ $ O o O O O O O O O O @ O @ > @ O O @ O O @ @ O O O O o O @ O O O O O % @ @ O O @ $ O O $ @ O o O O @ @   O O O @ O O $ $ O O o O @ @ @ .   O o O o @ o @ O o @ O @ > @ . O O O @ @ O O @ O O O @ @ O @ @ $ O O @ @ @ @ o O @ O O O @ % O $ O O .   o @ O O O @ O O O O @ O o O @ @ @ o O O O O @ O O @ O . o O O O @ O . o O @ O O O @ O O o   O   o . O O O o o . o O @ @ @ O @ O O @ o O o o O o o O o O O . o O o o @ @ O . o o O O   . O O . o O O O . o o O O O @ O $ O o O o O o @ O   . O $ o . O o o O o . o o o O O O O   o O o o o O . . O O o . o . . O o o   o o O . . . o o o o .   . o ",
"O O o o O o   O . . O     O o O o   O o O o O o o o . o o O o o @ o o   O O O O @   . O O .   O o @ @ $ O o o O . O O O   O @ O O O o o O O   O O O O O   % O @ o . O O . o O O O @ @ @ o % O   O O   $ @ O O . % o O @ O o O o @ o O @ @ @ @ @ O O @ O @ O O O O @ > o o O O O O @ O @ O @ O o @ % @ @ O % % o $ @ o $ O O o o O O   @ %   O @ O @ O o % O o O $ O @ @ @ > O O o O $ % @ O o O O % % O @ @ @ @ @ O % O O O o % O $ @ @ @ @ O O o o @ O O O O O O o > % @ o O $ @ o % @   O o @ O % O @ o @ O O @ O   % % O O o % O o @ @ @ $ $ % O o o @ O o O @ @ O   o @ O $ $     $ O O O @   @ % o O % , @ o @ O O @ , O . o O @ O O @ @ @ O O O O o O @ $ @ o o O O $ O @ @ . O % @   o O O @ o O o O O @ @ @ @ . o % % @ O @ O o @ % @ o @ O   o O O O &   @ O o O O .   @ O o O   o O O O O O O o O o O   O O @ @ O . O O O o o o O O O   $ O o O o O O O O O o . o @ o   @ o o O o   & O   $ o o O O   $ O o O $ o . o   $ O   O     O o   O o o o o . O O o @ O $ o   . O O O o   . O . o @   $   o O $ .   O o   O O . o O . o   . o ",
"O O o o O @ O o . o o o   $ O O o O O O o O @ o o   O .   O O O . O @ O o . o @ O . o o O O   O o . . o O o . @ . . o . o O @ O @     o O O . o o o o $ o O   O O . @ o o O $ o $ % O @ O o O % o $ o o @ O O O @ o o % O O O @ O     @ @ + @ % O O O O @ O O O @ > @ @ @ @ @ > O % O O O . . O @ , @ O O O @ o o @ > o o O $ @ O % O O @ o o o o @ % O @ @ @ O @ o @ @ $ @ $ o % O o @ % o @ > @ > >   @ % O @ O @ O O O O O @ $ @ o @ @ o @ % > $ @ @ % @ O > @ O O @ O O @ O O > @ o . $ O @ O o O o O @ @ % O o o o O @ o o $ o O @ @ O o O O O @ O @ o O @ @ O @ @ $ o O % O > O @ O @ @ O $ @ @ @ o O $ o O O O > 2 O O O o @ @ O O @ @ O   @ O o O o O o O % @ o o @ @ @ O O o O % O O @ $ & O o o O O @ @ @ O O o O @ O O @ O O O @ @   @ % @ O O o $ % @ % O X o O @ $ @ @ $ o @ O o O @ O $ @ O $ @ > O O . o $ o o O   o O o O O @ O O @ @ O o O $ O . . o . o @ O   O @ % O O O   O O   $ % O o   O   O   @ % @ O O O . o @ > O . o   O o O @ @ O O @ . O O @ O       . o O o @ O o   o O   O .   o o o O O $ O O $ O O o   O . o o ",
"o o O O o @ @ O O o   O o o   $ O o o o o o O O O O O .   o   O   O O O O O @ @ O O o O o O @ o . @ O o O o o O $ o     O O O O O   o o O o O . @   O $ o   $ o O $ o % O   . O O $ O @ o   O % O O @ o $ O O @ , @ o @ , o O o O % O   o @ @ @ o & @ @ O O @ o > % @ % @ @ @ @ O O @ $ @ o $ @ O @ O o @ @ o O O @ @ @ @   @ > O   O O @ > , O @ @ O O O O O O O o o @ @ O , @ @ % @ O O O $ > @ O O $ O o > % @ % $ O   @ > o O @ @ @ @ O O % , @ @ O % % O @ O % O o & , o @ o & @ o   $ O @ $ O O o O % O > o O @ O O % $ O O > % o O O o o @ @ @ @ O o o % O O O @ O O O o O O % O @ % @ O O O O o @ O $ o % @ % > > @ O O @ @ O O @ @ @ @ o % O @ @ O   O o > @ @ . O @ @ o o @ @ @ @ o @ @ o O o o @ O O O o O O @ O O o O @ O   O O @ o O % $ @ O   O o @ O % O @ O @ @ O o @ % O . @ @ @ O @ O @ o O &   o $ o   o O @ o O o   O O O O O O o . o O O o $   @ O O O o O > % O o   O O o o O O @ . o o @ o O o o @ o @ O .   O > @   O o . O o   $ O O O O O o o O O o o     o o O O   . o O   o O O O   o o o   o @ O     @   o     O o ",
"o o O @ o o $ O O o o O o . . o > o   o O   O @ o @ O o O   o O   O o . o O @ o .   O O o O O O o O o O o O O   o   O O O o   $ . o @ o O $ O O O O O o @ O o O o $ O % @ . O $ o o O $ @ o . o . O O o o O % O o O O O % @ O o O o O O o &   o o @ $ o O O @ O > O o O o O @ $ o O @ O o o @ @ O   @ , @ @ O @ o o $ @ @ o @ > @ o $ % @ @ & % O @ O @ o o % O @ O O % % @ o O O @ % O o $ o O > @ O $ @ $ , @ % o $ o O @ , @ @ O O % @ o $ O O $ > @ O O @ O @ % o o O % @ @ O @ o O O @ % % o @ @ % o @ O o @ @ % O   @ O O % % O o O O O O @ O O O O O o O @ . O @ % @ O O @ o O @ @ o o $ O O % O O @ O   % @ @ @ @ , o O $ O o @ O @ , > % o o % @ @ O O O @ @ @ > o @ % o o O o o O o   @ o O $ @ O o @ O O O O o O @ O o O @ @ @ O O $ o O @ o o $ O @ o % @ O @ @ @ $ O O O O o   O o @ @ O o O O @ o % o . O O @ o o . O . O O O O o o O o O O O O o O @ & @ @ @ O @ O o o o   . o , o @   . o O O o @ o @ O o   % O O O O o     o o O O o . O O o   O o O @   o % $   . O o O   o . . o   . o     o o   O   o O O @ O O . .   o O o ",
"O . O O O   O O o o O @ @ o o O O O O & O   O o   o @   O .   O O o O . o O o o O . o O o @ O $ @ O O o o o O O o . O O o O   O O o o O   o @ o O O O O O O o @ o   O o . . O O @ o o O @ O o o O o O O o . o o o o . O @ O O O O @ O O O . o o   @ O o O $ , @ @ O O O . @ % @ O o O O @ % O @ % o % @ O @ O @ O O @ @ @ O @ @ @ o o @ , @ O @ @ @ @ o $ @ O @ O @ O @ @ % O $ O O > O @ O % % O O @ @ $ O o O o O O o $ O % o % @ O O O @ O   O % @ o O O O @ @ @ @ $ O @ o @ O O @ @ @ @ %   @ o O @ o @ $ @ - @ O o @ O O @ @ . @ @ o   @ $ o o $ o O O O O O o O @ @ O @ o O $ @ , O . o O o o @ o O > > O o @ @ @ @ @ o % o @ > O O O o @ @ O % $ O % - @ > @ @ @ @ o o % @ O O O @ O O o O O O @ , o O % @ O O O o   @ @ O $ $ O o O o @ @ o o o o @ O @ O O @ o @ @ O O @ . o O $ O   % @ O o o   @ o o @ O . O o o o $ o @ O o O O % O O O O O o o o @ O O O O O O @ O .   O o   o O $ $ O   o & o O @ O o O @ @   O o O o   O o o @ O o O O . o o O O O O @ %   o O o O o o O O . o O o o o O o . o O o o O @ O .   o O   . . .   o . ",
"o . O   o O   o O % @ O @ O O o   O @ o o $ @ O O   O O   @ O o   . @ @ O O   $ @ O o @ %     O O   o O O $ O o @ @ O o @ O o @   O O @ @ o o O @   $ O O O o o o O o O o o o o @ % $   . @ $   O O $ % O   $ @ O O O @ O   O o o $ O o O > @ O o , @ % O $ O o % @ O $ @ @ @ O @ o O @ % O % @ O - > O @ @ @ O o O O > @ O $ % o o @ @ % @ O $ $ o O O o @ & @ O @ @ > @ O O @ @ @ @ @ @ o $ O   O @ @ @ %   O % O O @ O @ @ O > @ o O O @ @ O O > @ O O @ @ @ @ o O % , @ @ o O o @ O @ @ @ @ O . o $ O O O @ > O O > @ @ % @ O O o % % @ % @ @ % O @ @ O O % O O @ @ O @ @ $ @ % O @ $ O % % @ $ & O o > @ @ O @ @ @ @ @ @ @ > @ O o @ @ @ > O @ @ o o $ @ > - . O O $ O O o o . O @ @ @ @ O @ O O @ o @ 1 o O $ O @ O .   > @ O O O % $ o O @ O O o o $ O o o O @ o O @ o o & O O > O $ o o O   o @ @ @ O O o O O O O o O o . @ o O o @ O @ O O O $ o o O O o   O O $ O O O . o O o o O O . o   O @ O   @ $ . O   o O O . O O . O O % % O o O o O o o o O @ @ O @ . o   O O @ O   O o   O O O O o . . o O O O O o O o . o o   . o . O O   . ",
"O   O o o O @ @   O O   . O o . o o .   o @ O o O   o O . $ O o @ . O @ O O o O O O o > @ o   $ o o O O   o @ @ O o @ % O o o O o O O O O .   O o O o @ @ O o @ O   o $ O @ o @ O o @ @ o o @ % O @ O @ @ O o @ O $   o o @ O O   O O % O % @ o o O @ @ O   O O O % o @ > @ @ > % $ o @ @ o @ @ O 2 @ o @ @ O o O > @ @ % @ o O O @ O O O $ o o o o % o O @ > % @ % @ < @ o O @ O O O % > @ @ o o O O @ @ o o @ @ @ O @ @ O O @ - @ O %   $ o % O % @ @ @ @ O O @ @ % @ O % @ o o @ @ % @ o > % O $ O & O $ @ O @ O > > @ % O @ 2 @ o o $ @ % O   @ @ > % O O @ @ @ % O O $ @ > , @ o O > % o 2 @ % % O @ @ @ %   @ 2 O O > %   @ O @ , @ O @ , @ @ @ o @ @ O @ @ @ $ o o O @   O O O o @ % O o @ $ @ O @ O @ @ o @ @ o o O o % 2 o o O @ o O $ o o O $ . $ O O O @ o $ @ o o   $ o o % o O o o o . . @ % O $ o O $ O o $ O O o   O @ O O $ o o o @ @ O o o o O o o $ o O @ O o o . O O O @ O O O   o @ O o .   O O o $ O . . @ o o O O O @ O O O O o O @ o o @ o @ % O O O O O o @ O O o o O O o o o o O     o o O . o O   o @ O $ o o o   X o ",
"o o o O @ o o O O o   o O O O $ o O $ o o .   o o O O   . o O o @ o @ O o   $ O O O o o O o o O O @ $ o O o o @ o O O @ o   o o O O O @ o @ o O O O O o o O % @ O @ @ . o O @ @ O @ @ o o @ @ % O O O % @ o o @ $ O $ o o O @ o @ o o $ @ o O O $ O @ @ @ o o , @ @ @ O > @ @ @ @ @ o O % > > % @ > > % @ @ @ O O O @ > @ @ O O O > @ o O & o $ @ @ @ % O @ @ @ @ > @ @ @ @ @ O @ O . O @ @ % % @ % $ % , O % > o @ @ o O @ O % @ o O O @ O o $ @ @ , % o % @ % o O @ % @ o @ @ >   O @ @ O O O > O O - @ @ O O @ @ @ O O @ @ @ @ $ % O @ @ @ % @ @ @ O O O O O @   O > > @ % @   o @ > O , @ > 0 O O % o O @ @ o O % O o @ o % O O @ > @ o o @ > o $ O @ % @ % @ O % @ o O @ @ @ O O o O $ o @ O O % O @ o @ @ - @ % o O % @ O - O   O O o o o O @ >     o % @ @ o O @ O   o @ $ @ @ @ O @ @ o @ O       o @ O O & o o o O o   O $ o @ o     o O O o o o   o   @ O o O O o O O o O @ O @ O O o @ o O O o @ > O o . o % O o o @ O o O @ o o o o $ O   o @ O   @ @   o o @ O O O o O O o o O O o o   O o o O . O . O O     o o o O O o o o o O @ ",
"o O O o O o O O o @ O   O $ O o . . o o O O   O o O o @ O . @ o o O O .   . o @ O o O O @ o O O   O @ o O O @ $ o $ o O @ o @ @ @ o @ O o o O O O O O o O @ @ % O O % O O o @ O o @ % o $ @ @ @ o o O @ o O o > % O O O o O   O @ o O O O @ @ O o @ O @ % O @ o o @ @ @ O @ - @ $ @ @ @ @ > @ @ @ O o @ @ @ O O @ O o $ > @ @ o O - % o o O $ O @ @ O O O > > @ o @ O O O @ , > @ O . , % @ O @ @ O O @ O O @ > O o O % O @ o % % @ % o % O @ @ O O % & O   @ @ o O % @ $ @ % % @ O o @ @ O @ @ O $ % + > % o @ O @ > % & o @ > >   @ O @ , o % @ > @ @ O @ $ O % @ @ > $ o % O O O @ > @ , o 7 x & @ o @ @ O % @ % % % $ O O @ o O o % % % & o @ @ o @ O @ @ @ O O @ @ @ O @ @ @ o % o o > @ > o O % O @ % O O , O < O @ o o @ O o O O $ O O $ O @ @   o O @ % >   O @ o . O @ O @ O @ @ @ @ O O o $ O   o O % O O O   o $ O o o @ @ $ O O   @ % O O o   . O @ O O   O o @ O   o O O O O @ o o O O O O   O % O % O O o o $ o O O O   o @ o o o O O O   . o O @ @ o o o $ o   o     $ o o   o o O @ $ O o o O   o o o     O o o O   O O o o O @ ",
"@ O O @ O O O o o o $ .   o   o O o @   o @ @ O O O o O O   O O @ O O o O O @ O . . o @ $ @ $ o o o o O o o o O O o O @ , > % O o O @ O   O $ @ $ o @   o o @ @ O . . o $ O o O O o   o @ O @ O o % @ O @ $   @ @ O O @ , O o % @ % @ o o @ o @ > @ @ % @ @ % o O o @ O o @ % % @ @ @ > O O @ % O @ > @ > > @ > @ o O O O % & @ o @ @ @ O O O $ O O @ o O @ > > O @ > % @ @ @ O % o O , @ O O % O @ @ @ > % @ - @ O , @ > % O , $ > @ @ $ % O @ o % @ O O @ O % @ % - O @ % O @ @ O o % > % O % @ % @ o @ $ @ @ o % @ O @ O @ < % o @ @ @ % O @ @ @ % > @ o o @ - 4 - @ $ % @ @ . , @ O o o > v C > - @ @ O o O O @ > , O @ 8 2 o @ o O @ > , O o > > @ O O @ o @ O @ > @ $ O O o O % O O @ @ @ % @ $ @ @ @ O O % @ % > > > 1 @ O @ @ @ @ O o @ O O , % O @ @ O @   O @ @ @ @ o > O   @ @ @ @ O o o $ @ & O O @ O @ O O O @ @ @ o @ @ @ o o O @ o O % @ @ @ o o   o @ o O @ O O O O @ % O O o @ % @ O o o     @ O O %   O .     o O   % > @ O O . O O O . O O @   o $ O O o o o $ . . o O o o O . @ o O O o o   O o o O O O O   o o o . o O @ o ",
"@ o O @ O O     O O   o o . . O o o O o o @ > O O O O o O O   o O o O @ @ O O O O . o O @ O % O O $ . O O o o O O O O % @ > @ O o @ o O O @ @ O O @ O O $ o   o O o $   O @ $ O O O o o O @ O O $ > O O @ @ @ % O O O @ @ @ @ O @ O @ O   O O o @ @ O @ @ @ % o O O , % @ @ O + @ > @ @ O O @ > O % > @ @ @ @ > @ @ % O O O o O o @ @ @ @ O O @ O @ O   . O @ > % @ @ O > @ O @ o o O > % % @ % @ % % , % @ @ @ % o @ @ @ O $ @ @ @ > O % > O $ @ > @ O o , @ @ > o % > @ @ O @ % % O > - @ O @ @ @ % $ o O @ $ % O @ o @ % @ > O O @ @ O O @ % > O @ > @ O O 2 7 2 @ % O @ @ , O 5 > O O @ 2 h C 3 @ @ @ % @ @ - > @ O o 2 2 > @ O O o @ @ @ , % > @ O O @ O @ @ O @ % @ O o o O @ $ @ % $ @ o @ @ o @ O $ O O @ O o 4 > - % % O @ @ 2 > @ O O o $ @ @ @ o O @ % O O @ @ @ o O @ O O @ @ O % @ O o O @ @ @ O @ O o O O o @ @ O   O @ o o O $ O o @ @ @ $ @ % O O @ @ O o . @ , O O % @ O @ o O > o o O @ & o 1 @ O o o O   o O O O O O @ @ @ o O O @ O . o @ O O O O   . . o o O .   o o o O o O % o o o . O o O o O O O @ O . O O . .   o @ o ",
"o   O @ O O @ @ @ o o @ @ O O O o o o O O O O O O O O . o o O o o   $ @ O O o o   @ @ O O O O O $ O @ O O $ O O O O o o O o O @ $ o   O % O O $   O O o @ & O O O $ , o @ @ O @ - o o @ @   $ O @ @ @ @ @ o O O   O @ @ o O @ @ > o O @ O O $ @ @ O o @ % @ @ % o % @ O @ % % > @ @ @ @ > % O @ > $ @ @ - O O @ @ O O % @ $ @ $ @ , % @ O O @ , % $ $ @ % @ O @ @ @ O @ @ @ % @ @ @ o O o > @ o o % o o $ @ @ @ > % o o O o > % O   @ > @ $ @ @ O O > @ @ @ O @ < o O > @ @ @ @ @ > @ , % @ @ > @ O O % @ + > 8 > @ o   @ 2 @ @ @ @ % @ < @ o o > @ @ O   > < @ @ > @ @ @ @ @ + @ @ @ @ @ > @ 7 Z 2 - @ @ $ , @ > @ @ & O > > @ > > @ > @ - O , @ o O @ @ O O @ > @ @ O O % O @ > @ O O O O @ % > O O @ O @ @ @ % @ > 4 > @ O O @ > @ , O @ @ @ @ @ > @ O @ O @ O $ O o o o % @ @ @ $ o @ o @ % @ @ $ %   % % O O @ O @ @ @ o @ O . o O O O @ O O % @   O @ % @ O o O , % O O   O O @ @ O o o O O o % O o @ @ @ @ o o O O o & O O @ @ o o $ @ O @ @ $ @ @ O O O @ O o o O @ O o o o o O $ @ O   O O O o O O O @ O o O @ % O o O O O O O O o o O ",
"o o O O O @ @ O $ o $ @ @ @ @ O @ O   @ O O   O o . O O O o O O $   O @ % O   O O O @ O O o O O @ @ % O O @ @ O o O O X . & O O O O o o O @ O @ O O o @ o O @ @ O O @ @ > @ O O @ % > @ @   O O o . O @ @ @ O o   O @ o O O @ @ O $ @ @ @ $ . > % @ O O o > > - O > O @ > O @ @ @ O O > @ @ > % @ @ % - > @ @ @ O % @ @ > @ @ O @ % @ O O O O > @ % @ > @ O @ @ % @ @ > % o - - O , O O @ % @ @ O O o o @ @ @ @ o % % $ @ @ > > @ @ @ , O O O @ O @ > @ @ , O @ @   o @ , > @ , @ > 2 @ @ , @ O - $ % O > > > 2 2 y % O O > 4 @ @ % % @ > @ O $ O > > O O > > , o $ @ > @ O @ % % O o - 2 < > 7 6 - - @ O O - , - o O @ @ O O O @ % @ > @ > @ @ @ $ @ @ % % @ O > > @ O O % @ > @ o O @ % O @ @ - > > o O O O @ % > > @ O , @ o O @ > , O O o @ O - > @ @ @ @ O O % O o o   % , O o @ O O O O @ O 4 % . O % @ @ o @ O o @ @ O O O     O @ o @ @ @ % % . o O O O O O @ o $ O O o O @ O o o @ O O O @ & o   @ % O O O   O % % @ O @ o @ O   @ O @ > O o @ % @ o o % @ O @ @ O O O O O O O o O O O . o O o $ o O O O o o @ @ O . o O   @ o o .   o ",
"O o O o . @ @ @ O   . o O o O $ @     @ O o @ @ o o O O   @ $ O $ o $ O o O % O @ o O o o O o O @ O o @ O O @ O o   O O O % O O @ o $ @ O O @ $ o O O o   @ > @ @ O @ O O O @ @ @ @ $ o @ O O O @ o $ % @ % O o O O @ @ $ O O O O % @ o $ O O > o % > @ @ o > @ @ @ o @ @ o O > @ @ @ % % % O @ @ O % O @ > > @ @ O $ @ @ % % > @ > @ @ , % @ > @ > @ > @ % O @ @ @ %   @ % @ O @ @ @ % @ O @ % O O % % O % o @ % @ O @ - @ o o O > @ @ @ @ @ @ @ O > , o O @ % > o & @ @ O @ @ % @ - % O > > @ -   O % > 2 7 4 - > 4 @ O > > @ @ @ @ @ % @ % , , % O O > @ @ - > O @ @ $ O @ > % @ O @ @ @ O 2 2 < % @ , O @ > O @ O % @ @ % @ O > > 2 > @ o o @ @ @ @ @ O @ @ @ > % O @ @ % @ @ @ o @ % > % O o @ @   O > @ o o % % O $ @ $ @ @ @ @ % @ O @ @ @ @ @ O o @ @ O @   @ @ , O @ @ @ $ @ @ @ @ O @ - > @ O O @ % O o O O @ O O O @ @ O O O O @ % @   O o O @ % @ O o % %   o o o o O O O O O O o O O o o O % O O O O @ O % O o O @ @ o O o o @ @ O o @ O @ O O O O @ @ @ O @ O O o O o O O O o   @ o @ O . o o o   o O o     O O O O o O O   @ o O ",
"@ O O   O O @ O     o o O X o O @ O O O o @ % @ o O @     O @ o O @ @ @ o o % O o o o @ o o O O @   O % @ o o o O O O @ @ @ @ o > @ O o O O @ O . @ @   O $ @ o @ O o O   o % @ $ o . O @ O O o @ $ o @ O @ O $ @ O O @ O o O O @ O @ $ o $ @ @ O 2 2 @ O % @ O @ @ % - 3 O > > $ O @ O % > @ @ @ O o O , 2 @ @ o O O O @ % @ , o , - > > @ @ , O @ @ > - @ O % @ > % o @ % O . O $ @ @ @ O $ @ @ @ @ - @ @ O O O @ @ 2 2 @ . O o > @ @ o O > @ @ @ , @ @ @ O o 2 > @ O & o @ @ % O $ % > > 4 > > @ o > 2 2 7 2 2 2 2 > @ > O @ > O O O % @ 2 2 @   % > % @ @ @ , , o O @ o O O @ % @ > % @ O 4 t > O o > @ @ $   O > @ @ > > - @ - > 2 2 @ O % > @ > > o O O $ O O @ O $ o @ @ @ @ o O > - > @ @ > - . O > > O % @ o o % O o @ @ 4 -   @ % @ O $ @ @ o   % > @ @ O @ @ @ > > @ % o @ @ > o O O > O @ > @ O @ o O o O $ @ O O $ O @ O   @ @ @ % O o @ > % @ @ $ % @ + O O O @ > O o o o @ o O % @ *   O , O @ o % @ @ @   o O O o O O o O @ % O o O @ O   o @ $ $ @ O @ @ o O . O . . O O O O o   @       @ @ o o O O .   O % O o % O   O % @ O ",
". o $     O @ o o o   . . O @ o o O O @ @ . o O o O O   O . o O @     o @ % . X o @ O . . O O @ O o o % @ @ @ O @ @ O o @ o o o o - - o O @ @ @ O @ @ % O O O O O @ @ - > O   o   O O @ @ O @ @ o $ o @ o O o O @ @   . o   o & @ % $ O @ @ @ @ > @ @ @ O , o - > o @ @ O O O @ > , > @ $ @ @ @ - O > 4 2 2 @ O O   O @ @ O % @ @ O @ @ o O o & @   . % % O O @ o @ > @ @ > @ @ O , @ + O O > - > @ , & O + > 2 @ @ @ @ - > % @ O % - @ @ o o @ o @ > @ > @ o O - < > @ O O > > @ % > % O O o @ - O O 8 4 - 2 0 7 4 @ O @ & O 2 % % > @ @ o O O @ @ , @ @ @ O @ > o O 2 , o @ @ % @ . O o > 7 h f 2 @ o , @ > > @ @ O o % @ > , @ @ % @ > @ @ % @ , - @ % O o @ O $ , % O @ % O o @ @ o O 2 2 O O $ O @ >   O O O O O @ > $ O O @ 4 2 o % 2 @ @ & 2 2 O O $ @ & @ % > - - o o O . O o - - O . % @   O @ O $ o @ o @ % O $ % @ o   @ @ o O o   $ @ @ % O O @ o @ % @ o o O @ % o O O O o O o   O . O @ o o   @ O . O   o @ @ % O $ > @ @ % $ o O o O O O O o @ @ + .   O % @ @ @ o O @ o O   . o @ O O O O . o @ O   . o O   o O @ @ o o O O o   ",
". . $ O o o . . o o     . O o o o o O @ O o   O o o O @ o o . O @   o & @ % O o o @ @ o O O O @ O O o @ o O % o @ O o @ @ O @ O o % > $   @ @ @ @ O @ O $ O o @ o o O > % O o o @ @ o O @ $ @ @ @ O o O @ @ . O @ @ O @ @ @ @ o O O o @ @ @ % O O > % % O @ % > @ > , O o @   O , > @ @ $ O @ - - o 3 7 6 7 2 @ o % > % > , % @ > @ O > , @ @ @ O - - % @ o @ @ @ O > @ $ O @ @ O @ @ @ , o $ > @ o - % > % @ @ > % @ @ > , @ @ O @ > o O @ % @ O % @ @ @ @ $ , > @ - O % @ @ - o - @ O @ % > % @ @ > > > 7 2 2 7 @ @ O @ O @ > @ @ @ @ O @ @ % > @ > @ @ @ O @ > o @ > > % % O O @ @ @ o @ > 2 0 > @ O > @ O > > @ O O > @ > > @ % > @ @ @ % @ @ @ @ o @ O @ @ o % @ @ @ @ O O @ , @ o @ 7 > O o O O @ @ > @ O O o > > % % @ > O o % % @ % @ O O @ @ o o   O @ % @ @ @ % O o O o O O @ > o o > > @ @ O o O O $ o $ o   $ $ @ % @ O O O o O @ O @ % @ o O $ @ o O O $   O @ @ O o O @ @ O @ O O o O O o O O @ o o O o O O @ @ O @ o o @ O O o @ . o O @ O O O $ O O   O @ > @ O o o > O O $ O O $ O o $ O   O @ @ o . o & o   O o o o O o o     ",
"O O O @ @ o o o . o O @ . O . o $ O O O O @ o o o O @ @ @ . O @ O o o O O % @ O o o o @ @ O O o o $ O % O . O O o o O @ o O o o @ . O .   $ % & o O O O O % @ @ o $ % o     O @ @ > O @ $ @ O o O @ % O O @ @ o o @ @ > % % @ @ O o o > @ @ @ @ o @ % O , % @ o o < O % > O O @   > 2 > O O @ > - o @ 6 h 2 @ > > @ > @ O % @ O 2 @ O > @ - 7 @ @ 4 7 @ O % > > > @ @ % % O @ @ @ @ @ , @ % @ o O O + - , @ % % % @ @ o > @ @ > o @ @ @ > % @ % % @ - @ O O & - - % @ o % > @ @ O > > O $ % @ - % @ @ @ $ - 7 2 2 @ % 4 > @ % , @ @ @ O $ > > , 2 > @ @ O % % $   O + > % o @ O o @ > > O O o 2 c % @ - < $ o % @ % @ > @ > @   O @ @ > o @ @ @ @ @ O o % @ @ @ - > + > @ o O > @ % o 2 - > % O o @ , O o > > O $ % @ @ @ @ , @ % .   > @ O O O o o @ > - o O O @ @ @ o O @ @ $ @ O @ O O   o > O @ @ @ @ @ @ O O @ o o o @ o % @ O O o o o O @ O O O O o o O O O O o O @ O @ @ o o @ @ @ O O % O O @ o o o O   O o O O o o o @   . O O o   O O o O O @ O . o o o O @ O   @ @   @ O o o o o % o o O @ % @ o O O @ o O @ o   O O o . . O O @ o o ",
"O O   o @ O     . O O @ o   O O @ O o . @ @ @ o     o @ O $ o O @ @ @ O O @ @ O O o O @ o O o O @ o O o . $ O % O o O % O O o O O @ O . @ @ o O O @ o O o @ $ @ @ @ @ O @ @ @ @ @ @ O o o % @ O O > % O o @ > @ @ > > @ @ O O , @ O O @ , @ % @ @ @ @ O @ O % @ o 2 - @ > @ @ > $ - 4 @ @ > > > @ . @ d x 6 4 > @ @ @ % O @ % @ @ @ % , @ > 4 > 5 @ 8 7 - > @ > - , @ > + % % @ @ , @ @ o > @ O O > @ @ - o - > @ % % @ @ @ , @ % $ O @ > > - @ @ @ , @ @ @ @ @ < > @ O @ @ @ @ , % , @ @ @ @ > @ % $ @ O @ 2 d q @ O % > 2 , % O > > o @ - 2 @ @ % > @ O o O @ @ , @ $ % % - @ O @ @ @ O $ % - F > @ - - @ @ @ @ > % @ @ > > O > , @ - O % - % % O O @ @ @ O - @ @ $ O O @ % @ % o @ 7 7 - % % @ - , O o @ > @ > @ . @ @ @ % O @ . o @ @ o O , @ O @ > > % o O % 2 >   $ o @ @ > @ % @ O O > O @ @ o O @ % @   o   O O O @   O @ o O @ O $ $ $ o o o O O o o O O   o @ o o O % O o O O @ @ O O o @ O O O @ o , O @ @ $ O O $ o o o O o @ O O % O @ O o @ O O o O O O o O O , . o % O o . O O O O o @ % O @ @ o o O O o   o o   @ O   o O o . o ",
"o o O o   @ $ O   o @ o O O O o O O O o O @ @ O o O O   O $ O o @ @ @ @ @ % o o O o o O O o O O @ o $ o   @ @ O O $ $ . o $ O O O @ @ @ % , @ o   @ @ > O O O O @ @ O O > 2 - % O o O O O $ @ O o > O @ @ > - % @ > , O O O % @ @ % >   @ , > @ , O o > > O @ 4 % > > 2 @ @ @ - @ @ % > > @ O O @ O @ 6 h u 7 O o O > > @ > > > o @ % @ 2 @ O , > O @ 7 d 7 2 > @ @   @ > > $ @ O O O , @ 4 2 > > > @ O @ 2 - > @ @ @ > % % % O $ & o > - @ > O O % @ @ @ , - % 2 @ > % , O % @ % O o @ 5 2 O % o % O @ o @ 2 z h o X o - @ O @ > @ O @ > @ > @ o @ @ - @ @ $ % , @ @ $ @ @ % > 5 @ @ O   @ @ 7 N 3 @ > > @ % @ @ @ $ @ % > - @ > $ @ > % @ @ @ @ > % @ O @ % , >   O @ @ @ @ > @ O 2 > > < @ , > - > O & O @ @ > O O @ @ < O o @ O @ > % O @ @ > @ @ @ - - @ @ > @ o O O   @ o   O $ @ O , <   @ o @ % O o @ @ @ @ @ % > @ , o O @ @ @ O @ @ o @ % $ O O O @ @ @ O % O O @ O O o O O % o O o O O @ O @ O @ O O O > @ O O   O o O @ @ O @ O @ @ O   @ @ % o @ $ @ o O @ O o @ O O o o O o @ O @ $ O   o o o $ o $     O o O O . . $ O o o @ o o ",
"O O O   O O @ O o O   o % @ O o > o $ o O @ % . O $ O   @ @ $ o @ O   O @ o o @ .   O @ O o o O % O O o O @ O @ O O O o o O O O O 3 @ O @ @ @ % O @ , 2 @     > O @ @ O @ 2 > @ o $ @ > % o @ @ O O > 2 2 > 8 7 > @ + % O O @ @ @ @ % o o > 2 > > @ @ > - O O > O > 2 2 < @ % > - o % , @ @ O o > & - 0 0 0 7 @ # @ > > - - > > o O @ > > O o > - O > 0 h 7 2 w @ O @ > , o @ O O O @ % o > - > 2 % o O @ - 8 4 O @ , @ > - @ @ o @ @ > , O @ @ 3 % > , @ > @ @ % o > > @ @ 2 @ O @ % > < @ O O @ $ @ @ , @ 2 h d $ X % 2 @ O % > . @ 4 2 o % % O O , > > @ @ @ > > > @ @ , > 2 > @ @ @ % & o u ~ < O % , > > > % @ O @ > < > < -   > @ > @ > > O @ > @ < % O @ > @ % O O > @ O @ - 7 > @ @ @ @ - > @ @ O O @ > > O > , @ @ O > > @ O O o 2 < > > > > % @ @ % % @ % @ o > O O o @ $ % % @ @ O O @ o > > @ o O > @ % , @ @ % O @ O O @ @ O O O @ @ @ @ O O O @ @ - @ O o O % @ o @ @ o O O . o @ @ o o @ O % > O O $ O @ , O . @ @ - @ @ O o @ @ & o o @ % $ o O O . o @ $ o o O . . @ O @ o O O o .   . O . O O o o O O o O O O   @ o O o O o O ",
"o O o O O . o o   o O O @   O O O o @ o O % @     @ O % @ @ $ o O o   @ , @ @ @ O O O O $ O O O O O O @ O @ O O @ @ @ @ O $ o O $ o @ O o @ @ O O O @ @ O @ @ , @ % o @ % O O $ O % @ O O o @ O o o @ 4 4 @ - 7 7 7 - @ O % o @ @ O O 2 - @ > 2 > 7 > o @ > > O > - 2 4 2 % @ O @ @ > @ @ O @ O , % @ 0 h z 6 @ @ > O > @ @ > > @ % % > @ O @ , 2 6 h 2 > 7 7 2 - @ > @ @ > , % @ @ @ O @ % @ @ @ , @ @ > O @ % @ @ > - > @ @ @ o @ > - @ o % $ @ % > < > O o @ @ @ @ 5 2 7 7 > - < < @ > @ % % @ 4 > > > O 2 z 0 O O O > > $ , - $ O , > > > $ @ > < o o , @ o 2 % @ > - > - - > O @ < %   O 2 B 4 > - @ O $ @ $ > > @ < > @ > @ @ > $ > > @ @ > > > @ @ O O @ @ - > > 3 o o - b i - 3 O O % @ > 2 @ O o > > O @ , - 1 % % @ > > @ @ O $ @ + > @ , > @ % O @ @ @ o % O @ , O @ % @ % , - @ % > @ @ > o @ O O 3 @ @ O o O O O @ > O o O O O $ @ o o @ > > @ o @ - % O O O @ > @ $ @ @ O O o O O @ O O @ > @ O > o @ $ O O % % O @   O @ $ o O O O $ O o o O o O O $ O O   @ @ o o $ @ O $ O o O O @ O o   o O $ . O o O $ O O O O O   o o o . o ",
"o   o O .   o O O o @ O O . o O o O @ @ O O O O . O O @ @ o   O   o O % o @ > % @ @ % @ $ O O O o @ @ @ O o O o @ $ o % @ @ o O @ O O   O @ @ o o @ @ O o o o @ @ O o % O O O % @ % @ % O @ % O $ , % @ > , @ @ 2 4 > % O O O , >   % 2 @ O , 8 - 2 > o % 4 @ $ > > 2 > - @ $ o O 2 2 4 % @ > @ @ @ - 7 c 0 2 @ O $ @ @ O % < < > % @ @ > O @ @ 2 f L @ @ 2 d 2 7 5 @ @ @ > @ % @ @ O @ % @ @ @ @ @ O % @ % O @ @ > @ > > % @ @ @ , 2 , @ O @ O @ > > > @ O @ @ > @ - - 2 2 > @ @ > @ O , @ @ > @ > < - o O 2 z 6 @ o % @ @ @ @ > > @ @ 2 - - % - 7 > o O , @ @ 2 % @ % > 2 4 - % @ @ @ @ , o 0 T 7 - - $ & O O @ > 2 > O , O @ 2 @ @ O $ @ @ @ 5 , @ , @ o % > > , % @ > O , 2 7 7 @ @ % % @ % o - , $ @ > > @ % > - % @ @ O @ @ O $ % % > @ @ O > O % O @ @ @ @ O @ % % O O @ O o o , - @ @ @ 2 O O o O O O - > O O O o O o O > O @ % @ o @ O O @ O O % % O O @ > % o @ @ % @ % O O o @ O @ O @ $ O @ @ @ O O O o O O O o o O @ O O % O . . O o O o O $ o o O o @ $ @ O @ @ o o o @ O O @ o o   @ $ $ .   o o O O o O O O o O @ o O O O O o o ",
"o @ O o o O O o o O O O o O @ @   . . % O O o @ O @ % o O O o @ % . O @ % @ @ @ O % @ O O O o O O . O O @ O o o O O O @ @ & @ O O > O & o O O % @ @ O @ @ O @ o O @ @ $ O O O O o o O % O % o @ O - > X O 4 2 @ @ > o O @ $ O O @ > > O o O @ , % , @ 2 @ @ @ @ o $ > @ @ > - @ @ - @ @ > 3 > > & @ @ ; 0 2 6 - $ @ > @ & $ O > > O @ o % @ @   - 0 l > @ 0 B 0 t , > > > @ @ @ , % % , - > > @ > 1 o @ % < > > - , @ o % , , @ < O @ > > @ , @ O > - 2 > @ @ > - O > 8 4 . O % % @ - @ @ > - - % O > > 5 @ 6 z d 2 % o % < > $ @ , @ @ > @ @ @ > 3 % > , > O @ > @ > O @ 8 > - @ > @ > % O @ z 6.5 o 2 > O O - - @ > @ @ > @ - @ > > > @ o > - > @ > 2 @ @ > > > @ @ & @ 2 0 2 @ - $ o % > > @ @ > @ @ > , O @ > @ @ % > $   O O 2 > o O > @ > > @ $ @ - > O O > O @ @ @ @ % @ O O o @ > @ O @ O % $ $ @ o O % @ @ $ > @ @ O O @ @ O % @ @ @ o @ @ O O O @ & O % @ @ o O o O @ @ O o o @ % o o @ @ $ o @ @ @ O > @ o $ O @ @ O $ o o O O $ O o   . . @ @ O O   @ O     , O O @ O @ @ o O o o o $ . o o o @ O O o @ @ O O . . O @ @ O o O o o O ",
"O O O O O % o O $ o o o @ O $ O o O O @ o . O % @ @ @ O @ o o $ $ .   O O @ @ O o O o O O O O o , o @ @ % o O @ O @ O % O O % o   , @ o o O O % @ @ O , O @ , % @ @ @ @   O O > @ @ o O @ , % . o > @ . o > > > , @ % @ O   o % @   @ , @ @ o @ o o @ - @ % o O o O @ @ > > - , > - > , > @ > % % o @ 6 V 7 2 > o % @ % @ @ O , < , @   @ > , @ > 2 @ % - 0 F x 0 @ - 2 2 o $ @ > @ - > 2 @ @ 5 @ - > @ > y > > > > 2 % O @ @ @ @ @ @ % @ @ , @ @ > - - 2 > O > - % @ 2 @ o $ % @ - < , @ 5 2 > % O % > - > 2 N f - , o @ > < @ @ > - > % O @ - % @ @ - @ @ @ @ @ > > o @ , - > @ @ > > > @ - T w.2 o @ > O @ - 5 > - > @ % @ > > % O > > @ O > % @ o , @ % % > > o @ @ - 7 q 2 O O % O O > > @ % @ @ @ @ @ % 3 > @ % > @ > % % o % > @ @ @ $ > % @ , 2 - > @ @ @ O @ O % O @ % @ O O > % o o @ O @ 3 O O O O @ % @ O > @ O O $ O @ @   @ @ O o $ o o O o @ > > @ o O > O o @ % @ % o @ @ , @ O % O o O $ @ @ o @ O @ $ @ O O O o O O . @ @ @ O O o O @ > @ o o O % @ o @ @ > O o o O O O @ O   @ $   o   O O O o o     O O o o @ o o   o o o o ",
"o o O O $ O @ o   .   o @ O o   o @ @ O O @ @ @ O . o @ O $ &   o O o O @ O o $ $     O o o O @ @ O O $ O O % O O @ @ @ @ @ O O . @ @ o @ O   O @ o o o o O O , o O O % o - , @ @ @ O o O @ % @ O @ % O @ @ @ > > - @ , % @ > @ O O @ > > @ % > @ > 4 @ @ % @ @ > @ > > > > @ @ , % - > 2 > % @ O . @ 9 v 0 @ @ @ @ > % @ 3 > @ @ > @ @ % > - % @ o @ > - - z F d @ @ - 1 % @ @ @ @ @ > @ O , 5 O - , O > 2 > O @ - - @ O % @ > > & O @ @ > - % > - 2 > % % O > > @ @ 4 2 @ @ @ @ > @ @ O 2 2 - @ $ @ @ @ - 0 B h % o % > @ & @ 3 , - 2 7 , @ @ @ @ @ , % % O > @ @ @ @ o @ < 2 > 1 % @ @ - 2 h U 7 > > @ @ @ @ , @ > > > @ % , @ O @ - > % @ % @ @ @ > > @ @ > @ O - 7 6 0 - > @ > > > @ @ > @ @ - @ , - - > 4 > % , > + , 2 > @ . @ > @ % O @ @ @ @ @ 2 > O % O o $ O $ @ > > @ O % > % O o % @ O @ @ @ O > @ @ @ O > > o O % O O @ o o @ @ O @ $ o O O @ @ @ @ @ @ % > % o O   , @ o O @ O % o   > $ % O O O O O @ @ @ @ % @ % o o   o O @ O @ O O o O O o @ o @ @ % @ O @ O     o @ O @ O @ @ o @ @ @ O O O O O o O o o o O $     O O O O O ",
"O . o O O o $ o O O o $ % O o O O @ O o O @ @ @   & @ , o o o   . O o @ @   O % @ o @ O   o % @ @ @ O O   @ > O @ 3 @ o & O O O O o O O O o O 1 @ O O O O O @ , O O o $ @ @ > O @ @ O @ @ % @ @ @ o @ > @ > % % > @ - @ @ > 4 2 @ O o @ @ O < < @ 4 > @ O > > - 2 > @ @ > > 5 @   @ @ 2 4 > @ @ o O - 7 x 6 > @ $ @ @ O @ > > @ O 2 4 > - > > > $ % @ > > - q q 7 % - % $ @ @ % @ > < &   % > @ O 2 @ @ 5 4 > @ O % > @ > @ @ - 2 o O % > , > @ O > > @ % % O @ - - @ 4 - 2 2 > @ @ @ , > > > @ > % > @ > > 0 N N @ o > 2 > O > @ - @ @ > - @ @ < > @ @ > % O @ O % @ @ @ @ > 2 - - o > > - ; z W y @ O > 2 8 3 > @ < > @ % - , O > @ @ % @ > @ o @ > @ > % % % - 2 7 u 6 @ O > - > @ > > @ @ O @ % @ > > @ > 7 > O @ + 5 , + 7 u O % 6 2 > O - 8 7 4 > 2 > @ @ O O O @ @ > > 2 - @ o % @ % @ , , @ @ > % @ O @ > % @ @ @ @ o O @ o O @ @ % @ o O $ o O & % O > , @ @ > @ > @ @ O @ - $ O O O % O $ @ o O @ @ O % O @ @ @ O o O % O o O O % @ O o O @ $ % O O O O O @ o O o O @ $ @ % O O $ o O @ o @ O @ @ $ o > o o O o @ O O $   o o O O O % ",
"O   O O   @ O o O o O o % % @ O o O @ O o O O @ > $   O o O   o   o   > O . . o @ O O o $ O O O O , @   O @ @ o O O @ o . . o @ @ $ $ o O $ O o % $ O & > o $ O @ O O @ @ @ @ @ @ % O @ O O O @ + o @ $ o - , O o @ @ @ @ % O > 4 O O % > @ o O > @ @ @ > O o > % @ O % > o - > @ o O > > 2 2 > @ , > 9 F F 7 @ % 2 > @ % , > @ > % @ > 2 @ > % O % @ @ @ 7 w > O > 4 , O @ > > % @ @ o @ , , @ 3 > @ @ > - @ > @ @ o O > 4 > @ > @ O 2 > @ @ % % @ > @ @ O o , - - > > @ < @ @ @ @ @ 8 2 @ > > > O @ 5 > 2 0 Z z 2 , @ > , @ O O > > @ @ - > > % % @ @ - > @ > @ > > > > o @ > > % > > > > - V ) y - - @ 2 , @ o > 4 O o 3 > @ @ - % O @ - @ , O > @ , @ % % @ , 0 0 > @ @ O % 4 4 % O > > @ @ % > @ @ > @ @ - 2 - @ O > > @ 2 7 > > > 5 > 7 7 0 7 > @ @ , > > % > > > > > @ 2 > @ @ O @ 4 > @ , o @ O @ - @ @ @ O $ @ O O O o O $ o @ @ @     o @ > > @ o @ O , - O % O @ > % > @ % @ O $ o @ @ O @ % @ % > O O O @ O o $ o % @ O O & @ o o @ $     @ @ o @ @ @ o O O   o O O $ O % o   o o O     o O o o O o O o   O o     O o O O   o O   o ",
"@ . .   . O o o O @ % o o O @ @ o O o o O @ O - 2 @ o o $ o o $ @ o o > ,   O @ % > @ o @ @ O O . @ O O $ o O O % o o o o o @ % % $ o @ @ @ @ O @ @ @ , > @ @ O @ O > % > @ O @ @ @ @ O @ @ , @ % @ @ o O > - O @ O @ @ @ % O > > @ % @ > @ O > > @ O @ @ o % % o O o o > % > > 4 , % % 7 4 > > @ % + 0 S z 6 @ @ 4 2 @ @ @ @ < > O o > , @ % @ @ 2 @ O @ 7 h 2 o 2 4 O O , , @ @ @ , % @ @ o 4 - % @ - > > @ < @ o O , > > > @ % @ > > > @ % > O @ > > 4 $ O @ 2 2 2 4 O % @ @ @ @ > > > @ O < - O % 7 2 > z ~ N 7 - O > @ > @ > @ % & @ > > - > @ % > - < @ > O > 7 @ > 1 > % > @ 2 2 @ @ @ A ) 4 @ , @ > > @ > 2 @ @ @ % > 2 % 2 > o o , - % O , 4 @ % > > 2 4 0 2 @ @ , , o @ > @ @ @ > > > , > @ , 3 @ @ > 7 7 < @ @ @ , t 7 0 7 o , 2 0 0 h 2 2 > @ @ - @ @ > - - @ @ @ 2 - > , O @ 2 2 @ @ @ @ - > < > @ @ @ O @ > O o @ > O % O % @ O . o > > > @ o $ @   @ > o O > @ o O - @ $ O o @ O @ o O % @ @ @ o O O @ O   o > @ @ o @ @   o @ > % O O O @ % @ % @   @ @ O O O @ , @ % % O o o $ O . O o O O   o o O @   . O o o o o O .   o o O ",
"O . o O o o O $ @ O O . O @ @ , O @ % O o $ @ @ @ O o O % o @ @ @ O - @ @ @ - - O , @ - 2 o @ @ @ o @ - > @ @ - > O , - - > @ % O   + 2 - o - > @ @ O @ @ @ + @ @ @ @ @ @ o @ @ O @ + @ @ - @ @ O > > @ @ % % - @ O O O O o @ @ O > > @ > 2 @ , > @ % > < > > @ , @ @ > , @ > @ > , o > > @ @ @ % @ @ ; z h 6 @ o O 2 > < @ @ > . - % 3 - @ % % % , > < > 2 2 0 h - > o O 2 > @ @ @ 1 @ - , - 5 @ % @ > > @ o % o > 2 > > - - < @ O @ - 2 @ @ 2 % > 2 2 > @ @ 7 2 % 2 5 - < , @ @ > < @ > @ @ , 2 @ > > 2 0 N E z - @ , 2 @ O , @ @ 3 > @ 4 > @ < @ @ < - 2 , % , > - @ @ 4 > o O @ @ > 3 @ - N ) 4 @ > > 4 5 % % O @ > 4 > - > - 2 @ @ , @ @ > > > < - 2 > - 6 7 0 > > $ @ % > - @ @ $ O O > > 5 2 @ > % @ > > > @ @ @ @ @ @ 2 0 q 2 > 2 6 t 8 @ > > > , @ % @ @ @ % - @ o O @ > @ % O @ > 2 @ @ @ > - 2 2 > @ O o $ @ o @ O O o , > % % o o 1 % @ O @ > @ @ @ @ O $ > @ - - 2 2 2 @ 2 2 o o - > @ > > ; 0 6 o 2 + @ - 2 - 2 2 - > - @ - @ > @ 2 < > > 7 - @ O @ > > > - O @ @ @ @ @ , @ o o o O O @ O o @ O o o @ @ o o O $ o o O @ o   o o O ",
"O O O @ @ O O o @ O     @ @ - O o @ > @ @ 2 > O O & @ > O % ,   % 2 3 @ O < 2 - @ @ > 4 7 > > > 7 > < 4 7 7 2 - 4 > > 4 7 2 > % O & 2 2 q 8 % % < @ % % , O $ $ > , @ 3 5 % 5 > , 5 > > @ 2 > @ o   @ > @ O O @ 2 > O o @ O @ @ & 4 2 @ @ > - @ @ @ 4 - 2 8 @ @ @ , @ > % @ % , , @ @ @ > > & % @ O O 6 h 2 > > % O $ @ > @ 2 @ O u 2 > @ > @ @ @ % 5 > - O > ! W 2 @ $ % @ > % , % . @ > - 2 4 o O @ 2 @ O O . O < - @ @ @ @ % % & @ 2 > > > @ % 2 2 2 , o @ l @ O @ , > - @ O > y > O O > > - 6 @ 4 @ u K 9 N Z > , > > @ O , > 4 2 4 @ 2 > @ @ , , 2 > > - @ > > > $ > @ 4 @ & $ , > @ > 2 } W 4 @ % , 2 @ @ @ % > q 7 7 7 > - , , > < > > % @ @ < 2 7 t 2 7 v v 7 2 @ o @ > % , o o $ # - i q 7 > $ O @ , > % o , 5 - @ O 2 h 2 - 6 u 0 2 O o O % - > @ % O o O O @ , O o % > 3 @ O @ @ , @ @ % 4 7 2 7 4 ,     * $ & @ @ > @ @ @ @ o & @ > @ @ O 3 - - 5 % >   @ > 2 4 4 7 0 y 2 V h 8 , 8 7 7 q 4 0 d h - 7 4 7 0 K d 6 0 u 0 8 7 4 4 4 , 0 0 0 2 7 6 2 > 2 3 2 4 2 > > > % O $ 2 2 @ O o % % @ O O @ o O @ @ @ @ $   O @ O @ o O o o O   ",
"o O o O O O O o O O @ @ > - % @ % @ - 8 > 3 > @ ; > > @ > 2 4 2 6 7 7 7 2 - 7 7 2 7 7 2 2 2 7 7 h > ; 6 0 6 0 0 h z 7 ; 2 6 0 2 z V d q i h 0 d z z 9 h V z z N N N z f Z N f z f z f z d h d N I 6 > O   @ @ $ > @ @ , @ @ % O . @ O @ @ % @ @ $   O 1 O @ > > @ > - - - @ @ % 2 > 4 2 - , % > ; 7 - 6 v 0 : - @ @ o > @ @ > 4 0 4 @ O @ @ @ - > > > o & & 4 F 0 0 w @ > < - - 3 5 o 2 2 @ @ 7 q @ o , O > > @ % > - 2 > % 4 - , 8 - 2 @ , 2 - > > $ o h ~ C u 2 0 h z 0 2 @ > @ % , O o 2 6 - O > 2 > , 1 d W C > O % @ > & @ > > > % % , - 2 - O O > > > > 4 @ 4 4 - , O O - y $ > > & @ 2 ( O.& @ - @ O > 2 > @ , 1 O O @ 4 6 % % - < & o > $ @ , O - 0 7 0 u f q > O @ @ O O - % O , 2 6 7 y @ o - % O O 4 - % % 2 - 4 < O > > 4 2 @ $ $ @ $ O o > @ @ 1 @ @ % % @ o @ , - @ 7 2 - > < @ @ d I Z d 9 z d 0 h z f 7 6 q u t % - @ @ @ > @ , 2 > 4 2 2 7 2 - > 9 0 0 7 4 7 6 7 0 7 i 7 h h 2 , u 6 < 2 y 0 7 t 7 t l 7 - > 7 7 > , > > > 2 > 2 8 > 2 8 2 7 7 7 @ 2 4 , , @ 2 0 > > 2 6 0 2 @ > @ O > @ % @ O . o O o O O @ O O   O O     o o ",
"o @ O o O O O O o o O @ o @ @ O O - - - @ O @ @ , ,   @ , - > 2 - - > - @ @ @ @ > - > > @ 7 7 2 > - 2 2 - > 2 2 2 7 4 - - 7 2 2 2 7 7 2 > 7 2 6 6 u 7 6 2 u 0 6 0 0 0 7 0 7 0 7 0 u 2 7 0 2 2 7 z x d @ O % O o @ , o % O @ > o o @ O % @ @ > , O   o > @ > > @ % > > > > % > @ % > - > > @ @ 2 2 2 2 d z 6 - > % @ @ $ @ @ @ > 6 @ > > O @ > > > < @ - 7 q 6 h 0 u 0 2 > , > > > O @ 4 @ - > 7 2 2 @ @ @ > 4 4 2 @ > > @ > > @ > > > 5 @ , > 2 2 % @ @ 7 ^ F d 2 7 t u 0 2 1 @ @ @ > > O 5 7 - > - > > @ @ 0 W [ 7 @ > > @ @ % , - - @ @ @ @ 8 7 - > > > - - 2 - - , > @ < , - > @ 2 > % % 6 Y 1., > 4 > + , 4 > % @ @ o @ 2 > > @ @ > , - > < > @ > > 2 2 7 d h - 4 > > < % @ O @ @ > 2 2 7 > >   O 2 > @ @ > % @ 7 c 0 0 7 @ - > 2 > @ o O , @ O O 3 > O @ O @ @ @ % o @ % - @ , @ @ , @ @ 0 Z S 0 7 7 j 7 6 2 0 0 - - 2 - - @ > @ > , @ @ @ @ @ % @ % @ > > @ 2 7 2 2 - > @ 2 4 > - > 2 > @ o 2 @ @ @ @ @ @ > - - @ @ > > @ % @ @ @ @ > 2 @ @ - + @ @ @ o @ @ @ > - @ O @ @ > @ @ @ - > @ @ - O O @ O @ O o O o . o O O o @ @   o O o O O O ",
"O   O o O o o @ O   O @ $ o o O o > @ @ @ O O @ @ O @ % @ o   > o O O % @ O @ o O @ @ O O @ @ % o @ > % @ > @ @ @ - > @ @ > @ @ O o @ @ @ O < > o @ @ @ @ - @ + - @ @ O @ @ - - o @ > > - > > > > N z d >   $ O o o O < @ > > @ % > @ % , @ @ @ @ $ @ > > @ @   @ @ > @ @ > - > @ > - @ % @ > 2 @ O @ 0 S h - @ @ > > @ @ % % > @ o > > > @ > > > O @ 4 B E 9 2 u h h 2 > O O 2 > @ @ > 2 6 l - > 7 > > - - 2 4 2 > % $ % @ O > - > > , o > 2 7 4 @ @ 2 2 2 h V u 2 2 @ > < > @ @ 2 2 2 , @ > 2 2 > > @ @ > ; f } F 6 + @ 2 % @ > , 4 7 2 - , > > 2 u > $ @ - 2 4 $ @ - > > 2 2 > > 4 @ O @ 7 ..1., @ 4 $ > > ; 4 @ - O > > < - @ 2 5 $ o 2 4 O @ @ @ 4 > ; l 0 4 O @ % > > @ @ @ 1 4 7 h 6 2 @ @ > @ - > @ > O O - 0 z h l 7 > > > > @ @ @ @ @ > > @ % @ O > - > % @ % % O @ - , % o o o - 0 R C , o > > o O @ @ O @ @ @ O O O O @ % > % @ @ @ O o o @ @ o @ @ @ @ @ O @ , @ o O O @ > @ O % O o - % O - @ O @ O @ % O @ @ O % O O @ @ O o @ @ O 1 O O @ @ O o @ o O % @ % @ o O O @   o O @ O O O   O O o   @ $ o @ o O O @ o @   o   o @ o o ",
"O O o O . o o O O @ o . O o O o @ $ O @ @ O o O   % @ O o o o @ o o o o @ O o o O O $ O o , @ @ O @ @ o O o @ $ O % O   @ @ % $ O o @ % O @ @ > @ o O @ > @ $ o % O o o   > @ @ @ @ @ @ @ % > O $ ; h Z 0 @ $ O % O O > @ @ - > - > @ @ > O @ @ > - @ % - @ @ @ > @ @ O $ > > @ , O @ @ @ > > 4 @ % > 0 F d - O % > > > % @ @ @ @ @ > , > > 2 > 2 @ @ 4 d G z ; l D d > > % - > > > @ @ < t 2 2 2 2 - y @ @ 2 2 8 @ o % > O , > - > @ @ < , > > > > @ > - - 6 h 7 > > @ 5 > @ > 2 % > 2 2 4 @ - - @ > 2 @ @ 7 6 f W Z j - > @ > > - > 4 2 > @ O O 2 t > @ @ > 4 > $ @ > 2 > @ > > 8 - - 1 o 7 +.;.5 2 > > 2 8 4 > > , - r % @ > @ > 4 o o > 2 > > % > > j h h 7 % O O @ > > @ , @ > 0 0 q 2 @ > , > > o @ > > O % q 0 6 6 7 > > 2 @ > > @ O % @ > > - @ > > % , - , > > % O O > - < @ @ @ 6 B ! 0 X O % @   @ % @ % @ O > % O @ O O % o o @ > O O O @ @ @ @ @ @ @ @ @ % @ @ o @ $ O o O O o % O @ % O @ > @ @ O $ @ O @ @ $ O O O O @ @ @ $ O o O O o O o   O O @ o o o O O O o o O O   O O O O O   O @ O O o @ O o O o $ O o o @ O o O O O o o ",
"O o O O O o O @ O @ $     $ @ o @ $ O o O o O O O % @ o o o   O @ O . o o % o O O o     O O o @ @ > % @ @ O o o o % O @ @ o @ % @ O o O % % o > @ O & O o o @ @ @ $ @ @ @ @ O @ @ @ @ O @ O @ @ o o - h z 0 2 O , @ - @ @ O O O - @ > > 4 o o - > > % @ @ > @ % @ % % , > > > > @ O @ , - > 2 > > , O 9 V j - @ > @ @ > > % o % 2 2 @ @ @ @ 4 > > - < > + 0 x u k A 2 O o > i , > - @ 2 > > > y 0 > @ , @ > - @ % % @ > 2 > @ < - @ > @ 4 > o @ , @ , > - 7 2 2 @ > 2 @ - - - > < O O 7 h 2 > - < < @ - 2 @ 2 6 7 z T N q @ O > 2 @ > > 2 > > @ > @ , > > - $ % @ > 2 2 > > > @ > 2 2 - < o 0 :.w.a - > @ > 5 @ 5 > @ 2 o > 4 - i - @ y 8 @ @ - 2 $ @ - h h 8 , O @ @ > @ > > @ @ d Z 0 q 5 , @ @ 3 > @ @ @ , o 3 7 2 u 0 2 2 @ > % @ @ @ O O @ , @ 5 2 - > @ > > @ o > > , o 2 @ < > - h G F d @ O @ @ @ @ % - @ > % % @ @ @ > @ % @ o @ > @ o & O @ > > > > > , % o @ @ @ O @ > % O O @ % @ O O @ % % @ % > > % O O % @ $ @ O @ @ O @ O . $ o > o @ % o o @ O O % O O % O O o @ o . & @ o O   O $ > o   o $ @ . O O O O O o O @ @ O o $ O @   ",
"O . @   o o o % % % O o o @ @ @ @ @ @ O O O % o o @ $   O O O O O $ o O O O O O @ O o @ @ @ o @ % > @ @ % O o O @ O @ % O o @ @ > O @ @ @ @ > @ @ @ @ o o $ @ @ @ o % @ > @ @ % > > @ > @ @ @ % O O O 2 0 N d 2 @ @ 2 @ > @ @ O , O - % @ % O > 8 @ @ - > - % % @ @ O @ > > @ % @ > @ > @ @ > - 2 1 @ 6 d 6 - @ > > @ - > > @ > 2 - > @ , > 5 @ - 2 > , @ > 2 u x u 2 o @ > 2 @ @ > - , @ 2 6 6 d @ @ % , , O > @ % - 2 8 @ o 5 2 > > 4 - > @ > > - , % , 4 2 3 $ @ - > > > < 4 > o > 0 6 > > < @ O - > 4 > @ > > > N W C 8 O > , o 2 > @ - > > 2 O o - 4 2 > > > - > 2 > - > , - @ > , @ 6 D ,.) - o 4 @ @ @ 3 2 > 3 e @ > 2 - 4 5 - 2 2 @ > > > @ - v d 7 % O O > > > , , > 2 2 B E 7 > - + @ 5 % @ , - - - > > 2 7 u 2 7 @ @ - > 2 2 @ O , > > @ > > - @ , 2 > > @ @ % @ @ @ @ @ 2 x C B 6 @ O o - > @ @ @ , @ @ > % o O @ @ @ @ @ , % @ % % % o % > > > 2 > @ @ O - > O % > > O @ @ @ O O @ @ > @ @ o > > - @ @ % @ @ @ @ @ @ O @ @ @ o o @ > @ O % o $ > O @ O O O . $ O % - O O , o O % $ @ @ @ O O $ @ o % o . o o o . o o O $ O O . O O ",
"O O O O O O @ O O o . @ % , @ % O o O % @ @ O o o O   O O % o @ % o O > @ % @ O @ @ > % O O % @ @ O @ @ o O o % % O O @ @ @ O @ @ @ @ > @ % @ > - @ @ % > > % > > O O @ @ O O @ , @ @ > > @ O @ o @ < @ @ B Z f 6 - @ O < > > > @ & @ o > > - @ @ @ > 2 2 2 - @ 2 t > O @ @ @ % @ > @ @ , 2 @ > - O 7 z B 0 @ O @ > @ @ > > > > O % 2 @ > @ - > @ % @ - > $ @ @ 2 o O % @ O @ 8 > @ % , o 0 F h ; $ > % > @ O , > 7 2 - % O @ > > @ > - - % @ , > 4 7 - , @ 4 < % > 4 > - % , > @ 7 u - 7 7 2 2 2 % > 2 > > , , % O 2 ! ~ x 4 % O # @ 4 - @ > 8 > , , 2 > > - 2 4 4 2 > 2 < - < 2 > $ % 2 Y W z 9 % > > < 2 - 2 > @ - @ > 2 7 - o 7 4 O > 7 7 @ @ ; N F k O % O 2 % - , @ O > 0 z f z 6 2 2 6 > - % @ > - 7 > @ > 2 2 0 7 6 4 > > > @ > % > > @ 2 > - % , 4 > @ @ O > > @ > % O . O 6 C C 6 O % > 2 @ % & @ @ - @ > @ < > o $ O % > @ , 1 @ @ @ % @ % @ > - > @ O @ % @ > - % @ @ , > O > @ @ @ O @ @ < > O @ > > O @ O o @ > @ o $ > % % O . @ O % O O @ % > o @ $ O O o   $ @ @ @ @ o O @ o o @ O @ - @ @ $ O O O O o o @ @ O o o O o O O o o ",
"O O O @ O $ @ o   o , > @ o @ @ @ @ @ @ O > O @ O $ . O O @ O $ @ O O O @ @ o O @ @ > % @ O @ @ @ o o O O @ @ > > O O @ @ % O $ o , @ 2 @ @ > @ > @ O > > % @ @ @ O o % O @ @ O $ O , @ > > @ @ % + > &   2 z Z z u @ O @ @ @ , O O o @ % % - > @ 2 - 7 6 - @ @ @ 7 > $ O @ > @ > > @ @ @ > > > - & - z B 0 - & O 5 > @ > > 4 % % > > > % > > 2 @ @ > 7 2 @ % O > O $ - > % , @ > > @ % @ 6 h z 9 $ @ 2 @ > - - 2 7 2 2 @ % - > > > - > > @ > @ > > 7 - > - - - , 2 @ 4 , > @ O t x f > 5 > - 4 y @ < 4 > > > @ % $ @ h T z 6 7 d @ > 4 a > % > - 2 > @ @ > 4 4 7 4 4 2 4 > > 2 @ @ @ 2 N +.N 4 w % 2 > < y w @ 2 4 2 > < > 2 4 & 2 - O > 2 7 % % h W z 6 @ $ @ > , < @ $ @ @ 0 S 0 u 7 ; 7 t > , 2 @ > 2 - 2 > 2 t j x x 6 > @ > - > > @ @ @ > > > @ @ @ > > , @ $ % @ > > > O o u z z j @ O @ @ @ 3 O O & @ @ , @ o < @   & % O 2 > o @ o O $ @ @ % % $ @ @ % $ 4 > @ > % @ @ @ @ @ @ @ O o @ O @ o > > @ 5 < O O @ , O @ , O O @ % @ @ @ @ o @ @ O O O o O O @ O o o O O @ O   @ @ @ @ O . o @ $ @ o , % O $ @ @ o o O $ o $ O O o   O @ o o ",
"o   @ @ o o O @ O @ % O O % O o   @ O > > O o O O @ @ o o o @ - @ o $ @ $ @ O O % @ @ O o % % @ @ @ O - O @ @ - , @ @ % > o O @ @ % O @ > @ , - @ > > , O @ - o @ % > > < O % > @ , @ @ > > @ O > $ o @ $ o O 2 z Z 7 @ * $ > < 2 o < > @ > - @ - 7 2 > O > 2 + 4 - > 2 > O @ @ O & @ > - > , > @ * o f D d 2 @ , > > 2 2 5 2 > 4 @ @ 2 4 @ < @ @ 2 2 4 2 < > - > 4 2 > > > 5 o $ % > - @ 2 2 2 0 $ @ 4 > @ @ > , @ 2 2 7 4 > 4 > > > > - > , @ > 2 2 0 > , > - 2 > > o > y @ - 7 0 7 ; 4 2 4 - @ 4 i 7 - % % 2 , @ 2 7 z A Y +.w.y > $ > > 2 > - 2 2 O , 4 2 2 - > - > > - 7 4 > @ 0 Y :.h O 4 @ 2 4 @ > 4 > 2 j 4 2 7 4 % O > > < > - > @ 1 5 @ 6 Z z 0 > 2 5 @ @ > > 4 > - 2 7 - - 0 7 @ @ 4 2 @ @ @ + , @ @ 7 6 0 f v 4 o @ , 4 @ > @ - < 2 > - , > % @ , @ - O @ @ 4 @ < 4 6 x B 6 @ @ < @ @ > % O @ , @ > % O @ > @ O @ , > @ O O O o > @ % @ $ % @ O @ 2 > @ , @ > , @ > @ @ % o > , > % @ O   , > o > > O @ @ > @ O % @ % > O O o @ & @ @ @ O O @ @ @ @ $ @ O @ @ o @ o o     % O O   @ o o o @ > @ o O @ > % O o o O o @ O @ O O O . O ",
"o O O $ o O O > O O   @ @ O O @ o O O @ O o $ @ @ o @ @   @ @ % @   @ @ O O O O o @ @ @ O @ O @ ,   @ > @ @ - > @ $ @ % - @ @ @ @ - % O @ > O > > @ - @ o @ @ @ @ > > @ @ - - - @ O @ 2 - @ > o - > @ > O O , @ 6 x F 2 - @ @ @ @ @ @ @ @ , > 4 - 2 4 O O < < @ 1 2 - 2 7 o > @ >   @ > - > > O @ , - 0 ^ N B 6 - @ - 2 4 - @ , > , - 4 > @ - > > > 2 2 > @ > 2 < 4 - > > O @ O % @ 4 @ @ , 2 7 M o @ - % @ > 4 @ @ 3 - 2 > @ 2 > $ @ y 2 > 8 % > > 2 4 2 8 - 8 @ > > > > > 2 7 7 - 4 2 2 t 7 < @ - > 2 2 > < 7 @ @ > 2 6 h N ,.:.7 @ > % @ > , > > < O > 4 2 > > O 2 @ 2 6 > 4 % > C :.W @ . 7 j > > 7 > > > h z 0 : t 2 % > , 2 @ > 2 2 > @ 5 @ 0 F x 6 > 2 > , > 4 - 4 i 2 > < @ > 2 2 @ @ , - @ 5 7 - @ O O 2 h h v 6 @ < O % 2 - > - > > @ 2 > 2 2 < 2 O - > @ @ > , @ 2 Z N z 0 + @ > - > % - O @ , @ @ @ @ @ @ @ @ @ @ > @ @ @ o O @ @ @ , @ O % % O @ > > > - , o @ @ @ % > > O @ & @ , @ @ > - @ O O > o @ % @ @ @ > @ > < O O $ @ @ @ @ > @ @ O O @ @ % $ O O @ O @ % @ O   @ O o o O O     @ $ O $ @ O @ @ o o o o O   O o o o O . o ",
"@ O @ O o o O O O @ @ @ @ @ @ O o @ O . o O % O % O   @ @ O O , > . O O O O o @ @ O O , % O @ O O @ @ @ 3 4 - 2 > @ > > O O @ O O @ % @ @ @ @ > @ > > @ > - @ > @ @ @ O % , + @ % @ % > @ @ , @ @ - , @ @ , % @ @ 2 N G 9 - O , + @ , O O , 2 2 @ @ @ , 3 @ > O @ > % @ > , > > @ @ > > > > @ > - @ > 2 z N ! N 0 @ , > - > % , o , @ > > 2 > 7 > @ > 4 - - > > > @ > 2 2 @ @ @ @ - > % @ - 7 c 6 2 > @ @ > 2 > > @ @ > > @ > > 2 & @ > - 2 2 - > 2 @ > > 2 2 4 @ @ 2 7 2 2 2 > 6 > > 2 2 2 2 < > 2 - 5 > > 2 < > > 4 < @ 2 S D Y 4 - 4 , @ > - $ @ @ > < @ @ 2 2 @ w - 6 5 @ @ 7 ! ) D w < y 2 6 @ 2 i @ * > Z N h 2 2 > @ , > > > 4 @ - 0 8 @ o 6 ~ C 7 O % % @ @ 7 > 7 u 2 > - 2 @ @ % > @ > > , > 7 2 @ O > 7 0 j > O @ % @ @ @ 2 5 @ - @ > > - - > - - - , 3 - 2 - O @ 0 W Z 2 O @ , @ O > , @ @ @ @ % @ @ @ > O O @ > > % @ > , O % @ > @ @ , @ @ O @ @ @ > > - @ @ % @ @ $ @ - @ @ O @ < @ % > > < %   O % > @ O > @ @ O O - @ o @ @   @ O @ @ o O @ O @ , O O @ O O o @ O O o O $ O o $ % O o O @ o O $ o o O O   o O o $   o O O $ o o ",
"@ $ @   O O @ % o @ % o o @ > @ O $ o o o @ @ @ @ % o O @ @ @ @ @ @ O O o o $ o $ O O @ o @ @ > O o @ O @ @ - 4 - @ - @ O O & O , > O O o @ , , @ @ @ @ - @ - > - % @ % @ $ @ % O O @ @ @ @ % > @ , @ @ > @ @ @ O @ 6 C Y 0 O @ $ @ , O O > @ > > @ @ > > @ , % - > @ @ < % @ > @ > 5 @ o @ 2 2 @ @ 2 > 2 z T ~ / 2 @ + > @ % @ O @ > @ > 4 2 2 2 O @ < > > 3 - , $ @ < 2 @ < 2 2 > 8 @ @ 7 z u 6 4 2 @ @ 2 @ w - % O > > @ < @ - , @ > 7 2 , 1 < 2 > % O > 7 - @ O > > 2 > @ 2 8 > > 4 > - > 2 2 > 5 % o y > - , 2 > > @ > p h z u 4 - > > > - % 2 7 4 @ % , 2 4 $ + 8 7 O @ 7 B +.! 2 % - 7 7 2 % > 2 @ O @ Y +.B 4 > > > , - 7 @ , > > - > $ @ 6 E E 0 @ $ @ , 4 i 6 - > > > 2 4 2 , 2 5 2 > - @ @ > - - 2 2 h 0 2 @ O > 2 2 2 @ @ > @ 1 @ < > > > O @ > 4 > 2 , 4 + 2 h R D 0 o @ > @ @ $ > > > + O @ @ , , - % @ % @ @ @ % O > @ o @ > > % @ @ @ @ @ > 2 > % - 2 @ @ @ > @ O , @ @ > > O % @ O > 2 > O @ @ @ @ @ @ > > @ $ O @ $ O O @ o % @ % % o O @ O @ O o O @ $ O % O O % @ O O O O O o $ @ o . O O o O o   O O O o o $ O O O O O o o ",
"O O O @ @ @ O @ @ O $ o @ % @ O @ O @ % > > o O % @ O O @ @ O O O % @ @ o O O @ O @ @ O @ @ @ @ % $ @ % @ o @ 6 2 @ O $ @ > @ @ - > @ @ O O @ - @ @ @ > - 2 2 @ , @ @ > > @ @ O @ % % @ @ @ > , > % > $ @ % @ @ > > > 6 F z h - & - 2 O @ > @ @ @ @ % % @ > o - 8 > > 2 > % > % > @ - , % @ 2 4 O @ 2 % > + 0 z T Y d @ & @ % > < > - > 2 , > - > @ % O @ 2 > @ O > @ , > - 4 > > - > @ 2 2 u 0 0 2 > @ - , - > @ 2 > @ O @ , % @ @ @ % % @ % @ > @ , , > > 2 > > % > - 2 > > 2 > 7 7 > % 7 7 2 7 @ @ @ - i 7 @ , , @ 2 @ O 2 C +.h 2 1 > > y > - 6 j > @ 5 8 % , 2 7 2 , O 7 ..1.C 2 @ > 4 - > 2 % - 2 2 @ 6 I ! h 4 , > 2 > 4 > 0 8 > 2 > , @ @ 6 N z 6 > < - > 7 7 2 > % % @ > % > > 2 2 > @ > 2 > @ @ 7 z f h 0 @ O @ 7 2 - @ % % > 2 @ > y > > > @ , 5 @ @ @ o O : z Y V 6 @ @ < > @ - > % @ , > % @ @ > > @ O $ 2 % @ o @ > @ @ @ @ < > @ O @ > - @ @ > @ > 4 4 @ > @ > @ > O @ % > > o @ @ o % @ O % @ > @ - y 2 > % o O O o @ @ @ & O % , O O O @ @ o $ % @ @ @ o o % @ O % > % o o O .   o @ @ % O $ O $ o o o @ O @ O @ O o o     o o ",
"o o O @ % O @ $ O O   o @ @ O @ @ O % O @ @ @ O @ o % % O @ @ O @ % @ @ @ % > > @ > @ O o @ O @ O > > O O % 2 i > o   O > i - 2 7 < @ @ @ @ @ 2 - > > > > - > @ - > > - @ @ % > , @ O , @ < > O 4 @ O % O $ > > - 2 % o 7 C C 2 o ; - < > > > > > 2 @ o $ @ , 2 > > 4 4 @ @ % @ @ @ @ > - > > % % % @ @ > 1 - 6 z ( B 2 @ O - @ 2 > @ > > @ - , 2 , @ o > > 2 % O 7 4 > - > 2 2 4 > > > 4 2 7 7 7 > > , @ @ > 2 @ > 2 @ % > 2 > , < > @ > > > @ 5 @ @ > 2 > > 4 u 4 - @ % % 7 2 - 2 2 % @ > 2 7 2 % @ , - 2 7 @ @ 5 - 2 y > 6 +.w.h @ % - - 7 < 6 6 7 @ > 7 - @ O 7 6 - > 2 T O.W 2 $ > 2 4 > > 6 > 2 y > i f ..I 0 > > - > - > 5 7 2 O < % % @ > 7 x v 0 2 2 4 > 6 0 2 , @ O , @ o O 2 7 2 @ o 2 - > O > 7 A F 0 > O 4 4 - > , - @ @ 2 2 @ > @ @ @ - - 2 3 @ - @ O - x ! Y 6 @ $ @ > @ , > @ , > @ > O @ 2 @ % % $ @ 2 > o O @ - @ @ > @ % % O O > > > @ , @ @ - > - O , > > @ 3 @ O @ $ O $ % O > @ O % , - @ @ 2 2 2 @ o @ @ @ O @ , , @ O @ @   O @ @ @ O O @ @ @ o @ @ O % @ O O % O O o o o @ % > @ O O O % o O @ @ O % O @ o O @ O o . o ",
"O O @ O O o O O o @ O O o O O O O o O @ o o $ % @ @ O O @ @ % % o > @ % % , , - - @   @ @ % @ @ o > @ O @ > 4 8 - > < @ 2 u 0 V h 2 > % o % > @ - 2 > > > 2 - @ > 2 > o @ @ , % > % O @ o @ @ % % @ @ > % O @ % @ @ @ @ @ 0 B S f O @ % > @ @ > - @ , > @ @ > , - 4 2 @ > @ @ @ @ @ > > @ - > > % @ < % + % 2 @ 6 Z R Z 7 - > @ @ @ 2 3 > - 3 @ % 2 7 4 , @ 2 > < - 2 4 > 2 > 2 4 > @ > 2 v x l 6 , @ > @ @ > 2 , > @ @ - 4 2 > , 7 7 7 6 d h 7 > > 4 > - 2 > > - 2 > > > , 2 7 t @ @ , > - 2 4 2 2 > 4 7 @ > 4 > 8 6 2 > > 0 Q ) h @ > 2 > 2 2 7 2 - 4 7 ; @ @ % 4 - @ u ) 6.R 6 @ 1 8 2 - , > 4 2 > % > 2 6 C ..x - 3 2 2 2 > 2 - - > 4 > @ @ O 2 z H h @ @ 5 > @ 4 < @ , > 2 @ > , @ 2 - < 5 2 > $ > 2 0 h 0 - @ @ > > > @ 4 % > - > 2 3 O 2 u 2 @ 2 u 0 7 , o : F ~ T 4 o @ % > > > > @ @ , @ > @ > > @ > o @ , , > > @ % @ @ O @ > 2 , % > > y > @ @ > > 2 @ O < > 4 % O 3 @ > @ @ @ > > , @ @ @ % % o @ @ 7 2 > @ > > > @ O @ @ @ @ @ % @ % @ @ > > @ % o @ O @ o @ @ O @ @ O o @ @   @ o o @ @ @ @ @ & @ @ o   O O o % o o O > O o o O O ",
"O O % @ o O O @ o > @ O   O @ @ O o o O O O   O - > O O @ @ > o O > - O % - - @ > O O > - % @ @ % @ O O o + 2 7 2 0 h t 2 0 D B 0 > % , O O > o @ 7 2 - @ 2 4 @ o 2 > @ , O O @ > @ @ O O O O @ X > > @ > , O @ $ o O @ @ @ > N C 1 O   % % > - O . o 2 > , $ % @ - > O % 4 2 @ > > @ @ O 5 > > 3 > @ & > 6 0 > - ; z ( Y 2 , @ @ $ % , @ > 4 @ @ 4 7 7 - - 2 2 @ % > > 7 > > 2 < > > - 2 B N h 6 > @ , > 2 7 % - > % > @ > 2 @ - 0 0 0 9 A F 0 - > < , @ 7 2 @ > > 7 > 5 , @ 2 0 > @ 5 2 7 y @ O q 0 2 > @ 3 5 2 6 d 4 , , 7 ! ,.b @ 2 4 2 2 7 > & @ 2 4 < , 4 w > O & ! a.:.0 , @ > > > 7 i 7 2 4 > @ $ $ > z W x - 3 8 4 > 2 > & 5 2 4 4 @ &   2 N ~ Z @ @ % @ % > # > 2 - y 2 7 8 @ 5 > 2 4 < % @ % h z 6 @ & , @ % O O > > @ > 2 2 2 @ @ 0 F 8 O 0 h 0 7 O # N ( ) f X & < > @ > - > % % % o > @ 2 2 - @ O , - @ @ > @ > $ @ @ @ 4 4 - @ < > 2 > @ @ @ > > o # @ 2 4 O @ - o , > 3 % @ O @ % % @ @ % o . > x 0 @ O % 7 4 @ O o $ - % @ , - > 7 7 - @ > @   @ @ @ O o O O O @ @ O o O O $ O O > @ & o O % O > . . o O O O @ O O o o O o @   ",
"O o $ O @ o @ O O O O   o $ @ O . o O O @ @ 4 > . O @ @ @ .   O @ O   O o @ O $ 2 @ O , @ o o @ - . @ 6 - o O < - O O @ - O % 2 > 6 > % @ @ > - - , % $ o - 4 > @ $ % @ > - @ @ @ @ % @ @ > @ @ @ @ , & O o - , @ > @ - 2 > @ 2 V I z @ O 2 2 + > > @ O % + @ > , @ > 2 > , > @ - @ @ > @ - 4 > O - @ > 2 > @ & > > 2 0 c d 7 > O @ > % > 5 @ > > > > 4 0 2 y > 2 7 > > 4 2 4 > 2 2 < O > N W N t O o , > > > > 2 4 3 > 2 2 , @ % ; Z ! d u h l 0 > - @ < 2 2 4 2 > , > @ 6 4 > > > > > 2 2 8 y O 2 > @ - @ @ < , @ > t ; @ 6 ..O.S 2 : 2 > 4 , % 2 2 > % > 7 2 - $ 0 ) r.J O & $ , 2 0 0 @ O % $ @ 2 6 7 1 6 z C C 0 6 2 @ > 2 a > > , 2 7 2 7 4 0 B B 0 > $ % o 0 8 @ $ - 2 f h i - - 7 2 @ , > $ > f A z 2 2 @ > 2 > @ @ 5 > @ 2 - > > 2 % o - 9 W ( f 0 - - B :.^ @ O , 4 - , > > > @ % @ > @ 4 O > @ - 2 - - @ @ O , 2 > - @ @ % .   > 4 @ @ @ % @ , > O , > O . % @ O o @ > @ % @ O @ , O % o > 3 O - 6 6 t 2 4 2 2 7 6 6 0 - - 7 0 2 7 2 o - % @ > - ; 2 2 @ O @ - > 2 @ @ @ @ O o @ @ @ % @ > > 2 4 < O @ % O o *     O % O @ @ O o . o ",
"O . o O $ o o o @ o o o O O o O o O @ O o & > O O o @ @ @ o O & O @ % @ @ $   O o O @ @ @ O O % @ o > % @ @ @ O O O O 2 > @ @ > > 7 > O @ % > > - @ @ > @ 3 - 2 > @ @ @ @ % @ > @ @ > @ , @ > 2 > @ @ O % @ @ , @ @ @ @ 3 3 @ - 5 Y V 0 @ @ % > < , @ @ , w > @ @ - @ @ @ > @ 2 i 7 @ , , > @ % O 4 > 7 > 2 > @ @ > @ 2 z E N d % $ @ > - - % $ > - 2 7 > - - - 2 > - 2 2 2 > - 2 2 - $ 2 F C z 2 O @ > < @ @ 5 4 2 @ > - > @ % 4 > c G N d z J t > , 2 > 4 4 > > 2 2 @ 2 4 > 2 2 > 7 4 , 8 4 > @ 0 7 - 4 4 4 4 > % > 7 > , 7 ..O.| ; 4 5 > - 2 - 7 7 3 - > 2 < @ 0 D <.+.0 % , - > > j 0 @ , @ % - 2 6 8 r - Y #.W V 0 - > 2 > > 2 2 2 - 2 2 > - 6 F } d O @ @ o > 7 > % @ w d 0 4 - 4 7 - > @ % @ - N J 4 % $ % @ > 2 w @ 2 7 > 2 3 > > 2 @ @ > R ..A S F F 0 ^ F 6 @ @ @ > > O @ > > % @ @ , % 5 @ - > % , > 2 > > O > > > , > - > @ @ > 2 @ $ - @ > O @ > % @ % @ @ 1 O @ @ @ > + @ @ O % @ > @ O @ + 0 u 4 2 2 - < > @ @ 4 7 - 2 2 2 > 2 - > @ - - 4 > 8 > @ > O O , O @ % > $ & O @ O @ % $ 4 4 - @ @ , O O @ @   o O @ O O O % @ @ O o o ",
"O o o o o $ O o O O o O @ o   o @ @ @ % O .   O @ @ @ @ % , o o O O > > @ @ O % o @ % % % o o % , > @ $ % @ > @ O $ @ > > > > O 5 0 2 O & @ @ @ > > - 7 7 @ O > 7 - > $ o O o @ 4 > >   O > < > - > @ @ , o O , @ O @ @ @ @ % @   4 h Y 0 o O @ @ @ @ % < > @ > > - @ O o > 7 i 7 q > - , % @ > @ @ > 3 @ > @ 4 > > 5 - 6 ! O.T d * @ 4 > 2 % 2 4 2 > @ @ @ > > > > > > @ @ @ 8 2 4 2 , 2 h z c > > > - @ > @ % @ > > - > 7 7 > > o 2 V ..Q R 7 O @ % a > @ - > 8 7 i 7 > < > 4 2 7 7 @ % 4 y > @ q t > < 7 2 2 > > > > , @ > Y O.S 2 - + @ - 7 q 7 2 8 7 7 4 > < ( t.[ : > 4 > 7 4 - O 8 4 - 2 2 : 4 7 < , 6 ( r.[ 0 > > 7 2 7 0 7 2 > > 2 > > > 7 F D N 6 @ @ O % 2 7 , O - u 0 7 2 < i > > @ , z z z 0 @ O O @ 4 > > 4 7 - 2 2 , > , % > > , d 9.D 6 b C O.Z V > + - % > - 2 2 @ % % % % @ > @ @ > 2 $ @ @ o % $ % @ @ $ $ > - > > > 2 - > > > > $ , > > @ @ @ @ > @ % % > - > @ > @ @ % > > @ @ % @ h f ; % @ % @ @ @ $ o O - @ 2 > o @ 3 @ < % - 4 2 > > O @ > > @ O o @ o @ @ o % O O . O % 7 i @ $ . O @ @ o O O % O O o @ @ @ o O o O   ",
"O % @ O O O @ @ O O @ @ O O O O @ o @ o @ o O O @ o @ @ o % % , O O @ % @ o @ > @ @ % @ O O O % o % @ O   @ > > o @ @ o % < @ o @ 2 > @ o % > @ @ O @ 2 4 @ o - t > > @ O O @ > > > , @ O @ > @ @ > - - % O @ @ @ @ 3 > O , > @ O @ 2 C F 2 @ O & % > > > @ @ > > > > > O % 4 - h h 7 2 - 5 % @ $ @ > > 3 @ @ 7 > > - @ , h Y C I 7 6 - > 2 2 2 > > > % @ > > > @ 2 > 4 2 4 < > > 6 , > 7 6 V h 7 @ 4 2 @ < 3 > @ @ 2 < @ > 4 > @ > 4 6 d ! x @ < @ @ 7 6 - > > 2 2 4 4 2 > 2 7 2 0 6 - > @ 7 8 > 2 2 > 2 2 7 0 2 5 , > - @ > C ) z 7 3 @ 4 , 2 p - - y > - 2 ; Y <.6.0 - 2 4 > 2 2 2 2 > 2 2 7 - 2 ; 2 @ 2 B w.>.z % @ 2 2 > 4 7 2 2 > 2 5 > @ > > 7 z f d i > 4 @ 2 0 > - 2 u 2 - 2 - 6 - & > 9 C ^ 6 % % O 2 4 > , > > 2 2 w 2 % @ > 2 i - 0 z +.z + 2 W ( z ; $ > @ - > > > 2 @ @ > 2 > - > > @ % < > @ @ % > @ @ > < @ - > 4 > @ 2 > > < > 4 > % @ % 2 - O O 2 > % O @ @ < @ > @ @ > @ > @ o . 2 0 h h o O @ O O O @ @ @ @ % o @ @ o O > , @ 4 > 7 > o @ O O > @   & $ O O O 1 O @ @ O O O >   @ O % o   @ % o   @ > O O O @ @ O o o O O O ",
"O O $ $ O o O > o o O @ @ @ O $ o O o @ 7 j 7 2 @ o o @ @ o & @ @ > O o O - @ $ > @ @ o $ @ O @ @ @ @ > O % % 2 - > > o O % @ @ @   $ 2 > - @ @ @ @ @ > > o @ @ > > o > > @ , > @ - @ @ % @ > > @ % @ @ > , @ @ % > @ , @ - > 1 O 2 > 2 7 z d @ - 4 > - - > > , > o > 4 > 3 @ - T S 2 0 0 - 2 , % 2 > , , < 4 - > 2 - - @ O 2 B  .) N 2 @ - 2 2 y @ @ > 4 > > @ 2 4 > - > 4 2 @ > 2 , < 2 z } ! 0 @ > > > % % > 4 > , < - @ > % @ u l 2 7 7 - @ 7 7 8 @ 8 2 > 2 2 > 2 > 2 2 8 2 @ 6 7 7 w 6 u 2 > 2 4 - > 5 6 j t - 4 7 2 , 2 ! 5.V 2 4 4 2 4 > , > 2 2 - $ > W <.Y 9 % 5 2 < 2 > 0 q 7 4 2 7 7 < 2 > > 1 d ( r.Y @ $ > 7 7 2 > 2 @ @ > 2 4 2 > , @ @ 6 x h u 0 h 2 0 6 h h h h 7 6 k B h - o ; A N z % O > 2 0 0 O , > 2 8 > % @ < 4 2 2 5 - E N +.B ; T &.N 7 @ 4 , 2 - - 2 > - > @ @ > 2 7 y 2 O O + 2 > > 3 2 @ > 2 2 2 2 > > O 3 > @ > > 7 8 > > > - > @ > @ , O @ % , @ @ > > @ @ > - @ , $ - d Z 0 > > @ > > @ O , 5 > % % $ O @ @ o O 3 @ > 4 @   , > - > @ @ @ @ @ O o o @ O $ O @ % 2 > . O @ @ @ @ @ O o   $ O o O o @ O O O     o O ",
"O . o O O $ O @ O @ O o @ O O O   O o o 0 Z f 0 @   o @ % O o o 2 > O O % @ @   o % o o O $ O o % @ O O @ o O % > @ % @ O @ % > > . % 2 7 - @ @ % O > $ O , , @ , $ > < > > > @ % , > % > @ - @ @ O @ > - - > @ @ @ @ > < > @ > > - + $ 7 Z F c - @ 2 > @ > , , @ O @ - % 5 - d E 0 - 0 j 2 > @ @ - - > @ - 2 @ > 5 4 2 4   o 6 z 1.) 7 @ 1 2 - > < > 2 2 > 2 4 7 > > 2 2 t 2 < < 2 > @ 2 B Q ! 6 1 5 > @ @ , 4 7 > @ > 8 @ @ 2 - 4 c 8 i 7 , > > 7 7 2 > > 2 > 2 % 4 y 7 2 0 - > 4 7 2 7 0 h 2 w 2 > 4 8 2 - 6 t @ > 6 q < - C ) k 7 2 - > 4 @ @ , 2 2 , # - >.r.i - - 8 7 4 > > i 7 > 2 2 2 2 > > , > 0 W :.W 0 , & @ 2 2 4 2 > , > > 2 4 2 - > , % - j u 2 6 B z h J F B Z x f h h V S 7 6 h N 6 2 @ , > 7 7 8 @ O > > @ 1 , @ @ > 2 5 - 6 $.g ) ..W ,.Q 6 - & - > @ 4 7 4 @ @ 4 4 % @ 7 2 - - % @ - 3 2 2 - > - < 2 - 4 2 y o @ > @ @ @ > - - > > 3 @ > % > @ @ @ , @ O % > - O O % @ @ > - > h q 0 2 @ @ @ > > @ O @ @ , @ O @ % @ @ $ O O @ o , o O > @ , 4 o @ > > - > @ $ @ O O % O - 4 > $ . . % % @ > O @ % $ O % o @ O $ % O O O O @ ",
"O O O o @ &   o $ @ & O o o . O . @ @ @ 4 h x v > @   @ > O O > @ , O o O @ O .   O o O   . $ @ O % @ @ @ O $ O @ O > > @ > > > 7 % > 2 4 2 5 > @ > > % O @ > - % - > - @ @ , 2 > > @ % @ > > @ 2 O @ @ > > > @ > O @ O > > 2 > > 2 > O O 0 z h 6 + O 2 2 O O @ ; $ > % @ @ 6 z z 7 4 4 7 2 - , > - > % , > > 2 % > > > , @ > 8 5 D I ) z , & @ , 4 > @ , - > < 4 2 > 2 > 2 2 8 > 7 2 % - z ..E d 2 2 , > 3 - > 4 - > 2 @ > 4 4 7 > 2 2 j > 7 7 > 4 > - 5 > 2 2 - % 2 t 6 - y > @ < > > 7 7 7 2 i 2 2 4 > 2 7 7 2 2 4 2 2 > 7 ..) c 2 2 2 2 2 2 2 2 2 > , - f O.D & @ 6 2 - @ > 2 @ > - > 4 2 7 7 5 - 0 :.t.2.0 2 2 4 4 2 > 2 > 2 4 - @ 4 > 7 2 , > 4 - 2 2 2 4 x z Z F d z x h 0 z h d 9 F E B d @ > 2 4 O O > 2 @ @ 4 7 > > 4 4 O > 2 @ @ - ^ B z Y ) O.f 7 @ > @ > , > > 4 - @ @ > > > % @ @ @ @ > @ > @ - 8 @ - 2 - > < @ 2 @ , > > > , > 4 @ @ - , > @ 2 2 O 2 2 % @ O > - > @ % % % O @ - 6 x t O 2 y o - > O O < % o O @ @ 4 > @ , % % O @ $ % @ , > % @ O % @ o > > - @ @ O @ @ O % 2 @ o % @   o o O @ @ O O o o O O > @ $ @ @ O o   o ",
"O O o @ O o O O @ @ O o o O O o o @ < % @ > 6 0 2 > @ 2 6 2 2 7 2 2 4 2 2 7 > @ > > > 2 - @ o O @ @ % % o % O o   % @ @ > 2 O @ 2 @ @ % @ > @ - @ 2 - > @ > @ @ @ 2 < @ @ @ @ > > 2 @ @ @ , > - > > , % > @ > @ > > , @ @ - 4 @ % > % O @ @ 0 N A 7 2 > 2 > @ > 2 O - & @ > 4 z h h 7 - > > > , % > > 2 > @ @ 4 > < % @ + 2 2 2 # 2 z ! I 6 O % @ 2 > > 1 > 4 > @ @ > - 5 > @ > > u 7 , - F ( D 0 7 > > > > 2 - > 4 7 8 - 7 2 2 6 $ @ 2 h 6 0 > - @ < - 2 2 2 4 > , - 6 u > % > 4 > > - 2 u 0 2 > 0 7 2 > 7 2 2 2 i 2 7 , , > O.r.J 2 4 8 y 2 7 7 7 > 4 - z $.R 0   2 7 2 > > t 2 3 < 2 > 4 i y > 7 h <.t.! h > > 6 2 2 < > 2 > > > - 2 2 > 8 7 2 > > 2 6 2 > > 4 0 h h > 7 7 2 2 V B h 0 Z N z 0 & @ 7 8 > O % > % > 4 - 7 4 2 7 % @ > < 5 > 6 u 7 x [ C 7 > > 2 @ , < @ > 4 > > @ @ > , O O O $ % > @ , 3 > - > < 2 > @ O $ > @ < @ @ > , > @ > @ > o 2 > - @ , u - @ < 2 @ - > @ O % > @ @ 6 d 7 @ o @ 8 > @ , o % > @ @ . O @ > @ @ o O , % , O o 2 7 @ @ O O @ % @ @ > @ O > @ @ @ > @ @ O O @ @ o O . o O O @ o O o O O @ > $ @ @ $ .   o ",
"O @ o O O @   @ O   $ O @ > % @ o @ > > O O 4 z v 2 > 7 0 V 0 0 7 0 z 6 F F z z v u z z z 0 @ o , @ O @ , @ O % o % , @ @ > @ @ - > > @ @ > 4 O @ > O O , > 2 > $ @ @ @ @ @ @ @ @ > 4 , % , > , > - @ @ @ , , @ @ O @ > 2 2 @ > - - > @ @ @ ; 0 0 z 0 @ - > > @ % 2 > @ > > - - j 0 4 , @ > > @ % > > 4 5 O % , 2 @ , 4 2 2 4 7 3 2 6 Y W Z 0 2 2 2 2 > < > 4 > , - % 1 @ 4 4 > 2 0 - & @ N 6.[ - > 5 4 @ > 4 7 > @ > 4 7 2 2 > - 1 - 6 j 7 2 7 8 @ 3 > 7 > 4 4 > 2 2 2 > 2 7 4 8 7 7 > 7 i 2 @ - , < 4 4 2 2 2 4 4 0 7 2 @ ;  .r.h 5 > u 8 - > 1 , , 6 S H N +.) & 2 4 4 6 2 4 - 7 2 5 > > 7 2 & C 1.d.:.9 > 2 4 4 2 ; 4 > - > > 2 2 2 5 @ > 2 8 7 6 6 h 4 & > O 0 7 2 - % @ @ % , v W C h - l 0 O , 2 2 7 2 @ O 4 4 @ > > > > - 1 4 2 2 , > @ 2 B 0 0 > @ > 2 2 > 2 < > , > - - > % % O , , @ @ < > > > , @ > - 2 > , @ @ > % @ 2 @ - > $ o > , 2 - - - > @ O 2 % - @ 2 @ % @ - % o . @ 2 h l 6 - $ , > > @ O > > @ > 2 o O @ , % % $ @ % , o , O o @ 4 > @ o % @ % O o @ % > @ O @ - 4 2 o   O O o % @ O O @ O @   $ o O O O > @ O % @ o O O ",
"O O O O O @ O $ $ @ O o O @ - , o   - > @ O 4 0 7 - - 2 6 0 6 6 7 z d 6 Z A d 0 u 7 d z Z f 2 o @ O @ @ @ o @ > @ @ % O @ > @ @ - % - @ @ > - @ @ , $ @ @ @ - > O @ @ @ @ @ 3 O > > - > 2 o @ > @ @ @ @ , % @ @ @ O @ 2 4 > @ @ @ & - @ > , @ > 2 z A h @ % < 5 @ 2 > % @ @ O $ 7 2 7 - > o O - , > 2 2 > - 5 2 2 @ @ > - 4 2 2 7 O 2 x N D F l @ - 2 4 > > - > % - 4 5 - 2 7 > - 4 > 1 @ N +.Y 6 > - 2 4 > @ 2 , > 4 0 6 6 7 2 2 @ 7 d h 7 t t 0 7 < - y > 2 > 7 4 2 , > 2 7 2 t 4 % - 0 0 0 j 8 > 8 2 > 8 4 % 2 2 4 2 7 % @  .w.z 6 2 8 ; i > @ 1 > 2 | [ Y Y w., - 2 2 i 2 7 > y 2 < > 5 > - c r.a.,.6 O & < 2 u 0 4 5 8 7 j < @ 3 2 4 > 2 4 2 2 l n 2 % % % % > > 4 4 , @ 3 o O 6 C N t , t > @ - > 2 2 4 - > 7 > @ @ > 2 % @ @ - 7 2 @ % > x S 7 @ O @ > - 4 2 2 > > @ > 4 > @ > , @ @ > 5 @ @ - > @ O @ > 1 @ @ > O @ % > O > % @ , % O O @ @ > , % o O % % o @ o & $ @ $ @ $ % O o h V 6 @ @ @ & O % % @ o , > , @ @ % o @ O O @ 3 @ @ @ @ o $ 2 - > > @ @ % O O   @ @ > O . O - 7 @ O o @ @ @ @ o @ O @ O O O O @ o O o O O O o O   o O ",
"O o @ o @ @ % o O O @ @ O @ O @ @ O O @ > - 4 > % @ @ @ 4 @ @ + O @ - > @ @ @ @ @ + @ O - 0 h 0 2 . @ @ @ @ O @ , @ % $ @ @ % @ % O o > , @ @ > , @ , > O   @ > @ 2 3 @ > > , @ - @ @ @ 4 @ > 4 @ > < , 2 > % @ @ > 4 @ O @ < > - O @ @ , > O 3 2 0 z S 7 O , > 2 @ % % @ > < 2 > > 7 h q @ O % > > 2 7 2 - 4 , - 2 5 2 > 7 2 2 5 > 5 j E W D 0 % < 2 7 > , - 2 > - 7 2 - % 2 i 2 > % < 2 C ) Z 7 > @ 2 t > y 7 > 2 7 7 2 7 t 2 2 2 7 d h j 7 2 2 > 2 4 2 > 2 t h % , @ > 4 2 6 7 2 > 7 h d =.q.N 0 n 2 2 7 4 2 < 7 2 7 t 5 2 W c.' 0 7 - , 2 7 4 ; 2 i 7 0 E W r.> 2 8 2 4 2 t 7 8 2 7 7 % @ Y :.5.1.2 o - > 2 2 7 7 @ @ 2 7 7 @ - > % > 4 2 2 2 7 i 4 > 2 2 - e < @ > 4 4 > 4 4 4 4 7 7 5 - > % - > > < - > 4 , > 4 > @ 4 2 @ , > 2 > , # > N &.7 - @ - 2 7 8 < - @ > , @ @ @ 3 2 - > > - > - @ @ - > > O @ > , $ % > @ $ O $ < @ & @ , , @ @ 3 O % , o O & % % & @ @ 1 % o % O   . - z S 0 - o % > O @ > o O > , @ @ > @ O % @ @ > @ @   @ @ @ @ 2 > - > o % > O O 4 , & $ O % O 2 7 2 o O @ O % O o @ $ o @ @ O O O O O % O   O @ o O O   o ",
"O @ @   O O @ o O o @ @ @ o . $ @ o o O 2 7 2 @ O O O @ @ @ @ O o O @ @ O . O $ O @ o . O @ 0 T 6 - @ @ % o O @ @ @ % @ % % % @ @ @ o > @ $ > > @ O @ > 4 @ , 1 < - > @ O @ @ - > @ o % > - > @ @ > - - - 4 @ > - 7 2 % @ > > - - @ > o % > O @ - 6 0 7 z 0 : @ 5 O > > , > 2 > @ @ - 9 v u > > > % > 4 2 2 - @ % 4 > O > 7 2 @ - 2 2 > z W C 2 & 2 2 2 > 4 2 > - > 4 y - , - 8 2 4 , O 2 Y 2.F ; @ 4 0 7 > 4 2 : 7 2 2 4 2 2 4 0 7 7 0 v h 2 2 t 7 7 2 2 7 i h 6 o 2 5 2 i t 7 2 2 4 2 f C 4.e.I x A 7 - - 4 t 2 y u 7 2 > 6 O.l.E 6 > > w - 7 2 0 6 , > 7 R O.s.w O @ - y 7 4 2 % 2 7 7 > h f.k.%.6 > O 6 4 - y 7 7 @ > 7 u > > > > , 2 7 7 2 7 2 t @ - t u 2 > > > @ - i i 2 7 6 4 O $ @ @ > , > > @ @ % 3 2 @ 4 8 > > > 2 2 @ 5 4 @ O - h Y f - > > 7 2 4 2 @ > , 2 - > 1 % > @ - 2 > 2 > - 2 2 > > - > < @ @ @ @ @ 4 3 o o % @ @ o @ @ 7 2 2 2 > @ o @ > - o @ > + @ > % - @ O 2 V ! 0 > , - O @ % @ , @ @ , , @ > , O @ > > > % @ o O % , > > > > > @ @ % , . O 3 @ o o o o + 4 < % O o % @ o $ o O O O $ O O O @ o @ O O % o O O o @ % @ ",
"@ @ @ @   O O o O @ o O @   O O O @ @ @ > O @ @ O O O @ @ O O @ % @ @ O @ o @ % @ % O @ O @ > h z d 2 @ O O > @ % - , @ @ @ @ O , $ > % @ > , @ @ O O - 4 % O % > @ % % o @ > @ @ @ % @ @ > @ @ % > > - 2 > @ 2 % 2 @ > , @ @ @ 2 O @ > > , - @ 2 > > 2 z Y z @ O 4 t 2 - 7 4 > o % - - 7 0 u 2 @ % > 4 7 7 5 , , @ > 2 0 4 - @ - 2 3 > ; ( ..7 $ < 2 > > 2 7 > 7 , > 2 > 4 2 7 7 2 , 5 ; D ,.} 9 o 2 7 7 2 @ 2 u - , 5 > 4 - < 4 2 u u u z h 0 y > 4 t 0 2 4 2 6 7 7 7 4 6 7 - ; 5 > > k } C ( ) B 6 i 2 - 4 7 4 2 7 2 7 > 2 ) a.V ; 7 2 2 2 2 h z 7 > > h ,.<.a.j - 2 0 2 4 3 > @ i 2 6 0 D w.a.8 @ w 4 4 4 > 4 - 7 > > 7 7 @ 4 7 2 2 2 > 4 > - - 2 2 4 4 @ 2 7 > > 4 0 - - > 2 2 4 , @ , > @ > > 2 2 4 > , > - > > 2 4 8 - > 2 - 2 7 - z W ! h @ % - 2 7 > > > > 3 4 2 - > > , @ < , @ - 4 > > > , > @ 2 , @ @ ; 0 6 6 z z f 0 z z d 9 9 f f d h h 0 j 0 0 z d h z d z 2 2 2 0 d I E 0 @ o @ > O > , @ > , @ @ % @ > , % - @ $ @ , @ @ > > > @ O O , % @ & @ O @ o $ @ O @ @ 2 0 >   O @ o @ % O > % @ O   @ % O o @ @ o o @ % @ o O O O o . ",
"@ o @ @ o O O O o O O @ > $ @ @ % @ @ > @ . . O @ o @ > @ > @ @ - @ @ @ > - - @ @ @ > > > % @ @ B C h > O , @ @ , @ - % @ O @ % - o > o > @ @ @ $ $ 3 - - % > > > , > $ @ > > @ @ @ , > > 4 @ O - > 2 > @ > 4 > > @ > > > @ @ 4 2 O - 4 - @ > > < 2 , @ 0 Y W > o - 2 y 7 4 - % & > , @ > 0 x 0 - > > > 2 - 2 @ > > 5 i 2 > % 8 @ 2 3 , 2 ~ Q 2 @ > > 2 2 2 2 2 4 , > 2 > > 4 - 7 2 > 3 4 z ( A 2 $ , 2 2 8 , > 7 2 5 > - t > @ 7 2 2 h S u h 2 > 2 - 0 0 2 2 y 2 6 7 4 5 - t i 7 i % > 4 z ) v.) B 6 2 t i 7 7 u 0 7 4 t 5 ; ) d.L u q q 4 y u 7 0 0 > @ u ( <.a.S 6 h 2 6 4 - > 2 4 4 7 2 Y e.<.* 4 6 2 2 < > > 7 2 4 8 4 - > 2 t 7 7 8 % > > 2 5 > 2 7 > % > 8 4 7 7 0 > 1 2 y 2 > > 2 2 < > > > 2 2 7 > 2 2 > > % 2 2 > 2 2 7 > - q T +.Q z > < @ 2 4 < > , - @ - 4 4 2 2 > > > > O O @ > 2 @ @ > > @ 8 > : c F T V 0 Z ..! E W ~ Y ! T ! ~ E Z Z F B H V F Y | G N T B x h B T I 0 @ o % < 2 $ @ > > > @ % O , > - - > > - > O @ o - > > @ % O O o @ @ @ O O % @   O @ - 2 0 7 > O . O @ O @ $ @ $ O . o @ @ @ o O %   o & @ % O @ o o o o ",
"O   O @ o @ O $ $ O @ o o @ O O @ O @ @ O . @ @ @ @ O @ @ @ @ @ @ @ , O , 2 @ @ @ @ > @ - @ > @ % 0 z u 2 O O > > @ O > @ $ $ @ @ o , - , @ @ > > > 4 > > % > i 6 > , > , 2 > @ % % > - @ @ , > 4 % 2 @ > > @ @ > < < % @ 4 > @ > > 5 , @ % - @ 2 @ % @ u h S h 0 ; - 2 2 - 3 5 7 > > , > u h j 0 o > 4 - > - @ , - 7 - - 3 > 7 2 7 3 > x ) Y 7 @ > 2 > @ 7 2 > > 2 4 > 2 2 7 4 7 2 > 2 6 Y @.F 6 4 4 4 > > 4 4 t 4 7 < 2 4 2 4 7 8 2 0 L V h > @ 4 i 7 7 7 4 i > 2 7 0 y > 7 c 6 0 2 & - C q.H j [ 0 - 1 8 2 2 > > 7 i - > 7 +.d.| 6 6 7 2 @ 0 6 7 7 7 7 7 6 N s.B u 6 2 7 2 7 7 7 7 4 4 ; ! f.;.O 2 ; 4 4 2 @ 8 b u > > 6 2 7 7 7 6 - 2 , @ > 4 , - 2 7 4 , > 2 @ 2 4 2 , 8 , > 4 2 2 2 > 4 4 2 > - 2 7 2 7 > < @ > 2 2 7 7 8 - , 2 B ! Q z - o 5 > < 4 > @ @ 2 , 2 @ o > , % @ - > , > > > > > 2 > > @ @ - x &.B h h 0 v h h 0 z z z z 6 h z 0 7 7 0 2 0 q 9 6 u 6 6 6 h v h v S 0 +   o - - 5 > - % , % @ - % O , 5 - % > @ - % > 2 - - - > O @ > O @ @ @ > @ o > @ @ @ @ 2 - - o $ o > 3 @ O O @ O O O , @ @ @ O O @ o O O o $ O O o . O O ",
"O o o @ O @ > @ @ O O O O % @ @ O O O o O > O % @ o @ O o O O $ O O O o o O @ O % % @ $ % @ > > . ; N C j o O O % $ O @ > + % - - . > 2 - O @ 5 - 6 - @ > @ - 7 7 u 2 > - @ @ O @ o O 2 > @ > 7 2 @ > > 4 - O O > 2 : % O > - O , - 4 @ @ > < , - > O 4 2 @ @ D ^ h - % & @ > 6 u @ @ > 2 6 6 h h & - > 4 > < < , 2 - > O O - 2 0 7 - - 0  .#.7 @ < 2 2 4 2 2 > 2 2 8 , @ < 2 - > 2 7 w z +.>.H 6 h d - , @ 0 2 2 2 2 7 4 > 6 t > 7 2 z D v 2 , < > 6 2 2 7 2 0 0 2 > 7 - , 4 h h 6 3 & 4 R +.u 2 W 0 2 - 2 7 4 3 e - 0 i 3 2 W r.J 6 h u y , h 7 2 7 h h 5 , z s.^ 6 2 > b u 7 0 2 7 2 w 2 D 5.w.> > 4 y 4 2 > 0 0 0 4 4 7 j 7 2 - 7 < > > 2 4 < > % 5 2 u 7 4 u , @ > 2 @ > > > 7 7 5 % > 2 4 > > > % - u u > % @ @ , > 7 2 4 > & h D C z - & & 2 - - > % @ 3 2 > 3 O $ % , > % 7 7 4 @ @ > @ , 2 2 @ , , 0 ..( f 2 > - + O @ @ - 2 ; @ @ @ @ @ % & O 3 @ @ - > @ > % - 2 0 h - > % O O > > - @ 8 2 o O O % , - @ $ @ 2 > @ @ @ > 4 4 2 < > - @ 6 7 2 % > 2 > > @ > > > @ > 2 4 @ @ o   @ @ > O @ $ . @ O @ O @ O $ @ o O O . o o o O O o o @ ",
"O . O @ % o O o O @ @ > @ o @ O O @ o . o @ @ @ o % O @ @ O @ @ $ @ O @ @ o o $ % @ O $ @ @ @ O @ O o w F I d @ O @ @ O , % O > % @ @ @ > 4 > %   % > - @ @ % - % 4 % O @ - 2 @ - 2 2 2 > 2 - 2 2 > @ @ > 7 8 % @ 2 > 2 > > - 2 @ @ @ 5 > - 2 - 7 4 % @ - % > 0 B ( z @ O > 2 > 2 d f 2 , 3 @ z j h 7 - i 7 7 > : 7 0 2 > , > 7 2 6 & , u Q ) 0 > 4 6 > @ O % 5 - > @ 4 4 7 t 8 2 4 > : 2 } +.w O 4 2 2 4 2 6 2 @ 8 8 6 7 7 0 6 7 4 0 7 2 2 j h 0 4 > t t 4 4 7 7 8 7 7 7 7 u 0 0 6 5 < > z W V e 7 5 > 6 9 V z 7 7 u 2 2 3 6 >.j.| 6 6 0 0 0 p 0 4 7 6 4 2 6 O.( u - 2 7 j f 9 4 - w 7 > 2 A 6.W @ 4 t 2 2 4 8 4 > 2 2 u 0 7 w > 2 4 , 8 4 2 2 4 2 4 2 , > < 2 @ 4 2 2 2 > 7 2 2 2 % O > 2 2 > 4 2 2 2 - 4 4 > @ - , > w 0 6 2 2 B S 7 2 - @ , , 2 2 - 5 0 6 > - @ , O % 4 2 > > > 2 @ @ 2 2 > @ 0 % = o f ) ! 7 > $ & , @ % % 2 o % @ , , @ O O > - - > @ > i q > >   O < @ @ o $ > 6 ; 4 < o @ 0 8 @ > @ > @ O % % o O > 2 @ - - , 3 > 3 - @ > > 2 > , , @ > > @ 2 2 2 2 @ O $ O @ & O O O O O > % o O O @ o @ O o     O o O o O o O o O O @ ",
"O o @ O @ @ O O O @ $ @ O o O o @ @ O O @ @ @ @ @ % $ @ % % O @ @ > @ @ > @ @ O % o @ O O @ O O $ @ @ , h z N u O O O @ - @ @ @ > > @ > @ > > > @ > - 2 2 @ @ > @ @ > @ , 2 2 - , 7 5 5 @ 2 7 < - , @ > 2 7 > @ @ 5 > - @ O % > @ > % > > 7 6 > 5 @ @ 8 > > > 4 7 z E u - O , > > 2 2 > @ 3 7 c ; 2 6 > > - 7 , @ > 2 2 > 4 > 4 2 2 4 O 0 +.W 6 > 4 2 2 5 - > > > < > 4 ; > 8 7 4 7 , @ : ) a.( N - - 7 2 7 2 6 q 4 > > 6 6 0 i 2 2 t 0 x c 2 6 4 > 2 4 7 2 0 7 0 4 2 7 j 7 j 6 7 < 2 4 7 F ! x 8 u - 2 7 u u 4 i u 2 l y % 2 t.d.L 0 6 t i 4 0 y 5 7 0 0 > 6  .O.V ; 6 2 7 7 2 4 7 4 t > 2 N i.O.- 4 2 0 7 0 2 7 2 > 7 7 2 8 y 2 2 2 - - 4 4 2 4 7 7 2 2 > > 2 5 8 2 2 > , > > > > - > < > > > 3 > > 7 7 - 2 2 > 2 > 4 2 7 c h 6 0 0 > > > - - @ - , > 2 4 @ , > 4 - > > < - > > > , > 4 > @ > @ 7 @ > d E E 0 : 4 > @ @ > @ - 2 > @ @ > 5 % > @ 4 , 2 8 > > 2 > @ 2 2 % @ 2 % o % - > > @ , @ > 2 > O @ % @ @ > @ @ % @ O > > 2 @ > @ @ > - > % @ > O > O O O > o @ > @ % @ % @ O O > @ o o $ $ @ O @ $ o o   $ @ $ O O o o O % @ O O O o   1 ",
"@ @ @ @ @ $ @ @ O $ $ O % @ O O O @ @ @ @ @ @ @ . O @ O @ > @ @ @ % > @ @ > > @   O % @ @ % @ > o @ > o @ t S C ; O % @ 2 @ O % - , > - @ @ > 2 - > @ > < > 2 > > @ , % @ o @ , , @ @ > O > > @ 2 O % - 2 - > - > - @ > @ < O O % 2 @ o > < 2 > - @ @ > > - % - > - Z W u @   , @ @ @ 2 > @ 7 t 2 7 t > @ @ > > > < > 2 4 8 - @ > 2 > @ z 1. .7 > > 4 2 > 0 0 2 - 2 2 7 2 > y 2 - , < j Y <.M.M.a.y - 4 4 7 2 0 0 - @ 4 0 u l 6 7 3 2 h V 0 @ 4 4 4 > 2 i u u h h 2 u 0 i 2 4 7 0 7 8 - 0 N A B 9 < 2 c 7 > 7 i 0 j 4 > y 1 2 O.r.' d u i 8 6 u 4 8 2 6 u 2 2 ! O.' 2 0 q 2 8 4 4 u > 5 5 2 Y 5.>.6 , 8 2 6 0 h 0 > 4 y 2 @ 7 4 - 7 7 7 2 y ; - > 7 2 7 7 2 7 2 4 > 2 - > , > 8 5 < - 2 2 % > > > > % t 0 2 i 2 2 2 > 2 4 6 L F N 0 - > @ 2 4 4 4 , - > @ > @ > @ > @ t 0 > > 2 4 - 4 2 - > > > @ * > N %.S - > - 7 2 > 2 3 @ 7 7 @ 3 2 2 @ @ 4 > @ @ % @ @ < O O % 2 2 @ @ % > > @ 2 - , @ O > > O - < % O @ @ 2 > - - ,   O 2 2 8 > @ > > > - O o O > % O @ @ > O @ @ @ @ @ - @ O % < @ @ % $ , $ o @ o .   o @ O O % > @ $ O @ @ @ O $ o o $ ",
"O % % o O % O o o O   o o o $ O @ @ % > > @ @ % @ @ O O O O , % @ @ o % @ @ @ @ & $ @ @ @ O @ @ % @ > . . @ 7 Y N 2 > > > > @ @ - @ > , > @ > 7 2 @ @ < + 2 7 > - @ O > > % @ @ O @ O @ > O @ > > O @ 7 2 % , 2 4 @ @ @ - < O - , > > - > > > @ < & @ @ - 2 @ O > - ; C Z V : @ $ 3 - 4 - > 2 j t a 7 > > y 2 - 4 4 - @ - 2 7 - , t > % N ) ( 0 3 5 2 2 > u 7 6 2 4 6 7 2 > > 4 5 1 @  .h.#.0 >.b.| 9 - @ 2 i 7 7 y 5 2 0 0 2 ; 4 3 0 h v 7 > 8 4 0 t 6 j 6 2 0 h i 0 6 7 2 7 0 7 7 t y d N C E F y 4 c 0 > 4 u 2 0 7 - > < 6 6.d.&.6 0 2 2 0 u 7 7 2 6 7 7 7 Y 1.E - 6 i 4 2 7 2 u 7 2 @ 7 R 6.<.4 7 0 > i v u t 6 7 4 > i u 4 > 0 8 4 > 2 7 y > > 2 6 4 7 > < > 2 w > 5 2 2 - 2 8 4 2 2 > > 4 < 2 @ 5 0 7 2 > 7 2 % , - 0 C B z 4 , @ > > - 2 > 4 > @ > 8 > 4 2 < @ 7 7 2 > > 2 4 2 2 - 2 @ % > @ f ! ! 6 @ @ > 7 2 > > > > 2 8 > 4 2 > , > > > , @ > @ - < % % 5 @ - < > > - % > w @ @ , > > @ > > 2 - @ > - @ > % > , @ O - 2 > @ > , @ > > @ $ O > > O O o O $ % @ @ > - > > < O @ , o O O % O o , O o O % O O O O @ O o O   O $ @ @ O O   ",
"@ o O $ % O @ o O O @ @ @ o O @ @ @ O @ @ @ @ > @ > O @ o O % @ @ O @ O @ > @ @ , @ O @ @ O @ @ @ O % % O O @ 0 W Y 6 @ $ O o @ @ @ > @ @ > > @ @ @ > > > 4 2 7 - O O @ % @ > 2 > % > 2 7 > - 3 , @ - 7 2 @ @ 2 @ @ @ > > > > > - 2 > 2 2 4 < > @ > @ % > > > 1 @ 0 2 > z 2.~ 6 - 4 2 - 2 4 4 2 > 2 > > 2 7 0 2 2 > i 2 % > 4 7 0 7 % o h O.+.h , > > > - 7 0 7 > 7 4 % 6 7 > 2 5 O 2 <.x.E X 0 N.,.f @ > 2 > > > 2 4 2 - 0 0 i 5 2 2 0 l 2 7 2 0 t 0 0 0 2 7 2 u 6 2 0 h 7 4 h k 7 7 8 2 [ 9.A Z 1 o h 9 t 7 0 i u 0 S 7 3 9 4.d.q.0 0 0 7 7 q u 6 M 7 i u u ..5.L 0 7 2 0 t 0 7 7 7 u 2 2 z ,. .; 7 2 2 2 i 0 2 7 7 - 7 u u 2 7 < > - 2 7 h c 7 > 3 6 7 i @ - 2 7 2 - 2 7 7 7 7 - - 5 w 7 4 5 , 2 7 y @ 7 0 > 2 2 > @ 7 %.( f 9 2 - , 2 3 > @ 6 2 y > - y @ > 2 , @ 2 ; 7 y o , 4 > @ + 2 4 o & C Z v 7 - < , , 2 4 - 2 > 4 - > 2 2 @ @ 2 > , @ % > 2 > % @ % @ 2 % & > @ > - 1 @ @ > 2 - 4 - @ > % @ > > 4 @ @ @ @ O @ > 7 o $ > 4 @   @ , @ @ @ % @ % > @ % o O 1 @ @ 4 > - @ @ @   % O @ @ > @ , % @ @ @ O @ & $   O O O O O O         O . ",
"O O O @ O O @ O $ O @ O @ O @ @ @ O @ O @ % > , @ @ @ @ @ @ @ @ % o & $ @ @ > > @ @ @ @ % O % @ @ > @ @ @ , o - z C Z 6 - $ , , @ @ > @ , @   , @ > @   % > > > > > > > @ @ @ > @ > > > > - > - > $ @ 2 2 @ , , $ @ O > @ % 2 2 , > > - < > 2 @ @ > > @ @ @ @ > 2 6 2 O - I ) E 0 7 > - 8 > 2 < - 7 > < 4 2 7 - > - 4 2 - 2 > 4 7 6 2 @ x +.Q 6 , > 2 8 > 2 4 2 @ 4 2 > 4 5 4 0 - - 2 W Z.%.; z N.t.g @ 5 y 2 7 - 2 i y > t i 2 w t 7 0 K u 6 7 4 7 0 t 7 0 u 7 4 2 2 v 0 0 j j 7 h 4 > 2 C ( ! d > a 7 7 d 6 u 4 7 u h 7 7 6 @.d.! 6 7 i j 7 7 7 t h ; q 2 0 Q 5.H 6 7 7 7 0 t 4 > 2 0 4 2 J t.O.2 u 0 6 > 2 7 7 2 t 7 2 0 h 7 4 2 4 7 7 h h d 7 - > 7 2 7 2 3 > 7 4 , , i 4 7 2 < @ > 2 2 2 > - 7 7 2 > i u - @ 7 4 ; f Q N 7 , 4 > @ - 5 @ > 7 - 4 8 > 2 > 5 - @ > 4 4 7 > @ > > > < - > 2 O l ..F 8 > > w 2 % O 3 - 2 > > > - 4 a @ @ @ > O > @ < > - > > > > 4 >   % < @ , @ o % < > 4 > > 2 @ @ % > > > @ & , 2 @ > > 2 > O 2 > O O @ @ @ > @ > @ % > - , > @ @ @ - 7 2 , @ O $ o % @ > < @ > @ @ @ 2 @ O @ O   o o @ O O @ O o O o . o o ",
"@ O O O o O o O O @ o o , % O @ O O % @ % O O > @ O @ % @ @ % O @ O O @ , > 7 2 - > - O @ @ @ % @ 2 @ O @ > > @ @ 0 A C 0 @ & , @ % > 2 >   @ , @ > > @ @ % > % @ 2 2 > > @ @ 7 > 2 > , @ > @ - @ > @ 4 4 2 > @ O - 5 , @ o > - @ > @   @ 0 - @ @ 4 7 2 - - 4 7 4 @ > > @ @ N ) Y - 1 , 7 > - > 6 > > - - > 8 - , - > i 7 2 2 > - 7 7 - h ! R 7 & , > 7 7 4 7 2 7 2 > 4 - - 7 u w 7 > 0 6.c.<.d.~.&.0 0 > 8 2 4 2 7 2 - 4 2 > 8 7 2 7 Z ! ! z h > 7 i 2 2 7 h q 6 7 7 l 6 0 l i 7 u c t 7 f Y ..~ 2 4 7 l 7 c 0 > 2 u 6 h 2 2 6.d.Y 2 7 7 0 l q 2 4 0 d h 2 h 4.a.$.h 7 t 2 2 > 4 2 2 6 0 2 x f.d.0 i 4 4 h 7 7 0 7 7 j 2 h L 0 @ 2 > 6 z } N d h 6 2 2 2 2 > 4 > > > 4 5 , > j @ a t > i 7 > O , 2 2 7 7 7 2 7 > 2 h N W ! h - @ > > 2 2 > 2 7 4 @ @ 7 2 2 > 1 > > 5 % 2 @ 4 7 - 2 > > 4 > @ 0 C l 0 2 > 3 , @ % % - 4 > @ , > > > > @ > 2 @ 3 2 7 2 > 4 2 2 2 % 2 0 2 > O O & 4 2 - > @ > @ @ % % @ @ @ @ O @ @ , > > 2 @ @ , > > O O % % @ > > - @ @ $ @ @ - > @ O 2 7 2 @ @ @ @ O $ @   & @ O o @ < @ $ O o O O O o % , O o O o $ O O o O O ",
"O O @ o @ @ O o O % O @ O O O O O o O @ @ @ O @ @ O o > - @ % O $ O % @ > @ > 2 7 2 - > , % O @ @ @ @ @ @ @ @ @ @ $ 6 Y Y u O @ O $ @ > O O @ > , > , @ O @ > % , 7 7 > % 3 @ 2 > 2 6 O O 4 4 > - > 4 - @ > @ , , > - @ @ @ , , @ < O @ q 7 2 > > 2 7 2 > > > 4 2 % @ 2 , O 7 B 9.m @ % - 2 2 - > > < 7 4 7 4 - > , - > 0 i 7 - , 7 4 2 0 Y T 7 > > 2 6 4 @ 2 7 2 7 7 8 4 7 7 i 7 2 4 @ h e.~.c.:.1 2 j 6 7 4 6 0 0 2 - i > - 7 2 2 0 B ( ~ A h 2 > 7 7 7 j 7 7 h h t 7 7 0 0 2 7 h 0 6 2 x [ ! Z 0 7 w 0 i 6 u 7 p 7 7 l 4 ; O.d.9.0 7 7 9 c y y < 7 d S 6 h 0.r.[ 7 0 7 2 > 4 > i 7 6 p q C w.r.6 - > 2 v v 7 u 7 2 7 6 z z u , t t 0 T A Z B u u i > 5 4 2 t 4 - 2 2 6 z D [ Y x 2 2 4 7 > > % > 7 h 2 2 2 7 7 2 h Y $.B 6 % % - - 4 2 8 - 2 > > > - > - @ > > > > > O % 4 2 , @ > 2 4 @ - H ) > 2 u t 2 < > - 4 @ > 2 5 > > 2 $ @ @ 2 5 > > 2 4 < - , 2 0 - O - 8 4 > O , < 4 5 @ > > > > @ $ 5 - > @ O O @ , > O > , > 4 % > > < - @ , % , % > @ % % @ @ % - o > 6 4 % O % @ @ O , % o O @ @ o o % o o o @ O @ O O $ @ O o O o O O O O o   ",
"O & O . @ - , O @ o O % O o @ O @   O > O @ & @ O @ , $ O @ @ O @ O O @ @ @ > > 2 0 2 @ o $ > > > % % @ @ % O @ ,   , d C x 2 O # > % o O % @ > @ - 8 - > @ @ - 2 % > - @ @ - @ @ @ > > % @ > > > - > - > - > 7 > 7 7 > @ > > > > O @ 0 u 2 > 2 8 < , 2 - @ @ @ - $ > 7 > O @ 6 I O.z @ % 2 2 t 6 > 2 7 7 8 > 7 h > 1 @ 2 7 2 7 c 2 y - z ) W h < 4 > > 5 2 7 4 O 7 0 6 7 2 , 2 2 > 4 > : @ 6 0 2 - 2 t 7 4 4 w 8 < - 7 v - 2 q j y 0 Q  .z h f | 4 - 0 h 7 u t 0 0 7 i 7 0 V 0 7 0 7 t 6 7 } W D 2 0 t 0 i i 7 l t 7 h 2 - n 6.j.v.z 2 6 z 0 t 7 2 0 h j 2 7 ,.r.S 2 6 7 0 j 0 t 7 7 7 y - S <.e.- 7 2 2 2 t 7 j 7 2 7 0 x z h i @ - h E h x z 0 4 7 > 2 4 2 2 4 4 2 2 z >.x.j.F.0.7 @ 7 7 4 2 @ > p 0 7 , O - u h 0 6 0 7 7 > 2 0 2 > , 1 8 2 2 0 0 7 - 2 7 2 y > > 2 - 2 2 2 % @ % 5 2 7 z Z N > $ > @ > > 2 > > @ > @ @ > < - % 2 2 - > @ @ , @ > 2 6 @ O > 2 > > o @ 7 6 @ > > % > > , O @ % 2 > > > @ @ @ @ y 2 > @ > > % @ @ - > % o > > @ @ @ @ < > % @   0 6 < O O % O @ , - @   @ > @ @ O O O O % @ O > % @ O O @ @ O @ O O $ O @ @ @ ",
"@ @ o O @ O @ @ @ O O O @ % , @ % o O , O O O @ $ @ O o o @ > @ O @ o O > > O O > 2 u 2 > O @ % - @ @ @ % % < - > $ o - h N N 0 @ % % > @ % > 2 o 2 5 - - > > @ 2 % @ 7 4 @ @ , > > > > > @ > % > @ > 2 > - - 2 @ - i 4 > > 2 , @ @ 2 7 6 4 2 4 2 @ @ @ > i 4 > , > o w > , > > v ,.O.0 7 2 7 > 0 , 2 4 @ > 2 t d 7 < 2 - 7 0 h 2 - y 5 z O.+.z 4 2 - > - i 2 > $ t 7 i 7 > 2 > > > y 2 5 & & : 5 > 2 6 - 2 w ; > 4 7 0 0 8 > 7 6 7 z B B h v x c 4 2 l x h 2 > j j 7 7 6 7 h c 0 u l 2 i u R ..D , 7 0 0 7 6 6 0 6 j h q > z i.k.+.h t k u 7 0 2 u z 0 7 @ 2 ,.d.^ 0 7 K 0 0 0 j k 0 0 - - Y 1.( 2 2 2 y 0 6 7 u j 7 2 u h h v 7 2 w u E Y f z u 2 2 > 2 4 2 4 7 7 , > Y M.a.:.a.M.:.h 7 w 2 > 4 > > 7 > , > u h z 7 7 > > 2 2 6 0 4 8 O o 0 z n 7 2 l h 2 y > > > > @ 4 7 > - > & > 4 2 z A v 7 > @ % O > > 2 7 4 > > 2 @ > > @ , 2 > > 1 > > > @ 2 2 4 @ @ 4 7 O O $ > 6 2 % @ > % @ > 7 @ % > @ > 4 @ 3 > O > > 2 > , @ - > $ 2 2 O @ & % @ > , 4 > @ @ % O q d 2 > @ @ @ $ o > > @ O $ @ % @ O @ % % @ @ @ O @ % O O O O o % O O O O O O O ",
"@ O @ > $ O @ $ @ @ o % @ O @ @ @ > O   @ @ @ % @ % @ @ @ O % @ @ O @ @ O @ O $ > - 7 6 2 O O o > > > @ > % , O @ % % O > z T Z 0 O > > > % , 2 > @ % @ @ > , O , > 2 u 4 @ - < 3 @ @ > > > > @ > % O O > > - @ - > 4 @ 2 > @ > > z 0 2 2 @ @ @ , > 4 @ @ u 2 @ > 2 - 2 > 2 5 @ - d Y Q N + @ 2 6 % @ 2 > > @ 4 2 2 0 t 2 0 L h 2 % > 2 z O.) h 2 2 8 6 8 y - 2 0 6 > 2 4 7 u 7 2 2 7 4 4 5 > j 6 > 4 7 4 - i h 0 2 2 4 > 8 4 7 6 7 0 2 2 h k 7 7 4 2 0 0 h u 7 0 u 2 i t 2 l h 0 0 j 2 0 x &.! C t t h h 7 7 v j u l u 0 2 2 6.F.6.0 4 t u h h 0 h z 0 i 8 7 6.d.v.9 2 i 7 0 l 7 7 6 h 2 7 D 1.<.l 0 y 0 j 0 h k i 4 7 l 0 v c 2 2 7 3 z ..Y B h c t 2 y 2 7 7 7 4 & o C k.:.h N k.j.N 1 > 2 7 2 2 - < 2 7 h B N h 0 y 4 > 2 2 0 % @ > @ 4 7 0 l @ > S z - 1 1 > 2 > < > 0 4 @ > > > - z Z B 2 , 2 l 2 > < > h 6 7 > - 2 % 2 2 - O % @ y 8 - - 2 0 u > @ 2 2 - - @ % % < 2 4 4 > > @ > 2 2 @ , > 5 - @ , > > > - 2 < @ @ - 4 > @ 2 5 @ $ @ > > @ - 4 @ O O + 7 h 4 @ 2 % , @ > > @ > @ % O @ @ > > > @ @ o O % $ o o @ % @ @ @ o O O o   o @ O ",
"O @ % o o O $ O   O @ @ @ @ @ > > @ @ O O O % @ @ > @ % % @ O @ @ % > % O o @ @ > , % 6 h 7 @ @ > > @ > > @ @ @ O - @ %   > z C N @ @ > - > > > > % , % - > , $ @ 2 2 7 2 % @ @ % @ % 4 > - 2 3 > > , $ @ - > > @ - > - - - @ - 0 C ^ 9 0 4 , O @ > > 2 - 2 7 - @ 7 7 > > > 2 2 @ - h W ,.d @ > 2 1 @ 2 2 2 > > < 7 u 7 7 k h 6 b > > > h O.2.6 5 2 0 2 4 < 4 7 l u @ 4 2 0 j 7 7 7 2 8 - 6 u 7 h 6 t 4 0 7 0 0 i 7 7 > 3 > 7 t 2 7 2 4 7 q 2 8 4 > 4 t 6 6 t 7 0 7 7 7 u 7 i j v 0 7 7 7 N Q +.Q 4 2 h k 7 6 7 k i 2 7 7 0 h 6.M.2.h 7 2 j h h h c d 0 k 4 6 1.r. .9 6 0 7 i 0 7 7 2 7 0 6 N 6.:.q 7 i 6 7 x 9 j 2 6 0 7 u S h 6 7 4 > - D 9.Y h 7 2 2 t 7 0 0 0 6 @    .N.h.z h N.x.6 # 1 7 0 2 7 5 2 0 z R R d h 7 @ - 0 7 7 2 O @ > 7 u 0 0 h > q A f 2 O @ 5 2 > 5 > > 8 4 @ > ; u F A 0 % , 7 0 2 > @ 2 q 0 7 ; 4 - > - 2 7 - % 3 @ @ > - 2 u 0 - @ - 7 > @ 4 > 2 - o @ 7 > < % 2 4 4 % @ > < > > 2 > o > > , % @ - 4 7 > > 2 2 > $ @ > , @ @ 4 > @ - i h 6 @ % > > @ O < < @ @ @ > @ @ o O > > 2 @ o O @ . @ @ @ o O $ @ @   @ o o o O O ",
"$ @ @   o @ % O o % > @ @ < < > @ O , % @ O O % o @ O O @ O @ > @ O @ @ @ , @ > > > @ > h z 6 4 O O % > % @ > $ @ > > & O @ > z W F - o @ 2 - > O @ > % @ 2 , > > 2 > 4 > @ @ @ 2 - @ 2 - - @ @ @ > - < > > , @ @ @ 2 3 > 2 , - b W E z 0 7 - @ > O % 8 > - < 2 7 > 2 - 7 2 - > w < @ B ) +.x 2 1 > 2 7 2 2 i w t 0 q - 8 7 6 6 7 7 8 > B f.t.0 1 4 0 7 2 > 7 4 > 7 p 5 > 2 - - 7 2 l 0 7 t 0 - u 7 7 6 7 7 u 7 @ 7 7 i l u x 0 4 y 6 h v 7 2 7 2 0 k l 0 4 7 h 0 0 l 0 K 7 > 0 z M 7 t 0 Y ( R  .6 l v t u u t 0 l 6 h v h 0 u.M.%.z d n 0 0 n 0 0 h d c 0 x t.x.=.0 h 0 q 7 0 7 7 7 u u - E e.5.7 u l 6 6 u 7 2 0 l l u 7 u 7 4 > 6 7 ; 0 0 D x 6 < 0 l t - 2 7 t , 5 E M.k.6.<.h.+.- < 4 0 7 > 0 2 ; d Q ~ z 6 0 0 7 7 7 7 2 , @ > % > 0 k 0 N E D h 0 q 4 - 2 @ > 2 - 2 q 2 2 h 7 d J 0 2 i 2 7 4 i 2 > > @ 7 2 4 2 @ 2 4 2 > 2 > , @ 4 4 @ @ - 2 2 5 @ , @ O > @ , @ @ @ @ @ > > @ , 5 @ @ 7 @ @ 7 > > , - % @ % % , - % @ > > > 2 @ , @ 2 < o o - 0 h c 8 O @ @ @ % @ @ , @ , > 4 2 o O @ o 2 - O > @ > O O @ o % o o o % % o @ O O O . O ",
"O @ O   O > % O % O @ @ @ @ o O o @ > @ > @ $ O @ > O o O % > @ @ @ % @ @ , @ > @ O O @ 7 0 h 0 @ % > @ @ @ > @ > > > > % $ @ 6 z Y z - O 2 4 % @ @ @ @ @ @ > - > > 2 2 @ % > 4 2 2 4 > > > O > @ 7 2 2 - > , > > > > @ > > - - q 0 N ..F 7 8 4 > @ > 2 - > - 4 0   2 7 6 > % - 2 2 , 4 d O.( z 2 2 7 7 2 2 6 6 u 2 6 > 4 4 2 6 8 0 2 2 D :.<.6 @ > 7 > 7 u 2 2 @ 2 0 7 > 7 8 > > 2 0 7 4 7 < 5 > > 6 4 > 7 4 > @ i 0 h d x z 7 4 2 6 h d i 2 t h S 0 7 0 7 2 u 0 0 0 x h 0 l h 0 7 0 h 0 [ ..R B c h 0 u 0 u u 7 n h z c 7 z r.b...z B K j 7 h 0 u 9 h h 7 G r.a.E 2 j v 0 7 0 7 0 6 0 7 2 E <.w.q 2 0 x h 6 i 2 7 0 6 0 0 S u 4 4 u 7 l p 2 h u > > t 0 7 7 < 2 7 0 7 9 Q d.n.I.) 4 e 7 2 4 2 2 7 - j Z $.C 7 2 2 7 2 2 2 2 2 , 2 2 @ > 4 2 0 d +.Q 7 6 u 2 - @ > > 2 > 2 2 > 7 x F 0 u i 4 0 q O @ 2 - 6 i @ $ > > > @ 2 7 2 @ 0 u > @ 4 2 % & , < 2 - @ o o , % @ % , , @ O @ @ 4 < @ @ @ 2 2 , - 8 > - > > @ @ > - > @ @ O > < 2 2 7 , O 4 2 $ @ 0 F z - @ O i < O @ % @ % @ @ @ - 3 @ O @ O 2 % @ O % @ o @ @ O @ $ o   @ @ O @ O o   o o ",
"@ @ O o O @ O O @ o O @ @ O @ @ o % @ o - @ , o $ $ O o @ @ @ @ O @ , O @ % @ @ @ , @ @ % > ; 9 z 2 > o O % @ @ @ @ O O @ @ @ 2 - B B z 6 - % - , , 2 % > @ > 5 3 % 4 4 - > , 2 ; 4 @ @ , > , 2 2 4 - 2 2 2 3 > O @ > @ > i l @ q < B ,.~ 6 > 4 > 2 @ 7 2 > , - 2 1 > - 4 , 3 , , - 4 > - x Y ( Z 4 > 2 2 6 0 i 6 0 u 4 4 i 2 6 u 6 @ 8 h ) 6.d 2 @ 4 p j 2 2 > 8 2 2 - y i 7 7 6 2 7 7 > w w 4 2 2 6 i 7 6 4 0 0 2 2 2 2 0 u 2 2 t i u - j 7 u v 6 h u h M 6 i 0 u 6 M 0 0 u 2 0 u h u h z ~ %.B 0 0 u z 7 0 j v h 0 0 u 0 z 6.M.$.B x h l h u 6 h h j 0 q d r.k.&.0 7 j 0 h 0 u 7 h u t 7 G 6.a.b > 0 v 0 u 7 0 l 0 7 u B S 7 7 > 7 0 u 7 t 0 2 4 7 7 4 4 4 y 7 2 7 2 7 4 d 5.d.6 , @ 7 0 - 4 2 > > M z x h 7 5 > 7 2 - > , 7 5 2 7 4 < 4 7 h - h B c j 4 - , > 2 @ 2 4 4 > 2 0 h z h ; > t 7 0 , % > 7 0 2 @ & 2 - > , - 2 @ - 2 - > 4 > > - > > < > > > O > 5 $ % % > @ 1 % @ > 4 , @ 4 2 > 2 > > > > > > > > @ > > @ , > @ O > 2 @ > > O O - 2 z F z 2 > @ O - > O > > O @ O > > @ o % < @ @ O $ O O @ @ o O % @ @ % o @ @ @ $ @ o @ O O @ ",
"@ O % @ @ O O $ O @ #   @ $ % $ > o @ , O @ > @ O % O $ @ O < O @ % @ @ , > > @ - 2 2 >   . O 6 U 8 > o O @ @ , @ @ o O % > > O . 6 D ( D @   @ o > , @ @ @ > > @ O > 7 4 , O > 2 , O % % % 7 2 4 , @ > > > 5 > , , > @ 2 7 7 > v 3 N 6.W 7 % $ > 4 2 > 4 > > > w 0 2 - @ @ > 2 % @ 7 2 > > z >.w.i O @ 4 i - 2 2 7 7 2 6 7 6 0 8 7 , @ 0 O.t.f q 1 @ 2 0 7 t i 0 , a 7 7 2 ; h 0 - y 4 2 t 0 6 k 8 7 4 > 8 2 0 x 7 r , 7 l u i - 0 > 4 8 7 u t 7 4 i h 0 h u 7 2 q u b 7 0 n u h l u j 6 T o. .F h y h h k i 7 u h u 0 7 K 0 e.N.0.N u z h h h h j h u 7 i 0 7.k.q.0 2 4 0 c k h l 0 u u 7 z 1.j.q 8 8 h h 6 9 x h t 4 7 Z B k 0 2 7 y 0 d z 7 8 2 2 < , < > > 7 5 q q y X , 7.4.2 : ; 7 7 5 j p % i h - 2 7 > 8 > 2 4 8 , @ 2 - % 5 : 4 @ 7 v @ < j z 6 > , , 4 1 @ 4 7 t > > j 0 0 h 7 @ 3 @ > 2 - 2 0 2 - > @ - 2 2 5 , @ > 3 @ O 2 > > % > , > > 2 3 < - 2 - @ > > - - 2 > @ 7 2 @ @ 2 u ; > < > @ , , - < 2 2 > O % 2 > @ % @ 3 O @ < @ & > z W B : O % , @ > % O % > @ o @ @ > & & @ @ % > O O O   . % > @ % o O @ @ @ o $ @ @   O % - @ ",
"O o % % @ o   O @ @ @ @ > > @ @ O o o > > 7 7 @ > > @ $ % > > @ O @ > @ $ o % % @ > > @ @ $ O @ h Z C h o @ @ O 2 > 2 > - > > > - X   I ,.N - 2 2 2 4 @ > , @ > 4 %   & , 2 > > 4 7 6 ; 7 $ @ > > . O > 7 , o 3 > $ > @ > $ @ - V ) ..6 O & 2 2 7 2 4 > 2 2 2 > < $ 4 2 2 > y 7 > > 7 7 > O @ E :.1.z O . 2 8 6 < 2 2 4 4 > 4 y @ 6 7 # d r.O.7 O 7 h 7 w > 4 2 > u 7 @ , 4 d x h 4 , - i 7 t > < @ 7 h h 8 2 0 0 2 > 4 h h 6 u 6 7 h 2 8 2 0 u u h x h q h d z f 4 v z J z h u 7 h h 0 7 ! +.W c h 6 6 0 x S x x c u 0 k x z 3.M.O.B u u h h z h u k h v 7 h d.b.=.9 0 0 V z h u 0 u l 0 u A O.Z D A 9 h l 7 h l 0 u 0 h h h u 0 c h 7 5 - 4 0 0 h u q 7 7 7 2 7 & 0 0 0 @ B d.>.d - 7 0 u 4 4 > > 1 3 @ 4 t - 7 6 7 4 , % 4 2 > 2 @ 2 c z f x z i 4 $ $ O 2 u 0 2 2 2 & O d ( Y 7 > 0 0 7 & - 4 @ > > > < @ , > 2 > , % , > 7 2 $ - 7 2 > . & & O O & . & O O > & % O & $ * o # * O > 8 5 O # $ O > 3 ,   O $ , < > @ &     1 4 O > u > , O @ B N 2 O . $ @ @ , O % % @ % @ @ @ O o 2 7 @ @ > O @ @ - > @ @ @ O @ % @ O o O O O o o @ % O . O ",
"O @ O @ o O O O @ @ o o O O , @ o O % % @ > - > % % @ O @ > > > $ @ > @ - O @ @ % % O @ - % o @ @ 7 v x 6 > O @ , > > @ % @ @ @ @ X @ 6 z h P Z 0 - > > > 2 @ 4 5 > - - 2 2 > 2 - > > 4 4 > @ 2 4 O @ 2 > , > 2 % , @ > 7 % @ 7 | 6.Y - @ > 7 2 2 2 < > 2 2 4 > , > 2 7 2 2 > > > 2 2 > , > 7 d B :.) 2 > 6 7 2 > 2 < > 2 - 2 2 3 0 q < d i.) 2 3 7 0 u 8 @ y 4 6 7 u - > 8 7 0 7 2 2 2 u 7 - @ 4 2 6 0 6 7 4 0 b 2 l z h u 8 7 h c 0 t 7 h h t h u 7 h t 6 h V x l v h F n u v u h S n h B %.$.z h h x c x z J z x h k h x Z @.c.,.C x x d x d k x h h 0 7 h i.N.&.0 c u h k h u v h h 2 6 &.,.( V d u u 7 7 0 h 0 2 u 0 A F 0 4 0 ; u 0 7 7 u c 2 7 7 7 > 7 y 2 4 0 2 3 > d a.<.h a y 7 0 - - 7 j - 2 > 2 7 j j 8 2 : 2 2 2 4 i B v 4 2 V V u q 6 2 - @ , > 4 - 2 > > - ; S E D - @ b 9 - , - i > < 2 2 @ > 2 2 8 > > - 4 2 > > 3 2 > , > 2 7 ; 7 2 - 2 2 - - 2 > - 2 2 6 6 - - - 2 2 6 0 2 > @ 2 7 2 4 > 2 - - > 7 - - @ > @ $ O o < > % 2 z ! d > , @ o @ 3 - @ % % @ % 2 @ , @ @ , > > O % $ O @ @ O > > o @ O @ > @ O @ @ % @   o o O @ O ",
"@ > $ o O & > @ o O % O O o O o o @ > @ O O O @ @ o > - > > @ > < O - - 3 o o 3 > @ O @ , > > - - . - x D u - o @ - - @ & , - @ @ , > @ @ - E #.W - O > - + 4 , o 2 2 6 l < @ 8 - @ O @ 2 2 2 > & p 6 2 4 > > % @ , > ; 2 , o h ..( f 2 - 2 4 2 2 @ > 4 2 2 7 > @ 0 0 2 7 q 2 @ 2 7 7 > 2 7 4 2 5 W >.( F ; - 7 4 % 4 4 > 2 4 7 q x u 2 z t.4.f 7 6 l 6 2 4 4 2 w 2 2 2 7 7 2 7 4 y 6 7 6 w > 7 0 v t 7 0 0 7 7 > > x B d > t 7 h h 6 2 t h x 6 0 2 7 u 0 u h v 0 n d B z h x B z 0 u k h z ! 9.E k x B z h S x z z B B h x z @.c.7.C z m 0 S Z z z z x c h z ,.5.E h 0 h x 0 l 0 0 d c k h F O.O.B 6 0 u S S h 0 0 0 7 h &.W 0 3 0 h v u 2 0 0 q 7 2 i q - > a 2 7 0 2 s 1 f r.5.0 > < 7 7 y t 2 u 0 7 7 4 2 i - @ > - 2 7 2 5 6 C ' p 2 9 j > % - 7 2 > > @ > 3 2 @ > x Y N z 2 > 4 - 4 @ 4 y > 2 4 + > 7 ; 2 4 @ @ 2 7 2 > 3 > > > # , 0 B B d z z d z h N f 9 h 0 N z f B z d x h 0 9 z d d 6 h h 0 h d h z 0 ; 0 0 7 9 u 2 # @ @ o @ - z ! z - @ @ < - O > @ > > % @ % > > % % % @ @ @ % O @ $ o % @ > @ o @ @ O @ @ @ @ @ @ @ @ @ @ O O @ ",
"O o % @ O O @ > , @ O O @ O @ @ O % @ @ @ O o @ > > @ > @ @ @ > @ O @ 2 > O O > @ O @ % @ > > > O . O 6 z B h ; 2 > @ @ @ > > - > 7 2   * > ; I +.2 . , 4 @ , 5 @ 2 0 9 v 2 % 4 @ O - > 4 > 2 > O 9 0 > 2 4 > , 1 > 4 7 , , - d q.Q 0 > 3 5 @ 7 7 > 4 y 2 2 - 8 - 0 7 > 4 8 > > @ 4 0 4 @ 4 7 > > u Y >. .0 4 > 2 % > 7 u 8 > u 7 0 q 4 B 1.( 0 t ; 0 6 7 i 4 2 7 4 4 i 7 2 7 2 7 t 7 h 6 2 7 u 7 0 6 > i i 7 u h S z C %.h 2 k k d c h 7 z x u c t u h 0 h h 0 0 z J h k z x x z c h z x N ! Y D h x z h h x x h x x x z v A 3.c.,.N x v v z D x S z h v u h ) r.&.h k h z z x u h 0 v 6 x Y #.>.N 6 l 9 h z h h 0 6 u z W Y d > h h 4 6 h c u 0 4 7 6 9 7 2 7 7 t 0 2 7 1 x r.>.0 @ y u 6 4 i 2 t h 7 7 4 2 6 7 , , 5 t u u 2 j D A D v h p - 1 5 > > 8 - 2 2 0 > - h &.! h @ - 7 2 > 8 7 2 2 @ 2 7 > > 0 q 2 i 5 > 4 7 - 2 - 2 , @ - 6 Z ..o.E / T [ E H E E F k x D ^ F E B T A H S J B B H B h h z x 0 z S x c h c d v h l 6 u u 2 6 Z &.N 6 @ > > @ > > @ , > > @ O , O @ > @ @ @ @ 2 2 @ @ @ $ $ , O @ o O @ @ @ @ @ @ @ @ @ @ O @ O o O ",
"O @ O O @ @ @ - % @ @ @ @ % @ @ > O o - , @ $ > > > @ @ o O @ % @ > @ O O > @ @ O > < > % > @ @ O < , . 2 v I z 7 @ . % 2 > @ - < @ > @ % , - ..O.4   o - 2 @ < u i 7 0 q 6 7 - @ 4 7 2 > > > @ 3 7 2 < - 7 4 @ @ - > < @ > 0 N ) A 7 ; % > - 7 0 2 @ @ 4 4 > 2 2 2 7 2 4 @ - 8 @ @ > 7 6 7 7 - - , h U ~ u 3 > 2 % > 2 q 2 > 4 2 2 2 2 6 6.( 6 5 2 0 0 7 2 i 4 @ < 7 7 2 t u 7 0 u 6 8 - 7 u 7 > 7 w 7 b > 6 d D ..z ..i.@.u 7 0 0 L u ; l f 6 t 0 x S u h h h h 9 h u 0 H A h h x c b h Y i.Y C B S x B S h N S x 0 H H h d e.r.C B x v h A A A V z z h x A <.r.E d u u z v x k x d v j z ! Q :.E S K 0 z x h 0 L u l h f A S 0 0 2 7 0 h u 6 7 @ 2 v V h j 0 h @ 2 h h > f u.6.0 8 > 0 7 2 6 > 2 2 7 7 2 2 6 7 7 2 < 7 2 0 9 T t N } Z 7 5 - > 4 4 @ > 7 7 2 0 u F ( Q 0 > > 7 7 @ 4 4 i 2 - @ 4 6 > 2 2 i 2 4 y > @ % > 7 - > & - D O.W B t t j j S h l 6 j h i p u h 2 7 u V 0 h t i 7 6 0 h 7 2 4 0 4 7 7 4 7 6 c 6 7 2 6 B Z x f 2.,.Z - @ - @ 5 > - - @ % @ > > @ > @ > - @ @ % @ > 4 > @   % > @ o O o O @ o O . O $ o , O O O o @ O O ",
"O @ @ O % , - o O O @ @ o @ @ , @   o @ 2 % > @ % @ % O @ @ @ > @ O @ % > @ @ O @ - > > @ % % % > > > . o ; N B B 7 @ > 2 > 2 > > , 2 2 @ & @ C +.0 @ , @ > > - 0 - > i 0 6 i 7 % 2 6 2 @ > 2 @ - < > , 2 2 > @ - > - > > > 6 z ) W h 2 % > - > 6 i - , > < 4 y 6 , 2 2 , O 4 b - @ 2 2 0 4 @ j h o V ) Y 6 > < 2 , 4 7 7 4 2 - - 7 q 3 0 O.2.v @ t 6 6 7 7 4 0 4 4 2 6 7 0 7 2 0 2 0 l 2 0 7 u w 2 j 6 0 i 7 v &.i.Y Q 6.q.0 2 2 0 k 0 6 0 L 0 0 u h h x h h c x c c k x B z k z z z 6 9 X.X.q.+.A f F B x F B N c u ^ N V N 5.x.=.Y A F z G R h h B B S z x 6.d...N 0 0 x x j 0 z x 0 j h N ( 1.B 0 u h S B z z z 7 h h V z h h j t t 0 0 l 7 7 7 i 0 h x z 0 0 r 7 d j > x 5.:.h 3 2 0 i > 2 5 5 @ 4 4 2 7 7 > 7 7 2 7 h E (  .h C C z 2 < > 2 7 4 4 - 2 7 2 7 v ] ) f % % 5 > 4 4 - > 4 2 > > > 2 2 2 7 2 > > 2 > O % > 8 > > 2 0 1.t.d - @ > O - @ @ > > @ 2 - @ @ @ @ o - @ @ - @ o @ > 2 - > 2 > - 2 > @ @ @ > 2 2 2 , 0 x F x H W f - @ , < o @ > , > @ @ @ o > @ % @ - > , @ > > > > @ @ o O % % o @ o O o O % o @ O   O @ @ @ o o @ O ",
"O @ @ O @ @ O @ O @ @ O @ @ @ O % @ @ % O > 2 O O @ @ % @ @ O o o % , > % O @ > > @ o @ o , < @ > > @ > @   4 j Z Z h < O @ > - - & 2 > @ 1 - f Y 6 - @ - w 2 - 2 O - 6 x 2 8 2 , @ @ > 2 > 4 7 @ @ > < - - 2 > > , @ 5 2 0 0 - c r.[ > @ 4 7 2 2 7 > > > 2 7 2 > @ O > 2 2 2 0 u @ 3 u 6 2 7 u 0 6 %.6.N 0 8 7 0 4 @ 4 2 i 4 4 8 x - - h ..Y F 2 7 7 h 2 2 w 2 i h q 2 2 l 7 7 i - j H N h 2 2 u 7 t 7 0 j 7 - Y i.( W } B 6 k > 0 h v x h h 7 0 h 7 0 c h h h z k h z z N H x B x h J B N Y q.O.B A B D x x S V L x S N B z ..e.i.Y B F J F G S x N E B h A t.r.o.N v h J z S f m J h u k z t.6.z z d m L h z c u u K h x c h 7 7 2 u 0 0 h 7 7 u j - 6 u c l 6 i 0 > 7 5 h 5.,.f > t k 0 2 > , 2 4 > 4 7 4 2 8 6 2 x E D ....9.w.( 6 > 4 0 3 2 q 7 7 7 > @ @ - R Y h q - > , 5 5 > - 4 2 > , 2 , 2 i 6 2 2 > 2 y > > 2 < 3 > O z  .Y z @ - % i 4 > - > 2 > < 8 > > - , 2 > 8 > @ 8 @ @ 2 2 > @ @ % > 2 2 4 7 , > > % @ @ > 3 o 2 0 6 7 > O @ % > - - > @ @ > > O & % @ @ @ @ @ > > @ @ @ > o - $ @ @ > @ O @ @ $ % & @ O O , @   o o @ O O . ",
"@ % @ @ % O O @ @ O @ @ @ @ O @ @ @ @ O @ - % $ @ @ @ @ % % O @ $ > @ @ @ @ @ < 2 % $ @ 2 % @ @ - $ @ > , @ $ + 0 D z : o % > @ @ @ @ - , O @ z ! 0 > 4 ; - 4 2 > & 7 9 V 0 - 4 @ @ 3 3 > > 7 2 2 0 j 2 > , , 3 @ @ > - 2 7 > @ 8 a.6.2 o , 2 2 > 7 > > > > > > % 2 < 6 > 7 - 2 l 2 > t 7 2 t q h 9 W #.B 6 4 i v 7 2 8 2 2 > 7 w z 4 3 u E ! Y d > 7 l t 7 6 2 7 h t i 7 h 7 5 2 u A D Q E k 4 7 0 2 p h 0 c 7 z Q t.q.x i u k i 7 4 h h h 0 M l 0 t 0 d z h L B 0 h E E h J x x z h S B z E Q D E T H B F x Z B z h E G x E D W ,.Q G B H h 0 S x G B x c h @.r.+.z A x h 0 B x h z h h h Y O.:.x S x x S f F x 0 h S z h u k u 7 i l 7 z v 7 x 0 7 2 i 4 0 u 2 q 6 0 i - z f.t.z > > 6 0 8 4 4 2 i > - 7 7 > > 4 h h 9 N D Y h ) } t @ 2 0 2 5 2 2 2 4 y o 6 0 ( V @ O < 2 2 4 @ > i 2 2 i > > > > u 7 2 < > q > > 4 7 4 @ - 7 1...7 o 3 1 > 2 2 > % > 5 > 5 > 2 7 7 > > > > > > @ @ < 4 - - % 4 > % > > 2 > > - > @ @ > - @ X > 2 @ - o $ - % - - @ @ % > > > @ O % $ @ , @ % > > > , $ % % O > , @ @ > % O % @ O O > o @ > @ O o @ $ O o @ ",
"O O % - 1     @ @ % % % @ @ @ @ > % @ @ @ > - % @ @ $ > > > O , 4 % @ @ % @ O O @ % @ % O @ > , @ @ @ > @ @ > o - 7 x f h - @ > % > - @ @ % @ ; b 4 @ > 2 2 2 , @ 2 u v h t 7 8 > - - @ @ 4 - @ 2 d c - > > - 7 - 7 t @ @ > 4 o 8 w.6.0 @ % 2 2 @ 2 i 2 2 2 2 4 2 2 0 t 2 - 2 4 2 2 7 2 4 2 0 7 4 2 B ) Y 2 > 2 7 u 8 4 4 7 > 4 2 0 8 5 2 } +.Y x t 2 2 0 7 > 7 0 0 2 6 j 0 6 h v h ' B Y C h i 2 h j 4 2 h S 0 c z z z h x h 0 5 x h z h u x H x 0 c h h x h h x h A z B J z x L x A J ' h A ~ D B R G A H A x B D D ! C ! E A ..! ] E D A D T B B Y [ B q z ,.d...B F V F H B } h h A B 0 x O.i.A h z h F d z m x 0 0 0 h x l 0 h 0 6 j x x t 0 t t h l 0 0 0 u % t x u 8 Z w.<.h , 4 0 h u > 7 k 4 y 4 7 7 > % 7 4 @ 2 z B h 2 7 7 - 5 8 > 2 > > > > > 2 v Y ) V > 7 > 2 7 7 7 > 7 0 2 2 > 4 > 2 t > 2 2 2 - 4 - 2 i 5 1 @ f ,.&.6 o @ 3 @ 3 2 2 y < 2 4 > - 2 $ - > > @ > @ % > @ > @ % 3 < 2 > % , > > - @ y % > > 2 % O @ @ @ 5 @ > > 2 > @ > 5 @ O , 4 > - 4 > @ , > @ @ @ > > 2 @ o @ O , > > > @ O O @ @ @ @ @ @ O O O > @ @ > @ o O O ",
"@ O o @ @ O o O @ @ @ > > > @ % @ 2 > @ @ @ @ > @ @ % O O @ O > - O @ % > , @ > , @ @ $ O o > @ @ 5 O @ @ @ > @ @   l Z C h ; @ , , 2 4 @ % @ 2 K - @ > 4 - 4 @ O 6 q x 6 > > 2 > < % @ @ 2 4 2 7 h x 7 - 5 - 4 > 4 4 > 2 > > > 2 ;.+.0 < @ > > - 2 2 4 , @ 5 2 u 2 4 > 7 4 - > - 7 6 7 4 t u t 0 2 B ,.Z 0 4 < - > 7 7 7 7 7 0 2 7 y > 2 I O.! x 0 j u 7 > 7 c 7 0 l 7 4 j 0 h 0 0 A R Y h 2 6 0 0 u 4 q S c i h c 7 7 u c h 7 4 v 7 A S c u h S h d B x z H z V B A z A A A x B A C W N A B [ %.A B Y G A B R D } } Y R o.Y A G D ( Q Y =.D D A F T Y T c x @.f.=.f z x F B B A h S D B 0 x i.5.h 0 h z A x h h x c c c x u 6 u V j 2 0 h h 7 6 7 6 v 0 0 2 i 0 , 7 9 0 > N d.6.h < 7 d 0 7 4 w P 2 > 2 i j 2 4 4 , > 6 h z u - @ 1 2 7 7 2 2 i @ y < : v Y D W 4 > t 4 2 2 7 7 2 > 2 4 < , > 4 0 2 > a 2 7 7 8 > 7 > - > 0 ! +.z > @ , > 7 w - 4 2 - > > @ - < > 2 , > > @ & > < , > , % @ @ 2 @ & @ > 2 2 % - @ @ 2 2 @ O O < > % > > i > > > @ , @ @ @ @ 2 3 2 2 > - 2 > % @ % @ 2 @ @ , O @ @ - O , % O $ , , @ @ O $ % % @ % @ O O O o o ",
"@ o O o O % @ @ @ $ o O o O @ @ % O O @ % , > @ @ > > o @ O @ @ @ @ > @ o @ > 4 7 @ O % , 2 > o O 4 @ O @ > 2 , @ @ > 0 Z D 0 @ > . > 2 @ 1 % 9 $.h - > > 2 4 > & > 7 h 0 @ @ 4 - > 2 2 8 2 2 4 2 u 7 t 2 > % @ , > @ > 7 4 > > u O.>.0 > @ 2 2 w 8 2 2 > @ > 2 0 - - 2 7 t 4 2 - 2 6 7 7 0 k 4 - 2 ..6.z @ y 2 7 7 7 2 0 0 t 4 2 > 8 5 f :.f.R 7 d J 7 5 2 u 6 6 j 7 t > l b 2 2 t 0 x x 7 2 7 h @ 7 0 x u 0 7 d S z i 0 h v 0 j } z h 0 0 z V h d x Z J B h D A x G R E z z D x E ! D D R R ! o.A N D E E ! R Y N B [ R D G E W C W W Y [ R W z A H C D A C  .5.Z B F N J E N A | h h V x D +.I v 9 z =.A d l 0 0 h c 7 v h 0 2 u h z 0 7 0 z u 2 0 k h 7 7 7 0 a 6 z l - G c.6.2 > i 0 6 2 j > 7 u 7 4 t 7 h i @ c } z 0 4 7 t 2 7 2 - 7 2 u 7 2 t > d ! D h 2 4 > 2 4 - 8 > > > 2 , > > > 2 > y > % 4 - 5 - 2 - , o > [ ( B 9 4 @ < 2 t 2 7 4 7 2 7 > > > > > 2 - > , > , > > - % @ O @ , > 2 < @ O , > > 4 > @ , 2 @ @ > @ 2 @ @ 4 > > o > 2 - > > 4 > o > O 4 > > 2 @ @ @ o , @ @ @ , @ 5 % o @ O > @ $ O o > > @ $ % O % @ % O O @ O O @ ",
"O O @ o O @ @ % O .   O @ o O @ > O O @ O @ @ % - - O O @ @ @ @ @ @ @ % @ O @ 2 2 > > < - - > @ O - > > % - @ @ @ > @ o 7 Z z j ; . t > @ , + h 6.x - > 2 2 7 > @ @ @ > 2 2 , 7 2 2 4 4 4 2 2 2 > - a t 7 2 2 $ @ @ @ 2 2 @ > 7 c W ,.u @ @ ; 4 2 2 t 7 > > @ 7 0 5 > i 2 2 7 i 7 7 0 - 7 0 7 > < 0 Q 1.D 4 3 8 7 7 4 4 2 0 u 7 u 2 > L 2.f.6.9 7 S z - > t h 7 7 q 2 7 7 2 t 2 t i 7 0 v h 2 j 0 1 4 h S 0 7 2 S B 0 0 7 0 v u j D B T h c x z F z S B z A F A N A D B E F B D [ x D E G D o.Q Q } R Y D W ..@.R A E [ } D S ' Q $.R D ' E R Q E z H E B B Q 6.d.| E G z x J z d Z E x 0 B ] Y / F N B B A h x x k 0 u 6 x h S 0 k x z v 7 2 z u b 7 2 l 0 6 7 j u u V 6 - E w.O.7 2 l z 0 7 0 2 8 - 6 6 2 2 0 z 7 A ] Z 7 < > 7 0 6 0 > 4 2 7 4 2 ; J D z 0 > # 2 > 7 2 o 8 4 < 2 4 @ > 4 2 5 < , @ 7 2 @ > % > 4 > > v W W 0 @ > @ > - 4 2 2 2 < - , > > > 2 > 5 - 2 @ > > > - 2 > , @ > > > > % > @ , @ > 2 % , > @ O , > > > 2 , 2 > @ % O > > > @ 4 < % > @ > - 2 2 o o O @ @ , @ % > , @ - % @ @ O % - o O @ @ @ % @ @ @ > o O o o o O   ",
"O O @ @ @ o @ > @ O O O @ O O > @ O @ @ @ @ @ > > @ @ > O o $ % o @ > @ @ O , 2 > @ @ > 2 @ , @ @ % @ 2 7 @ @ % @ > @ % @ 2 h V z > 2 - > @ @ 7 F h 7 4 - - 4 7 - 2 > @ > < @ > > > - > , 2 7 4 2 - > > i 7 2 o , > > w 2 2 4 @ q ( &.0 y 7 2 2 4 7 t 2 2 i 6 2 2 0 4 2 - 7 - 3 4 7 u 2 2 y 0 > 4 - C 6...2 , 4 4 2 7 4 2 7 4 2 < > 6 +.y.B 0 7 u 0 2 7 2 v x 7 4 7 7 c h 6 7 t u 7 7 7 h Z h v v h c 0 0 h x c j 0 7 h z x F d u h x D / J h B z x h L z F E B E R R D z E R x R D H A D ..o...Y [ [ ] D D D ] W Y E Y Y D A G R &.} R B ' D ..R D N Y R ' Y W i.| z A V z z F N B A B F x D ! R G B f h x S x z l h l z x B 0 V x u 0 7 7 q v 0 h 7 7 8 j c l 6 < u d i 7 N a.6.u y 0 0 u 2 2 j 8 2 0 i , 0 0 z D B 6 y 0 > > 8 c 0 2 4 2 2 7 7 4 0 ~  .0 > 1 4 2 > 2 2 2 2 7 7 7 7 @ , 4 2 7 @ @ O 6 6 2 < > @ > 2 D #.N ; > > - 7 4 2 4 > - 6 4 % & @ - 8 > - 4 > > , 2 2 > 2 5 > > 2 - > 2 @ > - > @ O O @ @ < > % @ 2 > > @ > , > 4 > < @ > @ @ > @ , , > > + @ @ o % % , 5 4 2 @ 1 % o @ 2 $ % % @ % @ > - @ O o @ @ O O @ @ , % @ O . O ",
"@ O 2 > @ O $ @ @ o % @ @ @ O @ @ % @ @ @ > % @ O @ O @ - @ 1 @ 3 4 2 O - O @ 2 > > O @ % @ > @ @ $ @ > 2 @ @ @ > , - > @ @ 6 z B 8 2 > % @ @ u B h h > 2 t 0 > > 0 2 @ @ > > > > > % % $ 2 2 2 7 > 3 > 2 7 t 2 2 > 2 > 7 2 2 @ u <._ 6 2 2 0 2 2 4 7 7 u 6 q - 7 7 - > 4 i 8 > @ 7 0 M 7 4 > , 4 q ! e.C 2 1 2 7 7 7 4 w 2 t i - 0 B W Y - & > 6 @ 4 7 6 u 0 7 i > 7 h h q 4 t 7 6 4 6 d ..+.C f x z u l z z z 7 u h k H B D x h t z h N B z x V S z x H B B A T [ G H H D Y E [ D R T [ ! D R ] C Y *.R $.{ ] =.Q ]  .#.+.Q Q +.Q  ...#...~ #.Y { $.R D ' B Y e.G N S B ^ Y D G =.D B A x B x D B A z S S h x D h h k z S B x N V V u i 0 v v u B x 0 2 x d 0 2 , h 0 j y B d.f.h - 2 7 6 i 7 t > u 0 7 7 - z T ! z O # 2 u 5 2 j 6 2 t 0 i u v k S W D ; 2 2 7 2 - > 2 i 2 0 7 2 0 7 2 > 2 4 2 , % 8 2 2 2 2 @ @ F ) W l @ > 4 4 t y @ - 6 4 7 - @ o % > - 7 > 7 @ % > 7 2 4 > @ > 2 2 2 > 2 , t 4 2 @ O O @ , > > 3 > @ > > @ @ 3 @ > 2 > < % O > 3 @ 2 > > 4 , , @ @ @ > % 2 7 2 O @ @ O > 2 $ o % @ O @ > 2 > @ @ @ % o o O $ @ > O O O O ",
"> @ O > > > @ O @ @ @ O O @ O - > > > @ O @ o o $ O @ @ @ o % O 2 @ @ @ > y > o > 4 > > % @ , > 5 > < O @ 4 > @ % $ @ , > $ @ > 7 h h 6 @ . - Y i.Z ; @ t 2 - - O > 2 2 5 @ 4 4 - 2 , @ 2 2 4 > - 2 i @ @ 4 2 2 - > 2 - - 2 4 - q w.q.6 @ > i 7 - 0 K 2 2 7 7 2 6 > 4 7 2 2 - - 4 2 2 h 7 - t i u 0 Y 6.Y 0 @ 4 6 2 0 2 2 j c 7 u Y ! 0 7 i y 2 8 l 0 7 7 u 6 h u 2 7 0 7 0 7 j 7 h u h N 1.f. .I x h h k c V h 7 l h x 0 z x d V c J h z D E h x z A A D E E B F Y D [ [ D R o.E Q o.R Y ! Y %.*.[ [ o.D A F Y R D B Y Y Q Y (  .Q O.O.Q W B Q Y W ..] Y R ! W >.&.B E E A D ~ E D N N x B D D Y Z N A B z F D F z h h z z z S x 0 j h l 6 d 6 0 0 0 7 h x 0 0 u < c d j > Z s.5.0 - 7 k 7 i 8 2 2 7 u 6 6 6 x B h 2 > 3 - 0 2 > 0 4 2 2 7 4 6 D Q W 7 @ y 7 > 8 0 7 > 2 2 2 2 2 4 > 2 4 7 > > 2 t 8 > > 7 > , 6 B ! B 7 - @ 5 2 - - - , > 2 u 7 6 h c V V x j 2 0 8 4 > 5 2 4 > > > < - % @ @ , 0 2 > 2 < 1 , - > @ > @ > > 5 > > @ @ @ @ - 2 2 O O O > 2 > O 2 @ > , 2 > @ O @ 2 2 2 o O @ > - O @ @ @ , @ o % 2 > O o @ @ % @ O O @ % o O O ",
"> < o o 8 2 @ % @ @ @ @ O % @ > - @ @ o O $ O $ @ % > o O O O @ 2 . @ @ > 0 @ @ > 7 @ @ 2 > > @ 2 > @ . , > 2 > - O , 2 - - O 1 8 u 0 h , X o ) N.( - , % 4 @ , O o 4 0 2 @ 4 t 2 @ @ > 7 - @ @ % 0 0 < > @ 2 7 2 4 2 2 < > @ + i :.6.h # O < 4 2 h 0 2 > , > - 4 @ 2 t 6 i 2 8 4 > @ 7 0 2 7 i 7 9 +.6.I 4 # 8 2 8 y 7 2 0 6 0 h Y F O < z N u u x z 7 j 8 u u z 7 2 4 l t 2 7 6 0 m A +.w.w.u.) 4 8 0 x 6 t t S z x z M i 0 S Z h k c ^ W ! h u B R W R Z E E C Y ! ( o.D D ( G $. .R T %.W ] Y V V Z / ^ P F T -.^ / E / / &.+.} Q ,._ 2.../ x v V H F E R *.>.&.Y Y { F | D Z ..G x S D ..q.#.S H N E B z F u v x v x V h x h u 7 h 0 M i 0 t 7 i u 0 S S c 0 < 0 z u 2 N r.6.2 5 y u 0 > t 4 l 0 0 q q E E z 2 3 7 h 7 7 7 4 h 0 > % % > > Z 1.C @ 1 > h > # t 6 8 > > y 8 , O % @ 5 4 % @ 2 h 2 @ @ y @ @ v ( I 7 & > 6 7 1 O & O t 7 - 2 7 ^ / U ( ( N h 0 x 6 6 2 > 4 2 - > > y > $ $ & . - > > - 4 2 O % y - O O 5 - 2 > , , @ o 1 @ 2 - @ % - 2 > $ @ 4 @ - 2 7 < > @ o 8 2 4 @ > > > - O - , - > > @ O > > o o @ - - @ O O   O , % O ",
"$ O O o O O O O O O o @ 7 2 @ @ . o % 2 @ @ @ O @ % % @ O , > @ @ > 7 h 7   O 4 - @ % % % > @ O - - > @ , @ > - % 3 < > 6 > O 3 @ O 7 1.<.I 2 v t.0 % % > 7 : , 7 2 4 2 > 6 6 7 - > 5 @ 2 7 > > i , - 7 u 2 2 w > > > 3 2 4 4 7 N d.( h 2 > 4 2 u 2 6 B Y V > 7 > 0 k 9 h N z 0 6 h 6 @ 1 y 2 7 8 j ~ r.) 9 2 > 7 8 2 u x v 2 0 4 7 7 7 j 5 2 h B h 0 - , 4 h 0 u p a 7 0 0 u r 7 > V e.i.z c 4.I u N 2.E 7 h h k t c 0 d S V z i D S B } h h ! ] x W $.D A D B D ^ Y ~ Q Q Y X.R E P ` ^ P P I ( r.u.V./.lXpXuXlXzXlXzXSXAXFXAXZXAXzXAXvX*X/./.G.z.g.d.>.Q ( I ~ _ c P / &.Q Q A { [ Y R G Z T v D E F B E A x h A A h h x A h q z x B u j 0 x B v 6 u x V z j 0 z h w q 2 D O.,.6 2 4 0 h i 2 0 0 5 3 ; O.,.z > - 7 0 j u 7 2 6 0 0 c j h G ) Y 4 , i 7 u 7 > i 6 2 4 @ 5 3 @ i > > 7 7 O & < @ 4 ; 9 , * . C r.&.> $ 1 @ > 4 > % 4 2 > , - 6 C &.z @ 1 y @ @ O 2 > 2 > , 2 7 w @ @ @ > > 8 % % 4 7 > > O < 2 2 , O - t 0 > - % w 4 @ % 2 > > @ - > > @ @ > 2 @ - @ 2 >   @ 2 2 > > > > > @ @ - @ @ > @ O O - @ @ % O O o . o $ > % . @ @ o O ",
"@ O O @ % % O % O O O % > > > @ % @ o > @ - @ @ % > > > - 2 - @ % @ > 2 7 + @ 4 2 > @ > O O % @ - > % > > O @ @ + > - > , , @ @ 3 - ; Z ..2.Y f ( - @ > 0 > - < 2 , - 2 2 4 > > w @ % - 7 4 4 < > @ > u 7 4 7 2 > > > 2 > 7 4 - v j.:.> < , 7 7 7 2 > v x q 2 7 7 h k h k i 0 0 q 7 7 7 - 2 7 7 2 2 6 W 6.Y 0 7 4 2 2 7 i 7 0 u 7 2 j 7 7 2 4 h h h h 8 > 4 7 u u d h 0 v 0 0 d x i h D #.Z E ,.r.F G A h v 7 c q u x h B D z B i Q D x x D E F H D B E D H E Q Q R X.{ E T &._ ] ] Y N Q @.u.!.wXKXDXPXHXbXDXDXZXbXZXDXDXZXDXzXlXZXZXZXZXDXDXKXLXPXKXKX>XVX&XV.p.@.W D I Y +...T T F E D Y Q W D D E [ z N S H H z z B z x H x x F x c h h d h S l h 0 c h h l x v c 0 i l z 6.6.9 7 i h 0 u 7 6 u 4 d E Y Z 0 , y u 6 6 i < > u 2 - - 6 f ! &.h @ , > 4 2 7 y 4 7 7 > > 7 > 2 2 4 2 b u > 4 7 , u u 2 @ @ N ) Y 6 2 2 - > > > > o < 2 @ @ 2 D ..x 2 5 > 2 2 > 1 2 2 2 > > @ - < , 2 2 > > % @ % @ @ 2 2 > > 8 2 - 2 > > > 2 > @ 4 @ @ 5 2 > > % % , @ 2 > @ , O 2 3 - , O @ 2 8 2 - % @ @ 5 > @ - @ @ @ 3 - > > @ % @ @ % o @ o @ @ o @ @ o O ",
"O O @ @ @ @ @ % % O @ @ O , > @ > > O @ 2 7 - O O % @ > 4 0 2 @ @ O $ o 5 u 4 @ O & O > @ % @ 4 > @ % O @ 2 > 2 2 > @ , @ @ , @ , 2 @ @ q [ +.Z f o O > 2 > , 2 @ O 3 i 2 > , 4 > % @ 2 - > 2 4 2 , 2 t 6 2 - > - < < > > 4 2 2 M d.W > 7 6 w 2 > 2 2 2 > 2 7 l h h 6 6 2 > @ 2 7 2 7 l 6 j 7 2 2 5 > 2 C O.I j @ 0 0 > > 4 0 v x i 7 u i 4 7 i 7 0 j h 0 t 7 7 h x z z l 2 E O.! | 7 - 0 ! %.( d.$.h u 6 z S v k z z h F B D x V D Z x A B | x x J A E F F E Q Q R #.H &./ / C Y @.g.(.NXDXDXLXDXSXlXyXvXlXzXlXlXvXlXcXyXtXlXlXnXZXzXlXlXzXvXvXzXZXnXnXZXLXHXDXZXnXNXC.u.@.Q D f V | } C o.*.] Y T ' &.! B D A L 0 0 A F d H S B x m h 0 V L h 7 0 7 0 u 0 h 0 u 2 u x K 4 z f.<.f i j 0 6 l u 2 < 0 W q.F 2 8 - 2 0 0 0 2 5 4 q 7 > 5 D W q.x - 7 t < O < t 7 2 q y , > 7 0 t 2 0 7 0 7 i 0 2 2 0 4 . , C 6.! 2 , 2 u 2 > , , 2 > 2 4 @ 7 x ! Z @ 1 , - 2 2 @ < 7 2 , , @ > 2 > 5 - 7 2 > , % , 2 @ u u - @ @ - 2 j 7 @ % @ @ > $ > > > > @ @ 5 % > 2 7 7 @ > > @ , 1 > - > $ @ q 0 > % 2 @ > O % @ O @ > > > 2 > o > 2 % @ o @ O $ o O @ o O ",
"@ O @ @ @ % @ , @ @ @ @ o @ > @ @ @ @ O > 2 > O @ , > > > q h 2 @ @ o O - 0 7 @ O O @ 4 > o > < - @ O , % @ 2 - % , > 2 > @ > 4 2 1 2 O o 7 D q.,.N : @ % - ; 2 - , > 2 > - > 2 % - 2 7 2 1 % > 8 , - 2 7 4 > 5 7 2 2 y - > > 6 V c.Q > i 0 7 4 > 7 0 5 @ 7 0 7 h y - t 7 2 , - u 7 2 2 7 i 2 > 0 7 , $ v >.t.C 6 k j 4 > 8 6 0 0 i 6 0 0 2 7 2 0 u 7 0 h 2 4 2 7 0 L A d h Y ] B h 0 K 0 v d I @.z 0 k c A S h x x x x h B G x z [ Y x E A x B B D R Y D Y W E / &.+.D C B  .d.(.BXDXDXGXCXCXAXCXvXZXpXxXZXlXlXlXZXbXlXfXpXvXcXcXZXpXxXxXxXzXvXlXAXzXlXvXAXzXzXAXAXHXDXLXKXIXC.@.D D W I [ [ } E A D ] o.R $.N A h H F A J z z G x 0 k x B z S j n u j 2 h n u 0 7 0 J x u B 1.>.z 8 j 7 h 0 h c 5 0 ( +.V h 2 7 2 > 0 l 2 > 8 4 7 v ^ ( +.N 4 > 7 u 7 > < 7 4 q 2 - < > 2 - 0 2 0 t t 2 2 u 7 0 2 > 4 z 6.+.7 > < 2 p 7 > 5 2 2 8 < @ 7 G D B ; @ % > 8 7 > - 2 2 4 > @ > 4 8 > 2 2 t 7 w 4 > > 2 : j t - 5 - - 2 2 2 - @ 5 4 6 @ @ 2 2 @ @ - @ @ - 7 2 > @ @ > @ > % + < @ @ o 2 4 - @ 2 @ @ @ > @ @ , @ @ > > - O @ @ @ % O @ o o @ @ O O O ",
"@ O @ % O @ O O @ > @ O O @ > @ @ o @ @ % @ @ 2 2 @ - - @ 2 j v 6 4 > , - 2 2 % O @ @ % @ > 4 - - > @ , O @ 8 > @ O > - 4 4 O > > @ @ 4 > o - E 1.<.N   > 2 - 2 - > 2 @ @ , - > @ > 2 t 4 @ O 2 2 @ > 2 4 @ o 8 7 2 7 2 % 5 4 7 Z d.#.7 > > 2 4 4 7 > t t l 0 0 d , - b h d 6 2 u x 0 6 2 > 0 0 x 2 > 5 2 C <.) C 2 < 2 0 l 6 7 0 u 6 S l 7 7 z h 7 l 0 0 t t u > u 0 d R ..C u t 0 V B h h c H B d v h S S 0 x z h x h x h V H x A B G A F A E ]  .] Q  .o.T ^ T Z I @.G.(.MXHXLXZXbXAXCXCXxXxXpX*XpXcXdXpXpXpX;XuXdXXX3XdXuXfXXXaXjX;XaXsX5XlXbXbXlXCXxXCXzXAXCXvXzXlXzXZXLXLXKXkXC.8.) I Z ~ L $.D D W Y o.D D D $.B 0 V z F A 0 d J Z h x A k 0 u u 0 h h h 7 h j 7 x S z 1.:.d 8 4 h L 7 h h y 0 Y ) A u 2 l 2 2 > 6 7 2 2 > 7 D >.,.f q - 4 6 7 h 0 2 8 7 7 7 7 4 4 > @ 7 > 4 y i 2 @ y 2 4 O < Q t.Y h > 2 > > > > % > 7 2 O > 0 z Y D 7 @ , < > 4 4 2 t 2 @ > 4 2 i 2 > 6 0 2 < @ 4 2 > 2 6 t > o , 4 7 5 O o 2 b - > > @ , 4 2 4 > 7 4 7 > - 2 2 @ o , % & - > 4 > @ > > @ , > @ o , > @ > , @ @ @ O $ @ @ @ O @ @ O $ O   o O o @ O O ",
"O O @ @ O o o $ @ o @ 1 @ @ > , @ o @ O % % > 6 2 o > , @ o 2 z 0 2 4 > @ > < 3 @ % @ > @ 8 > o @ @ > @ @ > @ < @ @ > @ > 2 @ 4 > > - 2 > @ O > C s.6.d - , 8 - > > @ > , > > 4 > > 2 2 - > @ 2 - 1 > 2 4 - 4 q 2 j > o 3 4 - - E >.+.j 2 > 4 q @ 4 4 ; 0 u > h d > 2 0 0 h c u 2 h u 0 > 2 l h 0 7 2 2 2 0 Y 6.6.h > 7 6 6 0 0 4 n d 6 7 7 u v u 2 l u 0 2 0 0 h Y F 0 E t.R 7 i f Z z h u x x N 7 z B 0 z x A J x H D B d x F D E L E A D G D R ....! E T D B  .u.(.BXLXHXFXCXAXvXbXpXNXbXcXaXlXiX5XuXaXtXcXiX+X5XfX/.0XhX*X;X-X3X5X^.3X5X5XcX;X5XcXpXyXcXpXlXtXnXnXbXCXlXCXAXAXAXLXLXVX~.@.G N z ~ / F x q.] B D W G v x H B h u J B K h h A h u u h z h 0 l u ^ Z 0 l h C t.e.h y i 0 0 u u 0 y 2 Y o.A 0 t 0 i > y 4 t 0 2 > D Q 1.N 2 p 8 i @ 7 l 0 6 u t 7 6 2 - 8 7 2 @ 2 2 @ 2 4 2 > 4 > - f <.,.2 o 2 y y @ 2 - > 2 2 3 % 7 N ~ F t O o > 2 - 3 5 - 6 0 @ 5 5 2 8 > > 7 i > @ , < > 7 u 6 i < % < > 2 8 % O > 7 2 4 5 > , - - 4 2 7 6 8 @ @ 4 > @ O , O > > > > , > > 4 @ O > 2 > @ < O % 2 > @ O @ O @ O   @ O @ O $ @ O @ O O o O O ",
"@ O O % @ @ @ $ @ @ % @ @ o @ % , O o O $ > > - < O & % @ @ % > 0 7 > , @ @ O O @ @ > > - @ O , @ @ , > > > @ @ 0 7 - @ @ > > - - > 4 2 @ , & O o z 6.s.N @ . % > % > i 4 , @ - - > , - 7 3 > - u 4 @ 7 2 ; 0 h q 8 > 2 7 q - @ l :.1.z 0 - 8 7 % < 7 0 l 2 - K 0 z x 7 2 i 0 2 - i i 7 h j u u 7 2 6 0 h 2 2 C e.:.9 2 y h u 2 y x q 6 7 u h 6 7 q 0 c u 7 i k ..t.,.Q D D B N Z A h m x l h h ' v h V z D G A S h z E R C E E [ Y D D D { o.[ D [ ! Z S N Q g.MXLXDXDXAXzXAXCXvXpXpX5XiXiXXXgXxXuXfX+X^.=X6XY.E. X X8XXX;XaXaX XE.XXkX-XXX7XgXiX3X;X^.mXaX;XfXtXuXpXtXlXzXlXzXzXSXZXZXDXLXDX(.g.O.Z T ^ E ..C E ..N F D z ^ B J B G d l S 0 B z c u j h x h h 0 z z h u 2 B 1.:.h 2 j x 6 u 0 h i 7 f +.E 6 2 O 6 0 l 4 < 6 0 V :.O.W u - 4 2 7 7 2 2 6 0 u 6 7 v 0 2 2 6 i q j b 4 2 2 7 i q % ) i.Q 0 > 7 > , , - 2 j 2 2 > # h h ~ ! 6 O $ > 2 7 > > y 2 @ 2 - 4 - > > 1 2 > % @ < @ > 7 - > - y 4 > 8 2 > - y 2 > > 2 4 2 > @ % , 2 @ 4 > - % @ , 2 - , O O > @ O O 2 > @ > > @ @ @ - o % @ @ O @ > @ @ - % % O o 2 , . O , , @ o & o o O ",
"O o % , @ @ @ o @ , > @ $ % @ @ > o @ O o > - @ @ @ o O > > @ o , 0 i 2 @ > , @ & @ > > > @ O % > > O @ > 2 > > 7 i 2 > > @ > % % % > > 2 - @ > # , h a.a.N O > - , 2 2 - - - y q > @ 5 2 > 2 > 0 > > 7 6 j v c 7 2 O 4 0 7 2 8 $ Y ,...C - > > 2 > 2 c 0 - > 4 2 ! | 0 4 7 - 2 8 > ; 0 v 7 ; 6 0 4 0 p 4 4 3 6 E 5. .d t M 0 6 y x 4 4 7 x k 7 7 u 2 0 7 v 7 z ! ( ,.7.G 0 L =.N 0 u h h h S H B S h h N E &.A V S d x D R G B F Y ' H R Y &.[ ~ ~ C C O.C.kXHXGXAXCXCXCXZXxXnXcXuX*X*X^.XX5XdX;XXX-XY.#X4XXX/..XkXY.T.XX`. XXX4X+X:X*X+XY.^.Y.9XoXG.XX=X/.8XiXxX5XaX;XcXsX;XmXDXSXZXCXCXAXGXHXPXVXV.O.Z W Z ! R A B D F E N x B R D x d x B z E z 7 h h h h S h 0 v z l 4 0 ,. .0 7 0 A 6 7 l 0 > t N &.C x < > u u ; 4 4 u N [ 1.N 0 l 7 u 8 2 y > 2 y > 2 i 7 h u > 2 > b u 2 j 0 > > 0 0 ; z r...7 - 4 7 2 > 2 8 7 7 4 > > > C Q F 6 O , 5 2 - 4 7 > 2 7 , > - 7 < > @ 2 2 @ @ > > 2 7 - @ > @ O @ 2 i 2 < > 2 @ , > > > > @ @ @ > > > > > 2 % % % > > > > , > % $ > 4 % @ % > @ , O , 2 @ O < > @ @ @ @ , > @ > > 4 > o O @ O @ @ O > o O ",
"@ O @ @ O @ @ % > > @ > > @ > @ @ @ O @ % % o o @ O O % @ % % @ 2 % 7 z 0 2 O O o @ , > @ @ @ > @ @ @ @ > > 2 O @ - > > - - > < + > < - > , > O @ o 2 I 6.<.Y > # 2 7 > > 2 > , 5 @ 5 > - 2 > - 2 7 8 @ > j d 2 4 h - < > > 2 i > @ T 6.O.h - @ > t 0 7 2 2 4 2 7 6 2 2 2 6 7 4 4 d B 7 w 2 u k 0 0 7 8 7 7 4 5 7 Y 6.:.C 0 i h 0 4 2 0 l j 0 v h 0 t h x h n h l W O.B B x F x h 0 h h h h v B D k A W R A z N H H S B A B F H ~ E ~ ] Q D Z T Y Q u.(.DXHXZXzXlXvXcXaX;XbXcX5X*X=XXX+X X+X4X@XY.[.oXT.U.oX<X@X@X6X#XD.'.oX X@XwX8XY.iX-XT.`.XX3X4XE.XX-X-XE.E.XX8XiXXX-X5XuX5XdXbXvXzXvXxXlXlXvXZXDXKX(.@.D R L E E H ..} D D B T N E B J H z S z L B z z S S x h H F h 4 z t. .0 7 i 0 u c 7 > 8 7 W ..B d 6 t < 2 d l > 4 :.f.z u 2 t k 0 7 4 0 7 7 7 2 t 7 0 0 6 2 7 2 2 b 2 - t 7 7 @ 2 ..a.} 2 > , > 7 2 > a > - 7 , @ 6 T 9.D 2 & 2 i 0 3 @ 2 h 0 > @ 8 > 4 > , 2 2 j t > > 2 i 4 @ < 4 > $ @ - > 4 < 2 t % O @ 2 > 4 > % 4 2 2 @ 2 @ @ 3 > @ 2 2 - < < , @ & @ % @ > < > @ , % @ > @ > O > , O o @ @ @ O   % > 2 - > o O O o % > @ @ @ ",
"@ > @ O O @ O @ @ @ , > O @ 2 @ O % @ - O 1 % O O O @ % % > > @ , @ - 0 c h > @ O % @ > @ @ @ , - > > o @ @ > 3 $ @ 2 2 7 , @ , 3 @ - > 2 @ $ @ 3 @ @ 7 z ) r.F > ; 6 , @ 7 > - > > 2 - 4 4 7 8 2 7 6 3 < ; 2 w u u 2 2 4 > > 7 > O 6 Q 1.O.Z 2 2 7 7 6 4 - 2 2 8 0 2 % 4 0 0 < 2 x h 0 i 2 u h 0 7 0 > 2 2 2 > 4 6 W f.e.N 2 w u 8 7 0 c l 6 u h 0 u x S h h u t B z B | A 0 0 q h n J h h h S R | x R ! N S D E R A B A D F D Y G ! D } &.D W C.VXLXAXAXAXlXcXbXfX+XE.8XfXXXXX+XXX6XE.9X4XD.E.-X+XE.qX+XY.4XoXY. X#XU.E.-X+X XU.<XE.=XhXJ.Y.oXE.oXXX<X^.0X4X+X-X^.+X4XY. XfX5XjX/.cXbXlXaXfXvXcXzXJXGXHXMX>X0.z z ) ! A E x A Y B B ! x z x N B x z A z h K z z h N A 0 y C f.6.z t 0 u z j 0 i i 2 D [ A h 7 4 > 4 h u 7 x i.O.@ 5 y 2 ; 4 2 7 0 0 2 2 7 2 7 7 h u - 4 i 2 2 2 @ 4 u 6 2 &.i.<.@ & 1 ; 7 y 2 > i > 4 , @ 2 B ,.! 2 o , 2 0 - 3 > q l 2 2 8 > > 7 - > 2 0 x M - > 4 7 7 > 3 > < 4 2 5 > > 4 2 5 > > > 2 2 > @ > 2 4 > 2 j - @ > - < > @ @ > 2 @ o > - , @ < 2 - > > O , @ % % > o O + , 8 @ o O O % > 4 > > @ $ % O O @ O O @ ",
"O @ > O O O @ @ @ O O o % 2 - > % - O O % > > % % O @ @ > 2 @ O O - @ @ 7 h h 2 O % - > > @ > 2 7 , @ @ % @ 4 > % > 2 7 > > % @ , % @ , > @ > w 2 > , X - z +.1.U O @ > 2 2 4 2 4 2 @ 5 , @ 2 2 > > 2 7 2 2 2 h K 4 4 2 2 4 4 - 2 6 - @ G f.r.g @ > u 0 u 2 2 4 5 4 y 7 t 2 i 7 2 7 2 6 M ; 0 0 6 4 u 7 4 l - i q 2 6 ! 5.1.A > t 5 h d 6 u q 7 0 x z 0 0 v 0 j u x x ! | d h h h h x x x 0 J F J Q B A D N E E B A z N F E E R D ! ' H C C u.NXKXHXAXCXvXzXzXcXbX5X=X X5X-X6XY.@XE.4X4X+XY.+X-X8X^.<X@X4X0X+X3X6XoXY.-X+X3X-X-XY.oX+XXXhX-X-X-X4X+XXX^.#XU.oX9XqX6X^.4X9XY.3X=X+X6XuX;X;X3X;XcXtXlXCXAXZXSXZXMXV.<.C U T G A ! D E E z S E B D D B h A x d v h 0 z n 6 x n D 5.O.z z l h 7 2 S z t h B Y Y z 2 0 u u 2 u D +.Y f 2 4 4 4 u 2 4 > 7 7 7 u 7 > 2 4 0 h 7 2 > @ 2 u 7 2 - h W 6.W ; # > 2 7 4 - 4 > - 2 5 > 2 z  .D - @ , > 7 7 : w u 7 - > > 2 6 - , O 2 0 z J H h @ 3 7 2 2 > > 4 2 - @ & @ - i - 2 h 6 ; - $ % @ - , , > 4 8 % @ , y < % @ > 2 4 > 7 t 7 4 4 > > > @ @ , @ @ > > O % 2 2 , @ @ > > 4 2 4 , @ % $ @ % @ o O o @ ",
"O O o @ O @ O @ @ O o % @ @ @ @ % @ O @ @ % @ > > @ O , > @ > @ o > > O > 0 z 0 2 - > % @ > > 2 2 O @ > O - y > 2 6 2 4 O @ 4 4 @ - - > @ 4 4 > > @ > % O 7 z ) s.b @ 2 4 2 4 2 2 5 > @ 2 y 4 - 7 5 > 0 7 , - 0 h 7 > 7 2 - 4 7 7 6 , @ 7 ) r.t.z 2 2 7 7 q 6 2 > > > 7 t 6 2 2 7 2 l 0 0 7 7 7 i 7 7 0 7 i t 6 7 2 4 w ~ f.( d 7 - 9 V 0 h 0 c u z z h j j h 0 d h } R x h S B h h z 0 F A R N k I } B A ' D G R E F Z Y ..~ D ! &.D B e.(.KXGXAXzXvXvXcX5XdXdXpXuX:X5X=XY.=X+X%XoXE.#X+XY.hX-XU.XXqXU.G.:XiX*X/.#XE.E.4X`.Y.5XhXY.;X+X=X=XsX:XY.+X-X4X9XY.@XG.`.jX^.^.=X=X6X+X=XsX/.*XjX;XuX*XuXgXxXyXvXCXAXGXHXKXC. .Y Y D G T z B H z A E B h B x x S 0 0 h M z k u | q C ,.4.N 7 0 0 h 7 S 9 d x C 6.+.N 7 h k u 4 h C q.S h p 7 4 7 0 2 7 > 2 j 2 7 t 7 7 > 2 7 7 u - 5 w 0 7 2 6 ( t.) 7 - , 2 t 7 2 > , > & > + 0 F ! [ 0 < @ 2 2 7 - i 7 0 - > , 4 2 7 3 & > 0 x x 0 f ..d - 8 > @ - > 2 2 @ @ - , 4 0 h 0 F H 0 @ > 4 7 > % @ @ > > @ % , - < > > 5 2 7 6 4 2 - - 2 7 2 - @ @ > @ @ , @ O @ 4 4 $ @ > 7 2 - > O o O > @ O O @ o O % > ",
"O O O O @ % % @ @ O & > % @ @ O @ @ - @ @ @ @ $ % @ % - @ > , - @ > - & @ - 2 z z 2 @ , > @ > > > @ @ 2 7 @ 4 > i 0 2 > - 7 t < 2 > 7 > @ - 4 @ @ < > 4 3 , h D ) 3.N 2 O @ 2 - 6 @ % % @ 7 4 - > > - 9 u - 4 7 2 0 7 2 4 4 2 4 4 7 2 4 > 2 D f.a.B - , 2 j t 6 u 3 7 h 7 4 2 j h c 6 j 2 7 2 > 8 j 7 6 t 2 u 0 7 7 b > u Q >.t.C q l 0 7 u x 6 h c 0 h 7 7 u h h j h z h M z h z d x d E ^ B } E B [ F A B G | A D G [ W ] o.} E W ] C.KXDXCXvXzXyXbXlXmXiX=XpXXXY.;X=XXX X+XqXoXJ.`.^.XX+XE.+XE.XX=X X7X:XXX;XXXhXY.,X`.@X+XhX-XY.6X X=XaXXX+X+X6XXXY.Y.-X0X4X6X;X+XXX6X=X#X+XhX*X-X0X/.;XsX*XmXmX6XuXxXCXzXvXCXGXLXnXu.Y Z / T ! o.G A G | z z B F 0 v h h x h x x 7 n n C 6.:.6 t h h v 7 6 j K 6 C q.W S 6 u q > 2 2 0 Y E z 8 > 2 7 4 4 2 4 7 4 > > 6 h i 2 3 i 2 0 0 i @ 7 - 0 ( f.,.9 @ - 2 > 2 7 > 2 > y 1 - z Q W B 2 @ 4 2 4 2 2 > 2 8 2 0 2 4 > 4 2 > - 6 x x c 0 C Y [ B 3 o > 2 5 @ < 7 7 2 > 2 h 2.[ Z V K - > 2 i 7 4 , > 8 > > @ > 2 2 2 3 @ - > 2 @ > 4 4 2 > > 2 4 , - > - $ @ > 4 > % - > ; 7 7 7 > O % % > 4 $   @ O @ @ - ",
"O O $ O O > @ @ @ @ @ O @ o % % % @ > > - % 3 % O , @ @ > O O 4 2 @ > > @ @ @ B D h 2 - > @ @ > @ % - 2 2 > O > - 7 t - > 7 2 @ - > 2 @ < > > @ O 5 4 6 2 > @ > : a.i.v @ @ @ 7 i > @ % 4 7 0 > @ 2 5 4 2 2 4 @ 7 u 0 ; % 2 y 2 , , 0 7 2 & - ) d.t.S > 2 2 2 7 0 < 7 0 6 2 t 0 d V h 7 i 7 7 7 i 7 6 0 t 7 7 i u 6 d 2 7 h ( d.>.V d 4 0 h V 0 d u h 0 0 h k x v 4 h B L 0 h B F A } B B N z x B u E A z x J A B ....W ..*.Y B C u.VXDXAXzXlXcXpXfXpXuXXX;XuXiXoXW.8XsXXXuXhXE.E.`.+X XXX+XY.#X9X`.=XE.#X6X X0X=X=X;X4XJ.U.^.6XU.^.qX#XXX8X5X X3X+X X9X-X4X X5X3X*XfXXX-XT. XgXgX3X+X3X+X5XaX;X/.=X3XaXuXfXMXlXlXlXGXGXDX(.] f B Q ] E G G F A A G R x h x E B z N ' h q c Y r.6.7 t i } h q 0 j d x D Y C x 2 i i 8 7 0 - c $.f 4 2 0 0 0 2 2 2 u 4 a > 7 K 7 ; - 7 4 2 h 0 - 4 9 ~ t.W 0 @ 4 > 7 r @ 7 y < 2 2 @ 6 ..O.Z i o 2 2 2 4 2 7 7 2 7 0 0 6 > 2 t t 4 h z H Y H v F C ( Y 0 @ 2 4 2 s @ 2 0 2 % > C >.W 6 0 h c 7 > 6 7 2 4 > @ @ - @ 2 4 - > 4 > - , @ > @ , > 2 4 > > 2 , 4 > @ @ O 2 2 2 > < 6 2 7 u 2 O O , @ % 2 o O @ O @ @ O ",
"@ @ @ % @ > > @ o @ @ @ @ - - @ O 2 2 @ @ 2 @ @ @ @ > > > @ @ > @ < < > @ $ @ - 0 B z 7 > @ @ O O > 5 @ @ @ @ 4 - 2 7 h h 7 - > - > > > > y 2 < > @ 2 2 - @ > o @ C 1.v.v - 2 3 4 2 - % > i 0 2 > 2 3 > > 2 2 > > 4 2 2 2 @ - > & 5 0 6 2 > 7 N U f.e.z 6 2 2 7 6 0 4 2 2 j u 6 6 0 0 7 u d x 0 j 7 7 u 7 l u 6 q 0 q t i 0 S Y ,.6.N h h 7 6 h v d u 0 v S 0 v h z x x z 0 x F z B D E B S E B h [ ! o...T z [ [ [ [ Y ' D N ] Q.HXDXbXCXAXZXbXyXsXuXmX:XY.E.-X[.^.=X6XY.E.0XE. X4XXX0X=X XT.E.^.+XXXE.4X6XY.G.T.-XXX`.,XE.XXE.T.;X6X3X XY.kXE.*X XY.-X-XXX4X=XE.=X;X+X XG.+X;X;XjX X4X=XXX+X*X4X*XsXfX*X*XgXpXbXCXSXCXGXLXkXg.Y z W ' Y D C T G Z z Y ! G } z A z x B B 7 Y t.( h q u z 0 h q 0 A -.B ! D h 0 7 2 q k 0 0 R ! f a 7 v 0 u i 4 7 7 7 t 7 7 2 - 7 2 0 7 < > 7 4 0 o.6.! 6 % > 2 2 2 2 < 8 4 2 8 7 6 W q.C 7 > > 5 @ 2 7 4 2 - 5 - t 6 2 - i u 0 7  .( ! F E d h x ( ( v , < 4 > , - > 7 4 4 6 #.6.N d z ! ^ 7 i h > @ > 4 , , @ @ - @ 2 2 > - - @ @ , @ @ @ @ 2 , > @ @ > > @ > > 2 7 q 4 7 7 2 u 2 @ @ O @ o @ @   O @ @ @ @ % ",
"@ $ O > - O , , O $ > O > 2 > < - 2 > @ > q - > - > > > @ - % O . ; - > $ % @ @ 2 B C d @ @ O o > , - @   $ 2 2 > % 7 d z 7 , , w $ % 2 2 2 7 2 2 > $ 1 @ % > , > d U <.5.j , @ > 7 7 @ % 0 0 6 7 7 5 - , 5 > 2 > @ 4 0 u , & 1 3 ; 7 , 4 7 q ; > W b.c.N @ 7 7 < 0 y 1 > h j , > 5 > 2 0 z z h 9 4 7 7 u u 0 h q 7 4 0 2 2 4 6 ^ a.6.h 7 8 0 V 0 A h j 0 h x S M N x V d x J z h F A h Z B ^ D c ! C ) t...E A ] ....' v 9 i.UXHXFXAXAXlXxXdXdXuX;XuX5XhXU.).[. X6X/.3XkXE..X X#X X*XuXXXE.[.4XhX6XY.E.-X+XXX4XoX0XXX[.[.+X6XE.-XuX*X+X4XT.+X+X0X@X[.^.Y.E.+X6X4X8X+X:XsXiX;XjX=X=X+XhX X*XsXXXtX;XcX;XE.;XuXuXgXlXzXZXSXFXGXDX~.q d W G Y o.T J S z [ ..z h n h q u J x N =.q.! z d k 0 x k B h 0 B W  .W D 0 2 0 0 v z C +.T f < 4 0 l 2 7 u 7 7 4 0 u 4 % , 0 7 0 7 @ X $ x Y r.W 2 1 % q 7 , 4 4 6 - @ 4 @ j C 6.+.; @ 4 6 > & % 2 2 4 2 @ 2 u 0 1 > h x 0 l w.i.N 0 B h 4 9 C t.N + , 2 2 % 5 4 @ 2 0 f @.:.h j ..,.z 2 h u & O > y > % @ , 5 @ @ , > 4 @ > 2 - % , O @ % @ % O % @ o O t u < @ 7 0 > % 4 0 @ o % @ > , O O % @ - % $ o - ",
"> o O $ o o > @ @ < > @ O 5 > - o . @ 0 h 0 2 2 4 % % 7 2 @ % > > @ @ - - > , @ O O 2 Z N 7 & & @ 2 > > , - > > % - , 2 Z E 6 - @ & % - - , - 2 4 2 q 2 > > 4 7 4 &   t @.a.( , & 7 6 2 - @ % > @ > 3 2 - 2 2 5 , 2 y > 4 2 h 0 d 1 > > w i 2 @ 1 . j k.a.B : 6 0 4 1 7 7 6 0 j t 0 7 z z 9 0 h y > > 7 t 8 4 h j 2 2 7 0 4 2 > 8 @.s.6.C 6 a 7 h v 0 h u 0 l h q N E T B z B B z x F G N B z E T ^ h S N D ' B ] +._ g W (.DXDXCXvXuXpXuXuXuX4XOXD.U.J.,X+X=XY..XhX;X;XaX-X^..X=XgX:XY.oX-XXX^.=XXXoXE.Y.oXsX5X`.T.4X X4X$XD.U.tXiXY.#X6X^.jX^.@X+XOXT. X+X3X-XcX=X X/.*XsX3X4X.XD.XX+XoX XhXaX;X^.+XiX=X*X5X8X;XuXgXcXZXZXvXAXAXbX8.g ~ G { ] ) D S x E D D ..C J B Y Y d S F ! B z h 0 x B x ! p 6 Y >.:.T 7 7 > w x d 0 B =.D @ h 7 t 0 > 8 < 4 4 z N C V 2 3 @ 2 z c $ - ) <.F % > 4 t 4 2 2 6 6 h > O > 4 ! D V y o 8 2 @ 2 3 7 q 6 , s > > > , o & 8 c E Q :.Y B z B 0 h h Y <.V O O - > @ d y o 4 u - # 4 0 N ( Y 6 2 0 z 0 > @ > @ @ > 7 2 - , < - > 2 - < < @ O > > > > > @ , - 4 h u f 7 % O % , - > 2 - O , O O @ > , $ , @ @ > @ O ",
"@ O O   o $ $ @ @ @ @ o @ - - > @ > O 4 7 6 0 - 2 - > 8 @ O % O > > 4 2 > > @ % % O O 6 F h ; @ > @ > 4 > 2 2 @ @ > - 7 u z F h 6 o o > 4 > < > > 4 7 > @ 2 2 4 > > 7 4 N t.t.N 6 @ > 7 6 @ , 2 2 2 > > > i 2 - > - 2 2 4 4 u l 2 % 7 t ; 2 > > 2 2 2 B c.f.N 2 5 q - 0 8 - 7 0 2 6 0 h c 0 t 0 7 7 h u d 7 7 0 > 7 t 0 l 0 l 6 7 z o.t.W 0 2 7 v z j u h z h v 0 A A ^ S h z S A B / A x G D E ^ C C G B ! ..Y &.( I 3.>XPXSXlXvXuX;X-XhXhX5XXXU.wX-XY.+X+XY.`.J.E.iXgX+X+X,XY.Y.;XhX XE.3XE. X-X4XOXE.@X#XE.0X`.E.wX6X=XXXY.#XhX4XY.XXhXsXXXXXXXE. XE.oX4XE.Y.kX5XiX6X@X4X XY.T.oX0X4X6XY.G.5X;XuX3X X-X4X4XhXcXuXuX;XdXzXCXJXbXLXKXg.D Y &.E W R Y A G G D E } E D E A z F D z c z x A A S k d 7 V Y +.,.E 7 0 7 u 0 2 7 A ..Y $ 4 7 6 7 i 0 2 7 u 6 0 h 7 2 - 7 8 2 2 9 Y s.,.h - y 7 6 y > > b 0 0 2 , 6 } ..B 0 @ , 7 - y 7 2 4 2 > > > 4 4 - 5 , @ 7 l x N C &.! z d } T x Y [ 7 - 5 2 2 - 2 4 > 2 u 4 6 u ^ Y Y f u c t 4 2 7 - @ 8 2 - + < 4 > > - % > 4 @ 2 % @ , & > , @ @ % - u 0 0 0 2 @ % @ @ 4 4 @ % @ $ O @ O o @ o > @ @ O @ O ",
"O O @ @ @ @ O % O o % - > > @ @ > > @   @ 2 6 0 ; 2 i - O , @ o O @ - @ @ o O 3 > % o , 4 h N 6 - % 2 2 @ 2 @ > 2 , > a O 2 H C N - % @ - > 7 , , > > @ > - 8 2 4 > 2 : > B s.a.I @ * 2 7 - < > 1 6 7 > @ 1 > > t > - > 2 > 8 y > 4 2 i - 7 7 7 7 0 4 @ z B.rXz & 0 u 7 w q 0 z q d 7 2 t 0 h 6 u C F 0 2 0 h t 7 7 t 2 0 c h 2 h , u <.6.+.0 u q h d 6 v K h 0 h z x h h x x x A C H x x $.Y h S  .] [ Y ! W [ ~ C u.KXHXvXxXbXlX;XaX8XoX`.`.Y.T.kXsX*XuXqXqX6X7XY.-X+XoX+X6XoXOX.X#X3XoXE.E.0X@XE.A.Y. XE.3X4X+X X#XE.Y.;X@X.XT.+X6X0X*XkXY.8X+XXX+X6X6X0XoXY.XXdX6XU.E.4XE.jXfX+X^.6X6XsX5X^.uXpXiX^.J.+XXX:XuXdX5X=XXXxXZXvXvXAXSXDX/.W g U { R D } Y Y Y D G | D B S h G W D l u x D x 7 0 u h f z E ..h 6 2 h h , @ z +...C > 7 6 0 7 7 j k 0 7 @ , > @ 4 ; 0 b 1 @ ) r.6.h 2 4 - 2 7 7 @ 5 0 t > @ 7 D O.) x 6 > > 2 2 2 > 2 2 @ > 7 t 4 6 5 > 7 7 - 8 > 2 z [ ~ ! ..Y ,.' 0 7 - 2 2 8 < - @ i 7 2 > - L Z B u 7 0 h v 2 , - 7 2 @ > 2 4 o > 4 > > % > , > > 2 4 > O O @ > $ % > u 6 0 6 2 O - w @ > 3 @ > @ @ @ > O o $ @ % @ @ @ $ o O ",
"@ . @ - > @ @ @ O , @ % O , > $ @ @ > O O > 4 7 6 6 2 O O % @ @ @ @ - > > 4 > @ @ > , % > u Z B h - a > 3 @ @ > 2 2 > > @ - 7 B o.C 6 - & 4 > > % @ > 5 > > > > 2 4 4 , # 7 C a.a.h 2 > > 7 > > 4 2 0 0 % O @ 0 7 4 r > > 4 > 2 ; p 4 i 7 t 2 2 2 4 2 e + U c.1.9 > 7 6 q 7 2 0 0 7 7 2 7 0 7 u 0 } z 7 2 7 6 0 0 6 j M c u u h q 2 6 z t.w.W 6 7 S z h 0 h x z V x Z G F v h A B z J z B [ R B G +.] T R ! D ~ Q (.DXZXAXvXxXcXdXgXiX=XoXS.`.qX+XXX/.uX3XD.Y. X3XXX-X.XY.+X4XoXD.oXY.E.4XY.#X4XY.+X@XwXY.jX:X XY.E.hXwX^.qXXXD.#XXX;X=XY. XfX5X`.@X+X X*X-X X`.XXXX,XY.J. X+X=XXX^.hX:XE.;X*XT.aXaXE.5X+XXX-X6XE.5X;X5XfXgXdXxXvXCXzXJXHXkX>.Z | R W ] B [ E Y A N E z A | z Y T 2 7 z G h 7 h h q u E D z 7 0 0 S 0 > 6 Y O.D 6 > t 0 h j 2 6 7 k h 2 < y > 6 2 0 i 2 ' t.6.N 4 i 7 2 y 2 @ - 7 9 2 , 6 Y 6.Y d 4 2 7 6 7 4 - > 6 7 5 - 2 t 7 2 8 @ 2 7 2 4 5 @ 7 h z z Y D  .B 2 , 4 2 2 , 4 i > - 6 4 $ @ 6 h 7 @ 2 0 j x 7 > @ 2 4 3 @ > > > > > @ > > % > @ < @ , 2 - @ @ % % @ 7 j 0 7 > > , @ > > 2 @ o @ $ O $ > @ % $ @ %   @ > @ . O ",
"@ O O $ - > @ O @ % @ O o   @ O @ o % > @ @ @ 6 0 2 O @ % o @ 4 @ @ > % 7 2 > > @ > % @ @ , 2 z ^ f - O O @ 5 > - > > @ 4 4 2 2 P ) W 6 @ > 2 2 @ 2 > > > 4 - 4 2 - > @ % > - B r.d.C + e 7 ; 2 4 @ > 6 i > > 2 4 - 4 @ 7 7 2 7 i i 2 > > 4 2 0 u @ 8 2 > 9 Y rXa.z 4 , 5 q 2 2 0 2 7 i - 0 h l 7 u 0 u i > - x x j 0 h z u 7 0 0 f 8 > D r.s.G 2 N A h 0 x z S z z z Y } n S [ F B B B [ D G E Q ! ] W ..P N W (.LXAXlXZXbX5X*X5X=X6X:XXXT.XXhX5X*X5XsXXXE.U.Y.XX/.+XoXE.qXY.`.sX XY.+X6X+X7X X+X0X#XwXU.+X+XG.hX XE.hXXXY. X-XgXbX*XXXhXXX6XhX.X.X@XG.XX6XE.-X<XOXY.7X=XXX^.E.^.*X5XE.XX*X^.U.-XOXU.jXBX XXX X-XjX+X*XmX=X6X;XlXzXCXzXvXHXKXu.h v R Q Y Y D [ G D E x F ^ d D A J h V z z k h h 3 7 ~ v.[ 0 t 2 i 0 h I :.q.B , 2 u k 0 l i 4 4 u l u 7 2 > j h - 9 O.f.o.6 - 0 b w 2 i > > h 0 7 @ 2 C e.,.d @ @ 7 7 ; > 4 - 2 - 2 7 0 2 @ 7 2 4 8 5 > i 2 4 4 & 4 7 A T Y q.h 0 > 4 2 2 - 2 2 7 4 > @ @ 2 - > > > - - 2 M S z > < % @ y > - 4 > > 2 , > > - > - > $ @ 6 u @ O 6 V h 2 4 > > > % @ @ @ @ > > > % $ o @ > @ @   o O @ O @ @ > ",
"@ O % O @ @ O % o @ % @ o O @ O o O $ > @ O O 2 6 2 - % O $ @ @ 4 O o @ 2 @ > > > < > - % % @ u N ! 9 O % @ - > - @ 3 < - > < O @ W 9.F > @ i 7 - > 2 > > 7 2 4 % - - , 4 2 3 - z f.f.B + 1 w : 2 2 > 7 2 2 8 - w 7 7 2 2 2 6 2 > 6 7 > 7 7 7 0 7 4 7 z 0 8 - 6.N.t.h - > , 4 h v 7 7 l h 0 7 7 0 > i 0 7 7 t x B u 0 h h 2 7 K j z i , 2 Q t.:.z h S h c z z k h h H E B 0 B Z E z B ! [ B D C Y ~ #.Y } B ( 0XHXvXAXZXdX6X*X5X3XoXXXkX^.4X-X XXX4X6X+X+X9X`.-XjX4X-XXX+X+X X*XhX+XXXXX+X0X^..X3XoXY.Y.=XY.9XXXsX0XT.^.aXoX@X#XuXdX;XY.4XE. XE..XU.Y.oX@X3XjX-XU.OX X5X*X4XkX4X;XhXiX4X6X-X%XG.OXV.#X;X*XXX+X^.4X@X^.;XhXT.+X5XcX*XZXnXlXAXAXbXV.z N G D [ ' D F D E E A N N N A } D x h x 0 v v 2 u C 6.:.h 7 2 2 x +.O.,.W 0 , 0 0 0 0 6 > 7 t 2 > 2 7 t 7 0 > d ) r.f.- o 1 7 > - h 0 > 4 y 0 , 0 Q O.+.0 @ @ 2 u 6 4 7 y 2 2 @ 6 0 j 4 > 2 < > > 3 @ 2 j 2 7 @ % 8 h Q Q A ; 2 2 4 - 4 7 7 - 0 i $ $ 5 2 % % @ 5 y @ o > z D 0 > @ @ < > 2 2 2 > @ - > 4 , > @ , > O 7 7 @ 7 h V h 2 > @ @ @ > - @ , @ @ 4 > O o o > > @ @ o O @ o @ o O @ ",
"@ o O O O O o @ @ O o % @ , , @ O @ > O @ @ @ @ 2 6 6 - > O @ @ % 2 > > @ % > , > > @ @ - > , - 2 D A 7 2 < > - % , , @ > 2 > % - u C Y Y 6 < > > 4 8 4 7 7 4 > O 4 i 4 y 2 > - 2 A t.f.B o , 7 7 > > @ > 4 2 w 7 7 4 2 2 2 7 7 > S z u h 7 > , > q 0 h q > @ 0 :.N.r.f 2 > 4 u j 2 > v h u 7 7 0 8 7 t l c v 0 0 l u 2 0 7 j K v u 0 c 0 0 Z O.6.Y ; 0 h z S x x D B ' z h z ^ D ! A R D [ E D ! Y Q ! F >.pXbXzXzXbXDX5XgX8XXXU.+X+X^.-X XG.iX-XJ.U.Y.hX4X X-X0XT.XXjXXXoX XXXU.XX6XqXJ.`.W.Y.E.oX+X X:X*X XOX-XkX:XY.0X`.9X6X X/.hX5X6X^.^..X^.6XqX`.T.XX=XsX^.-X+XsXuX*X#X+X;X X^.>XT.E.-X XT.XX5XXXY.=X3X+X<XT..X6X^.E.5XsX;X XmXuXpXCXpXvXKXC.Y ..R ' Y D B F R F z [ G D B f B A z F z h b h z o.#. .N v u Z Y I ..B u 7 i 0 2 t u 2 2 j h 2 8 4 2 0 l 7 : O.w.! v - y 5 2 i u 7 u > 3 % > 6 Y :.+.z 2 % 8 2 7 7 2 > > 7 4 7 h 7 - % @ > > > 7 > @ 7 6 4 7 2 > & ; B 0.C ; 7 4 > 2 4 0 4 8 > > , > 4 > > - > 2 @ % < 4 2 z D h 2 8 2 > 7 i @ @ 2 7 2 - @ - , > 2 4 O O 7 F N 0 - 2 2 > @ - > 7 - @ @ @ , > @ % @ > O @ % O O @ @ o O O > ",
"O O O $ $ O O @ , @ O , @ o @ O @ @ O O @ O > @ @ 2 0 2 % @ % @ $ > > > 4 @ @ > > > % > > 2 @ o $ 6 B F x 2 > > , > > % , > 4 < 6 $ 2 D 2.B 0 - 2 > , > 4 4 > 2 - 2 0 > 5 & 2 2 7 @ 6 :.r.C > - 8 u 6 > 4 > 4 > > 7 2 t 7 4 2 4 5 0 0 l 2 6 2 > > 6 0 t u 7 2 7 1 w.k.i.B 0 t > 7 7 2 h z 7 7 y 2 2 2 7 0 z z l 0 j 2 7 u 7 0 v h t 7 N h - t z 6.9.f z z v h h c A z A N H x | N $.D D D G Q W } ! } z 8.gXGXlXcXcXlXtXaXcX^.*XT. XJ. X).E.@XsX<X].T.`.6XXX*X#XU.`.^.-X+XoX3X4XE.uX3XE.U.J. XT.=XE.6X3X*XiX5XY.G.;X*XXX-XY.3X3X=X^.XX=XXX6X-X#XY.;X^.G.U.9XE.XXsX6XE.4X=XjX/.XX-XXXoX XE.D. XkXY.*XsX0X+X6X X`.4X X`.OXoX5XsX+X XoXsX;XcXMXcXvXbXKXG.Q Y W D R Y A z z E D R R Z h S F z z S 0 k v d ! Y N V V D ( t.T 2 > > 8 6 u 7 2 4 > y b 7 2 7 > > 7 u N &.j.:.0 - > t 2 u i : 2 M 7 ; w j D  .[ d 2 5 @ 7 i 7 7 < - 8 2 - 0 7 > > , @ % > 2 7 7 2 y 4 @ 7 u 2 > h N I q.B 2 > 5 7 2 7 - 2 4 > 2 - - - 4 2 y - - % , > @ u x z 7 - > 5 8 2 2 @ 4 2 2 5 2 2 < @ 2 <   @ v z f 7 @ @ 2 > > % @ < @ o > % @ @ @ > 2 , $ & o > $ @ o O @ @ @ ",
"@ @   o @ > @ @ @ @ O @ O o @ > @ @ O - , @ @ > @ @ - > 7 7 2 @ , > @ @ , 3 > @ @ > > < @ 2 2 > @ @ q C T 0 2 7 - - , - o @ 4 > u > O O D  .) 4 @ 2 4 , > > > 2 4 @ y 7 @ 4 8 4 4 @ > z :.c.W - & h 2 > , 4 2 > > 2 2 u 0 4 2 > > 4 t > > 8 t t < 2 2 4 8 u t 7 > q i.m.r.d & 4 7 7 7 i t 7 u 7 7 0 a @ 2 u 0 0 0 7 2 u l u 0 0 i u 0 z x v 0 6 B f.w.Y z 7 x x h h H E D F x G B Y R ! R ! W 4.@._ ! u.MXDXzXzXZXbX/.;XuXXXXXMX3XU.#X6X,XD.,XT.XX6XsX4XY.XXXXXXXX'.+XXX`.`.+X+X<X+XXX^.6X-X+X XiX6X XoXT.+XfXfX;XuX*XcXZXpXtXxXgXfXtX6X*XmX5XiXXXXX:X;X+XhXE.iX5X4X+X X3X:XgXmXXXqXjX4X-X;X=X6X*X/.hX X XhX^.Y.J.U.Y. XT.E.hXXXqX=X*X5X*XfXZX:XlXCXPXkX) N H *.Y  .[ &.D z x F S | h h x h S d h B h J z A h h Y t.t.x < y 6 6 u z h 7 2 i 6 2 4 7 0 7 5 > j +.r.+.9 > 3 2 4 t 2 2 2 u 0 - 2 h W q.Q 2 < 8 - > > < > 4 > > 7 4 0 6 7 > @ 8 4 5 > - > 7 0 2 O 4 2 d h 7 c B N C S 7 > 2 4 2 > 2 2 - > > 5 > > < 4 2 2 @ , > 4 - , 7 6 2 2 > @ @ , 4 6 > @ > 8 4 > 2 > O @ 7 z Y C 6 $ % 2 - @ > - > @ @ @ @ > - < > 2 4 - @ @ o @ $ $ o % % O @ ",
"@ > O O o % @ > @ > , @ O O o > @ % @ 2 > o O % % @ $ @ 2 0 6 > @ % @ > @ @ %   @ @ - > , 7 7 8 @ @ > d T +.z 2 > , @ 7 y > 7 > 2 , @ o 7  .@.I 6 > @ 2 7 > < < 2 o 8 7 2 - 4 6 7 > & @ E s.r.T 2 , 5 4 - 4 2 7 0 7 7 u u 2 4 2 4 < 7 4 4 4 2 7 4 t 2 > 6 u 7 2 5 > ; r.~.f.N - 4 7 2 i 2 0 t j > 0 i 2 < 7 t h t j 7 6 u u u 7 0 h 0 h h h c j 6 O.f.5.C h n h L x Z V z F D R A D A R [ @.#.*.0.Q @.VXDXCXxXZXzXuX:XhX=X^.MX;X=XqX X+XE.Y.#XW. X=X*XjX4X=XsXhXXXY.E.+XOXY.oX+X+XXX6X6X X=X6X^.sXuX*X*XhX;XdXxXbXbXcXvXbXvXvXZXfXMXcXcXuXcXdXpXnXgXfX*X5X=X^.jX-X`.^.`.:X*XXX6XXX/.;XY.XX6X^.+X#X*XhXY.OX X-XXXE.wX X`..X#X6X+XXX*X=X4XXX;XpXnXbXzXSXDXG.W C [ D o.o.Y V A | A A h 0 S ^ x A z k z h x B S H ..Q t.B 2 8 u h u 0 2 i u 6 0 2 7 u 6 7 u 7 6 W f.<.7 , > > 0 6 2 4 8 7 7 < 2 v :.t.E 0 > > - 2 < 7 @ @ 8 4 7 > 4 7 4 > < 2 2 7 - 6 8 8 2 7 > > 4 4 V f 6 0 u u z h 0 7 7 7 4 > > > 2 8 @ 3 > @ - > 7 2 @ > 2 i 2 @ 4 7 0 j 2 @ % > @ 4 > 5 , > > > 7 - @ 2 z z B t @ O < @ O , > @ @ 2 8 @ % > > 7 2 2 @ % % O @ @ > - @ O % @ % ",
"@ @ > O O @ @ O % @ @ @ > > @ o @ - 2 > > O % - % @ @ o @ 2 2 i 6 @ 4 2 - > < > - > 4 @ $ 2 2 2 > > 2 + 6 ..+.9 7 > @ - t 7 @ 2 > 4 - @ > 0 Q 1.B > $ - 2 > > 2 5 @ t > > - 2 7 2 3 , 5 2 h ,.r.W = O > 7 4 2 w 4 2 > 2 4 7 7 8 4 2 0 0 7 7 2 2 7 7 7 0 7 7 0 0 7 2 - 0 f.b.M.D 7 i 7 ; 0 b 2 0 7 u 7 S c 2 i q u 0 h 0 h h 0 h h x V d x h 0 c h h E >.) Y z x K z h B | B B T B A E o.Q W 4.E / V.gXDXlXxXnXnX;X*XjXoXY.wX*X-XT.U.+X7X^.XX4X9X+XY.^.6XoX=XuX4X+X^.J.9X0X-X;XoX-X^.sXmXXXY.6X5XbXCXzXZXZXlXDXnXZXZXlXZXlXlXvXZXlXbXtXzXnXbXpXcXuXpXxXyXvXaXuXyX5X^.;X+X6XsXXX^.5XmXXX^.oX3X=X X:XuXkX^.%X^.-X#X`.+X0X@XE.Y.^. X-XaX4XXXoX*XjXgXgXvXzXZXDX(.Q N ^ R Y D G $.Y D [ z J x A x z h t h A N v @ h <.,.h 0 7 6 0 k c z 5 2 6 l 6 > 0 u 7 6 4 9 Q 6._ 7 @ , y 7 0 0 7 0 0 2 @ @ 0 I ,.W 6 2 < 7 2 t u 7 > > 4 7 2 i i > > 4 7 i < 2 2 7 0 7 > > > 7 7 4 0 h 0 7 0 7 h z h 2 > > 7 7 2 > 8 4 2 7 4 - > 2 @ % i 2 2 4 2 O , 2 h z h - 2 < @ @ @ 7 2 @ @ O > @ 0 } R f - O $ @ 8 > @ $ > 7 o @ 4 - > @ > 0 q 2 % O o o % @ @ % @ O @ @ @ ",
"@ , < @ @ @ @ . @ @ o @ > - , O @ , > @ @ O , , > > > , O > 4 6 6 O - > > > > 2 6 2 5 @ @ < 2 2 w 7 , @ @ 0 o. .f 0 , - u > @ 2 @ 5 6 > @ @ 0 W ..V > 5 > > > 2 2 > > > > 2 7 t - 2 4 2 @ O z c.a.b O > < 8 ; 3 4 4 w 4 > t j 7 7 7 t 7 q i 7 7 7 2 i 2 7 7 7 M 6 7 i 1 ; w.N.d.C 0 > 7 h 0 7 t h 0 7 z h 0 y 0 0 h c 0 h h x v x B S h 0 0 u z A 0 > / 6.O.R x h D B A F F F A D D ! ] o.%.~ Y e.DXGXlXbXbXxXcX;X5X6XU.D.T.E.4XU.`..X^.-XhX^.^. XoX4XoXT.+X3X3X X;X`.XXXX*XXX*XgX*XtXlXcXpXnXZXGXAXAXCXSXzXSXZXlXlXvXSXzXzXDXvXCXzXzXGXSXFXJXvXZXCXCXlXZXpXxXlXcXZXcX5X=XXX6X+X;XuXiXhXU.3X4XD.6X/.+X-XY./.@X+XE.@XXXXX+XXX+X#X5X5X-XE.E.+X;X;XtXdXvXxXZXPX(.D T ' B W Y Q h !  .x A z x z x x 0 h z A S 8 6 +.C t 8 i q 0 7 0 h t 2 0 u u l 0 2 t u z ) f.>.2 # 3 % j 7 2 b u u 7 8 @ h Q ,...; y 8 2 0 h > i 0 > y 7 q u 7 > 8 < - 2 q @ @ t c 7 2 2 < 4 7 2 8 ; 6 u t 2 > 6 7 0 7 > > 7 i 2 > 7 2 7 4 2 4 4 > @ @ 6 0 2 2 @ > > @ 0 u 6 0 u 4 % @ 2 2 4 < @ o > 0 N ! z 7 $ O - > - < > % 3 > $ @ 4 > > < 2 7 2 @ @ o O @ O - @ % @ @ o o $ ",
"@ o % @ , , O @ @ O % @ @ O , @ @ O O @ @ > > @ % @ > > - > > 2 7 7 2 - @ @ > 4 > > > @ > 2 - - : 4 % , , + 0 q.W B 7 @ > % @ 5 4 > 2 ; 4 > @ 0 Y ..f - @ < > 4 7 - , , 2 - 2 2 4 a 2 > 7 % -  .s.s.C 4 % , 4 > 4 7 4 7 8 > 7 @ % 0 - @ 2 2 > 8 0 6 4 7 0 7 u p 6 2 i 5 @ 0 6.k.k.T < 7 0 0 8 7 h 7 u h h 0 6 6 u 0 h 0 0 k h 0 6 h x x u 0 j h h B c h &.6. .Z Y H z | x Y E ' ! B ..Q D Z D g.kXHXzXlXbXpXcXiX+XoX X;X6X XT.`.T.9X`.#X^.E.=X XE.5XiXE.U.oX7X8XqXjX=X;X7XiX*X5XyXlXxXpXZXDXvXCXZXlXzXzXAXzXSXJXzXCXCXSXAXAXAXJXAXAXAXGXJXCXyXzXCXFXAXAXZXzXCXzXxXDXyXdXpX*XfX6X`.=X:X;X*XoX+X@XOX=XY.wX X*XjX X=XkX^./.sX+X^.5X6X3XE.XX-X XY.4X^.tXDXlXCXZXLX(.W S Z Y ] E E E A C F Z V S D F S k z h k u h z 7 2 t u 0 7 p 7 h 0 K 0 2 v m 7 , 5 S :.r.+.0 2 8 y 7 7 i 2 @ > 8 < 2 z 1.:.D 6 7 8 2 ; 4 7 7 2 2 2 7 > 7 7 6 2 7 t 7 8 , - y 7 7 2 4 4 4 @ 2 q h u u j 7 2 7 7 > 4 7 2 0 0 2 % @ h t @ % 4 4 > % 4 i 2 - > % 2 > > - 2 t 7 7 0 2 2 > 7 4 > > @ > 7 B ! d > < % % 2 2 > @ 4 4 % @ , , @ 2 6 2 4 - O O @ @ O @ @ @ $ @ o O o o @ ",
"@ . o % 2 O O > % @ @ @ O o @ @ % O o @ % 2 > O @ @ > 2 4 > @ - 3 0 7 4 > % O > > > < @ > > % > 2 @ @ > < $ - z ) ..0 > - % % 4 4 @ > 1 t 2 > O d ..( Z 2 % 2 @ 7 y > - 2 7 2 2 8 2 > 2 7 7 % 0 H k.r.c @ 2 2 2 > 2 w 0 4 > 2 5 2 u - 2 q 7 2 4 0 i 7 4 0 0 2 7 3 2 q 0 < 1 6 r.I.6.h t h ; 7 4 u u 7 7 y > 7 v 0 0 u n 0 0 h u v 7 0 z S h h h j Y C 0 z  .O.q.e.F B A [ Y o.B G E [ R ! z 8.DXGXCXvXbXpXpXfX5X`.4X3X*X;X0XT.T.`.A.OXhXhXoXkXhXXX*XfX4X@XY.-X+XE.6XXXaX*X6XuXlXxXZXZXvXzXZXvXzXlXZXbXbXbXZXGXHXLXHXLXHXHXLXHXHXDXLXDXHXHXGXGXHXJXHXSXzXnXzXAXAXzXZXCXZXZXDXvXuX=X#X;XuXiX X X6XE.*XXX-X4X6X;X;X4X XXX6X*X X3X*X;XhXE.-X4XoX+X@X+XhXxXfXcXtXCXLXG.C I  . .A ' Y z ! R z B A x z N 0 7 4 u u h i i 0 0 h u u i 7 7 u h u i 6 0 t 7 7 C e.>.6 @ 2 2 0 6 2 y 7 8 < & @ h  .5.( 0 @ 6 2 2 7 7 4 2 > 5 t 7 2 j 2 7 t u t u > 2 i 2 > > > y 7 7 4 @ 7 z u 0 2 2 > 7 w < > - 7 2 2 > > > 0 7 @ , > > @ @ 7 0 > 3 , 2 2 - > , @ - 7 i 2 2 7 0 7 > @ , 7 u N T V - @ % 2 2 2 > @ @ 4 2 @ O - > + 7 j 6 2 @ O $ % > @ O @ > $ @ $ o O @ @ ",
"% O @ % @ , > , O @ @ % , O O % @ O O , O @ > @ > @ @ @ > @ > 2 2 7 0 0 j @ > @ $ @ > @ 5 @ > - , - > , > > 3 > z +.+.N > - @ 2 2 , 4 , - > - 4 7 h $.6.z @ > , 2 > > 4 - 4 5 , 4 > % t ; 4 > > + g i.f.! q - 4 h t 2 8 i 2 8 4 0 q G f.d.! 6 > > 7 2 0 u > - 7 7 - 7 u i y @ N 5.c.<. .h 0 0 4 2 0 j 6 6 7 q x 0 h c h h h u 0 h 0 h S h d h c l h z [ G z ! %.+.B D D z ~ ( D ' Q W &.N r.MXDXzXbXZXlXlXdX6X=XY.6X6XY.Y.^.6X-XT.Y.@X+XY.Y.-X-XfXfX*XXXE.XX5X*X+XXX+X5X/.;XMXZXZXlXvXZXyXCXAXSXDXLXHXKXKXBXVX>X(.(.Q.V.g.g.g.g.z.g.g.C.G.>XkXMXVXNXPXLXKXSXGXCXZXzXlXDXzXzXZXlXZXcXtX*X^.XXXXsX-X=XXX^.3XG.D.oXE.-X-X=XXX X4X6X5XjX#X4XE.6X3X`.L.iXiX*XgXZXzXAXKXg.Y ] N ! ! A ! G B G } x S c 0 A F h u h h h j h z 0 0 0 h 2 7 d h 7 0 t 7 8 d ,.t.Q 6 y s 2 7 b 7 6 7 l p > 2 k C +. .7 7 8 , 7 w w 4 2 4 y 2 7 u 2 4 7 4 - 6 6 0 0 6 0 > > @ > t 2 u 7 0 u 0 > 4 0 7 2 - 6 7 2 4 2 2 4 @ 4 0 , @ 7 a > > 2 7 2 > 2 7 > @ 2 - > 4 o > > 7 > 4 8 @ > @ - > ; d C d - % 1 % > > 2 O % > > > , > 2 2 7 u 0 7 - @ < @ o O @ > > > % > % O o @ % ",
"@ o > > @ > > @ o , @ O @ @ % $ > % @ @ O O O > > , % O & $ @ 2 4 2 0 0 h 2 > $ @ @ 2 , @ o % > @ 2 2 % > 2 > $ O N :.O.c > @ < 4 > 7 2 < O 2 7 > 6 N O.:.u . , i 4 - i 2 > @ @ 1 < 2 2 6 , % , # O N a.w.z # > 7 8 % O @ % 3 8 D j f.OXm.k.$.e & < 2 u a @ 1 > y 0 y 0 d 0 q 4 h l.N.1.o.V 7 u 8 u v h c 0 x h 0 x z 0 0 t 2 j v h h v u v V h j 8 7 ! #.x l x N D D [ Y Y Z ~ ] #.+.T W kXHXCXbXbXlXlXxXuX+X<X8XXXU.OXwXoX;XiX*X>X`.oX4X3X6XE.*XpXXX3X3X*XxXcXhXOXoXfXbXDXbXZXlXtXZXZXZXFXGXSXGXJXyXV.g.3. .Y D C I ~ _ ,.) ) _ 1.1.) :.>.5.u.d.8.g./.zXCXFXGXGXFXCXDXyXxXZXlXAXvXZXcXhXsX3X3XaXMX;XXXqX].T.%XXX7XY.#X+X`.E.-X5XuX/.wXE.3XXX.XY.`.-X XgXcXyXlXDXPXd.z / ..W [ o.A h [ W z h h b #...z v n x N 0 0 c u i 0 K x u l p 2 u y > > ( a.<.2 # 4 2 7 4 0 0 h 7 0 4 - v ! ( Y 7 , 5 t > - , w t t 7 7 0 u 0 7 4 r 4 2 , h c ^ z u 4 > 2 t 7 l 0 0 h 7 4 O > h c u 4 t 0 0 i 8 > 3 - l h & > z h > > 2 j > $ 2 6 2 @ 4 6 > y 7 < > 2 7 2 @ $ , > @ > i u C 7 O @ > > % $ O o , > > % @ - > 7 7 > 2 - > @ 2 2 @ @ , > > - O @ O @ @ O o ",
"@ O > O @ @ % @ @ O @ @ - @ @ > - % O O 2 2 > > @ > < o o > 7 , > O > - 6 u 2 2 @ & O % O % % @ 2 2 2 2 > > - q 3 O 7 ,.5.S o @ y > - % @ 2 6 > 2 h j 0 C s.) 2 s @ 2 0 > - 7 7 2 2 > 7 2 2 7 7 6 > @ V 1.d.w.>.I O.R D z f N +.<.<.i.} w C v.:.f u 0 M 7 2 7 > 4 h n > y v 4 > 4 0 6.M.d.4.t - 5 0 4 i i u 0 q 2 2 h B z c t 0 M H h k M j h Y ' x h D Q B F H E Y Y #.] E D { Y | W O.>XHXAXCXzXCXuXXX5XdX;X5XE.oXXX;X6X-X X+X+XOXD.-X-XY.@XL.J.).+X7X3X X6X5X6XyXzXAXZXZXZXzXvXzXAXGXFXDXVXrXf.E ! ,.[ E %.>.i.i.7.h.5.i.e.6.4. .@.e.8.p.p.X.>. .( U W ! 9.h.eXLXHXHXAXyXzXDXlXgXZXAXvXlXnXfX9X/.tXuX5X^.0X`.D.E.=XjX4X^.6X=XXX XXXOX`.5X=XE.U.`.`.XX+X*XmXtXAXAXnX<.C ,.Y F ! ! N Y D z V v t R z 0 v k u u k b 2 V S 7 i j : 2 d Z u 1 4 I a.6.z < y j 6 4 d 1 y 0 4 1 4 N <.1.T 4 > 8 7 4 7 4 > 7 t 2 2 , > , , 7 4 > r 0 ,.q.C Y D h 2 4 y 8 7 4 7 2 2 2 4 > 7 0 l 7 - 2 > % % 4 2 2 7 6 > > 7 t , > @ > 2 @ - 2 2 @ % 4 4 2 7 , > 2 @ @ % t 2 - 3 6 x Y N O 4 7 > @ > > @ > > @ > - @ > > 0 z V 2 , O 2 % O @ - @ o @ > - O O o o @ @ O ",
"@ O > $ O o @ O % @   @ % % @ , > $ O @ > - @ O > > > o @ 8 - @ @ @ > > y 6 u 7 2 @ O , - > 2 > < , 2 4 - < , > 4 2 9 B 2.W h - # > 2 2 4 2 8 w 4 7 - 4 0 o.6.C f o % 7 - 2 5 2 4 2 : y 2 > w @ 4 i > ; z +.i.i.i.7.@.i.f.6.e.i.5.j.c.Q 0 U f.f.u 2 7 2 2 j 0 b 7 7 u 2 7 0 7 y u 2 f Q B.c.W h s 3 7 6 9 c V 0 7 j k k 0 h k u h j 0 0 h 0 c J x z ' o.B z F B A E T Y [ [ E [ o.) W G.PXZXlXxXcXCXvX;X=X=X*X=X'.#X*XXXsX+X^.6X X.XJ.4X7X^.hX9X`.E.hXE.6X X5XpXcXCXnXZXvXlXvXvXZXHXHXPXIXp.3.( ,.3.p.t.4.4.4.5.7.@.7.O.@.p.5. .@.9.@.O.i.0.X.*.7.7.6.i.o.@.@.( Q g.C.NXDXDXHXzXzXCXAXbXDXvXpXyX*X;XgX;XkX;XXXY.T.oX XY.Y.#XqX*XhX0X XoX X=X6XwX+X+XU.XX7X+XXXpXvXvXZXVX( C ! H z A F B z H B J S S z F B 0 l h 7 t u x h 0 2 0 6 h t 2 7 ; N 6.O.h 7 6 6 j 0 i 0 7 h u 4 6 S C +...7 2 4 7 0 ; j 7 7 0 0 > 2 7 q > > p 6 2 d z  .) x A 7 > 0 7 > 2 u - 4 7 - < - 2 2 4 2 - 6 i @ @ 2 > 2 y 7 b - < 2 0 - - < 2 8 > 2 2 > % > 4 2 - 8 2 2 3 % > - > > 2 0 z Z x d # > > 4 2 3 , @ 2 7 4 4 > > 6 0 6 i ; @ @ > 8 @ > @ % , @ o @ > O o o @ @ O O ",
"O O , @ @ @ % O @ @ @ O O @ @ @ @ O @ @ @ O $ % , @ > 4 > @ @ @ $ > > O > 7 h h h 7 @ > 7 @ - 2 > O @ i 4 > O @ 2 0 0 6 E 6.f.h : % 4 6 7 > % > < 7 - > 6 6 B t.) - @ > 7 2 e 8 2 2 2 5 > > 4 > 2 7 0 t 8 0 ^ C [ O.6.Z.r.>.q.q.W a.~.r.O.<.c.q.> 7 2 7 7 z 0 0 0 , > x z 7 i 7 u h h 7 %.x.b.>.0 % 7 c z u ; u n v 0 0 u z h A z 2 l Z D x v u h  .4.Q z V F D G R E D [ ! R [ ! I C.KXAXZXZXMX*XdXcX3XoXXX+X#X#X+X4XY.4XhX=X-XD.J.+X+X#X^.-X0XoXsX;XY.*XuXtXlXCXAXCXZXvXCXAXAXHXIXx.O.@.8.5.4.7.u.i.u.8.7.@.*.O.X.7.Q 0.q.O.i.i.i. .6.4.] %.#.7.@.4.4.4.i.@.*.,.o.Q  .h.G.BXDXGXFXzXCXZXbXZXCXlXpXfX+X^.*X=XXX+X2X.X X;X=X+X@XY.OXXX#X+X`.XX@X+X@XoXU.E.+XE.5XdXnXvXLX(.N ! Y D E H x z T W E h z h x B z h t 7 0 u 0 0 K h x B S 0 < 0 ( w.6.z > y 7 2 2 4 i u v 0 y 0 C 6...N - t 7 < 4 7 7 7 > 2 u i 3 , 0 c - , 8 2 z B D ! s.( 7 % 4 2 q 2 0 i 2 - 2 7 2 > 4 > 2 4 4 2 , < 2 2 - 7 , @ 2 7 > @ 2 > > @ > 2 2 2 @ O < 2 2 4 7 > - > , 1 2 @ % 8 0 ~ &.z - 2 O - > 2 , > > , - 4 > @ > 7 z F 7 - O > > @ @ - > , > % % @ > @ @ > @ @ O O O ",
"O O @ @ @ , O @ @ O @ O @ , % O @ @ % % > @ O + O O > 2 - > , @ > > > @ O 4 0 0 j h 2 2 8 > > 4 , @ @ - 2 > @ 3 < 4 7 - ; ..e.) Z O > 2 4 4 , y , 4 > 7 4 & 2  .1.T 0 > > > 2 - 7 7 w 2 > > 2 6 y ; 2 2 8   - 6 0 z d C N f z d 0 Y O.Z.u.i.i.B > a 7 t 8 7 t 2 z y 0 l h 0 > % u k u 6 :  .k.x.r.z 0 h j 2 7 0 K 0 7 0 0 z x S B u 6 ^ Z u F z } Y +.W D J x H T ! B F ]  . .} I X.MXHXCXxXvXxX8X5X+X;X4XT.^.:X;XXX6X4XY.6XuX#X XD..X XXX6XY.E.XX=XaXsXdXZXbXZXZXCXCXAXZXDXPXtXg.>.:.) ) t.3.@.e.t.@.i.7.#.#.i. .e.4.>.O.q.O.O.4.+.@.X.X...#.@.7.X.4.W @.3.>.4.Q 9.9.( ) @.8.G.:XDXZXAXAXlXZXSXDXZXvXuX=X*X6XjX8XG.D.5X3X/.^.#XY.OX*X+X3X9XE.Y.XXY.+XT.+X+X+X*XxXbXvXCXKX8.C ! { D D N N Y C A z h S h 0 z h h l c h u j z 6 z Z d 0 u N 6.f.D 4 - 8 0 j 4 4 6 9 h > - [ f.t.C 2 4 y 4 > 4 0 2 q , 2 2 2 > 0 h 6 > 5 4 7 E R B d :. .7 @ 0 i 7 0 i 2 0 t 2 2 4 7 7 t 5 > > 2 - > 7 7 7 > > > 2 i > 7 y w y 2 4 2 2 8 % @ 4 4 4 > > > 4 2 @ 2 8 2 > 4 Z ~ W q @ % > > 2 4 < @ % > > @ < > > j h h - @ o @ 2 , > @ O @ > @ @ % @ @ - > - O O O O ",
"@ @ @ O O O @ , > @ % @ @ O o @ > o % @ @ @ > % @ 1 @ - O % < @ > @ - > @ O @ - 2 h 0 - @ - @ > , 2 > > @ 2 4 7 > @ 2 7 2 > Z f.w.q o $ 3 2 2 4 2 2 2 u - @ - 6 V ,.#.9 - @ 2 4 - 2 4 > > < 4 2 y 7 - 7 7 7 4 2 7 2 - + 2 : 5 : 8 u 6 Y N A h 7 7 u 7 6 j y 4 0 h u k 4 q 0 0 4 7 l 0 u u 2 D f.j.a.N ; 7 7 v 0 7 0 c h h V B 7 q E z 7 h x C ' %.[ C C +.! D B V o.R Y  .7.o.^ W iXHXvXzXlXcXdX5X-X`.XXXX+X=X;XfXXX X6X*X;X4XE.hXOXJ.@XXX3X3X4X=X*X;X5XDXbXtXvXCXzXFXGXLXkXg.O.( 8.>.f.e.e.3.*.r.Q X.3.3.@.X.@.@.q.0.q.Q *.O.X.*.W  .4.o.Y #.@.{  .*.X.7.3.3. .4.i.@.2.@.O. .( R C.>XHXGXZXAXZXzXSXZXnXlXiX^.*X0XXXsX-X=X5XXX5XsXY.XX+X XE.E.6X-X*XE.=XqX#X0XuXuXcXxXvXDX&XW } E D F D ! / E h B x 0 j c k S 0 h c h 7 7 S d 0 7 ; 6 +.r.1.D 4 2 u u h u 2 7 u 0 4 2 z 6.5.Y 0 8 2 > 2 > 7 t 7 t 5 4 2 2 h h 7 2 a 7 6 v x h 7 2 6 S z 7 t > 7 7 - < 8 p 2 2 7 2 2 7 2 2 2 - y 2 2 7 4 2 8 2 y i 2 8 , @ 7 6 7 > - > 4 > y 0 2 2 2 @ @ 2 - 2 > 5 7 z &.z - 2 2 O 8 8 > < > 2 - 4 @ > % w h z 6 7 % > @ O @ , > > > % % % , @ @ @ % % @ @ > @ o ",
"@ o o @ % O O > @ > > @ % o , < > O O @ , , > % > > @ , @ % @ @ 2 @ < 2 @ , o @ 2 0 2 4 o > > @ > 2 2 2 - 3 > 2 4 , > 7 2 # > W a.4.v > O - 7 2 - a 0 7 2 % % y > Y 9.! V 6 > < 2 4 4 > > > 7 7 2 8 2 7 h y 7 w > 8 - 3 5 > 8 i > 5 7 w 2 @ - t 0 2 6 6 7 2 w 7 7 x z 7 0 6 0 0 q t 0 S h y 3 d 4.P.t.0 t x J h u u c B z h z 0 q C F t h ' W Y D R ! [ Y [ R B Z Y  .O.( Z ! Y x.HXFXCXMXpXxXaXsX-XD.4X+X+XjXiXgXjXXX6XiX XoX4XXXE.oXOX#X+XaX*XXXcXbXpXzXvXzXvXSXAXHX>XV.>.U 4.0.i.e.u.@.8.7.O.i.o.9.@.O.i.*. .*. .@. .0.*.Q =.o.X.*.*. .] @.Q Q O. .4.q.4.@.#.0.3.8.@.3.i.6.) ) ( 5.V.gXLXGXSXAXSXCXDXvXuX+XiXXXXX5X^.7XBXXX X+XfX;X`.#X9X XoX+X;X5XsXE.Y.Y.*X;XxXpXbXDXDXV.C | %.W D H ' B z Z z S 0 0 h u v h x h j 7 h c j 1 h Y r.f.N 4 > t h u 0 0 2 0 7 i - z +.O.T z 7 7 7 2 4 2 i 0 y u 4 - 4 0 h q - 4 4 7 0 h 7 4 > 5 > 7 u h 2 2 0 i 4 i 2 > 2 6 2 > 2 y 2 7 u j 6 2 2 2 - i 7 7 2 - 2 2 @ > > i @ o < 4 - 2 0 6 2 y 7 > - > > 4 > h B Y B 2 < > > 4 @ > 7 > o 2 4 > > > @ 6 A B 2 @ % - > 8 @ @ @ > > , @ @ , % o @ o @ % O @ @ @ ",
"> o @ % @ @   @ @ > > % O @ > > @ O @ % @ O @ @ @ @ > - < @ @ , , O @ 2 @ @ % 2 @ 2 ; 7 7 > > 2 4 > > 2 > , @ 7 6 i 4 > 2 0 4 ; Z a.r.0 @ % 4 7 2 7 4 @ 7 2 > , % 6 0 +.9.Z 2 @ > i 7 > > O > 2 0 > 8 6 7 2 4 p 2 7 ; 0 j 7 t 7 2 2 t 2 t % 2 2 2 2 8 7 0 h 0 ; h u l 0 j j 7 x k 0 u l 0 l h v q n.~.4.h d j k n h 9 x v 6 c h A N B E D H z z E +.! N z E G Y ] F ..@.=.V B 5.DXGXlXdXZXgX/.;X+X+XY..XD.3XgX/.sXhX X+X-XG.OX9XE.-X+XY.E.;X5XtXlXzXAXyXzXAXAXZXDXBX!.5.@.5.i.i.@.@.5.e.3. .@.6.O.O.@.i.@.3.3.4.{ @.X.@.] 4. .] D ] *.Q O.+.9... .7.3.] Y '  .7.#.] 3.X.q.6.( ,.1.5.6.W Q V.KXHXAXAXzXDXZXvXtXcXfX*XXX6X-XY.oXY.G.hX XXX3X-X+X.XY.-X7XXXY.0X+X-X^.xXjXiXlXAXnX:.B Q o.N x T C $.N k x B z h x c 0 h V h u 4 i q 8 Q 6.6.B - 4 4 u 7 7 2 2 0 j 2 , W 5.f.E 7 - 4 2 0 l 2 2 u 0 > > 2 7 0 h > 2 y 8 2 6 v h j u - y v 0 2 y 2 l l 0 j 0 7 2 t l 2 2 7 b 2 6 0 c 7 > 4 4 - 7 j 7 - 5 > 4 4 - 2 @ , , < a - 2 u 7 > @ > 4 4 , @ O 6 Y &.F 6 2 y 2 @ 4 2 - > e @ @ > , % - 0 h 7 2 7 @ @ < - 2 > @ % @ @ % @ @ , @ O @ @ @ $ o @ @ $ ",
"> O 1 o @ % O @ > @ > @ @ > @ @ - O % 3 O % O @ , % > - > % > > > O @ 4 > @ > , @ $ > u v 2 > 4 > O > 4 - @ > i 4 0 7 > 6 0 7 , & ;.r.,.z 7 @ 4 1 4 - w 7 2 2 - 2 , % z ,.~ x - > > @ 7 7 5 < t 6 > 7 0 2 2 2 > 2 t 7 u 0 u 2 > 0 2 2 t t 7 i 2 2 4 2 7 z E h 2 x 4 2 0 M k 2 u u k 7 > 8 6 [ v.& a.~.O.z 0 i u h 0 v u 0 t h A [ $.C O.Q 0 b J Z Q C Z c A !  .4.' Q ] / C W kXGXvXbXcXfX;XY.)..X-X0X[.E.sX5X;X^.=X;X=X7XoX#XT.R.:X6XXX4XjX;XbXGXZXCXZXSXAXHXHX(.5.( +.6.8.8.5.e.h.e.X.4.Q O.@.*.>.3.4.O.+.o.@.] 7.3.v.] 9.4.Y ! ] o.W o.Y [ ] =.@.O.{ $.Y Y q. .X.6.Q ..+...Q 3.8.*._ ) C u.NXLXGXzXCXlXZXZXpXpXfX;X=X*XY.oX#X-X;X^.qX=X X=X+XXX4X X XOX+X^.XXoX*XgXmXuXzXHX!.( Y E } A C E [ C x x | x h K 0 n h h h h u 6 A &.r.@.^ @ y u 6 t 7 7 l 7 0 q 2 u r.f.~ 6 2 4 7 6 6 7 7 u u 0 > 5 7 0 S l - @ < 2 t c 0 7 7 0 2 > 0 x : 6 0 u k 0 2 > 7 h 7 > i 2 2 t , 4 7 2 > @ 2 2 > 8 0 2 2 7 4 2 4 4 @ % < > - @ < 5 7 7 4 @ 2 7 < 3 o 2 ~ Y N 4 > > 7 > , 2 4 2 - > 2 2 @ 4 > 7 V d @ $ < l o , 5 > 4 > 4 2 @ < @ O @ $ % O > @ O $ % % @ ",
"% @ , @ O > % , 2 > @ > 4 - % $ % - > @ % > % - @ @ @ @ @ @ > > @ > > 2 @ @ > @ % @ @ 2 l v 6 > - > - 7 i > - 2 7 > % < 6 2 7 5 6 7 N w.6.z > O % > 2 7 7 2 > 7 7 2 - , 6 ) :.F 2 > - 7 7 2 < 2 2 > , 7 2 2 7 3 2 2 > 7 2 0 u - 7 h 2 7 4 2 7 6 t 0 > > 0 i > 8 0 j 4 0 7 6 u 7 t h 2 2 i ; ..i.I f.t.m t 0 h z h Z x 0 7 A A A S u.5.+...0 V F N x B R ..N B A +.F %.Y { B x.LXCXyXuXpXfXiX XJ.E. X+X`.E.sX/.+X XXX+X3X3X`.%X4XoXY.-XsX;XuXlXZXJXZXvXlXGXDXZXg.X.O.5.6.8.4.4.h.8.3.4. .X.3.@.@.7.@.q.O.@.=.#.@.7.] @.#. . .Y 0.O.Q O.@.X. .] ..Q ] W W X.4.+.4.] @. .[ .. .O.o.=.X.#.0.>.5.O.W V.DXHXCXZXvXlXlXcXxX;X;XhXY.#X0X6X6XE.E.oXXXhX+X9X^.G.XX+X6X3X#XY.gXpXxXbXlXSXDXC.N ^ $.] ] B B H m h x f z 0 B h u l A B u - N f.) B 7 u q 7 2 0 q 7 0 0 5 8 C ,.6.W 2 2 4 7 u 7 4 t 2 0 2 2 0 0 7 7 l u 3 @ 2 7 > 4 6 q 8 @ y u 7 h A h 4 @ > i > @ z h > % > - 2 7 2 > 7 - 2 2 0 0 > @ 7 2 0 2 @ 4 4 > < j 2 7 4 o > 3 > > 4 2 6 - 5 3 6 ^ ..D - @ > 2 > @ 5 7 ; 2 > 4 7 4 % > h Z 7 > > @ @ 1 @ O & @ > 2 > p > - 2 2 @ > & O , O > - @ @ @ ",
"% > > @ O @ @ > o o 4 4 6 - 8 o % > - > @ @ @ > % % % @ > @ > > - > 2 > @ @ > > > < > @ 2 h d i > 5 - - > 5 > 2 - > @ 5 2 2 7 > 4 2 - C t.e.N > % 4 i 7 0 0 4 7 > 4 8 e @ 9 ,.<.z 2 > 2 > 2 2 t < 0 4 - 7 K h 2 2 8 , < i h u i l 7 7 0 7 @ > 0 0 2 y 7 > 6 t 0 > 2 2 7 > u h h 2 2 j u q 2 } B.<.a. .7 7 y u z z x x c S x A f R 5.<.4.Y } z S ^ B E G R ' E o.E X...T W 8.KXGXzXvX:X5XsX5X^.S.oXoX.X9X=XXX3XqXXX-X+XiX5XXXG.sX-XoXXXsXcXbXCXzXAXCXbXAXHXgXu.O.$.[ 7.5.5.4.@.>.@.>.7.i.X.i.f.O.3.o.9.X.@...Y .. .Q #.*.R Q i.7.] Q *.o.Y [ [ { o.] ..o.*.o.Q +.@. .$.o.] X.4.#.Q X.#.*.7.@.+.q.O.g.NXZXAXZXZXvXbXZXuXuXhX/.#X+X*XXX XOX X X:X5X X XhXXX+X+XXX`.XXuXtXlXcXyXZXAXDX3.N ..Q A } F A A x F S S h B h h x W E B G i.:.6 7 5 b B 0 u u 7 w 5 2 4 A ,.6.H 7 > 5 4 7 6 7 7 6 2 7 5 > 7 h u 7 h u 4 2 0 q 2 7 i 2 7 2 > 7 0 z x 0 7 , 2 i 4 @ u l - 2 > i 2 2 8 > 4 4 4 q 0 h 2 > > 4 u 4 > 2 > , > 2 7 0 5 $ @ 8 7 > < > 7 > , 9 Y +.f t , > a 2 > , > 2 2 2 7 2 @ , 2 q Z u 4 > % - - @ > $ O @ 4 y 7 0 7 @ > > @ O O o @ > - , O O $ ",
"% % % % O $ O @ @ % 2 u u 2 7 > @ @ @ - @ > O @ @ @ % @ > , > - 7 > @ % @ , @ - - > > @ 2 6 v z 6 , 7 2 2 8 2 - 8 4 > 2 2 8 @ > % 2 2 , Z r.i.B @ > 4 4 7 2 2 2 2 4 > > , + F <.+.N 7 , 4 u 2 2 2 y 4 2 2 t 0 j u > < b 7 2 > 4 > > t t 7 u j 2 h 7 7 t 0 ; h c @ > p u j b h f x 7 u 0 l 4 h :.c.f.C 4 < h c x h 0 h z S 0 k ..] ~ I 0.{ N H / x E H B x ! o.R G 7.9.^ ] kXHXzXzXvXcXsXE.+XhX XT.D.G.6X6XY.3XhX6XiX^.sX*X5XhXXXiX6X=X;XyXvXzXCXZXzXFXHX(.O.Q ,.5.4.*.,.X.q.@.@.O.7.3.@.X.@.i.i.4.*.O.q.7.W o.$.o.]  .D o.@.@.W G 4.4. .D E Y o.] 9.Y R ! o.W C ,.o.Q Q Y ..9.0. ...B X.4.9.] 4.@.Y >.>XHXGXAXzXxXpXuXgXuXXX;X6XiX#XXXXX6XwX^.;X=X;XsX-XXXoX+X0XkX6XXX;XgXpXvXAXDXIXW ( E F S F A x D A h u V x J B Y T C ) h.( d i 4 b 0 0 S 0 u J i - 7 A 1.1...4 - 2 4 4 - ; u u 0 2 4 5 2 7 k 7 6 7 4 q b u 2 t 0 7 7 7 0 8 2 2 h y @ - i 8 4 4 7 2 2 > 4 7 7 > @ > w 8 > 4 l 7 2 3 > 2 4 - 4 t h @ 4 2 @ 2 @ > y 4 7 7 2 > % t - 6 Q ,.f 2 o > > 4 - - > > - > 4 2 , @ 2 z B 0 - , % , > > 2 O > > 3 - 7 7 2 2 @ $ @ @ $ @ o o @ @ @ O . % ",
"> % > O O o   O > > @ 0 2 0 4 @ @ % @ > % @ o @ > , @ - 2 O % > 7 > o O % > , > - - 2 % , 4 ; z A ; 2 > @ @ > 2 i 0 7 4 q - - < @ 7 2 , 2 I d.r.Y 2 @ 5 y 2 7 i 2 < 4 2 @ $ 2 Y +.! u @ @ j t 2 - , 7 2 > > 6 q j 2 7 u 6 @ s y 4 > > 7 0 z 6 0 j u 7 7 h l 2 0 2 2 7 0 0 0 h N E 0 7 0 h i 7 [ >.! 0 4 l h 0 B 0 u 0 A V h z C @.! D ,.[ A E G x G R C F D A Y 9.O.Q Z g.DXAXlXZXZXuX X^.#X-X4XQ.@X6X*X6X XwXE.*X6X X4X^.;XjX=X;X*XfXbXZXZXSXAXAXGXHX(.:.! +.f.r.O.7.@.,. .4.i.,.Q  .@.i.O.Q 7.]  .6.3.@.Q #.o.C @...] W #.@.D A O.Q [ $.[ G W [ ..Q G D Q =.q.Y Y W Y q.' C X.X...[ ] #.o.Y 3.6.#.+.) C.KXGXzXAXxXpXcX;X;XsX X6X4XD.-XXX+XXXiX+X+XE.=X3X3X+X+XE.#X#X^.cXDXpXCXCXHXg.N L } D Y E Y E z x h S 0 x x G T ..w.r.z w 0 0 h l u S h u c 4 2 A <.r.! 0 7 u 9 7 i 7 6 i u 2 2 7 2 7 7 0 q t 2 7 7 2 2 - u 0 2 7 h K u 4 7 2 @ 2 i w ; 8 q 2 > 3 4 7 2 > 2 , , 4 y 2 7 7 w > > > 7 i y - 0 i - 2 5 > > > 4 > 2 t 7 4 < @ 6 h ..#.T 7 , 5 > 4 4 > 4 4 4 4 > @ @ - 2 S F h 2 , & @ > > 2 7 @ < - , @ 4 u 2 @ @ @ @ @ @ % $ @ @ O @ O O @ ",
"@ @ & o O > > @ O @ , > 2 i 7 2 > - > O @ @ O - > > @ @ > o % % > - > % @ , @ @ > > % @ > , - 2 h z 0 2 @ > < > 2 - 4 > > > 7 8 8 4 4 2 @ 7 ~ e.w.f > % @ q 7 7 7 % > 6 t 5 @ 7 A [ D B z > > 4 w 5 4 2 2 t 0 6 2 i 7 h u 2 4 2 y i 0 0 2 7 2 7 7 u 0 2 7 l u h z y - > 0 h h h 0 0 7 b 0 2 i u 0 6 0 z z t 7 h x V J ^ x h c B @.e.( L x G x f x Y Y G Y Q 9.9.o.! ) O.VXDXzXZXvXuX*XXX.X XU. XA.E.kX5X*X9X X-XhXkX^.0X5X3X^.XX6XyXbXZXlXlXCXFXGXDXC.( :.0.t.u. .4.6.i.0.%. .@.4.o.Y #.6.@.O.0.o.8.e.>.W R B  .o.o...4.Q A $.=.! W X.N ! $.Y Q Q Y D [ Y B [ =.W ] %.R Q o.{ ] ! [ ..Q #.9.*.7.e.7.2.,.C d.BXGXCXZXlXZXlXpXgX+XE. X`.@XXX*XmX X0X X5X=X;X3X4X-XXXY.#X*XpXbXpXlXvXHXNXY Z &.R Q A A C z S z z A h k 0 Y 6. .z 6 8 u S 6 u u h V y @ 7 Y :.t.! x - S H h 7 > 7 0 i 7 > 7 0 j j 2 3 y y 2 7 2 j 4 2 7 2 t 7 h 0 2 > 7 7 7 7 i 2 @ - V h 2 , > > 7 3 7 4 % > 7 2 4 2 8 4 , 2 2 7 y y @ @ 8 8 2 4 < 8 2 2 2 - > % @ - f 2.q.z - O @ , @ 4 2 > 4 4 2 4 @ @ & 2 C ! h 2 @ > % > > > @ > % @ @ @ 2 7 2 > > > @ > > @ > > @ % O @ $ O @ ",
"@ @ % O @ > 2 @ O O % O > 2 7 2 2 - @ o @ @ > 2 > @ @ @ @ O @ $ - > 2 5 > 2 - % % > @ > - > , @ 7 ^ z w > 2 2 > @ > > > 2 < > - 4 @ > 0 2 @ + Z r.e.B @ > 2 u 7 l 1 > 4 7 t > 4 > 6 ! +.Y t > 7 2 8 - > 2 u 0 7 , 2 7 2 0 2 2 2 2 7 0 ; a i - u j > - 7 7 7 0 7 d 7 i p 7 7 0 q p b 2 k 7 7 0 2 < 3 l F A b 8 h z B x h x V z z O.c.4.0 h Z G J H { Q q.B Q q.@.~ T I C.PXCXlXvXuXaX6X#X`.@X#X@X0XE.sX6XXXXXY.hX*XY.E.*X;X4X`.=XiXvXzXyXlXZXSXGXDXg.W W 0.Z.8. .&.0.4.@. . .O.3.O.Y Y o. .X.4.7.X.r.i...[ &.D  .%.D D #.X.C E 9.W W o.E G W o.D ..} D R [ ' D R R Q D E Y W o.D R =.Q ] +.W 0.3.O.5. .9.+.O.u.KXHXZXCXvXzXnXtX5X`.Y.9XT.U.4XiXiX XXX=X5XfX5X:X-X4X X+X3XXXpXZXyXvXvXLXc.Z ] ] D B m G C B h h } c i x i.>.9 b h h 0 d 2 0 l 0 u t 4 z i.w.~ d u h 0 z L 7 6 7 0 4 , < j 7 u l y 8 2 7 u 0 6 q 7 q i 7 2 t u 0 7 t 4 0 d u > > 5 > x c 7 > 2 > 2 > q h - > 7 7 0 > 0 j - 8 8 6 t 7 @ > 2 7 u - 2 2 7 t 5 > , > - 0 1.,.z ; O @ 7 @ < 4 - > - - 7 > , > 7 B ! f 2 > > > + 2 2 > @ @ @ @ @ @ 7 2 @ > > > > 2 @ @ > @ > > @ O o @ @ ",
"% O @ O @ @ % o O @ @ - @ - 4 2 2 7 2 > % > @ - - > , > 3 5 O > - $ @ @ > 4 - , @ > > @ @ @ @ , 4 7 z S 0 @ > 4 4 3 2 5 > - 4 4 t > 2 7 > > , > N f.5.z 3 - 0 7 7 2 2 2 - ; t w 5 2 6 C #.z 2 2 > 2 7 7 6 7 > 7 7 > 7 0 j 7 i 7 q d t 7 4 i 2 2 j 7 2 7 6 u c b 6 8 7 h 7 2 7 7 q c j u i j 4 4 u b 2 h x 7 u j V d h 0 x z z A Q A Q N D G B B A R ..Y G D B 4.#.Y  .bXGXJXZXvXdX6X6X#X XY.@X#X<XE.XX^.+X;XjX3X=X6X0XsXXXY.sXdXzXyXlXZXCXFXDXiXx.r.t.4.9.8.3.6...4.0.@.+.o.4.p.7.#.#. .O.Q @.p.Y 8.7.N ! #.#.Y Q D } { R ! ] *.<.H D E ' W R D D ..o.Y Y [ [ ' E Y D $. . ...D R  .*.o.Q W >.4.>.0.7.] 9.X.O.8.eXHXCXAXZXZXvXaXXX-X4X XU.Y.Y.qX6X=X*XfXXX^.-X X0XfXXX`.6XdXyXlXlXvXDXNX) Q A Z C J D N Z E Z z z K D t.9.h y l S 0 u i 7 0 6 j x ' ) 0...6 i l x 0 - t 0 u 0 2 8 2 2 2 6 2 y 2 + - f 6.#.> > 2 0 2 6 4 0 6 > 4 0 7 2 7 u 7 - > 2 0 - 6 b i - > > 0 2 2 y 7 u u i - @ ; l 7 2 2 2 > 7 2 d - 2 2 6 j 7 - - , 6 Y #.2.z - 5 3 4 7 5 5 2 4 7 7 4 , , > 7 C E h @ - y 2 @ % < > % @ > @ 2 5 > > - @ , @ > > @ % @ > @ O % o @ O @ @ ",
"@ . o , @ @ $ > @ % @ > 4 5 > 7 w 2 > @ @ $ , > > @ @ - 2 2 2 - > & O - , @ 2 2 2 > @ > @ % > > 2 - u D d o O % 4 > > > 2 2 5 6 6 7 4 - @ t 4 = @ +.a.:.z O @ t 2 t 8 > > y y @ 7 1 % 0 Y E c @ & 5 2 - = = # 7 7 , @ t 0 6 i t > 7 t 4 2 0 h < 0 8 7 t t > 7 4 q < 7 h u 4 7 d z h 0 0 h h 0 t h z h 7 q h z u b u j h x j 0 E C = b F [ m z G L L D C =./ R [ o._ C.DXvXCXvXyXcX3XD.3XsX;X-XoX^.W.R.oX#XY.6X;X*XaXXX XoX=XgXpXlXZXnXxXCXGXZXu.W >.7.7.! o.+.4.3.7. .+.#.%.3.@.@.@.3.9...R @.h.5.e.7.' Y  .@.[ %.] ] B T ] X.*.5.x B E ! G E } D W Y A A D o.B x D $.A R o.C } ..Y Q ..' Y O.#.*.o.7.0.X.+.O.U { NXGXAXCXDXZXbXiXiX`.E. XoXOXU.XXiX-XXX XXX4X,X^.5X-XS.XXfXtXvXMXMXnXPXg.C &.T Q x x c R G B V / Z Y C D B z 8 i x c 0 6 l 7 4 D f.s.N > , 7 h V p < > 6 h u 2 u u 0 4 a t 7 2 a =.6.b.f.2 e b 7 > > @ 2 s . @ - : , & @ # 5 3 8 1 : > 4 2 - 5 & s o 4 8 5 3 1 > , , 5 0 ; 5 , O @ a % w , , e w - ; 5 O # z r.r.Y @ , - 2 t @ > 4 t 2 > u 2 O & & h ( Z - & < 2 3 % , @ @ 3 5 @ 2 0 h 2 > $ % @ > > @ % @ @ @ , . o O @ % O o ",
"@ - @ @ % @ @ - - & @ 0 0 2 > u 0 > 2 2 O O o % % O $ . O @ > @ $ 2 2 2 5 @ O % 2 $ % @ @ @ < 5 + % O 7 J D 0 : @ = = # 4 0 6 8 & @ > 4 4 2 4 2 > > x e.<.N 2 2 8 2 2 > 6 7 7 2 @ 4 a - W |.|.m.W , u d.m.m.j.) x N h c 7 > 2 2 7 l t > 2 9 9 u 4 2 0 q 0 7 4 4 0 7 0 V A d 0 8 2 0 0 v c 7 u h 0 A x h h B z h k z S S z h m z z h B R D B ! ] D { Y Q ! B #.0.G g.LXZXvXSXlXtX=X XT.>X4X+X+X#X@X3XXX5XqX X;XiX+X7X4XoX+XjX;XtXAXDXAXAXFXKXg.E ^ %.6.@.q.[ %.7.@.q.q.Y R 9. .} [ E W r.d.q.D Q 6.,.] E C *.Y | J | [ [ E z E 4.3.^ S A E H R ' R E  .( W E D ' C A F ! Y C E ^ B ' ....G R Q #.] @.9.#.O.0.>.e. .e.BXAXAXvXlXcXbXtX*XY.4X+X XY.-XuXuX=X+X6X^.wXF.+X5X X+XoX*XcXxXvX*XZX6XW E E Q A C +.W E Q O.;.O...h 7 h h u x d h i t V f Y ( ,.D 6 5 4 7 l < t h 7 p y 2 h u 7 M q 0 > 4 f i.B.1.:.c.f.W Y ) c.a.w.a.r.a.w.<.:.j.a.r.<.r.r.a.k.a.) ) ) :.<.w.r.w.w.a.w.r.a.w.<.w.w.w.w.) ) r.) r.<.;.) :.:.w.W O.w.:.U ) E 0 & - 7 6 4 > 0 7 @ 5 2 2 2 2 - 6 f Q V - % 2 > @ > 2 4 - O @ 2 7 4 > > > , % > @ @ % > @ , % % @ , > @ % @ % @ ",
"@ > > > @ $ % > @ % > > > - < 2 0 , 7 2 > % > , @ @ O @ @ > % @ % < - 2 2 - > 2 , @ @ 4 2 - 4 > @ 2 > 7 x d 0 y 2 f 6 u > 2 7 4 @ 2 - 7 4 6 2 t > 7 0 D W o.z 2 4 y 2 6 y 2 7 7 4 - 0 f Z.Z.r.Z.r.; ,.Z.d.Z.c.w.Y F x h 7 i 8 7 q h 0 > i p u 7 7 i 7 7 b 2 8 7 2 u l 0 k 0 i 2 2 0 h 7 i 0 j 0 M j i 0 u K u h h 7 l x u u K n ^ h h F S A F L B E E E ..! { Y I (.LXlXbXZXbXbX=X=XE.;X XXX0X+XY.+X4X^.XX-X+X3X3X#XY.=X5XaXuXlXZXZXAXCXDXG. .O.$.4.@. .9.Y Y #.X.Q #.*.] q.Q W ] Q  .X.+.W E 4.Q +.[ E D o.D B D z B Y ! Y [ Q W ..! G D ! Y Y &.C [ $.R z [ q.( E B $.[ D [ | B Y =.Y ] Q =...%.O.W o.O.*.q.6.@.Q u.DXHXCXzXZXnXbXbXiX=XoX,XU. XsXsXXX3X6XG.oXU.`. X-X0X#XXXxXcXbXbXAXKXp.z ! &.B B D Y ] ] ] #.R h 7 0 h k u S u t 7 2 z Q 6.3.z 0 h S u 6 7 2 0 q 0 6 2 0 u 7 0 6 7 4 4 c N h.5.f h +.c.a.X.} v.q.9.! 9.t.,.y.q.0.f.i.,.9.,.e.1.#.v.$.&.$.q.+.6.0...9.0.4.+.O.! q.9.( o.$.! 9.^ 2.v.W E T ! T ! %.E ! Y H 0 - - 7 0 2 4 > i 3 , 8 2 2 < @ h S ^ J 7 - - , @ , , @ @ > @ @ - > 2 > % > - 2 - @ @ > @ @ , @ @ O $ @ % $   O > ",
"@ o @ > - O @ 2 @ @ % @ < 5 @ @ 2 @ 8 2 7 > @ > > @ @ 4 6 > @ - 2 @ O < @ @ < @ - @ 4 7 2 6 > O 8 u , 2 7 2 q > N d.<.Y 4 > 7 u 0 - y 4 2 2 > 2 2 7 7 - z Q 4.d > 4 2 4 4 @ 3 - 3 1 ; r.rXE w i.M.5.j.f.z q q.rXr.B i 6 7 0 t 7 0 u u - > 3 6 i j 7 2 h 0 - 2 0 0 t h z 0 2 p 0 l h j 7 a u x 0 u 0 t u K u 0 z V l l v c h 7 v F x l S L H x J ..$.E R ..4. .D 1.MXCXvXlXZXbXpXiXiXjXXXE.-X=XE.#XJ.U.-XiXsX4X@X+X X0XXXpXbXlXvXCXSXSXDXG.O.e.e. .Q 9.4.O.9.9.] Q ] Q ] Q %.@.#.] o.D G } D o.#.3...=.E R E R ]  .E A %.Y W o.Y G ~ Y Y ' o.W A E R D h x x x ] ] N D x D ' E x $.+. .W %.] q.Y Q *.4. .Q 4.3.Y +.%.O.j.KXZXCXZXvXvXbX5X6XoXL.+XoX#X6X+X+X@X4X#X9X+XJ. XY. X-X3XiXbXGXAXHXQ.C D Y D E F Q @. .! F 6 t h S x u h 7 4 0 u 0 C ,.t.Y 6 y 6 z z 0 u u 0 7 7 2 0 K 7 6 j u 4 , @ t C c.d. .z u.m.c.d q d z h - c h 6 0 0 ; 0 7 6 z d d u 6 h h 7 7 i 2 f h 6 l 0 z j 2 7 0 7 7 7 2 0 z > 6 6 7 4 4 6 8 0 0 - 2 h 0 > 1 7 2 0 2 , > 7 2 4 7 - 1 > 0 Y C a > - 4 - > > % O 5 < 2 4 4 @ 2 > > % > 2 7 - > 2 2 @ $ @ @ , @ o $ % % o O O ",
"@ o @ > > @ @ @ > > > @ O @ @ - > @ 2 2 7 2 @ @ @ , > 2 2 > @ , 4 @ % , & $ 3 @ y > > 7 7 7 5 > - 0 6 - , > - x t.f.c.h.#.6 y K D > 2 2 > 7 7 7 7 2 y < z  .>.B - 2 t 8 2 > > 7 7 1 2 8.rX .d 8.j...c.N.O.d W rXd.f > 2 h 7 u t 6 y t 6 7 - 2 0 u 2 u u 6 y 2 0 h 0 2 j q 2 7 n u 0 h d h B x 7 0 h 0 z h 0 x F Z h h A D A h A z D J z D R [ ] Y R N B o.3. .Q ~.LXSXxXlXlXNXiX5XG.XX-X-X0X XXX@XOXY.XX;XXX#X+X XY.:X5XMXxXzXAXZXAXHX>XQ 1.5.p.h. .#.@.O. .o.@.*.=.o.W T ' o.@...Y } $.R R o.Y ! ( @.D E Z D *.9.$.B &.R R G ..,.E G D R [ E R E E E E F m h A G D [ Y Y Y G D ] ..] Q Q B R ! @.Y Q 0.4.Q #.9.4.0.6.Y g.PXGXvXCXpXxXtX8X%XE.9XiXXX-X6X X X*XE.+XY.E.>X@XT.XXY.5XlXvXzXZXBX>.m G E R D Y i.9.B 0 h u x H z u u 0 t x h Y >.4.Y u i > 6 z L 0 7 j h t > 7 i 0 0 M t 0 t 4 & O f h.S.r.<.~.k.Y 2 2 2 2 w - 7 - 7 i 4 > @ > 2 u 6 4 2 - : 4 7 - - - 2 6 - - 2 - > 2 @ 2 2 4 7 - i 2 @ - > @ O > > , @ - O > > - 2 O 2 2 > - > 4 ; 2 2 > 2 O ; A E N O @ 2 4 2 2 % @ @ > > @ > - > 0 2 3 > - 2 t 4 > 4 4 @ @ , > , @ @ @ o o @ @ O ",
"@ % % @ @ - @ O - % 3 % o @ , > > 7 4 - 2 > 2 > O @ > > > % % @ - 2 > O , @ > % @ 2 4 @ > @ > 2 2 5 2 > < , 0 f.f.6 2 f.f.N - j ! 0 7 @ - 2 2 0 6 6 5 2 N 6.O.B 7 8 5 @ 2 8 7 7 > , 7 B c.K.k.~.d.: N M.M.d.r.rX5.6 & 4 0 7 w j 4 , 7 7 l u u u h l 6 0 v 7 7 u 7 q 4 8 7 x S 0 u h 7 d F h v u x v x x x F z 0 z B F B B A B H h x [ Y W A D Q ~ Y { G ! #.@.g.MXGXZXCXbXyX*X*X;X#XY. X6XT.`.-XY.+X-X=XY.E.XXXXsX+XXXxXtXpXCXDXGXFXnXu.) #.O.i.4.#.]  .O.Q Q 4.8.D ] ] R [ ] ] ..B E Q #.Q =.H E i.p.D ' [ B B J A B N Z H z +.>.n J D D V x Q W A Y [ Y x L x J B W %.O.[ [ D ' B D ] ,.! Y o.X.R Q @.0.Y +.#. .4.#.+.D (.HXZXvXAXAXDX*X X4X4XhX+X5X4X6XhX^.Y.XXXX XY.9X@XXXY.3XaXvXbXZXHXG.z L [ Y Y Y ! H B F B S c h h v 0 V h | C 6.7.R 6 y 0 u 0 2 7 0 u 7 0 j 7 > 5 0 V 0 2 2 0 h 7 u z ' g.d.F.c. .; y 0 7 4 0 0 6 6 2 i 7 i ; 7 k - > 4 4 > u 7 7 2 < 2 7 8 i 2 2 7 t t 6 7 4 7 2 u v - 0 , 8 2 2 i i 4 % 2 2 > 4 i - 4 > 4 > @ < q > 7 0 2 > h C ~ h 0 2 y > @ - 4 4 @ @ > 2 @ @ > 4 q % O > 7 7 - - > > > O @ 3 > @ > % O @ @ % @ @ ",
"- > @ o % > , , @ @ @ , @ O @ 2 @ 2 2 @ @ > 7 4 > O % > > > % @ @ @ - @ - 4 > @ > > > > , @ @ 4 4 3 2 > $ & N d.r.- @ <.N.( @ 2 j 7 2 @ > > > - 2 2 8 > 0 6.<.Y 9 0 > @ 5 i 7 2 4 y > > W l.l.6.Y > 7 5.C.Z.h.f.[ ; 5 0 i 7 0 0 0 4 > u 7 2 2 i j 0 7 u L 0 ; 6 j 7 2 > 7 d c 7 c k 0 0 u 2 7 u 7 h k l l l u h l c x S x l z S h l A ! E J h } ' o.=.] Y ! Y G.DXzXzXCXvXcX+X+XoX4X9X X@XE.-XXX4XY.4X9XXXqX3XXX6XsXaXcXlXZXAXzXSXPXV.U =.3.i.( Y Q @. .#.X.Q 4.@.....W ! &.W *.! G A Y #.D J D Y >.q.E h C $.F Y E G D F J x 4.<.m z A A z Z R D A A Y W A T A N A F W C D | ..E B A W #...D R o.[ W  ...! O. .,.@.( 9. .3.NXHXCXCXyXDXbX;X=X^.Y.sX=X X X:X:XXX4XsX+XE.4XU.E.OX+X5XdXZXxXZXMXY P G Y o.Z x x z } } N h u z G S h K B  .6.B z 2 t x h 4 7 t 0 u 0 4 u c 7 7 4 v u i > 6 B z x h ; W u.d.Y h , 7 i 7 - 7 l i q ; 6 7 4 0 4 7 4 2 8 2 7 h q 0 2 7 - 7 4 7 0 0 l 7 2 l 7 - t 2 7 0 2 0 7 4 4 2 7 0 4 > 2 0 t 2 , > u , - > 2 4 7 2 5 2 2 h D ~ H 4 & 7 6 1 @ 4 7 2 > > , % < @ 2 7 6 % > 2 7 @ - > < > 5 @ @ - @ o @ > o % > , % $ ",
"> @ O > > @ @ , % @ % @ @ O o - @ @ O @ @ > 2 u 2 @ @ > > O % @ O O @ - 7 7 @ O , @ % 2 @ @ % - 4 > 2 4 # o z r.j.N f u.F.N @ , @ > 7 7 , 3 - % 2 0 > O 2 O.r.! f > 8 > > 5 2 7 4 4 4 2 w ; f 6 @ b u d x B Q N 7 2 7 6 2 u 7 7 0 S i 7 5 4 u 7 2 7 t 2 6 u j 0 u n h J h ; 6 7 j z h l 7 5 c 2 5 q 8 4 y 4 l t u d 7 x 0 6 v x V d q q V } V x k } ] Q Q E @.VXHXCXvXZXpXgX:X X@X6X;XXXD.oX6X6XhX4XY.T.oXXX3X+X^.*XcXlXlXvXCXZXAX/.( >.i.4.7.p.4. .0.@.@.O.] Y G  .R ..G ] %.E %.[ D R E | z  .u.W ! } D E Z A %.A E ' D x B q.( 7.Y Y / E D [ Y R B N H A D ..D D S x B D z } D [ D R Q Q ] { R ' o.*.D o.Q @.6.i.7.@.,.R p.KXAXvXCXnXZXcX*X3XT.4XY.8X X X-X.X#X+X-X.XS.E.,X XXXpXpXxXvXvXMXu.P ] ] { x E A x C z A S h L B V z x G H z h u 8 V h 7 t j x h d j t 2 u S 0 7 > 0 h 7 b 6 / ..0 2 7 E J 6 4 i 7 4 7 t i @ 2 l 7 6 7 > 7 t 7 4 y 4 7 2 2 7 7 2 2 5 7 @ t 7 u 7 7 7 8 4 2 7 2 2 7 2 7 7 2 4 4 7 2 4 8 6 0 7 4 2 > 7 < 4 > 4 4 2 > & @ 7 Y Y x < > , 2 $ @ > > 4 - @ 2 > < - < - 2 6 - 5 2 2 2 4 > @ @ @ @ % > @ o o > > o o O O % ",
"> > % @ @ % % O O > $   $ O @ @ < $ O @ @ @ > > 2 @ @ > > o O @ , O % - > - > % > % > 8 > @ % @ 2 8 4 > > - 2 N t.C.c.rX4.; @ 1 5 < 2 7 2 - 2 > < 4 4 , 2 +.r...N - 7 7 - > > 4 q 7 y 7 4 # & , % 2 - , > - 6 > 7 u 0 7 2 0 7 2 7 0 4 @ + z D Z 2 ; i 7 2 0 x S u K d z ) ] A 8 7 l z Z 9 z h B E D x G z B A z T  .D o.#.Y +.+.] @.Y N ) >.>.O.A R Q #.[ N u.KXDXZXlXlXpX*X X0X>X6XXX;XwX#XE.+X^./.4XoXJ.^.-X`.E.uXnXlXZXzXCXDXnX1.<.7.7.O.*.7.e.] =.X.Y *. .' E  .{ &.D Y ] E A D E R B S z e.d.Q ..D D D h D ' E N R R A B 7.@.:.0.! B N $.D B ! R A h Z R ' ' [ z x S B Z E D E D $.B ! [ ] ] .. .D o.q.....=.W X.] ] / D (.HXxXlXlXvXvXtXxX0X4XT.*X7XXX6XE.Y.*XE.`.K.Y. XoX4X;XpXuXvXSXbXeXd ( ] x B N $.&.D S J z v h z x A F h h 7 c j 6 V u 7 t 0 z v 0 6 p u 0 c h 2 2 2 x c V f  .D 0 0 2 7 4 4 4 0 4 4 2 t a @ 8 7 4 p 2 4 8 2 2 2 > 7 4 2 2 8 2 > , < w 7 2 6 8 > < > > % @ - 2 2 4 6 > > , > , @ > > 7 t 4 2 2 2 > 2 > 2 - 5 w 4 % @ 2 ^ W B 2 O > > % % @ 4 4 @ < 8 > @ @ , 2 7 4 7 4 > - 4 4 - < , > @ @ @ , , O o > , @ @ O o @ ",
"@ O > @ @ % $ @ O @ O @ % > > @ 2 O o 2 > > @ % 4 7 - > @ @ @ O @ @ O . & 8 % % O O 2 2 2 > O > < > % , @ > > > x d.f...0 > > > 7 7 2 - - , 2 @ 2 7 > > 0 ..O.W 0 - 7 t 4 8 , > w 7 2 2 y > - t t 5 ; - 8 a - 2 4 7 2 h l 4 > 7 0 6 y + u i.B.i.G 7 7 S z f C z 0 0 z F e.N.c.H 8 i B t.r.<.r.d.c.a.j.a.f.k.j.d.f.c.a.c.~.x.F.~.M.l.M.z.F.~.K.K.S.:.+.0.6. .>XHXAXlXCXvXDXgXD.hX^.+X6X4X XT.`. X4X=XiX+X>X X=XaXgXnXpXxXvXAXFXDXu.( i.4.4.7.4.O.@.3.Q ] [ o.*.Q  .W Y $.C Q %.' x H [ W N A Y O.O. .o.$.D z } z h S D E A B ! >.e.[ A W o.{ G S x z z Z | Z d x D o.Y L A Y o.C A A E A z F A ~ 0.{ D D ] X. .D ] D G  .q.4.Y W >XHXCXCXlXDXgX*XaXsX^.+XE.Y.0XtXuXiX-X4X#XOXoX3X5XoXfXbXvXpXCXBX .[ ' ! [ V C D x 0 L E B u ^ D Q ' z h h 0 c h t u u h 7 0 S 2 4 h n 2 4 0 0 k 6 j G ( t.E > 7 c > 8 c 0 2 u 4 2 2 > 7 2 7 t i h , 4 0 7 < > 7 7 u u 0 4 4 2 - < h t 2 @ 8 7 7 7 @ 7 < - i 4 - 7 4 2 7 2 4 4 5 t 2 4 < - q 7 4 > - 8 > > w 2 > h Y D 0 4 4 > 4 4 - 3 O , > > - 4 2 , O > t 7 4 @ - > @ % > @ @ 7 > @ @ > % @ @ @ > @ % , > % @ ",
"% > > @ % @ - , @ $ O @ @ @ > > 2 o O < 6 - - @ 4 0 0 t 7 2 7 - > 2 @ @ 2 h 7 @ @ @ > > > > @ < > , @ > > 2 5 o 2 z 9 : - , 2 2 4 u 2 @ @ 4 t 7 4 2 > 7 B O.<.E > - u 0 2 7 t 2 @ y > 0 j - 5 0 6 2 6 u h q 2 i t y 7 7 0 2 2 7 6 2 t 7 ^  .>.t.O.f 0 h R O.%.W &. .0.h U _.c.7 , d @.e.w.r.c.r.c.j.k.d.l.m.M.~.r.g.k.x.d.x.A.l.n.k.x.~.F.l.F.F.j.d.0.=.o.3.BXDXCXlXDXvXmX;X*XuX/.;XXX-XY.[.4X-X@X3X XY./.jX*XuXiXcXxXbXZXAXGXY.) ,.8.4.7.X.+.i.7.7.%.Y Y ..Q  .o.o.Y R ] ....R D A G #. .F x ! +.d.>.' A ' [ D v S x ! G z D e.d.( ..! Y T z J A S x G N F S D W :.Q C D o.Y ..R D D A A E D D W Q R } W ! o.X.q.Y ] @. .3.9.B ..DXDXZXbXZXbXtX*X7XXX=X-X#XY.;XiXaX:X:XY.'.T.3X*XXXXXdXlXyXZXDXV.B Y C ! A H E A h B H x d ' C R V h h l 0 0 S 6 h L q 0 0 c 0 0 z h 7 - 7 u c 7 6  .w.t.0 > 2 n u 2 0 u u 7 0 4 7 2 > > 2 - 7 7 h ; 2 l 2 > 7 2 0 c 6 2 7 2 t u 0 7 0 2 2 6 h 7 2 i > 4 2 7 4 4 4 2 2 2 > > 7 7 4 , @ > 4 2 - i O > 2 > > - x R } q + O > 2 7 - - 2 @ @ 7 7 > @ > > 4 7 7 q > O 2 > , o @ , > 4 > > @ @ , > > > @ , @ % > > O ",
"@ > - @ O O @ , @ % @ , % @ > > > % > 2 6 0 6 > 2 0 v S h 0 h V z N 0 u V N f z h h u @ @ > > , > 1 2 - 4 > , @ 5 O - 0 y 4 4 u > 7 7 2 4 7 7 t 2 < > A f.M.>.J > @ 2 2 0 7 7 > > 3 > 0 0 2 4 2 7 0 q 7 7 2 0 0 2 0 7 7 7 7 7 6 i > 2 A ' N z W f.N 0 h A D B W v.~.h.C w.}.d.N x O.e.W d V W Y ] W W Y ( @.D D Y 4.Y Q O.( ( W Y D Y X.O.@. .O.( W ! +.Q V.LXZXvXvXbXxXXXXXhX=X5X6XG. XE.6X-X X#X-XOXoX^.6X=X;X/.pXZXbXAXFXHXg._ 4.>.,.@.O.( e.e.D } Q #.Q ] %.o.o.] ] ! ! D G [ $.Y 4.0.[ A $.$.d.f.h x L z E L h E $.E A G ,.:.u.e.F x z H ^ | | E $.B G H R Y :.>.Q Q F x D [ R D [ D $. .Q Q Y [ Y G } D W =.*.! ~ @.i.3...x *XHXSXvXAXZXiX+X7XhX/.jXkX X4X4XxX5XY.#X#XY..X`.mXtXuXxXzXCXDX/.z ~ Y W G B ! F S h v x ..Q Y R z u j k 0 h x x h S 7 8 j 6 V V 2 > b 0 u 4 4 c W ( 6.E 2 7 5 4 0 2 7 @ 2 7 q 7 0 t 2 4 4 4 7 - x k 7 j t u 4 u 0 0 2 > l 0 2 2 > 7 > > 2 7 u u 4 t 2 2 > 4 > - , @ - > > 2 7 - > > % 8 2 t 4 b 4 2 2 @ > x  .Y 6 % > , > - 2 2 > @ 2 > > - 4 @ 1 @ v h - y 2 > 5 - > < @ > 2 2 > O @ , , O - @ @ % O > - - @ ",
"@ - - @ O @ @ > , @ @ @ > > @ @ - 2 7 4 0 h 6 > 8 2 2 h f 0 7 Z N N ^ f z Y ! W C N x h @ @ 4 2 > 2 - 4 , % 5 - & & > 7 0 7 @ 6 2 i 2 > 7 2 - 2 2 @ @ N <.a.) ! q @ - < 7 7 4 7 2 > > 0 j y 2 4 < 0 7 > > 4 t 0 6 0 u 2 > l h 2 2 4 6 f ' ^ 6 N v.x - 7 f 0 6 9 +.&Xx.a.~.Z.Q Y O.5.6.6 8 - 0 S 6 3 u q 6 7 , 7 d h h h 0 q d V u b j h v L J v ^ ] ! 2.Q (.HXbXSXZXtXMX3X+X3XY.>X@XY.`.*X-X-X;X*X`.+XqX X^.*XMXpXbXzXSXAXGX:XW %.t.@.O.9.i.@.( i.{ o.=.D =...D G Y W Q R x ^ A A [ +.+.Y W W E Y r.i.D h u h B D B G D N B G 4.w.c.>.x B J z z B C D D A h H ..q.,.6.,.R u K E C R G R D  .] Q 9.@.R Y F E R Y D ] W ..%.,.6.X.T u.PXZXlXyXDXZXXXG.XX^.;X6X-XE.+X5XiX4X+X4XwXU.Y.pXbX=X;XvXAXGXtXv I ..R G z E D A h u B :.O.o.h j u h 0 l 7 h x 0 k l 7 u 6 h z 4 , i u l 4 2 W 1.@.h 2 q c 8 > 7 i 4 , 2 t 0 6 i u t u 2 2 2 8 x u y 2 0 t > 6 2 2 i 6 0 2 7 5 > < > 7 7 7 t 2 > 8 2 2 i 7 @ 5 , > > 4 , 2 2 > @ 4 > 2 4 0 2 2 2 > ; - h W Y d 2 > 7 7 @ > < 0 , 3 < > 2 > @ @ > u V h @ @ 4 4 - 2 2 4 > @ < > @ % @ @ @ O , > > @ o @ > @ @ ",
"@ o @ > @ @ @ - % @ > @ > @ O > 4 @ 2 > - > - @ > % O ; 7 2 > 2 2 7 7 2 u 0 0 h d d N Y z 2 , 5 > - 2 @ > , < 2 4 , 2 ; 6 4 @ 2 2 > > 7 4 2 > > < , 7 - 6 Q 6.<.W ; 5 > - 2 2 7 u t 7 4 8 > - t > 0 7 4 i j 0 h j 2 > 7 7 0 7 4 u t 7 7 h ! ( 6.+.2 5 7 h 6 7 u 0 $.h.x.h.R h E W ~ z 0 l u x u l q j l j q i K h 7 7 L F P V J J J F L F H E E  . .] ! O.BXGXAXCXlXbXaXXX3XT.oXOXE.U.qX6X6X#X0XU.J.oXsX7XY.^.DXpXDXvXCXCXHXg.W v.p.7.6.@.7.,. .O.W W R o.Q [ ! E R R [ [ R ' E N W f.i.! X.@.+.8.O. .D A H H B Z D A B | V B B.l.@.Y z E x B ! B x S x F x x 4.f.6.Y ' F Z D } G H A $.W I +.Q +.>.' N N ! %.o.B X.q.[ G Y ( 3.#.Q >XHXCXzXDXZXtXfXjX*X;X*X5X;XfX.XE.XX X`.`.#X0X:X*XaXfXMXvXvXZXe.U ! G } / T C B x H o.O.( B u h S x h u 6 h z u t h c c 0 6 6 7 7 h 2 4 2 } >.! B @ 2 7 7 i l u 7 7 2 i K 2 7 7 4 2 8 7 0 0 2 0 0 2 2 4 7 0 - 7 t M 2 8 6 a 6 > > > 2 7 2 > 2 - > t 2 i < @ 2 i 7 @ 5 2 2 > i 4 7 7 > 2 2 2 + t 8 4 z 1.+.0 , > > 2 2 > , 3 - - 4 @ @ 2 2 o - h h 7 @ , > - 4 2 > 2 - @ @ , > O o , @ @ @ @ @ >   O % > @ O ",
"@ . o @ - > @ %   > > @ O o @ $ - o - > @ O , % @ o % 1 + @ , o   % > - - > O - 2 2 6 N ! F 2 @ @ < a - > 4 - > 2 2 2 2 7 4 > 4 i > > @ @ 2 7 4 2 7 2 $ $ 0 Q t.r.K 7 w 4 5 2 4 h l 7 - > 8 6 2 0 0 7 4 0 h d 6 7 @ - c c 4 > 7 j - @ > 0 O.h.5.N 2 7 7 u 6 j M r O 6 W Y 2 4 V C h 0 7 d H x z c x x z A N E C z J z T E A D Y B Q O.Y Y  .Q @.4.3. .Q u.LXAXAXZXpXcXjX*X3X@XY.W.9X+X5X5XE.J..X^.OX4X5X X XjXDXvXbXvXFXHX:XW +.+.3.<.0.X.#. .#.+.9.Q R [ Q Q G G E [ D B ] D Q [ ( f.>.]  .O. .0.B x } F x N B S | G h h S Q <.b.D z E A | z ! E h c A v h E W 5.,.W x h ! Y C $.m h H W ..Y W  .( Y F E Q Q ] ..W ,...C ..+.4.>.Z u.HXAXCXZXxXCXcXXX^.+X+XXX6X5X@X^.=X;X#XD.Y.3XXX X*XaXfXuXnXHXx.Z C ..G B B B F D B ( t.Y 0 h x x J 0 c h j h u 7 0 h h 7 y 4 0 l v 2 i z O.,.k > 4 u 7 6 7 0 0 2 0 h 0 0 > i 7 6 > 2 7 0 h 7 > i t 0 4 > u > t k 0 2 7 b 7 7 2 i - 4 2 > 5 8 2 2 2 - > 6 2 7 0 2 - > 2 < > 2 7 0 7 > @ 7 a 4 0 - 7 Y ) B > < 2 2 > @ @ > > > > @ , + 2 4 @ 0 v 6 o $ > ; > > 2 2 > @ > , @ % , @ @ > > > , o @ O @ @ , % @ ",
"@ O O @ % > O % O % % $ O , @ % @ % @ > @ O & 2 > % @ % @ @ > @ % @ @ > 3 > % @ % 7 - 2 h B B 6 > @ > 4 7 < > @ 6 i 2 > 2 > 2 8 @ 2 i > > 4 > @ > 2 2 5 @ 8 d N 6.9.h > 2 4 3 > 2 2 2 7 4 0 0 2 7 7 7 7 0 u u 2 2 t 7 7 7 4 2 i 4 - y i 0 6 d f 0 6 0 t 7 0 6 0 8 5 8 w 9 7 y 0 v j 4 2 v h z x 0 z D x x B C d h k x N N B J R G D +.Y W Q X. .O.4.#.] x.DXAXAXbXlX*X3X@X X-X,X+X-XXX^.4X#XE.Y.`.E.+X5X^.6XlXzXZXvXCXFXDXd.) :.6. .@.3.@.*. ...#.0.W ! } Y ..o.Q J G Z E W Q t.) 3.+.G Q @.Q E V z G A z Z R $.A z H G ^ h E d.b.4.C A z S z B h A H x x F [ ( ) O.&.A n x D Z G E B ' D ....Q R r.h.Y G R Y D %.Q W o.C q.#.@.6._ Q NXDXZXbXZXxXuX6X;XY.oX9XXX3XXXsXMX*XoX@X#X:X-X6X:X;XpXpXvXDX(.] D v.E B H E F Y #.6.! 0 k j z h h z x k 6 l v h c 7 h 2 n i 0 i 0 f ..~ Q h 7 7 7 6 6 7 2 z y 6 0 l 7 2 7 i 8 2 i 0 2 7 7 4 2 > 4 j 8 2 0 0 u t 0 t 4 2 > 2 2 7 i 2 7 w 4 7 7 b @ 5 t 7 7 j 7 2 3 , 4 > 2 - 4 > 7 7 2 4 5   9 v H A d 2 5 O 2 7 y 4 > 2 , , 2 > 5 > 2 7 0 j - - $ , < @ @ @ 2 4 % - 4 > > > 7 @ @ & % @ @ > > > $ , > @ O ",
"@ o @ @ O o @ , O % @ @ % @ > % O > @ o @ > > > - 4 - 4 @ > > 2 2 @ @ @ 4 2 2 2 , 2 , O + f Y B > > @ 4 4 4 > 2 4 2 2 > 2 2 0 7 @ 0 2 2 2 7 > 5 4 > 5 - 2 7 4 - B O.[ 0 @ - , 4 < , > t 6 u u 4 & w 0 7 > 4 8 @ 7 K 0 > > 4 u u ; @ 8 7 7 3 & & 1 4 t j 0 l j 6 f x t a 8 7 h 0 0 0 u i y q d t 8 S z q i 8 b h M u k K b i j M F N x | F L ^ E ..[ $.W (.HXAXCXpXAXgXW.T.`.XX8X4X+XhXE.`.4XfXqXY.3X8X7X+XfXgXtXZXDXJXFXpX .&.i.6.] 9.q.O.+.+.Q *.4.0.X.Q '  .] o.x S Q F H W u.~.5.[ | o.0.#.c j Y D S h J Y Q / u B ] E h h r.b.5. .x n x H v x x B l h A C 9.t.6.:.D A u t h R  . .o.A D @.+.[ j.d.] o.B ' ' G Q 9.! 9.4.@.#.7.&.W V.DXDXzXbXxX*X+XjX=XoXQ.G.6X;XuXlXiXY.+XhX0X=X/.aXaXdXbXzXZXgXO.g Y Y A [ R R D @.1.A 0 i z t u v S z v l 0 B x F u < t h h 2 , 2 Y s.+.z 7 0 7 l i 2 j 8 h 2 p q 7 5 < 4 2 2 0 c 4 4 5 > , 1 - 2 7 > 0 K 0 > % O % , % s 2 y > 7 @ < y > 4 7 a 1 . @ 7 7 7 % , > O 1 > u 5 , @ i 0 2 4 1 = D [ A A O & , > $ > 7 0 2 - & $ 4 2 - > 7 h f 0 *   < 6 > , O , 7 ; 2 2 2 > > 2 2 > % O > @ O % > @ @ > @ O o ",
"% @ @ - @ O O @ @ o o O O o > @ @ 2 > O > 2 > % @ 2 2 > @ 2 2 2 7 > > 4 , O O 2 2 @ @ % $ % 7 S z 6 2 - > @ 3 , > > 2 > 2 7 8 % < 6 > > 4 7 0 2 2 7 7 0 7 7 4 < , x  .w.Z @ * < y - - 4 6 j 5 , > 7 t 5 - t 0 0 t 1 % 7 h 7 > 7 i 0 7 7 i i 2 0 0 0 7 u 6 7 8 , y 2 2 j 0 4 4 t 7 0 k c 7 l k 0 V u 7 S v u J h A L h J A z z ^ D O.( W R &.o.] o.&. .8.BXCXyXZXuXvXxX*X-X+X@XY.4X5X6X:X6X X#X X4XuXE.E.jXiXxXbXSXJXZXKXd.7.@.) 0.8.5.( ,.] { ' o.G ] q.W R H D @.D E *.3.:.5.u.c.c.i.i.6.A x E h ^ Y C B h c A L k D W D j x r.l.x.>.0 k S E R Y z h A F z z B 6.4.,.o.G 0 h z ' B x m h l F 0.>.D A N =.! D A ..*.#.Q ] ] X.+...%.! O.kXDXAXAXDXpX;X5X X4X#X*X.XE.hX/.^.jX4XE.Y.-XE.+XjXtXpXZXZXKXu.Y } $.! R F D Y D F B z S l I [ F 7 0 6 x H 7 5 v h z 7 2 7 0 B ,.+.G l y i 2 2 0 6 l 7 0 x , < u 7 6 7 2 4 6 5 @ 0 ..<.N g f z f 9 N G z Y Y Q Y E B z z h 2 h d N 6 6 h 0 f h h 7 6 z 6 2 7 d z B f 6 6 0 0 f N 0 , > 9 Z ( ( h 2 2 7 > < , % & @ @ 7 7 > 2 > > > u 0 @ - y @ > < 4 2 0 O > 2 > > - - @ , > @ @ @ 2 5 O @ > > $   o O @ ",
"> @ % > @ O % $ % @ o @ > , % % @ % % > , > % % @ < > - > > > < 2 % @ 2 @ @ , 2 < % % > > 2 > 0 c x 7 0 2 o > 2 < 4 > 8 > 2 > @ % 7 , > - t 7 > , @ 4 7 > 2 8 < > 2 z W ,.z - 4 q 7 6 2 4 6 0 8 > 0 2 7 > 7 u 7 h 6 - 7 0 7 2 u 4 0 q 7 u 4 2 2 h 7 7 i 0 u 7 u 0 l 6 0 h 0 6 j 0 c h h z h h k x z h n 0 0 c x B z z A Z F x ..Y Y $.D ! [ W o.Q +.( 3.DXZXlXvXfX;XuXMXiX+XE.E.oXE.E.-X-XoXhX+XXX3X X XkX*XpXzXZXCXDXVX3.@.i.>.@.4.i.9.#.{ o.Q =.D E #.Q ..x #.#.G ^ E  .f.e.<.5.( Q Q ! f E D N h S E H S x A F m N C F h B r.j.f.i.z Z x N N H x F B V x x Y 4.3.Q N F L L Z B A D x x D Y  .5.x [ G B  .R ' Q Y B ..q.#.4.{ X.X.O.Y (.HXCXAXZXlXuXfX3X XOX0XXX5XjXXX-XXXY.=XE.T.`.XX5XaXpXlXZXLX&XW ! Y D C B E D G F B H z h Z T 0 0 V h z z 0 0 k u z h h q x ! q.I d 7 7 7 7 0 - i M - u K > 2 l 2 u 2 0 7 > % 2 Z 9.6.#.,...%.[ ..+.0.Y W Q +.( D D ! [ ~ C G D E } D E R } B F H Z } ! z C W T ! | | 6 z A E T x h h ! Y A z 0 7 2 2 > 7 4 2 > , 2 w > > % > - 0 0 > 4 > > 2 2 t 2 > 8 > @ 5 > > , > @ % 5 > < , % @ @ O @ > % o % O , ",
"> @ % % O O @ o o % > @ > O o o @ @ O % @ % O $ - > > 4 5 @ O @ @ O @ O 1 2 0 - % % @ 2 2 % % 2 2 N x h 0 > @ , - > > 7 2 @ > 4 > > @ 2 2 7 > - < @ > 7 2 2 , > 2 6 - z 6.:.I 0 i z d 7 t 2 0 q - 2 7 h h 8 > 0 0 A h @ > t 0 i 2 p u 0 2 2 2 7 0 j 7 2 0 u u u h n k 0 u h h z V 7 0 h z z z x u z d h c x h c z A A z H A B R Q D B A [ W  . .+.+.( g.PXAXAXxX;XaX;X5X*XY.0X+X.XT. X8X XXX-XXX#XXXqX-XXXfXvXvXvXAXPXC.( @.*.0.5.Q @.4.] o. . .7.Y [ !  .o.{ o.I z B S B i.i...z z A E z A C ! ! h h L V z Z A L S B D ' x E i.d.d.>.' E G B B h B $.A x K 0 C O.0.o.z h V S x Y ' B F .. .4.O.,.x N D Y Y E o.Y [ R Y ( @.3.Q [ 8.6.~ p.LXAXAXzXlX;XdX*XY.`.E.-X6X^.Y.E. XqX.XoXY.E.9X X5XxXyXlXHX(.x C H { *.B D F J B A S 7 ^ S 7 0 h V x K 0 h m t 6 h B z z +.1. .x 6 0 q u 7 t 0 l 2 2 0 t > 4 2 2 0 2 0 7 1 7 E Q C ..6.1.! 9. .6.,.4.O.o.0.t.Y &.! Q +... .q.[ C o.,...R H B $.! &.] ..Q +.q.~ f z } z H F A ! W x S | Y 4 @ - 2 - @ 2 2 i 2 4 2 4 - > 5 . @ 7 d t 8 > O @ 7 0 2 $ o 4 2 2 2 > @ > % > > @ > @ > @ @ > , @ % @ O @ @ @ ",
"@ > O o O > @ @ @ O - , % @ o $ O @ @ @ > @ @ > > > > 2 - O O O > > > $ > - 7 4 @ > > > > O @ - @ 6 S Z h 2 , , - - 4 2 4 > y 8 7 i > 2 4 > 2 2 > 4 - > y 2 2 7 0 5 > 7 N 1.,.Y 0 ; u 7 0 2 7 0 7 > ; 0 0 7 7 7 2 9 v 7 > 2 u 7 < 6 2 4 7 7 7 M 0 0 7 0 c 6 q 0 6 7 u l 7 7 c h 0 v n h 0 S x x h v S z c 0 z B z F A z J B D D R ' Y [  .Q ,.2.+.%.Q V.LXCXvXbXfXuX;X;XhX X+X.XU.wX XE.6X6X^.+X@X4X4XE.6XMXzXzXlXAXNX5.2.q.X.4.u.{ 4.i. .{ ] ( 4.Q Q ! o.o.Y ] E S L x D Y B x J J x L S A A A E A F x N D [ S u J D z H h N e.d.5.( D D F H H S x h G H h B Y 0. .Y E | 0 h x ' z h | D Q ,. .( c B =.[ A [ +.Q G A [ Q O.0...+.8.e.W Q MXGXAXvXvXcXxX;X0X`.^.jXXX#X4XY.^.9XY. X%XJ.oX-X*XlXbXZXFXNXW ~ ..] o.Y B A x x S u S B u 0 [ N h V z x u l l 7 h F D ..O.W B L u 0 u l 7 4 u ; u l u 0 q 3 7 2 0 7 5 4 2 C 1.@.B B B z h z z f f z D z B f h h d N T N N z f f z x z z 0 6 h h z 0 d d x E 9 0 0 0 h h 0 ; V h 2 6 0 0 & @ % 4 > > 5 7 0 t 2 > , > 4 2 > t c 0 2 > , % , 2 7 2 - @ 4 2 4 > > < % @ @ > @ % > @ > > @ > % @ @ , > @ @ ",
"% > O o - > @ @ , @ @ @ @ % @ @ @ @ % % @ > > @ > 2 > - > 3 @ % 7 > , , > @ 4 > 2 2 > 3 @ @ < @ % @ 0 R E 0 2 - @ 6 6 > 3 > > > 7 > 0 0 2 @ 5 i 7 t 7 @ > 7 c 7 u 3 4 4 ; V ..:.! 2 5 0 7 2 2 i 7 8 4 j 7 7 h 2 , > 2 t j 7 2 y u 7 > 2 7 6 7 6 2 7 7 l b 2 c 7 u i 7 c h 6 p 0 u i - v h 0 h x B 7 c z x 0 x C x z A A B B ^ B m D [ ! W  .Y  .) &.Q (.LXSXnXbXyXtXcX*X+X X4X@XE.hX+X^.MX6X+X`.].XX5X4XaXbXlXCXAXHX:XW &.6.4.] 4.] 4.e.7.4.....q.4.W B [ Y B o.] B B Z D [ R R J K x x N F k u B Y ' H D } D z h A E z B N ] >.k.h.( N A 0 J G E h 0 x B z L D +.0.W B x z z B F x k N G R  .#.%.Z N R R x N W %.D E 9.#.C 9.0. .O.+.2.W G.LXZXSXZXvXDXXXXXW.XX+X6X^.^.jX6XY.+XE./.Y.XXdXuXuXlXaXvXMXO.N [ *.R A ! ! B N F B A D k x [ A 0 k h h 0 u u x L z ~ 6.) z 7 0 0 0 7 j u 2 h c j u S S 3 4 0 d 0 t , > Y w.+.E 2 > 4 2 7 2 2 > 4 - ; 2 2 6 7 - 2 0 2 u 6 6 6 7 4 - - - 7 2 2 2 2 7 , 4 o - 7 > @ > - 7 2 > 2 > % - - 2 7 > , 4 4 7 > @ 4 2 - > > > 4 2 z x 2 6 x 0 - % 2 4 @ > 4 7 2 > @ @ > 4 @ @ > > @ @ > @ % O @ > $   % % > % @ ",
"@ @ @ @ @ > % O @ @ , O o @ @ > % @ @ @ @ 8 , @ > 2 2 3 > 2 2 > > > > @ > 1 @ 2 4 - O > > 2 7 > - @ > 0 Z Y B - > i 2 > > > 2 2 7 t 2 6 q > > 2 7 2 7 4 > i 7 2 7 > 2 - % 5 0 O.6.B 2 > 7 7 7 i 6 2 > i u 7 7 4 4 > 4 7 0 2 2 7 6 7 0 7 7 0 j 0 2 c j 2 0 0 c 6 u l 0 6 V h 0 a 2 i 6 h z x h A F 7 7 z Z h S A H E A A x A H A H W R Q +.o...( ) _ C (.GXvXZXgXlXuXgXqX+X^.3X X4X=X=XXX6X X3X-X`.E.*X+X:XbXlXvXGXHXC.Q +.=.@.X.6.*. .>.7. .Q *.3. .! ..o.R o.Q ] N D J x Z F N E N B F D H h G $.C E E A ' G F z B Y H | x [ 5.r.d.>.Z -.K 0 D D n K h J x h B #.7.W h h S S h z z x L N B ..Y ] E E D B Z ^ $.! E R Y O.q.R O.4.@.%.2.W g.LXFXZXlXvXnX*X^.3XsX+X6XXX-XuX+X+XhXhX@X XqXXXuXbXgXiXlXPXu.Z ) W G x o.W Z S R | h h E z x c p c H | 7 7 0 D .. .Y ) l 7 t 4 0 j 7 2 i 0 0 0 u 2 h 0 3 4 0 u 8 > 7 N 6.<.D 7 @ i p 7 4 8 8 > i 4 8 i 4 , 5 8 2 t 8 y > > n y , & 3 > 7 2 a y > 2 % > O @ i 4 @ y 5 , > < > , 3 , > , 7 2 4 2 6 7 4 > , 2 7 7 > - 7 5 z h 4 > c u - % 2 - % O 4 2 - 2 O > 8 2 - > > - @ @ > > % O @ $ @ o > @ > > $ ",
"@ @ $ O o , O @ O O O @ % % @ % % % , > @ % , - - > @ o @ > > @ % , > - 3 @ @ 2 @ > % , 6 2 2 > - < 4 @ 7 E  .f > > , 5 2 2 i 4 2 7 @ 2 2 2 7 2 > > 2 l 7 > % - 7 4 3 > 3 4 2 F ,.5.( 9 8 4 7 - 7 - 4 0 t > 7 2 h 7 7 7 0 h u 0 0 t u 0 h 6 t t 7 l u u l 0 x h q u 0 z B 0 2 i h l u 7 h ^ S z c z h l u B G z h ] Y D G J B D ) ] ! W o. .9.#.,.~ W IXGXZXDXcXcXgX=X^.XX6X7X7X+X3X^.Y.4X6XXX6X6XoX#X3XyXZXvXpXAXKX8.>.i.+.@.:.Y 7.3.R ] @.3.8.d.Q } ] Q #.] Q  .' D c S F D R [ D D ' x D G  .@.z N N N J L S H A B h S c Y 5.5.d.6.6 l L N A h x x F F h h B =.i.@.A h V B V J A ' B [ W 9.W D G [ R E C H B z ..D D Y ..@.#...8.X.7...{ NXHXvXlXZXZXbX^.+XhX4XXX^.XXY.oX.XY.T.U.`.XXG.sXMX;XgXAXHXV.Y ' B D A R Y z z G G A x D F j 0 m 0 7 i 0 u B q.<.>.I B a 7 h h 7 u u h b 6 h 7 t 7 5 2 p 6 0 y , - ) r.<.C 2 4 0 u 7 7 i 8 0 2 2 0 u i 7 8 2 8 > 4 y ; w 4 - > < @ , 7 4 > 2 t @ 3 - 7 7 > 2 0 2 7 @ @ i 7 - 5 p 2 4 3 2 7 i 2 2 2 2 4 > , > t 7 6 ; > > > 7 2 6 2 2 > > 2 > 2 2 5 4 4 % 4 4 7 4 - > 4 3 O > > O % - O , O > > %   O ",
"@ O , @ @ O @ @ % @ o , @ O > > - o @ < > @ @ 2 2 > 1 O % @ % @ % 2 - > 2 @ , > > @ o 2 4 4 7 2 - 4 - % + 2 ! R z > > > 2 t > > 8 - 4 < 2 2 4 4 , - - 8 > 4 , > y t 7 % 2 t 2 @ D <.r.D 2 2 l 2 i s 2 2 8 > w 7 h 0 7 7 2 7 j j 6 l 2 7 i 7 7 7 j - 7 l 0 0 0 c j t h F h u c V h 0 z c h h h h h C x 0 u H ~ D Y { =.G A x h $.! Y o.o...]  .@.+.~ Q BXGXAXnXpXtXxXsX X,X4X^. X=X0XVX^.+X6XXX+XhX4XY.aXlXzXZXzXZXIX3.>.6.>.>.v.] 3.0.Q [ 9.3.d.c.3.W Q Q o.Y #.] ] D F A | J A B ! ..G B A [ 6.O.| D &.| z x 0 | $.%.z c j { 8.5.5.7.A [ A z z L B J E A h h F ..5. .x x S x B N J A E Y I i. .Y A B Y R E A A R [ B ' [ Q o.=.+.@.+.4.4.W >XHXAXvXvXlXbXY.oXXXE.+X0X.X[.+XXXE.J.`.+XT.@X;X;XuXcXCXHXY.Y $.X.[ R R A S x F B E A B x u x E z f 0 u A Y 6.r.,.E v > 0 z c u 2 0 l 7 - j l 2 t u 0 p 7 0 i 2 x 5.e.B 6 > i 4 7 7 7 2 7 0 0 7 t 7 7 2 7 2 2 2 4 8 2 7 i u 2 7 2 0 4 > , 2 l 7 4 2 6 u u 8 i 7 2 5 6 2 6 - 7 2 4 6 2 @ > 7 2 8 > 4 > 2 y > > 0 h 2 i 7 > 2 7 i , > @ > 0 7 y @ @ 2 > @ > @ 8 2 @ < 2 2 @ % - - @ % % > > @ @ > O o ",
"% o O O @ % > % , @ @ > @ O % 3 2 O @ , O @ 3 % > > > 2 > , @ % > % @ 4 2 - % @ > , < > @ > 5 4 > @ % 2 2 > ; D D h - @ 2 i @ 7 6 7 7 - 2 2 2 7 4 7 i > > 7 7 2 > 4 2 5 > 2 2 1 0 A @.6.C j 2 2 & 2 7 5 2 4 < 8 u 2 4 u u 4 t i 8 7 8 5 4 p i q 2 4 2 - 2 t b 2 7 7 M x h u 0 v x x z h h 7 u c 0 D G S h h ] f.( 0 k A R Y D G E +.#.{ D X.,.O.,... .nXAXlXlXbXcXbX7XY.hX#X-X*X3X X9XoX+X6X4XJ.kXE.+XtXbXZXJXJXHXG.Q >.q.X.=.#.*.W Q i.Q J D u.x.k.e.$.A R  .! [ D x G [ N A L z x J B } h B #.w.H N x x N A x x D ! K h 0 [ i.r.<.7.D Z z F A F x z ^ z S x N q.4.W f l j f E F z h u Y 5.6.6.B N A h G &.Y o. .R } R =.Q ..] Q Q #.3.,. .>XHXzXzXlXcX5XXX.X@X-X@X^.hX+X+X6XoX X.XoXOX#XXX;XpXlXlXbXVX( #.9.! ..[ B | h z h z x z M u c =.Y G E D ..,.W ..E B h h b v h h 6 u 0 x 0 u u h 0 6 k ; i i 0 W i.t.Z 2 7 0 0 0 7 7 4 > 0 7 0 2 4 2 7 0 2 7 2 > 2 2 2 6 7 < @ c 0 2 > 4 y - O @ > t 4 7 u 7 0 4 @ 4 7 > > 7 - 2 j 2 5 , > 2 @ < > > @ 2 > > - 2 t A J h u 8 @ > - < > 4 7 7 5 @ 5 8 6 > 2 - > O - 7 2 @ < , @ O % o > > O O O , @ % ",
"> o % % O > % @ @ @ @ O > @ > @ > % > > @ > - @ < - 2 7 2 @ , , 2 > @ 2 - - 2 @ - > < @ O > @ , 7 3 > 2 - 5 @ 6 B D 0 > - 7 2 - > a 2 2 y > > 7 2 7 u - > 0 7 > > 8 4 y 8 2 y y @ 7 h  .<.! 0 - , u 2 > > , - 7 2 4 4 7 2 > 3 4 2 2 - 7 0 u 2 q - 7 6 u w 2 6 2 y 4 6 h u 6 7 h c 0 h 0 u k 7 c h N N x c h X.h.4.0 8 h !  .B R { ] ..[ { *.] 4.%.I 3.PXAXvXcXbXbXuX XoXE.*X:X-X+XU.Y.0X X3X+XE.XXXX-X;XbXnXDXGXLX(. .0.t. .9.Q  .=. .7.9.H D 8.j.a.6.B D ' R ' F H G Q ' D x | A h J F C D [ #.<.c z E A G R } A z J A h x ' ( r.d.t.D V S x x x J v h x H z D Y Q Y x n h m G Z V S k $.5.5.6.B +.! x D ' W ! ..D B D ] ! o.+.#.#.#.O.#.G C.HXvXlXlXZXtXXX@XD.hX`. X4X XY.E.A.>X4XT. X^.=XcXlXpXZXAX>X .Y ! Y R A N E D B z ^ u c h Z 0 h z z q.I ! +.z h 7 u m 6 7 h 0 h i 0 c h i h 2 u u 7 7 t 2 f I f.+.z 1 > i u 0 z 7 4 4 , 2 7 i > t b 7 i ; 7 i 2 2 7 2 l , > 7 j 0 2 > > 2 > i 7 7 2 7 7 7 2 y 7 2 w 7 4 < > > 4 6 q 2 2 - < 3 > > 4 4 7 4 2 2 < 6 h D x h 7 > > 4 2 > > > > @ > @ 2 6 % > > > @ , 2 > - > @ 2 @ @ @ > > & O o O % % ",
"% @ @ @ @ > @ @ O @ % @ , @ 2 % @ @ > @ < % @ 4 > O < 4 7 7 4 @ @ 4 > & > 7 0 7 7 @ % 4 , 2 < > 2 @ 7 8 4 2 > O 2 z E x 2 , 4 > , , 2 - i > > i - 0 0 0 t 7 u u 2 2 7 7 4 2 2 7 8 > 2 d ,.t.( B 6 0 0 0 h 2 6 0 z h z z F h h h 0 z F N [ F 9 z d D E z B F z 9 h 7 0 n h u j j 0 h h 4 0 S h h h z z 0 A [ @.Q ! E A E x N E R B D Y ..! { ] t.:.~ u.KXAXCXZXpXpX*X5X+XoXhX4XY.4X;XXXqX/.sX*X+X`.6XtXxXZXvXzXJXDXG.O.6.*.@.X.4.i.R ] +. .[ @.8.5.Q C ] [ Y [ R A ' N D E D D D T B | H B >.>.9.h z } ' h x z D D Z z A A G o. .h.u.>.B Z x v h L h S z z L B z 9.v.C B F z h x x h z u z 3.f.Q B D D o.R N ~ ..[ C ..O.q.[ G  .,.=.D O.%.Y u.DXvXlXZXZXxX;X4X.X+X9XE.-XsXE.W.D.%XW.U.qX6XXXgXlXpXCXAXDXu.N ..o.D H H G B R E A x v x Y F 0 d N 4.6.] N B u 0 c 0 2 h h x u 6 u u 2 0 0 c 6 l u : a 7 W r.+.d ; 5 > @ 7 7 7 7 u 0 7 7 7 0 2 7 2 2 7 c 6 u u u 2 7 7 2 8 l 4 6 u i < @ b u - 7 4 7 2 > 2 7 u 0 2 4 2 > 4 > > 7 4 7 , - > , > @ 2 2 2 4 2 @ q 2 7 x z z 7 4 2 4 - > , @ > i - 2 - 2 O O > 2 > - > > > > @ > > O % @ O @ @ % o @ @ ",
"% O @ % O $ , % @ % % > % @ 5 @ O @ @ > > @ > 2 - > O % > 7 2 @ @ > > % @ 7 0 7 2 @ , > 2 > > < > > 7 - @ - 4 - > 0 D A 0 2 @ 2 > 2 w @ 4 2 2 2 - 2 u v u 2 2 c 7 u i 7 - 7 t 2 7 7 > 2 N :.5.6.Y E 9.D ..[ } Y 6.0.:.) q. .9.( 2. ...Y q.9.+.+.,.6.<.:.,.0.1.Q h z x z 0 z 0 h V u 7 j h z h z V ^ h 0 F Y [ A D D C R H G [ $.V ] ..D *.o.O.t.) ! u.KXAXCXvXbXbX5XjXXXXXE.+XXX+X*XsX+X;XsX*X+X+XjXtXpXZXCXCXSXnXg.@.#.7.3.#.e.>.] O.W #.4.( 3.i.R | $.C B R D [ x D H Z $.D B T R A x Y f.r.W h A o.Z h m E C ! [ F A E D *.<.6.x.O.h | B D z x z V z x x z D 0.6.I B F H S h S E q.E h  .5.6.4.' C T ] ..$.~ B Y Q O.W D E #.6.=.X.@.=.! 3.bXZXvXcXCXZXXXY.@X+XY./.4XT.`.%XG.J.n.OXqX X^.fXbXnXbXCXHXG.N &.[ Z B D [ C C G E B c H Y A 0 J ] +.o.x S c h z h 0 7 c u c t 2 c 6 4 4 7 S h 6 i 3 h #.<.h.V 3 u 7 4 > q 7 4 > u 6 2 i 7 0 7 7 7 0 2 u x d 0 i 2 t > t > 2 , 2 7 7 > 2 j 2 7 8 2 4 > > 4 i 2 2 u - > < y > 2 > < 2 , % > 5 > > y 0 2 4 4 7 2 t - M L d 0 - 7 7 > > 5 > > 2 > 2 4 @   $ 4 7 > > 1 > @ > , @ > > @ > O % % - O @ O ",
"@ O @ > @ O % O % @ @ 2 > > @ o @ @ > , @ > > @ % > < % @ > @ > > @ @ @ > - 2 2 2 7 > - 7 2 4 - < i 2 > 4 2 7 2 , - 0 B / B 0 2 > 2 7 - - l t @ 4 > 2 0 0 2 8 7 @ d 4 1 2 l j - 7 0 2 8 h C ~ +.:.#.v.t.t.6.i. .6.q.1.6.1.( q.7.#.#.Q  .2.+.Y 0.e.6.+.1.O.@.:.v.>.z F h 0 z x 2 h 0 4 c 0 6 z S A V x k k 0 B E x D =.N ^ o...' z X...' { Y ,.7.>.! 8.KXAXCXbXbXxX5XXX6XhX6X@X#X-X/.hX;X6XXX:XhX4XXX*XlXyXvXZXFXDXu.) :.i.p.4.O. .%. .9.9.Q Y W O.! } E B ] ' D H S Y A A A A x h x A R >.6.O.E S W ] z Z | A A H E B S z x v.<.O.d. .B B Y ] B h A A h n c k E q.5.( D z J V h c H ..Y ..#. .i.O.N x k h R D E R D o.=.Y Y [ =. .R X.3.7.+.Q KXFXpXtXdXxX*X`.-XU.*XMX@XU.oX4X X X@X@XoXU.T.*XdXvXZXvXZXG.Y &.{ D $.N E ! B Z x G D B A z Z I W D z h j l h v x h 0 7 7 7 7 u 0 z c i 6 u u 0 c q ( h.~ 9 - 7 c 7 7 t l c i 4 u i 4 7 0 7 0 2 4 t u c t q 7 ; 0 4 2 j 7 7 4 2 t 7 y - - y i 2 > 0 - i > - 4 7 6 0 2 < > 4 7 - < < @ 3 7 2 > 2 7 t 6 < - 7 7 0 2 K z 0 @ O > , @ 5 - 8 8 > 5 > 2 > , > 7 4 % @ % > - @ 2 @ O > > @ o % > @ @ @ @ ",
"@ $ @ @ @ O @ O % > O > > > @ % > @ % @ @ 2 4 , O @ 7 @ O % @ 2 - 3 7 > - > 3 % 4 2 > 4 2 4 2 > > 2 > > 4 w 2 2 7 i 7 0 z C Y 7 5 2 2 @ 4 7 0 2 i 2 > > < % 2 y 1 h 6 > > u u 2 i l 7 0 i 2 0 A ( Y D W I W Q C D Z f Q W Y R N Z z D Y N D Z C W R B z z C C 7.e.T Z N l 0 x V c 2 j n h k x z v h S h c M 0 F B $.D C Y W C A ! Q Y D =.O.,.O.#.E p.KXSXAXDXpX/.0XXXD.3X*X-XG.kX4XE.#X=X=X3X-XE. XmXvXCXzXCXAXDX3.! q.@. .W 4.4.o.] @.[ Y %.4.1.>.o.E ' R ' [ B Z D D E z m n x c G  .7.#.R h h ] ..z N F f A x x J | 0 z i.r.:.<.3.S Z [ ' A A N } h l h k z ] B.,.E 0 0 B R E ^ N  .,.4.C W O.! J i h [ Y R Q Y [ ' W #.X.O.Q $.O.X.4.4.O.BXFXxXpXbXpX*XwX^.U.gX*XQ.OX XXX7X X^. XU.oXwX;XpXxXbXAXDXx.C ..o.W R A E G F z A E D V x G 9.1.W C h 7 u 0 h h L x 0 4 i j 0 c B z j w 2 7 0 h S ~ >.6.i - 8 7 0 7 7 - u 0 6 7 6 2 8 q h h 0 2 7 7 h 7 0 7 t i 0 2 2 7 t i 0 - t t 2 i 7 i - - > 7 7 t 2 < < 2 2 l 7 O > @ > y > - - 2 6 2 2 2 2 7 4 @ 5 2 0 2 6 z h q % X o 2 > > > 7 4 o % 4 2 4 > 2 2 > % 5 2 > > > @ < @ , > 2 > , @ @ @ @ % ",
"@ @ % @ @ @ @ @ @ % o O o O , $ - % > > > - > % @ > > - , > > , @ > 2 > 2 - > > > > @ 2 > 4 > 2 > 0 7 - @ O > > 7 j @ > ; x E 0 2 - 4 4 7 4 7 7 7 7 2 @ @ 4 4 > 5 6 2 7 u 6 q 8 - 7 7 7 7 8 4 0 h 9 6 6 9 9 0 7 0 2 6 7 7 6 6 7 7 ; 7 7 2 h 0 ; u 7 6 2 0 0 0 z G ..! B V 0 j V z 7 h V h 2 i z S z 0 h S v h z J A Y h.e.C h =.X.E +.] o.,.q.4.O.! g.PXAXCXZXmX*X,XwXOX^.^.jX X#X#X:XhXXX*X;X^.oXoXuXZXZXzXlXGXBX3. .#.7.4.9.9.4.#.! Y R { #.@.p.5.o.E A G Y G A Y E B R ' E B H ..7.5.#.A h h z z | F A D H m B F J A B z 4.:.r.h.9.B J D D z z h H Z L q 0 z 9.6.z H J c Y t.e...B E  .X.%.Y W ' A h A E D E R x E E !  .X. .#.o.3.e.,.4.W >XGXzXZXxXuX8X@XY.kX.XD.XX+XY.D.+X`.G.6X@XT.Y.;XMX;XzXZXDXC.W C E D A D B D N A H z 0 J H D T A h h c h u 7 h u h 7 x h c j 4 7 j 2 7 u 0 7 0 B +.c.o.z 2 8 u l 2 i 2 > t 2 6 0 2 2 7 6 7 6 6 8 7 u 2 ; 2 6 2 2 0 2 ; ; 7 ; 0 7 - 2 2 7 2 6 > y 2 > 2 2 6 7 - @ 4 6 2 7 > ; 6 0 - > 4 > - 2 7 7 4 2 7 - 4 2 4 @ 2 6 z h x A G z 8 O > 2 > @ > 4 @ @ ; 2 > 2 2 - 7 @ @ > > > @ % > 2 % o @ $ o @ % ",
"> O @ @ - < @ $ O % % O @ , > @ O % > 7 > @ O O > > 2 > > > > > > > @ - 2 2 - 2 < > % - 7 - > 4 @ 9 u 2 2 1 > 4 q 2 o & $ ; 0 h 7 . @ 0 0 4 > 0 4 t 2 2 y 4 > > 7 0 q z h 2 % 2 @ @ 0 u u u 4 7 $ , < b j % 1 , > 4 < 5 5 6 4 a t 8 i 4 q 4 4 1 s @ a a 8 5 y 8 K Q Y #.x - 4 v B d f L z 2 j 0 h h h l d z B h k h Q d.<.D l B ( B ] @. .W Q O.2.O.u.KXzXlXDXdXlXXXY.@X4X-X#XU.XXiX;XuX*XfX5XhX+XsX*XCXzXxXZXAXDX5.~ O.4.] ] 4.8.] A ' #.h.8.Q i.( o.z J } B D [ ' z S z Y ! B G 5.r.r.D t l S A x S x B B x h l A h f } H { O.r.u.D h h x h L n S N D D l M N } i.D h F G ,.d.a.( $.F z Y ..*.T t z o.R ' B B E H T R Q [ W $.~ ,.e.( _ y.W 6XGXlXCXxXdXfX/.<X-XQ.&XXX+X9XU.U.+XqXoX=XXX4X6XpXtXlXAXGX(.C _ T F E F F B G [ A V 0 G  .Q B 2 , 8 u 0 h c n u i 7 0 0 D 7 2 i > , 7 u 0 0 l B d.b.t @ k 6 4 7 > q i p a > , > 4 w u j 7 7 h t , , 3 -.L 6 ; a L S j L v j i M c 2 u 7 > 7 7 7 8 O 1 8 7 u 6 7 i 4 i u 4 w i @ & @ % % 1 5 2 2 3 @ 5 7 i 7 % &   # D C Y <.w.( 0 @ & O O $ 2 > o & 4 4 @ - > 2 7 O O > 4 2 @ @ @ - , @ O @ o O @ ",
"@ @ O $ $ O @ @ > > > @ @ @ , @ @ % O @ > 2 2 2 - @ , @ $ , @ o > > 4 2 > < > 2 6 @ , y 4 , o 2 h $ , 7 4 , O & 2 > > h x @ O q Y C 7 > 3 7 u 2 y h z 0 u 2 0 j 2 2 6 6 8 1 > u 7 4 4 j h 0 0 h 7 h j 2 7 j d u q h 0 % 4 h z z x t 0 h 0 7 h 9 4 h h x h 7 i h h 0 h #.r.I d 7 c z 0 w 7 c S h i x A R x i l x h u c F O.3.] A J ..Y R !  .4. .q.~ e.KXFXzXbXgX3X7X^.@X^.^.Y.6XiX/.+X4XOX X5XiX6X#X;XnXZXZXCXHXNX3.+.e.5.3. .@.@.8.@.&.J R W +.[ o.R [ R x | ' m { W ( [ B R N  .u.3.A p j J T ^ b B 9.%.z S D B x S K R ..r.d.f.z 7 u J D C ^ F m x L h u h A ! f.O.x x Q 0...z 0 c B Y A x A x G ! } B | B E T R E Y [ } | D O.[ X.O.9.=.Y (.GXzXCXCXZX*XwXkX'.+X.X#X@X`.T.@X9X'.U.K.Y.+XXXuXdXuXvXHX(.B E &.Y ] } D N G A z F z | E B x v j l 0 j K B x h v a 5 - h u l i 4 6 x 0 - d O.r.#.x % 8 l 2 u K 2 7 8 2 6 t 3 % W r.b.M.a.w.r.d.k.d.5.d.k.d.c.d.j.a.d.O.C #.5.W ( #.W 1.O.>.) ( #.Q ) C ..~ D E B I +.I N +.~ W +.) Y W ) W W I C Z R N z V D E x h W Z h h Y Y c 2 t h d z z z z h C B 0 0 7 > 8 2 @ @ O % @ > @ O @ @ @ @ O @ - ",
"@ - O o @ % O @ @ @ @ @ > > @ o & @ > @ & @ % 2 > 2 @ , @ > > @ , @ 2 2 8 @ @ y 2 > - 2 - 4 4 2 y @ 2 2 2 - > > y , % 0 0 2 , - t Y B 2 @ > 5 > 2 q 0 7 < > 2 7 > a 7 h 7 - 2 u 7 2 2 2 7 4 > l 5 7 7 > i 6 7 b 7 7 7 p 7 6 j 7 8 t a i 7 7 j 0 7 u h k 0 7 2 h h 7 7 x %.e.,.V 7 u v h z v h J l d B F z B h z S D D C ] q.Y Y D W [ ! R $.O.+.*.) u.DXAXCXZX;X5X4X+X6X3X+X>X7X-X*XsX X^.mX*X5X6X@X=XaXbXZXJXHXIX .9.7.u.e.t.+.0.*.+. .$.A [ ..o.D D [ Y D E Z x Y q.B C ..D ] 3.4. .h z A B h L A B { ! z A E N h h A ( r.r.,.( x h h x S N x S B N A l u u B Q O.W Y ..O.R F F H z d A H B G D z E G z G F R G B [ ! [ Y D Y ,.o.Q 3.q.%.W (.GXAXCXAXvX;X#XXX@X6XY.Y.%XT.+X4X.XD. X#X#X4X^.iXdXcXzXDX(.D T q.! D R [ ' G z A E x L z B B h v 6 h z h 6 x x h 7 7 0 h t t 7 6 u b 7 z +.6.Q A 2 4 2 5 - h h > 7 0 y 5 y ; D t.t.2.! ] Q ~ ~ +.,...&.....] =. .! [ E B F G o.R E } Z x } h F | h z F B z h h k z B A x B F V x V B v F Z B h c B h 0 x h V z l 4 Y S 0 0 ..Y 0 t u x x 0 l t 7 2 0 7 2 u 7 > - > w @ @ @ @ , % @ @ > 3 @ o @ > ",
"O @ > O > > > @ @ @ > 2 < O O @ @ ; 4 , , @ @ % @ % > @ > 2 2 8 @ @ @ 2 < @ > @ > 2 > @ > - 7 > > 6 i 4 < - 4 2 @ 4 7 > 2 7 0 2 @ u V x j @ O > 0 6 - 2 - , , > : y 7 6 6 7 0 7 7 7 7 2 4 4 2 l 7 , 4 7 k u t 2 7 > 7 k x 2 , a @ > - , , b u 7 u c 0 u u 7 7 L u 6 u 7 z O.e.W z 0 0 z V h h h h d k k d R B H E ..O...B D [ Y ' Q Y  .%.A %.4.+. .u.LXAXAXHXpX;X-X^.-XkX4X+X^. XsX5X;XpXuXaX7XY.0X5XtXbXSXAXHX/.@.0.4.e.e.@.4.>.o.@.@.] E H G Q D E #.Q Q H x B z } J G W  .4.7.N z G ! R E x j q.[ B A x ' [ B J u 4.r.d.f.x 5 F J A 0 z A ^ c F z D | z 0 Q ,.z ~ t.f.Q z c z A D S S z E ..#.E x E ' D R N B R Y E D @.7. .#.( X.4...+. ./.HXCXlXAXzXiXXX^.R.XX@XD.D.oX6X#XXX+X^. XE.oX3XpXbXmXtXDX(.Y &.%.! A D R N x x A Z T | Z S B x V z A G x 7 l x 6 h l l 7 7 j 9 A n 4 N e.r.o.h v 7 7 u 2 8 0 6 m h z 7 , % Z f.f.f > > - 4 2 7 7 0 2 @ @ 2 @ 7 ; @ > t 7 + > 6 6 2 4 > 6 7 2 7 7 3 2 0 ; 7 0 6 6 0 - - 2 : 2 > - 2 7 2 - 2 2 ; > > 7 u 0 0 6 u 7 q D A 6 A Y B u 6 2 7 2 > 5 @ @ > y > 8 < O > , @ > > > @ 3 @ @ @ @ @ @ > % @ - ",
"O @ , > @ @ > > @ 4 > 2 > > - > > 7 7 @ @ O - > > > 2 - , - % , @ > > O @ 4 > > > @ @ > 7 7 2 @ < 7 - 2 4 > > - > 2 2 > , 2 2 7 - 4 h N z > > 2 4 4 % 2 4 - 7 8 - 7 - , 4 i h 6 7 i 0 u 7 2 2 j l ; 2 u c h 0 u 2 4 u x v 7 > h f D N q 6 k 0 h w 2 7 7 v h 0 0 u 0 0 j 0 z @.6.4.h d z h u 0 h A B u z x E Z J B  . .R z N ..D } ..] Q ! Q o.@.,.+.g.LXFXzXbXbXXX+X*X;X+XXXoXXXsX X*XmXfX/.hX4X4XsX;XpXZXlXAXZXY.@.9.@.3.i.@.7.i...>.i.*.R D .. .C E $...Q R H ! ' A x D  .3.6.( | v A C D x K x @.Y z J | N A F E X.r.r.>.Y u b f H | Z S B x h H C N Z A E 9.Y B ,. .O.B K v B $.N A h x N W +.E B G D A E E [ [ Q D $.@.4.@.( X.v.@.O.t. .(.DXzXzXAXZX*X>X6XR.hXXXY.W.E.#X*X^..XXXkXoXY.XXdXcXaXbXDXG.Y 2.Y W D R E D E A A G D D z d A F f v D B 0 j u 0 F B u 0 2 q h z J 0 6 4.h.1.0 2 u 0 7 0 7 a 2 j 7 7 q > 6 } f.t.W 0 $ > w w 1 2 > y 7 - < , i 2 - @ 4 - 4 2 2 y 7 4 2 8 2 - > > y @ > 2 4 - > i 2 < , O @ 4 2 > < 2 7 @ o > 5 4 o > > 2 2 4 2 2 - 0 7 h | 0 h u 7 > 7 - + O % 2 > 3 < @ > @ O , > O @ > > > % @ > , @ O @ > % O @ ",
"%   @ 2 > % @ @ @ @ > > > 7 7 2 > O % @ > 2 - > < > @ @ @ > % O i % $ O > 2 > 4 - @ @ 4 - @ % > 7 2 > 6 i > $ > > 6 7 > , > t 7 6 8 @ 6 A D A 2 % 4 7 2 4 > 2 y 7 u 8 @ @ @ 7 7 t 2 8 7 0 t 2 u 0 2 j 2 7 0 0 k t 7 q h 6 x N #.d.e.c.9.h 7 6 k 6 4 i c F h h ; b x h h v i z 1.r.#.B 2 p j u S x c h B h 0 S z { O.Q H h R +.~ A D ! Y Y >.0.X.) ( h.DXFXCXDXuXuXkXXX^.*X*X7X*XiX6X*XXX+XY.^.oX-XXXXXZXzXvXAXHX(.X.i.0.6.e.@.@.0.q.5.X. . .! @.@.o.E B } R D E Q E } B #.h.5.8.} c h B A S k S k T ^ z B c 7 c N Q h.d.6.h 0 A | C B D x x F B V v J D z &.Q Y ] F ..D B J x x D ~ R E E E B T R D G E B D } E Y Y ] R =.[ D O.7.@.#.@.t.,.Q (.HXAXCXCXCX;X XsXhXoXU.W.Y.U.U.9X0XG._.oX`.,X3XdXxXgXDXHXG.Y H ( { R D G R C A B N x N z h x A z z z V 7 h j d E E u v d N B S 0 f O.f.+.9 2 7 7 F u > h h 0 8 > , & 0 6.s.Y B 6 2 < - l u 5 2 > 2 q 0 7 4 6 h h u 7 2 7 7 6 7 > > u V 2 @ 1 @ i @ 7 b t 2 , > j 8 > < 8 t 2 < < > 2 2 8 > - > 2 y > - > 2 4 2 - 0 > 2 L h 2 @ > $ > > @ > < > > > > y > > > > > @ o % @ @ @ @ 2 > % % > O % o @ ",
"> $ % @ 2 @ O > @ @ , > 2 2 7 > > . $ O 2 7 > > @ @ , , @ > - > 0 @ > - @ O % < > , @ y 2 O , > 7 1 > 2 6 2 @ , @ 5 < - 4 2 2 7 7 4 5 6 V [ Y 2 @ - 4 - , 2 7 > , l 6 - < & > i 0 2 > 2 7 0 4 7 2 j l 2 5 7 u q q t i 2 P $.C f.d.] 5.6.&.x j x j 4 2 v d h n q 0 h V d h 5 > B :.f.W d u q x x z 7 z D v 7 S Y Q +.' d F E D ! D [ C ..#.@.4.#.+.Y u.DXAXAXZX5XXXE.XXkXhX^.hX4X8X+X-XE.XX8X XqX*X7X;XZXzXZXAXHXV.] 7.4.<.>.0.>.@.e.u.7.o.[ [ #.9.W ' h A ' E D Y A B ( i.r.O.Y A z N } G B h z D S D G V n L z +.r.5.,.! 0 M A D F z J A z E ^ d k S / R  ...Y [ Y C R L u N [ W G H x E D E G B [ D E B G D z E R R Y { R ] Y 6.C +.Q  .( Y V.DXCXCXDXxX5X-X X=X.X X X#X@X X X+X XU.J.T.U.6XuXdXcXxXzXG.W T 2.] R D ' B x A } E B H B F z S h z x c x x x h x 0 6 S ^ S z 0 z 0.u.1.h 2 8 i 7 f q l 7 0 c 2 8 < i B f.r.0 , $ , i 2 7 0 - 6 0 7 h v 0 4 h h v u 2 0 q 6 0 t - 7 h z - % 4 2 j 0 2 > 2 2 2 4 2 4 > 4 4 7 7 7 4 > 2 4 4 > 4 > 4 7 2 < > 7 ; 4 4 7 % 2 z 7 - & 3 @ > 2 2 - 7 2 @ - 4 0 2 > > > < @ O > 5 - @ @ > @ @ @ % O @ % % ",
"@ > O O @ @ @ > > O   O @ @ O @ $ , % @ 2 - > > - @ % - > 2 7 6 ; 2 6 7 2 @ 1 @ > % @ > 2 2 > 5 > 3 @ > 7 Z x 6 2 @ @ 4 t 2 - 2 > 4 y 5 2 f L c d d h 0 4 - y 2 2 2 7 h j 7 0 0 2 7 - t 2 > 2 - 6 5 : u > t 7 j x 7 0 - K %.N ,.Y 7 E  .E m 7 i j 6 q - 7 t 2 b 2 A J 7 7 0 i 0 C 6.5.>.~ 0 h u F t z A J x h ! o.D } G D V F D G ! o.] #.o.Q  .4.W c.DXFXAXDXmXiX6XiX^.XXE.7XsXhX X^.XXhX5XXX X;X6XgXMXDXvXzXDXV.] i.7.u.r.3.6.u.7.3.3.i.Y A D A N R { ! D H A E B Q e.r.r.@.J A | Y W R D [ | D c A ! V p z :.i.t.D x N E h v 0 x h J x A A x h H C %.R o.W Y X.C Z E x B ' T E z x h B E G A z F ^ C D W ' G A T Y ] W ! *...#.!  .6.7.9.Q u.DXAXzXlXZX=X#X X/.@XD.E..XY.#XT.-X6XY.`.<X X5XdXdXpXAXHX(.C ..! D G Y D [ ' A Y D V B V V z S z n 0 h c u h h 7 0 0 z h 6 j z 3.6.W 0 8 8 i j u , 0 t i 7 4 4 7 d +.1.Q x @ @ > w 4 4 i 7 0 l 8 7 0 7 h 0 7 7 - 2 7 7 7 2 u i 2 > : t 0 4 2 2 7 0 y 4 > 2 6 7 7 6 8 7 6 0 t 4 > 3 - @ 2 2 , , - 7 < 3 4 j 2 2 4 4 , > u 2 - 8 , > 4 2 2 2 2 8 2 > 2 @ 2 i 2 2 > > 2 > , @ > @ @ > O @ @ , @ O o ",
"@ @ o o o > 2 @ % @ @ , , $ @ O O 2 - - 4 @ O 8 2 > 3 7 0 0 h 0 h 0 h x B 9 2 , > > - @ < > - - $ 2 > > t F C E t + 5 4 7 > 3 - @ - - @ 2 0 d G +.&.B ! Y 0 N Y [ h A  .Y C N F D H x H x V x | Y 0 Z #.B E Z o.4.W [ H z Y o.D A d 2.$.; 7 6 2 2 u h 0 i 7 0 h j z h u u h u 4 u D w.d.r.d t y v l h A D x h F R z h R ! x z &.~ D o.@.Q +.@.#.#.W g.LXFXGXZXgXtXXX6X=X4X+X X XXXmX-X/.aX=X=X X@X=X;XlXvXzXAXLX/.@.0.8.u.u.5.4.g.i.5.O.e.o.A E F H ] { ..B H [ D W 4.e.>.0.Y z A R C ..] A ..E T x B D m 0 O.a.r.W x K z [ A x l B x J z x x z z E D D Y Y [ R [ B [ x } A Z F A J S h | E A A F F f E ! Y =.B F R W [ Y ..+. .@.Y 3.8. .v.( u.HXzXzXAXAXiXY.^.@X X]..XY.@XY.E.0XhXXX4X/.+X/.mXxXbXvXSXG.B &.} D [ { Q o.A h A ' x A S z z x h x h h c z h h l u V u t u H @.>. .u < y 6 q 6 0 , h u u @ 2 q D O.<.+.0 % y 7 7 u 7 @ y 6 x 2 > r 2 @ i 4 > 4 4 < t i > 8 > 2 5 4 5 5 < 4 4 > i @ > 7 7 t 6 2 h 2 > 4 0 2 2 > % 1 2 2 3 8 > 4 2 8 2 @ 4 k u - 2 > > > 4 4 < 2 > > > - 4 5 2 > @ 2 > 5 2 - > @ > > 2 > > % @ > , @ @ @ > >   O % ",
"% @ @ @ > > 2 > o 4 > o , 5 > @ O > 2 ; 2 2 < i 2 2 l 7 6 0 0 u h 0 j S B / E h h 7 0 0 4 > > 2 > % @ 2 4 2 c S h 7 4 7 7 @ & - @ z u % - c h 0 ! Q W +.! ( 1.6.:.#.W ( 6.,.( 6.<.r.5.( ( 1.@.Q >.>.u.) 6.O.:.f.Y Y >.c.f.9.0 6 ' r.f.0.0 5 > u l 7 q 7 0 t n h h 4 t N z y b u 0 u B O.t.W 0 7 y k B A z S x z z S z G D E z W Q D Q R ..%.W o.2.Y g.LXzXGXzXxX5X;XiX-X^.XX3X6XuXhX-XXX6XXX+X@XXX9X5XlXSXZXzXDXV.( 9.,.3.3.7.7.u.8.u.d.7.x A =.#.A C B [ G H D ,.E 7.f.<.! A F E [ R Y Y x x x z ..B K h O.i.t. .z S A A ' A h J z A E N D J A F H x B W Q ] F x Q D Z Z h E ^ z A H N E A x z R | z E E D R R } G A W o.D R #.4. .@.7.D =.O.d.HXSXzXzXcXiX-XXX3X#XD.Y.Y.^.%X+X.X^.XX+X4X+X+XdXxXvXAXZX(.Q } G E ] Y Y E E N R Q h J V z Z } A v L h d h q q u h u 0 0 Y #.1.[ u 7 > 0 h x 7 7 y x h u > 8 z ,.6.Y 0 4 2 8 2 u u 7 @ < t u t 7 0 t 0 7 7 4 2 i 2 @ 4 - > 7 7 2 2 - 7 - > i 4 2 - 7 7 2 2 2 4 7 2 > > 0 6 4 5 @ 0 7 , > > 2 j 2 2 6 4 > > - > > ; q p 2 > @ > - > @ @ , , % > @ @ @ y > @ - , 4 > - > O @ % > % @ % > > < , o > ",
"@ o % @ > > @ > @ > > @ - - 2 > > 4 2 7 7 > > > 2 2 2 0 0 8 7 2 0 0 2 0 9 d N d 0 h 0 u 4 - - 8 i 2 > 2 - - 7 2 h x 0 0 0 @ @ > 4 V j 7 > u h 7 h Y Y N T W W #.C Y Y ..Q ) +.Q :.<.6.+.+.e.1.W 5.:.e.@.f.e.W O.] 0.>.) w.,.G D 5.c.r.) z t t x l 2 j K 0 0 7 x h , 7 x x 0 0 0 V c 7 d 9.i.O.d i u z F x h B H F x k J R E ..' D D $.D .. .] X.2.W g.HXAXSXnXcX5XgX*X#X@X*XjX+X6XsXU. XqX=X+XE.sX5XuXDXDXvXCXDXG.Q i.@.p.8.4.@.] @.h.h.>.W E Y *.[ R D } F B ] >.) <.3...h x D D Q .. .! B x z N H n z R 5.e.C h z z S A G J k E F z $.Y E [ B C D h E 0.=.B h K A G z ^ F D G J x } B z x z F E D F E G A ' E &.C $.Q ! R E =. . .9.X.W _ :.V.LXAXSXvXZXsXXX X#XG.4XVX X^.-XU.T.qX+XY.+X5XuXuXxXCXAXDXG.W ! ! } D o.D D R &.z A J z 0 x N N B h z z n u m 7 N R N ~ 4.e.@.D 0 i 8 7 0 l c 0 u 0 h h 6 7 6 C @.B h 2 4 2 0 7 u ; u h 2 y 7 7 8 4 u v l 0 > > 2 2 y 2 y 2 i t 2 4 2 8 4 - 2 2 7 a 7 7 2 ; 8 2 4 2 > 4 7 4 > @ 2 u 7 2 - 4 7 4 > > 0 2 < @ 4 4 7 0 7 8 - @ > > 0 > $ > % @ @ 1 @ 2 > 4 7 2 2 7 > 8 > @ @ @ @ @ % @ @ > @ , > @ > ",
"@ @ 3 - @ @ $ > @ @ - 4 2 > - , 2 > @ 2 t 2 7 4 2 4 @ 4 > + @ 2 2 > > 2 ; 2 7 9 h x 0 4 4 > 2 2 4 y 6 2 l 2 7 B [ f F j 4 2 2 , 2 7 2 2 4 @ > 2 2 h 6 2 u 2 2 j 7 h 0 7 6 0 0 6 0 7 6 7 0 x f q 6 6 0 0 0 6 l 9 6 Z A B W ( e.c.r.Y F %.G d D v 7 v h | V 0 0 7 u c c 0 d A A 7 u z z l 0 @.e.Y N u x d z V N H A c z B E Q ..D [ | Y Q  .O.O.6.>.! g.LXAXCXDXmX5XXX-X-X=X*XmX X].`.E.5X5X-XXX6XmXpX;XtXlXZXzXDXC.@.i.@.i.3.9.o.] Y X.8.>.4.! C B 4.@.[ J A W o.4.h.5.D x J x G D G  .+.o.D S A ~ v d >.v.6. .N S z A H z z S S x ..[ $.A D R $.R E ' B ! Y B A V z { H H $.D D Y Y } L h Z G } B B D Y $.G N [ Y Y #.D R &.D +.@.W  .@.4.9.O.u.DXzXzXDXZX^.XXE.^.-XE.E.XX3X+XG.XX X#X X+X*X;XpXzXMXlXDXG.Y %.q.C ..] Y z A D A E B B B B A h B z S k 0 h z N j.~.e.) >.q.E 7 7 a 0 u h 7 u h h Z t 6 2 h #.4.x 2 > > n z 0 4 2 0 6 h 0 2 - 7 2 > t 6 h u 4 7 - 4 4 2 7 7 2 > - > t 7 > 4 2 u i > @ > 8 2 8 2 4 2 y 4 2 4 4 2 7 2 @ 2 7 7 i 2 2 4 > - 2 y i 2 7 6 % - 2 0 x c 0 2 4 > > > < 4 7 V 7 t 7 x ..A 6 @ O O 4 7 > , > O O > % @ $ @ @ ",
"@ @ > > O   o @ , > > @ @ , O @ @ O @ > 7 7 0 - , % @ > > O % < > , > 2 % % > 7 u h 0 2 7 2 4 2 4 6 0 7 h 7 h C $.z N 0 2 7 4 4 @ > % , > > 4 2 - 4 > 5 % @ 1 , > < , > > y > > # , - > @ < 4 > , @ , 7 1 O y p 2 q 0 6 j Y ) k.>.7 @ h D N z 6 0 c d 0 d x c 2 u B 6 t h D x 0 0 F F k 4 d +.e.:.T F S x x B z x H N D 9.[ D D [ H D 9.O.*.4.O.1.W g.DXCXvXZXpXdXiX+XoX+X=X;X^.T.@XhXuX;X+X6XuX*XpXuXfXcXbXSXHXC.O.6.,.3.O.] 4.o.=.[ i.t.>.i.%.N $.@.Q R ' Q D 4.c.5.z S H ' G [ H R ,.>.! Z } ' m 3.a.r.Y h | F z H x E A c B J O.R C W Y G F N B R #.E m H J J B F D B E D ] #...B k x H G A V $.N ] Y A [ Q ~ ! ~ $.Y B ..#. ...X.@.9.0.Y u.KXDXzXCXCXaXhXiXhXsX5XY.+XXX*X6X5X#X^. XqXXXgXcXzXMXvXKX(.O.Q ..Q +.W Q } A E N N A R R D H J z x u h j v #.h.j.m.f.W W C ^ 2 5 2 7 h 7 7 l h h v 7 0 F q.4.Y 0 7 y 4 h h 4 > 2 h q u K 0 4 8 > > 6 2 7 y - 7 2 4 i 7 u i < > 2 8 7 2 - 2 4 t i - > 2 4 - 4 7 2 > 4 7 2 - 2 t y 7 2 > j 2 > 4 7 7 > 3 - - i 2 > @ 1 2 N ..Y ! B x h S S c l z F T 7 k x N ( Y V @ < > 2 7 - > > > , O , O O o O ",
"@ $ % o O % @ @ > % % o O > > > < O O > @ 2 7 - - > O @ 5 > > > % > @ < > 1 @ 2 u k c j 6 - < - 4 6 i 7 2 b 0 h S Y G 6 4 2 < 4 > 4 y 2 @ < 7 > 4 4 > > 7 i 2 4 3 1 2 2 t @ 1 , r b q > < 5 > 4 j j 2 4 p i y 4 y h 0 7 6 v f B N 6 w 7 ; 0 h 6 0 z z c 7 2 0 h h B 0 l u x 6 n x 0 u h h x / Y >.! Z h h x f h J D Y | B h ' [ E ] Y ..#. .#.4.+.( g.KXAXzXZXnX=XhX XXXhXXXXX;X+X X X:X6X+XXX5X*XfXfXdXcXlXSXHX(.Y 4.6.:.( %.*.Y ]  .>.>.8.@.q.E A D @.+.[ J Q 5.+.3.A E A E R G z B =. .C &.D x ] r.a.r.z 7 A E x A A z A z D q.@.>.h.W A L 0 x G ..o.D B S A S D E B H x z ~  .~ D H B A G S z F N ! D A H N Q E D ] o.Y *.*.%.#.9. .+...C V.LXDXzXzXzXcX/.6X+X^.*XjX3XE.6XhXhX-XD.9X+XY.hXpXZX;XDXDXG.( &.~ Q Q ] D { G ! E B E B R [ z z c 0 S F B Q c.x.x.m.( N J h h 0 0 7 t 7 c 7 2 2 t 7 5 0  .7.N 6 7 l 7 i 7 2 < 5 2 u 4 q h 6 i 2 2 i 0 i 0 7 7 0 j 7 4 2 i u 2 2 t 6 2 2 7 4 p 7 - p 8 2 - > i 7 0 2 - 8 4 4 i 2 > 6 7 h h 6 4 @ 7 2 t 7 2 > 4 @ @ 2 > u W 2.z z } C B A B z C z x z 4 j A z Y N x 2 8 4 2 4 > > > 2 @ % % % @ > > ",
"@ o o o @ > > > > @   @   > @ - @ O @ 3 > % 2 - @ , > > > > > - 2 > @ % 2 2 2 > 7 7 h x 0 7 t > > 6 4 @ , 2 q 0 6 Z S 6 i 7 @ - 2 6 2 2 % 2 2 - t 7 2 7 2 7 7 7 2 2 2 0 c @ < 7 2 x z 0 q > 0 v 9 ! A ; 9 x h 2 6 h h 6 0 c y e 0 6 u 3 y 2 7 7 7 V J u b 4 i L z d 0 d u 7 7 0 S u j m B A x z ..D B z c F h S z N E z A E =.Y D #.o.Q [ W  .o.2.I 8.KXFXzXlXbXaX+XXX7X6X6XsX*XXX7X/.E.=X5X+X+XiX5X/.tXzXZXCXHX(.@.t.O.7.7.4.X.X.o.@.d.i.*.] Y Y ^ E +.4.B A X.e.W o.R R x D E D S A D ..Q Y B z e.d.#.D ^ J x E J x z D H A D N  .t.u.Q D A k | o.R D B x x S G D G B z L z C R D E } G x z A u ' | x D A z ! ! B G Q #.X.[ ] ' ] Q Q 9.q.3.g.KXDXvXZXlXdXuXXXoX6X=X:X5XiX-XY.U.K.Y.4XY.3XfXpXzXnXCXDXC.! 2...$.#.=. .' Y Y %.Y D E Z D ! D F 0 L B N h.c.) u.x.$.0 7 4 u h h u l u l 2 t 0 b 2 k G O.' 0 > 7 h 2 > 4 2 2 2 0 l > 7 l 7 0 2 4 7 2 j > 0 l 9 j 0 2 7 7 - 0 2 2 6 u i 7 2 7 2 , 7 0 2 % 3 7 ; 7 4 - r > 7 - 8 4 2 0 x t 8 2 - 2 7 j 7 > > $ > > 4 2 T ( C 2 > q E 0 6 c N A x 0 v > > 0 0 0 q 6 7 4 - > , , @ > > % 2 @ % $ % @ ",
"@ @ , @ % % - @ @ > @ o $ @ > > - > @ @ , > , > 4 @ > > , > 7 2 > > @ , > 2 7 @ > - 0 x F B h - @ > 4 , 5 @ - 4 7 7 2 2 4 4 @ 2 3 > 7 6 6 t - 4 7 2 7 7 0 7 2 6 7 7 0 0 6 7 0 6 2 6 6 7 0 7 0 7 6 > h k 0 u h q L 6 t 0 k l @ < K c 7 2 i 7 7 i 0 0 h 7 l h 0 z x 7 : 0 V S c z h z L h 0 h c H Z J A B } S 0 D E A B D H T G ' ( ] Q ] o.] Q o.@.+.g.KXGXZXZXDXtXjX=X4XXXXX+X7X:XjX6XD.XXhX5X^.#XXX5XuXvXzXAXHXG.O.i.0.4.*.#.q. .D W f.<.] { [ Y Y $.C ..%.Y W #.[ ..Y G B D D A $.'  .#.N u ^ z ( @.h l S x A x x J H Y B x x A #.:.( O.Y ! } D F F B ' B B } ~ G D D | x E ! R G z h A G D D A A F D $.Q &.R Y E G ] Q o.D [ o.=.X.@.0.Q W u.KXZXCXCXvX*XfXhX X#X+X;X;X*X>X.XP.`.`.XXE.0X;XlXZXDXlXHX(.B _ %.{ R { ] D ! C z C G x h B } z x L v h W c.h.g e.d.V u l l c 0 6 7 0 u i c i 7 u j O.9.D 0 7 i 0 7 i 7 7 l 7 2 u 2 7 2 7 h 6 2 i < 2 7 7 7 8 6 q 7 7 t 7 7 l 7 2 > j i 2 > i 6 7 > 7 6 8 7 2 2 t 2 , 5 7 0 8 > - i 0 0 > > < > 5 2 2 4 > 4 y 8 2 7 %.R 6 - , @ 2 7 2 2 - 2 6 2 7 > 4 8 > > 2 > 7 - > @ @ 3 > @ % @ @ - @ % o % @ ",
"O @ > > @ o O @ % > 4 > > > , @ > > @ > - @ O > 2 > 5 @ O @ 4 > > > > 2 @ > > > % @ 4 d Z Y z > @ > < @ 2 8 @ 4 w O & < - > 2 2 > , @ 2 u i > > > > 3 - 8 r % @ 3 u t y 2 q 6 4 y 1 % i y 7 i , 1 * 1 4 % , > 7 j 4 , j 7 u 0 u k q 7 7 j h v c t u l u 0 h x h B u p j 0 B N x c z D h 8 t h C C 4 S D N h z R R A B Y Q ! A ! q...Y G =.q.R $.,.W g.KXvXlXnXZXY.pX5X;XoX X+X+X^./.#X+XjX*X=X8X4X+XjXxXlXzXCXDXG.W +.6.4.X.Q X.@.J ..t.e.#.J A $.O.R H A Y X.D ..R Y } A } [ ' B D Y e.@.Z b D Q @.E p y x z E z z J A D B x M c D +.! { { Q 3.Q N ^ D Z E E Y ' E A z | ..] Y D Z l t m D ! D ! E D } C O.o.E D } G o.[ D 9.o.Y #.3.@.4.#.W g.KXZXAXCXcX^.E.XXuX/.;X5X6XU.OX$XK.@XY.+XkX=XmXbXpXzXCXGX:XQ ) ) ] A H Q ..Y ^ | x n h E T C B h z S x W c.h.Q 5.N.7 z h 0 h 0 i 0 h 7 2 b i 0 7 =.r.W 7 2 2 j q 4 4 h h h h v l 2 i u 6 7 j 7 > 5 > 7 j q > t p 7 0 6 u 0 2 4 < 3 > - > 2 4 7 2 3 > 7 0 6 2 4 7 i > > 4 7 > 4 > u 7 > > % % @ @ @ @ 5 4 u 0 7 - 5 ( N , $ % > < % & % , 1 , > b @ O r > 2 4 4 , % @ , > 2 4 2 > @ O % - $ $ $ % ",
"@ @ % > > @ - 2 4 $ @ 2 2 > $ 2 4 % > - 2 6 2 2 - 2 i 2 @ , > > 2 O O 2 7 4 > % % > 3 @ % 7 B C B 7 > O @ 2 , . , w 2 - < > 7 8 7 d u 2 - i 6 t 4 > > q ; 4 2 - > i 2 > > 2 8 2 2 h 0 6 t 0 0 u q 0 2 2 h 0 0 u 5 4 0 v 0 0 v h v 7 0 7 7 7 u 0 7 0 u 6 y i 7 k h z h 4 < c z E B 0 0 c H h n u h D D h 7 M l Z G z D Y R B B E D J A Q @.[ #.O.*. .g.DXAXlXbXmXXXuX/. XiXiXXXXX*X=XXX=XhX^.6X;X X*XtXbXzXZXCXHXG.O.q.#.3.4. .6.7.] *.7.7.D A D #.7.Q ! ' F E D X.+.D %.{  .0.q.o.F z q.7.W E x c <.6.Y N h V J x x D B N B ..E R W e.o...+. .E ^ x A [ D z L x o.Q ,.0.C Q R B G { A [ D [ +.Q Y x K K B  .o.A J Q @.O.Q #.W R  ...X.>.@.%.Y g.KXCXzXxXdXfXgX6X:X.X4X-X8XU.W.2XR.W.U.Y.-X*XtXZXvXvXlXKXA.D _ [ 3.4. .#.] x D $.N W [ D F ..Q W z G v d h i.c. .! 1 7 0 u i h 0 c 7 l 6 u y 7 C 1.t 6 z F 0 h l 8 4 x B z h h i , 0 t i r 3 2 7 7 7 j 6 0 7 % , < 4 - 2 2 2 0 0 0 7 i 2 > 4 4 y - > 7 2 2 7 5 7 2 5 4 > @ @ , 2 - > 7 % y 5 7 i 7 > , @ 3 , O 7 T 1.Z % @ > > @ > % @ > i > > 7 B 0 2 > 5 2 - u 4 @ > 2 2 , o @ 2 7 > @ O @ % % ",
"@ @ @ @ , % % > > o @ < > @ O < > > > , @ > > > @ @ % @ @ , @ @ - % > > @ 4 @ @ > @ - > 2 2 0 N B 0 2 6 2 , > 2 > 7 7 6 2 2 2 > 7 7 4 4 > 2 t 7 6 7 2 t 2 2 2 6 4 0 7 2 7 7 7 0 6 c c 7 2 0 c t q h t 0 k 7 0 j 6 7 0 7 7 7 t 2 i p l 0 7 7 7 6 u 7 7 i 7 q u c h x h 7 6 h d z h A F h h x x 7 0 H V x h h x x z A } D R R E R ..D Y =.o.[ X.O.q.+.u.KXGXvX;XcX*XhXfX^.;XfX5XhX0X3XaXiXXX^.0X6X+X4X;XcXlXCXSXDXC.*.6.O.@.@. .#.8.4.4.u.O.@.q.[  .#. .Y [ D ' o.*...Y Q D D [ ] B } B +.@.] H h v >.#.R E | Z A A | x J E ' A z | 0.1. .<...D N A H F R [ E h B E Y %.9.C &.H z $.R Z ' G B H E T D F x G 2.+.B A ] o.] Y o. .=. .! #.e.4.%.@.g.DXCXzXCXcX*X:X6XsXE.XX+X#X^.oXJ.S. XE.wX@X^.uXbXZXZXDXDXA. .%...q.@. .=.R G R E z Q ! B F G R J F N x x 0 B O.R R u t c c 0 u h K 0 0 q 7 2 B 9.I 3 0 N f ; i 7 7 u l x S h h 7 < l 2 7 t 2 - q u h 7 0 h 7 7 7 2 7 t 7 2 i 7 7 7 7 4 7 u 7 2 u 0 i 7 u l 7 7 7 2 7 2 i 4 7 2 ; 7 5 2 - ; 7 > 7 4 @ 4 7 6 2 7 0 h v 2 @ 7 4 4 > > 3 > 2 y > > 4 7 7 8 , > , 5 @ > , , > > $ % > > > > @ O o @ & ",
"@ @ @ @ > % O O @ O @ @ > - % @ @ < - 2 > @ @ > > O O % > > > @ - > 2 > - > 2 4 2 - @ 2 - 4 > 7 h N z h 4 , w 0 2 2 4 t 6 7 4 > 7 > 2 4 - 2 4 q 0 7 6 2 7 2 7 7 4 h 7 2 2 i h u 7 i - 0 h u i > 0 z 7 6 u 6 0 0 u 0 0 i 7 t 4 2 6 7 K h 6 d u 0 l 0 4 0 u c z 0 j 7 h L c u 0 v h A F h f h L l u 0 c z B D B k h E D A G [ ! R ' >.=.D ' Q @.4.@. .u.KXAXvXcXjX/.6XaX6XXXE.kXXX+X+XhX6X/.4XXX;X6X^.6XcXzXZXlXDXG.O.0.6.8.i.4. .O.*. .p.@.>.9.D o.] ..O.@.C { =.*.$.Y W %.x N E A D Y Q  .{ H A m <.7.J A G N D } ' A z H J A A | 0.3.:.u.=.x G ] D N D B o.Y ] Q l F W q.o.x L D x N G B D F A z D E B R Q  .! ! Z D ..o.W @.0.Y [ O.7.~ &.:.u.DXZXzXCXlX^.#X3X^.<X+X-XD.^.qXD.0XXX^.oX XoX;XZXzXpXlXKXG.X.}  ...+. .R B [ R Y ' G B C N 0 t q d S A x 0 x h S B z c h z v d V x F v 6 0 E .. .C > l m d 7 7 4 u 0 u p l S z 6 6 l 2 h 0 2 4 2 6 q 7 2 i 0 u 0 > 7 h 2 7 l 2 2 > i t 2 j 6 2 c u 6 4 p 7 7 4 7 t 7 7 7 > 7 7 6 u < 2 2 0 t p 2 > 0 k c 0 f x u > , 7 4 2 2 > < @ 2 7 - O % > , @ > - @ > @ 5 > O , > @ O @ > , > @ % $ @ , @ O ",
"@ O O % @ % @ % @ % > @ @ @ , $ , > @ > > @ @ > - , o > - 2 % @ 2 2 2 , , , @ 2 7 4 @ , > > O > 7 N L 0 - 5 7 6 4 - > 7 2 2 4 > 2 > i 2 @ < 7 7 l 4 4 2 7 i 7 4 > 0 4 2 7 6 4 7 7 < @ 7 u 2 > 8 - c u 2 i 7 i 2 i j 0 t 7 6 u i 6 7 0 u c k h u 0 0 l q 0 x h 7 K q u h 0 h h u K h 0 z F z A h h z c x E ! H u x ! C [ B C ] ! B 4.X.Y Y ] *.,.Q Y u.KXCXCXDXfX5X-X*X;XhX3X6XY.+X^.3X*XsXqXY.^.3XXX-XtXxXDXJXZX(.O.t.0.@.6.@.#.4.0.O.i.] #.{ Q [ D Q *.9.W o.{ Q Q ] o.] Y ' G R B o.4.#.C m ^ K d.i.B h E ! D G D D D B D A A x Q @.O.X.B A D E D E ! R D Q D W S h [ [ A A R R A Z [ $.Y [ D A | A E D Q { Q Y ' G ] +.X.+.Q q.' Q ,. .9.Q d.PXDXCXAXzX;XjXkX6XXXT.wXD.^.>XD.,X*X-XY.,X#X*XvXlXZXvXDXV.] v.+.W o...R Q W Y D A } z B H z n M h S h J h x L k L V k h z v v v 7 S 0 x W q.( D ^ 7 h u t 5 6 h h x 7 > 6 B z 6 i 0 4 0 l ; , 8 < > r , > 2 0 u - u j 7 ; h u 2 2 2 2 2 i 2 u 7 7 i 7 7 > 7 4 > 2 - - 7 4 2 4 2 7 - w 2 q 2 2 7 7 h h 0 7 h h 7 - @ > 7 7 2 > > > 4 2 4 @ 2 > $ > 5 - 4 8 2 - 4 > < 2 4 > > > @ @ % @ @ @ @ @ @ ",
"@ O @ o @ 2 > % O o > @ @ > % @ @ @ - @ @ @ @ - % 5 3 3 2 2 > @ > > - % O , @ 2 w > > , > > > @ % 6 J x h z 0 2 @ @ 2 4 < % > > > 2 i - @ 2 4 7 2 > > 2 - 8 4 8 2 2 4 , 1 4 2 , $ 1 7 i 7 4 p 4 4 7 7 3 4 u 6 4 w i 0 t 7 u 6 l h 0 u v 0 7 2 0 0 0 t 7 u k h 0 h V c t 7 k h u c u 0 c S h x h B h J B C G z h J Z A D D B ' E B Q +.W ..%. .Q 4.) 8.DXAXzXlXcX;X^.=X;XE.0XsX+X:X6X^.XXXXY.@X XXXsXXXlXbXnXGXHXG.( 9.f.O.6.O.9.@.3.0.3.X.9.@.q.Q { $.F ! o.G N ,.Q  .] R ' ! R R R Q 7.,.R m B c r.r.D [ [ R A G ' A D ] } F x Q ~ 4.o.x E =.' E J S H B D [ } [ ' B ] o.D D  .[ D G D D D ! =.E F A H Y o.] R A D ' #.] { @.o.0.} O.@.0.9.:.g.KXzXCXCXlX/.#X#X0X@XY.6X9XD.'.J. X9XXX+X#X;XfXpXcXbXAXDXg.( 9.i.3.Y G Y 0.Q D B D &.A h A x z c 0 z d h F D Y u h h x J 0 7 0 u 0 w f 4.>.Q F d 9 z 0 6 u 7 7 c u u 7 u h 0 h 2 > 2 l 6 6 7 2 s 8 - ; > - 6 f 9 2 6 > 2 ; h h 2 6 h 2 2 2 6 u 6 ; 2 2 6 2 2 > - 3 i q d 7 2 O 4 u 7 2 2 + 7 4 4 0 2 7 - 4 8 - 7 8 > 4 > 2 @ > 2 > < > > 2 t 2 > t 5 4 2 6 4 @ 4 u 6 7 7 7 7 > > 3 @ @ @ % % % , ",
"@ @ %   @ , - @ > $ & @ % > @ @ @ @ > > > @ @ > > @ - 2 - > < @ 2 - > > @ > @ > > > > @ @ < > > & : 2 B 6.)  . .h @ 8 - > 4 < 2 , 2 > - 5 7 - > - 7 > a i 2 4 4 2 2 7 4 > 2 7 4 @ 7 6 2 u t ; 2 8 u u - 2 u u 0 4 0 - b 6 u 0 0 v 4 u 0 0 u 0 0 t 7 0 h 0 7 0 l 7 h u i h u x h 0 K u h d k x x E S x A A H z S Z z H B G &.D R Y =. .W o.] 4.@.,.q.8.MXGXlXDXmX;X3X5X0X^.XX=X5X-XhX+XsX+X7X*X X+XXXuXMXlXvXzXDXG.( q.4.O.7.4.4.o.@.8.7.#.4.Y Y #.#.Y ] D [ G D 3.*.X.W R D ..[ D [ W @.@.D H A v d.d.Q R D D R E B F ! ' F A F ! D ] 4.Y ' B G F A x [ E N Y D B D  .] ~ [ G W ! ] B B $.R Y Y A D E [ Y ,.@.[ H ' Y  ...R [  .X.] 4. .#.*.( >.KXDXlXCXzXtXsX X/.3XY.oXE.[.@XL.-X^.XXoX+X;XcXcXdXpXxXmXY.Y ~ #.@.! G Y ..o.D &.D A R Z Z A Z z h x H z B D D h u u z z v u 4 2 6 0 [ e.,.x 7 i 7 B h > 7 0 7 7 2 7 7 c u 0 M i 2 i p 2 k C z : F A C ) } T ~ ..} Q ! ! Y q.Y D &.! N z Z x z ! Y o.T F C B ! F Z v D Q Y h 2 - 7 - 2 2 2 y 2 2 > 2 y 4 @ > % > 8 7 2 - 2 @ % < > @ > > > 7 7 - 7 , > 0 7 > > 2 0 0 2 2 ; 2 > > > O > % o O @ @ ",
"@ > O @ @ O @ > > @ @ % @ @ > 2 > % % % @ > , , @ @ o > > > - - 2 > 4 7 2 > @ > > > @ 7 > 2 > > 2 - + Q h.,.3.c.r.z 7 x N 0 : 6 f > 0 7 z x 7 ; Z B h 2 6 f d d d h x B N z x z B z B B H z d f z h B D R 0 h D B N 0 h d 0 2 6 9 2 u 7 h c h 7 4 i h 0 j i 2 t 6 h 7 S d 0 u h A z z J x h h S h h z B k x H ' z F } G Y Y Y ! O.o.o.o.#.=.W 4.7.O.@.NXZXyXiXgXdX0X5X=X;X*XXX6X+X X-X;X;X5X6X6XY.T.-XgXZXbXlXDXV.O.%. .3.p. .( #.i.f.@.@.7.*.$.*. .] O.7.' R *. .Q o.Y o.Q W W ' Y  .i.e.D A A $.a.r. .B T A ] =.H A B A F | D Y J [ c.r.W 0 h H E B ' A ! ..D ' E O.(  .o.G N R [ N Z E D F A H Q G =.Y 5.>.D D =.#.Q o.#.@.o.@.q.0.8.i.q. .d.KXAXCXAXzX*X-X-X^.:X;XU.4XeX XT.@XiX5X XjX5XxXxXMXbXzXDXG.Y ) O.Q ] q.{ B D [  .C A A A G V A z F B Z h z A A E d c h 0 S h 0 j S W 6.+.R 0 w u 7 7 i 2 j v 7 > 2 b 2 2 - 2 y 7 h & - B #.) ,.O.t.6.q.i.6.9.9.6.t.i.t.h.e.+.q.6.6.t.t.v.v.%.2.q.v.0.t.2.9.0.q.9.9.+.,.6.t.t.,.C 0 % > ; 7 > > y 2 3 4 7 2 - b > @ @ , 4 2 4 % O > > 5 @ > 2 7 4 > @ 2 u 2 7 2 > > > > > > @ > @ @ . % @ @ @ $ % ",
"@ < @ > , @ @ , @ @ @ @ O > > @ 2 O @ O @ @ @ @ $ % , @ @ > < > > < @ 2 2 , > 5 , @ 2 > @ > > 5 > & 9 8.4.f f r.k.) Z %.:.( G N W B R C +.Q ~ Q 6.>...o...q.O.W #.Y W 1.6.+.Q 6.w.#.+.Q Q ( ,.q.6.#.O.i.t. .! #.t. .,.#.4.=.R =.O.4 2 j u h u 7 4 2 0 n 0 0 7 h c p 0 z S 2 l c m B S x h S z z S x x h x z F N x C C z =.2.O...Q C Q Q ] =.Q 4.@.! g.BXCXpXcXfX;X XE.fXfX=X7XoXaXuX+X-XsXXXsX3XXX,XE.lXvXtXbXHXC.@.4.7.i.7.@.4.O.3.8.8.7.O.Q D R $.=. .*.W ] 7.@.] Q Y %.G G E ..Y  .6.@.9.E A C x.r.6...T R Q G Y ! z } D x R ] B W x.r.W S S H $.R D A o.W Q Q A [ q.4.N E B ' D [ ! C R ' ' G  .! Y #.i.e.! =.D  .Y Q #.O.] Q  .3.7.,.4.O.u.KXCXvXSXbX8X X-X3XXX^.OX#XY.Y.T.G.+X5XaXuX*XdXlXnXxXCXKXV.W %.#.!  .9.o.D [ { D E G N D } B h L J B F A l 7 h E R 0 i h z c 6 d G >.@.[ 6 ; l p 2 7 2 7 2 7 7 4 2 u u 5 > 7 4 > > 1 0 E Y Y <.x.f.W N Y N z B B z N N W I f B C B C Y I B B N N z d z f N f f z Y C N z C :.e.i.:.@ 1 j 0 - < > 4 4 - 2 u i 2 4 2 @ 2 5 2 4 4 @ - > > - 2 < > 5 @ $ 2 0 2 t - 1 @ % , @ > @ > O > O o , 5 @ O O ",
"@ @ $ @ @ - @ % @ @ , % @ > $ > @ , - @ , , @ @ @ % > % @ @ , 2 > @ @ - 2 2 @ 5 @ > > > @ 8 > @ 8 & N x.:.@ ; w.~.( Y W ( 6.6.+.:. .Y :.,. .,.6.t.:.+.Q W 6.,. .O.+.:.5.<.6.1.1.6.w.i.( ..0.6.1.:.t.t.:.f.d.<.6.e.:.e.a.s.:.e.e.d.Z 6 6 j 7 t k t 2 t 0 h u 7 c j x d x h 0 c j l u A x z x c S F B x B ^ B D H $.F A D *.Q o.Y W X.X.! @.@.@.@.,.Q g.DXFXbXcXpX*X5X^.;XsXXXXXXX+XfXtX*XmX=XaXgXsX4X*XZXDXlXvXHXC. .9.7.8.p.+.,.Q @.q.@.@.@.] X.....Q A Y ..@.@.r.n D [ W  ...D { ! Q 4.8.#.^ F H j.e.4.&.Y R Y A D =.Y G } C %.} D i.i.O.t.Q { $.R Q Y o.B B 9.Y D D X.] ' } ' ] Y } C %.%.] Y Y D *.O.4.O.i.! q.@.%.*.D o. .O.4.3. .6.@.,.6.8.BXvXzXlXbX*X;X;X3XE.@XJ..X*X;X4X-XXX*X*X5X5X6XtXZXZXCXDXg.D v.v.9.Y Q D D Q o.G z R A x x S N V h x D S h j m v n z 7 7 x Z 9 F Y W Q ' h S L 7 3 c u j 7 2 7 b 7 7 u v u 2 y y u h 7 - 2 Y d.c.Q 6 4 6 6 2 2 2 0 w 0 0 n 2 ; > t 2 > 7 7 6 u 7 @ 0 h 7 0 2 2 6 - > > - 2 o 6 ( 6.F 0 > 3 4 7 7 2 > - 7 7 6 8 > 2 2 > - @ % 2 7 , 2 4 7 7 @ > 2 % 2 > > 2 2 > o , 2 @ > 2 @ O % > % @ , @ > @ o ",
"@ O O o O % @ % @ @ @ @ @ @ > @ @ @ > @ @ > @ @ @ 2 @ % @ > @ > - O > 4 2 - > 7 4 2 > > 2 2 2 > > O d w.i.v | f.h.Q z G I Y C ! ( Y ! ~ N B W Y C C Y h z ..O.Y W C W ( ~ D Q ( W Q Y C D A D ( #.Q C N W #.Y ] Q Q +.6.:.Y O.( r.6.R u 4 > 2 u h 7 u 2 7 u l 0 u V S x h h c h l h x h 0 h 0 z A A z J h A E N D N E [ Q %.' ' ! 4.X.] 7.4.7.7.+.1.u.MXAXCXcXnXpXnXtX*X;XuX5XmX;XcXcXcXpXXXtXbXuXcXpXzXxXdXNXHXG.Q  .i.e.p.4.>.#.] ] +.4.] #.*.@.Q ' $.R C 0.4.5.J G R O.O.[ G ..+.Y 7.i.#.R z L d.u.4.R G [ [ [ [ Y D ^ F D  .~ q.1.5.>.3.Q R Y R D { ! E G ..] $...C ..] D Y o.=.D W +.! D R o.' %.Q q.6.Q Y +.+.Q Q =.o.Y @.X.>.i.7.*.6.O.8.MXCXCXtXmXiXfX;XkX;X^.5X=XuXmX:X5XiXuXuX=X*XaXpXgXxXbXKXg.Q Q Y ]  .W ] Q *.Q N F Y G G } z S d A H A h S h 0 7 n h h x F E %.q.Y ! N D E m 0 u 2 u u 0 7 i 2 7 2 7 0 6 b - 2 0 0 h 8 3 z r.r.Q > - 4 7 > 1 , 4 i @ a 7 - 3 1 3 s O @ 5 2 4 < 2 $ , y 4 3 , 5 3 < 5 , y 1 O O 9 ..<.2.0 o @ 4 7 7 @ 8 4 2 4 i > 4 q j > , @ > 7 > - 8 7 - @ & % > 4 4 < @ @ , < 2 @ @ 4 < @ o @ > @ @ > @ % O % ",
"$ O @ O @ > @ @ % 2 > O O @ % @ > > % > , @ > @ > 4 2 > 2 y @ < > > > > - > 2 7 7 > > 4 8 4 ; 2 2 $ @ z @.@.i.' h 2 - 2 ; - 2 2 2 ; ; o - 2 6 0 2 0 7 2 2 2 7 6 q 7 0 0 6 2 h d 6 2 2 h q 2 2 6 l B 0 2 6 0 7 w 2 6 7 6 0 2 0 z x 4.t.~ ; 4 0 t k z h u M 0 0 h j h 6 u 0 0 h h 0 h F S 0 } D h V E A h z N A B N ~ #.9.Y G B G o.o.Y O.O.X.@.@.>.1.g.DXZXlXNXDXvXAXZXlXlXZXxXbXbXgX*XcXpXxXzXpXtXvXlXCXvXlXvXGXV.@.t.i.8.5.>.0.4.%.@.@.@.Q Q  .O.0. .o.X.*.O.4.3.o.@.o.[ [ W o. .D =.i.O. .! D [ 5.u.@. .$.D ( Y Y G [ E A E [ B ' Y r.u.Y E [ W $.] ] D $.G Q 7...W R .. .] Q D Y W 4. .R A { 7.Y F A @.p.@.Y D [ W @.q.] o. .3.0.p.4.i.7.W 3.KXCXCXvXlXuXdXtXcXbXtXbXvXxXpXtX;XiXuXfXbXcX;X;XnXvXzXbXg.W ! Q O.#.q. .Y o.D D F F R D H z S B B h x h x h x h D x N C D [ Q i.( Z A D R h 0 v x j 0 7 0 x n 7 4 7 2 2 i 2 j 7 6 & 7 N c.c. .7 , 2 7 4 > 2 7 2 4 y 4 8 4 y > 7 < 2 i a , 2 2 2 7 % @ - < > a 8 y , 4 4 7 2 @ > 4 Y 1. .d > > 4 i 2 7 2 4 2 , > @ > 2 7 2 > > 2 > @ > > - , > @ , @ o , @ > @ 2 7 O @ > > @ @ @ > - > > o O o O ",
"$ % @ O @ - 2 > @ > > @ O % > @ , 2 > O , @ 4 2 2 2 2 - 4 > > @ 6 > @ - @ - 7 7 6 - 4 - + 7 7 2 5 % @ > f Y Z 2 5 , , @ % , , > 8 > 1 % y y 4 y > 3 > > 5 > < 2 2 4 > 5 2 7 5 4 2 > < 4 - 4 t 2 > f t > s 5 4 > 2 y y 1 1 i l - > C ( O.C S t 2 4 S V 0 0 u h x h 0 u j v K 0 h S F S h K Z B z x B B d x E D ^ x [ Q Q ..z G D ..R o.4. .O. .3.q...g.DXAXvXlXvXpXpXzXAXAXAXvXSXpXbXlXbXvXAXzXZXDXzXvXvXbXCXAXHX(.@.i.e.>.i.9.6.Q @.4.7.#.~ %...Q #.O. .Q q.Y @.e.*.*.X.] E G O.o.Y =.e.r.4.=.Y #.h.h...W Q ! Q 0.R W [ R A A ' E ' ] d.e.D ! ! ! Y Y [ Q Q Y ] 3.%...R ]  .=.%.R =.@.>.%.[ A Y Y 7. .} @.5.u.4.$.Q  .@.,.] 4.@.8.#.W 3.6.X.0.8.cXCXzXCXZXcXlXxXpXZXZXCXvXxXlXCXCXdXpXpXvXdX*X;XbXCXvXZXx.C y.6.W W  .Q %.Y D ' B x N A ' H x B x 0 h ' ^ x V T F z R q.Q f A 4.Q N A F 0 h 0 u x t 4 k 0 0 K 4 7 < 7 7 7 j t 7 > & x w.N.r.u + 3 7 u 0 7 0 h 2 2 h 2 0 h 0 7 2 2 u h 2 7 4 t j 6 > @ w 7 2 0 6 2 > 0 q 0 0 > y > u W @.,.0 @ > 8 2 7 > 2 > - , @ O > > 4 < @ > < > > > 2 4 2 @ , < O > < > @ 3 2 > % > % % > % @ & > 1 > @ O O ",
"@ % % $ % > > @ @ @ @ 4 2 @ > @ > @ > @ > @ 4 > @ > > 2 2 @ < 2 u 6 4 0 2 > - 0 0 6 < - o 4 7 2 2 @ 5 2 4 u 9 2 8 > 8 > - 5 > 3 4 > 4 7 i 5 @ - y 3 2 4 2 y , 3 8 8 2 w @ 2 > 2 - 7 i 4 7 i u 4 0 7 - 5 4 0 c i y u 7 7 - n l 2 w 7 N 6.6.o.F 2 - 0 x h d K S 0 j x d h 0 u l c V x z x z d A J h h S F ' B G E x ] Q W E } ..] #.! ~ 0.,.@.7.4.#.) g.nXFXCXZXZXnXpXvXGXCXCXzXGXbXCXzXbXlXZXCXvXCXCXvXCXyXlXvXDXG.] i.t.8.e.q.7.>.O.#.#.@.i.3.X.X.Q i.#. .] o.=.Q o.R O.Q [ %.Q ..F Q u.x.e.! { I h.f.] W O.7.o.] ] ] ]  . .] Y =.t.6.u.f.X...X.Q { ..[ Y D #.>.8.R B %.@.o...Y ] o.o.W ..#. .! Z h.f.@. .r.0.W q.Y #.9.O.@.i.#.@.o.] O.i.0.Q 8.nXCXAXyXzXbXlXZXZXvXlXAXvXlXZXZXvX*XxXZXlXpXbXdXzXDXzXMXg.( q.@...Q  . .W ..R E ! [ A E R R N Z B S x S z 0 B L d G 0.( z d L v h D H x 2 u k 2 i h 7 0 u 7 2 4 j > @ S N x 8 < a j @.j.f.6 > 5 7 7 2 u u t 7 > i 0 0 0 z 6 7 7 i 7 > 4 4 7 6 i 0 2 6 i - 7 t 2 - 8 2 7 h u 6 > 4 o 0 Y 6.Q 6 @ % 2 > > > > > 4 < @ > > 2 , , 4 > > @ > - 2 7 - $ 7 2 2 < $ < 8 2 7 > @ @ @ , , > O , , @ 4 , @ ",
"% o @ % @ @ % % @ O > 2 - 2 2 > @ @ 1 @ % @ > > @ > @ 7 4 > @ 2 6 7 7 7 2 > > 7 K 0 > > @ 2 2 - 7 6 7 7 4 1 > 7 2 7 0 7 7 0 2 2 u u 6 2 h b 6 2 0 ; 0 u 0 2 2 7 q j 6 6 j q 7 u 7 6 h 6 2 t 2 6 z t - - 7 0 h h 2 0 0 l u h 6 6 7 q 7 z Q ( Y S l 7 6 0 h x d 0 k F d h 0 7 k u 6 h B h u x k 0 h x D D G B R Z F $.! x E W Y ] ] o.[ Q O.p.5.7.,.) u.HXGXAXnXvXZXxXNXZXvXvXxXlXpXZXpXlXbXyXZXlXvXvXlXbXlXxXbXDXC.O.2.3.>. . .f.i.7.+.+.@.i.>.6.@.{  .7.7.D o.*.>.E Y o. .W  .=. .A W h.c.( E W o.w.t.#.9.Y @.X.o.] W Q 9.i. .! #.d.8.3.e.O. .] O.Y q.o.] %.#.5.e.$.R 4.@. .! E 4.+.D } Q Q #.] &.8.e.8.5.>.Q  .4.W #.@.i.i.@.] 6.4.0.7.e.0.] p.KXZXvXpXlXvXpXpXlXMXpXzXlXzXZXlXZXtXuXvXZXbXzXpXdXtXMXVXu.Q 2.X.+...#. .] ] E A C Y Y N D G A F H N x V x h S h u N ..! T A B ; 4 h x 0 b 0 7 7 5 t u 0 j 8 > j j y 4 B ! h 7 - 0 Z W r.B.q 1 u 0 2 i 7 4 % , 2 8 l u 0 j , w 7 5 % , 1 > 2 4 > 5 7 - 2 4 < t 2 < y - 4 7 > < 2 7 > @ 2 } ,.+.c @ > < > 2 2 8 2 2 > - > > , 2 - 2 2 > > > 2 7 4 2 2 2 y > @ - 2 2 7 2 > $ % @ > > o O % > > > @ ",
"@ o O @ , O > % @ % % O @ % > , > 2 > > > @ > , > , - > > > > > > @ > y > 2 y 2 2 4 2 y 8 - > 5 > 4 2 - > > % 2 7 0 4 2 - t 6 2 2 4 7 4 2 0 0 2 7 t 6 7 0 k 0 7 2 0 7 2 0 i c u t 0 2 j h 6 6 7 6 0 t < 2 h 6 0 0 6 6 z J 6 ; l z 7 < - z q.,.2.[ 2 7 0 L h d x h v h h x d x B E C ! R H z u h L H D D C A N D B D G A R ( Q N R { Q 4.O.O.i.3.6.t.3.BXDXAXDXDXvXDXHXDXDXHXDXDXbXDXHXLXDXLXDXDXDXDXLXKXZXDXKXPXG.5.i.i.7.3.@.3.3.X.q.@.3.e.e.>.7.*.! X.#.Q  .@.f.R O.*.O.@.Q ..W 9.5.d.a.5.0.o.T d.d.@.4.@.#.X.*.4.+.o.#.D ! 9.] 8.e.5.u.@.0.] W Q ..{ W Q W  .<.q.4.4. .o.] 3.@. .o.o.@.Q ] o.W W 9.r.5.8.i.4.O.#.Q O. . .X.i.>.3.4.e.,.#.e.g.PXDXCXDXKXDXHXDXHXLXLXKXDXHXGXHXKXHXDXLXDXDXDXDXMXgXPXBX5.W *.@.X.i.#...! Y ..[ E Y ] Y A F F x H G z S x v F h v d E 0.#.E 0 0 u 0 u h k 0 q 4 7 i u 6 t p i 0 q 2 u 2 0 u 0 6 2 Y ) C 0.| ; 7 - 7 u u 7 > 4 0 > l t 2 - q 8 8 > < 2 2 y 2 7 4 y u 2 4 7 u 7 > > > 2 7 7 > > 2 2 B 7 & ; ( t.! 6 > > 2 - 2 4 4 > 0 2 O > 2 t > 2 2 2 4 4 > > 7 2 2 > @ > 8 4 2 > @ , @ > % @ , % @ , - @ o @ % ",
">   @ > @ O @ @ $ > @ O O O > > @ 2 - , > 2 4 @ % > , @ > 2 > < , & O O 2 0 2 > > @ > 2 t 2 > > > > > @ 4 6 4 > % 7 2 2 1 3 4 y 5 & @ , , 2 7 7 4 p 4 > 2 7 0 u l k j 4 5 2 7 7 y a i u 7 8 4 8 q d b r 2 j i < < y 7 u c i 4 l f d 4 1 q Q O.>.! z u 2 u c Z Z N 1 u z V z D ~ #.:.O.Q ....Z h B B A F E E D ..G F A } D W =.! [ *.Q e.i.,.Y i.0.7.5.G.tX;XpXlXuXIXSXyXtXyX*X*XyX*XtXyXyXyXtXlX*X(.yXtX*X*X(./.g.@.0.@. .5.i.7.@.Q 0.5.7.0. .#.4. .o.!  .0.4. .3. .0.e.D ..=.G [ 4.>.u.5.3.v.&.B M.d.>.6.+.@.#.Y ] R [ B ' [ ] $.[ 5.h.f.@...W %.%.X.#. .] [ =.5.5.O.O.0.E Y u.6.@.@.>.#.4.R @.4.Z S q.i.e.e.@.#.=. .3.i.9.#.7.3.@.#.7. .4.3.8.NXFXzXtX*XtXlXyXyX(.(.*XyXlXyXtX*X*X*X*XtXzXyX/.;XE.G.G.d.>.@.+.Y @. .] E R +.Q [  .' { A z z z x H D x x J B F x K A Y >.A z u 7 i 0 B z d k h d 4 > 4 4 7 0 2 8 6 h < @ < k h t &.+.I (  .d t 8 7 0 h u v h z u 2 2 , > u 0 u 0 j 2 6 l 6 t u 2 2 4 2 u 0 > 7 i 7 0 t 2 2 t @ 1 N 7 , @ z ,.5.Y > X , 2 4 2 2 , 4 > # o 2 i > $ $ > @ > @ @ > 7 1 & o @ > 4 4 @ @ % @ , > , @ % - - % O . O O ",
"> @ 2 > @ > > @ @ % O , @ @ > @ O o o > % & # O % > 4 > - > > < 4 % @ - 5 4 @ , 4 - 4 3 > - > - > 4 7 2 2 2 7 > 2 7 > 2 i 0 6 2 j 1 @ 0 h h 6 7 > 2 7 0 j 7 2 7 t < 3 - 4 y 4 2 j 0 7 7 0 0 u 0 2 4 8 4 l x h 7 q y 2 0 z 7 4 7 y t i 7 > > h +.C J c 0 f d j u i 7 S h 2 b x ,.r.r.C u z R R z x W ! x u B E E 9.Q R E B 4.h.@. .@. .! | %.Q p.3.@.>.e.6. .[ 2.+._ T q.( %.&.....( ..&.} 0.O.@.Q 4.q.E &.#.X.=.4.#.O.3.4.X.0.*.4.8.>.>.7.@.5.h.e.O.4.9.4.O.@.e.] u.0.{ *.u.f.4.4.r.g.d.d.8.d.d.h.i.+.i.i.D O.+.#.@. .Q q.*.X...{ [ ! 7.] A E O.i.8.@.4.%.q.Y 4.,.] X.) =.G G 4.q.@.4.6.@.f.7.*.,. .p.5.X.] $.+.#.@.i.i.4. .X.7.%.6.h.e.e.t.f. .@.O.4.W Y ! E +.q.~ T ! %.4.! W 3.>.+.Y T *.Q Q ) _ +.1.t.o.! ..! F E 6.t.{ A F [ D E =.N  .] C E F z N A z h h x B h 2 0 h h u c 0 0 t i 0 S V h j h F 6 2 t h z K 0 h 0 & = C >.O.Q c 4 q 7 7 < 0 i @ % i 7 6 2 2 h l 4 > @ 4 4 2 8 > % 2 b 2 9 t 7 - 5 , , < t 2 > @ O r < @ > - < 0 7 @ 8 +.t.~ 6 2 7 - < 4 > - 2 2 2 2 2 2 6 v 0 - - 2 7 2 - > 4 - - 7 > 2 > > > 4 2 @ , @ @ 6 4 O @ @ > @ ",
"> @ > @ @ , @ O > % O O @ , > > > O @ % @ @ @ 2 - 4 > 7 > 2 > > 2 % @ 4 2 2 > 2 > 2 : 4 2 7 2 7 - 2 4 - 4 8 7 4 7 > , @ 4 t 2 2 4 7 6 7 b 6 2 7 > 7 7 7 < i 4 2 0 > ; 7 7 0 2 7 7 7 > 7 j 7 7 t - 0 6 7 2 2 0 7 7 8 7 6 M 7 4 7 2 6 6 6 7 > u D D 6 6 0 u j 7 l 0 h S A B j 6 D q.2.B z B G | x | H B H D N E B Q Q ..[ ! #. . .] 4.#.*.Q O.i.i.5.r.p.e.3.5.p.h.5.f.d.h.d.r.u.Z.d.c.V.r.<.e.u.Z.Z.c.5.u.u.h.u.p.7.e.u.i.e.+.O.3.W i.@.@.4.4.3.8.6.@.,.@.4.*.+.0.4.h.@.3.*.@.e.3.7.e.e.d.d.i.u.p.@.u.e.+.W ..4.4.Y 0.*. .O.4.7.] @.R Q 7.X.[ *.3.X.7.3. .D ] ] 0.3.3.i.] 4.4.@.O.O. .#.3.7.8.>.*. .@.i.7.7.8.u.7.@.0.7. .8.p.3.6.3.e.3.5.f.8.5.p.h.e.5.u.f.8.h.u.@.h.u.e.8.8.u.i.f.5.h.u.5.8.7.i.h.p.5.5.7.3.4.>.0.Q O.4.@.X.! W ..] ' ..D ] $.R N F F B A H A N A z F h h x d z t l u k u 6 u v h 6 h v j u 7 c h 0 h h c 7 z Q ~ C F 7 6 7 j 0 2 i 2 7 7 7 > i 2 4 6 2 2 7 y > 7 2 5 > @ < 0 6 b i > ; 2 2 @ 2 4 4 4 4 7 2 - , y < 5 7 @ % - 7 +.t.I 6 , O , 8 - - 4 % < 8 , O @ @ 5 - % > > > % % , , > % , , % $ o > < @ O > @ 4 4 , % O @ @ ",
"@ O O > @ $ $ > > > % @ % @ > > > @ > , @ @ - 7 > @ - > @ > - > 2 @ > 2 @ 2 7 2 % 2 - 2 2 2 4 7 4 4 2 > @ > 2 2 7 - < - 7 > 2 y > 0 h 2 , @ 2 2 y 7 7 @ > t ; 7 q 9 7 7 2 7 j 0 6 > > 7 7 - 0 u d 0 h 7 7 t > 4 0 y 4 2 7 7 4 i q 0 M b - 0 b j h u 0 4 t t 7 h 6 0 c 0 q M h h N ! D Y q.z h x F S x N [ H A W ] W @.] Q R Y o. .X.O.e.5.>.3.O.3.e.O.u.u.8.8.8.u.g.g.8.r.g.c.u.u.u.g.u.d.x.r.h.u.x.x.g.f.d.d.f.u.f.8.p.u.p.8.4.X.O.*.7.@.7.7.@. .3.6.8.4.#.] #.3.8.8.3.@.X.@.8.>.] @.h.5.@.3.O.6.d.u.,.Q =.X.O.@.o.=.q.O.8.8.4.3.] %.4.#.q.>.4. . .] e.i.4.8. .@.<.e.3.p.5.@.0.@.4.q.] Y X.3.4.i.*.Q *.8.>.p.8.@.3.@. .0.p.i.e.h.p.3.p.i.@.4.f.8.8.>.h.8.5.f.h.p.g.g.r.3.5.8.e.e.( 6.p.u.5.8.7.e.8.8.7.7.O.6.e.Q 4.] W Q *. .W  .E N ] &.x | Z D F H S x x } ! N z ^ x f [ D V 0 6 h h x 6 4 l 7 7 6 0 u 7 0 S h 2 2 h h N <.i.f 0 K h 7 0 0 h 7 7 7 l h 0 y > 7 2 i 7 2 2 7 > 4 2 > @ 4 i 2 7 2 7 2 i 7 - t 6 7 4 > 7 6 0 7 4 2 > @ < > - y , 2 O.u.W 5 o @ > 2 # O O @ @ @ & $ . , $ & $ % @ & < 1 @ @ @ @ O O - > @ @ @ o > 4 O @ % @ @ O @ ",
"@ % O @ @ O O > @ @ % o O % @ O > @ @ , @ > > 2 > & @ > < @ @ , 7 , @ @ % 4 2 > @ @ > w 2 > , > > O > , @ 2 y > 7 4 2 - > > > % > k j 4 @ 2 8 - 7 7 7 7 , 7 2 2 2 h 0 - 4 u 7 7 t 7 2 > 7 0 c 0 h z 0 0 l u l v 7 7 0 8 w 2 2 u 0 q 0 i 2 l 7 2 t 0 0 u 2 6 h u c S d u 7 j u j z E Y Y H z A B d A B D E D D o.Q [ o.q.D E $.9.#. .0.@.i.7.@.@.i.8.@.i.5.i.e.e.e.8.e.p.8.p.u.5.f.8.h.u.5.c.u.3.X.g.g.g.r.8.d.h.u.u.u.8.e.i.4.0.4.@.i.X.3.4.O.i.0.7.@.@.*.@.@.0.3.3.7. .O.7.p.@.0.4.4.@.X.7.4.@.i.u.6.9.+.O.*.*.q.Q o.X.#.0.X.4.7...@.@. .( #.4.#.0.*.@.4.@.>.6.X.3.q. .+.4.3...4.@.@.=.R 4.4.>.@.4.i.@.q.0.4.4.3.4.@.+.#.O.i.8.e.7.0.,.>.e.u.5.p.8.8.p.4.8.5.u.u.r.u.i.i.4.e.5.p.@.@.5.8.p.h.:.6.e.7.#.@.O.6.e.,.0.X.Y ....#.] Q E D %.C z F D E [ D B x x A B A z x z E B x B u K K h B l 2 7 2 i t u 6 j u h S t y 6 W t.6.E h 2 6 j l 2 2 0 7 > 4 0 6 > 7 8 6 u 7 4 4 4 7 0 0 7 t 5 2 7 7 7 2 4 2 7 7 2 7 8 > > 4 4 2 7 2 2 2 , @ @ u 0 - % @ z 6.,.! 9 2 7 v 6 2 2 6 ; 4 7 ; - 2 2 7 7 - - 6 7 2 6 7 7 2 0 2 h u - 2 0 u 7 > 3 > 2 - % O & ",
"@ o > @ @ > > % @ % @ O O $ O > - @ O @ > @ O 1 O O @ - - @ @ % > @ @ # @ > > @ @ O % 5 % , > , > @ > > a 2 @ 2 4 y 2 - 4 4 , @ 4 - > t i p 7 4 7 < 7 7 6 i y > 2 0 0 2 2 t 7 2 7 7 2 2 7 6 h 7 u h q 2 > 6 x z h 6 q 6 6 u 7 u 0 u 7 0 h v 6 2 y j k x h z J B l d q 0 h h d B E [ D x 6 F R F F R W [ E x ] ! D R [ [ ..o.X. .o.@.@.*.%.*.0.q.e.i.p.i.8.8.p.t.>.p.i.7.h.7.e.p.7.7.e.h.r.8.i.c.u.>.6.u.u.r.h.h.u.h.e.e.h.7.@.6.3.c.h.8.f.u.@.7.4.@.4.0.8.i.p.3.4. .i.i.>.7.i.0.*.0.3. .i.7.O.X.i.d.e.@.e.7.i. .] p.4.*.@.q.] 4. .#.8.t.0.6.0.*.( f.p.] ..4.8.i.0.7.@.t.4.4.q.] ,.7.@.4.@.0.*.O.O.e.6.3.q.=.( ( q.@.0.#.] #.4.4. .p.i.+.+.d.f.3.>.f.h.@.5.7.X.p.i.5.h.p.6.6.p.e.8.Z.6.3.h.5.u.3.f.7.4.@.4...9.v. .@.o.W 9.9.o.$.D A R D Y &.! Q E Y Y D E S h x x H z x L 0 6 S 0 d K h u u 0 j 4 u h v l j ; 0 L 7 M B 1.v.Y 6 v 7 7 0 7 4 7 7 i 2 4 2 q 6 4 7 6 7 7 4 4 y 2 7 7 u 2 2 7 2 t 7 w < 2 7 4 - > 4 > 7 b @ , , > 2 2 5 5 - 7 0 7 > 8 7 u W t.e.f 0 F Y C D z F E F ! Y D [ Y Y N x C N C z x N D ..Y A z 0 h d h h d b 2 7 2 @ % @ ",
"% o > < @ - 4 % @ @ @ @ @ > @ > 7 < > 7 7 2 2 o , > @ 2 u 0 2 7 7 0 u 2 2 h v j h - < > @ > - 2 0 > 7 > 2 - - 7 2 2 2 2 7 - 7 2 i > 2 2 q 2 2 7 0 > 2 q 6 7 - - i i 2 8 - a 8 > l i 4 0 8 c 2 y 7 l u , 5 i 0 h h h u 6 v 0 7 h 0 i 7 0 h h h u 2 0 S h h V 0 u t 0 h v u S S A B Y A u L A D F A Y } B D R [ Y E R ! Y Q 3.@.( 7.>.3.@.Q i.@.7.e.3.8.8.u.8.i.7.5.p.u.u.p.5.5.u.8.8.u.h.u.f.8.c.h.e.h.u.r.f.Z.c.r.u.d.5.p.3.i.i.5.h.5.i.i.@.f.5.8.7.6.5.r.8.i.p.7.@.f.f.>.8.3.*.@.@.e.8.p.i.i.O.u.x.u.>.p.p.>.@.i.h.3.3.i.4.Q 3.e.i.h.5.p. .6.3.i.5.e.i.4.4.3.@.>.3.p.p.@.3.8.5.4.3.8.@.3.3.4.] 7.f.r.p.6.X.@.e.8.] 3.i.i.5.>.4.@.3.3.4.i.h.3.e.u.p.8.d.d.h.>.i.8.u.Z.@.8.u.u.5.h.f.>.u.i.5.u.p.p.f.u.4.>.Q  .X. .@.8.7. .O.O. .7.] ! R { ..]  .D D [ ] ' N E z v E E h x K h h h z v u t 0 h x 0 k 0 0 z h w 8 u 6 C O.Y d 2 0 l l x j 0 > 4 7 ; j 2 - 4 w > 2 8 8 7 7 2 6 2 i 4 y 0 0 j > 2 > 4 > 4 2 < @ 4 q 2 7 4 @ % % > 8 u < 2 y 6 k h - 4 @ @ A Q d.6.C T ) O.D N Z Z C Q Y ! C Y ! W Z C C E z h C  .I W B S x z B x h v 2 2 - , % @ > ",
"@ > @ > 2 > @ > - > 7 > - 7 6 t 0 0 7 7 2 j v 2 u 0 0 h h z v z B Z x Z Z D Y T B 0 6 6 x x d 9 z h z h z j 0 0 d 6 0 ; z c ; V f z h 9 d z f 0 q 7 0 c 6 0 7 6 0 0 6 6 9 h 6 6 f 0 6 9 d d j 0 7 > 2 7 > 4 8 i 8 t 0 0 d K 0 6 x 7 7 u 7 t u h 0 h h 6 u 0 6 q 0 0 x K z x x x z z x B A N Z z h J A B ..D } %.!  .*.] 4.4.>.O.6.*.@.8.u.e.@.t.f.8.3.p.d.8.8.h.u.u.d.x.d.r.g.g.d.h.p.p.u.h.h.u.u.h.u.g.d.u.u.g.c.u.rXd.8.8.g.f.8.3.8.>.i.5.e.h.r.i.8.u.u.@.3.i.5.5.5.u.u.8. .u.d.u.5.u.u.3.p.8.x.~.u.8.8.3.p.5.7.3. .5.f.5.4.e.u.( e.8.i.8.6.e.p.5.u.u.<.0. .6.5.h.8.@.u.u.3.>.6.6.e.r.u.3.O.4.i.d.@.O.p.u.d.f.p.p.7.8.5.r.u.@.3.u.u.8.u.u.u.i.@.6.5.d.d.5.8.r.5.d.u.r.u.u.h.5.5.u.g.f.5.5.3.u.@.h.h.@.4.i.5.7.i.p.8.8. .@.3.4.Q o.@.[ Y Y o.W R D A G R $.D z V B x x h S x x h H x 0 t 0 h 0 h 7 h h d 0 8 1 7  .6.Q l 2 t 7 7 > i d 6 7 2 0 0 c h 7 4 > , 4 , > y l u y 4 2 > > h E z - , @ > 4 > 2 2 - 2 2 7 < - 4 7 7 4 2 ; 4 - > > t 2 2 2 > y 7 6 Z [ z v x F d ; 0 h j 6 0 7 2 0 u 6 6 4 d k 2 7 h Z B V 6 7 7 : 7 0 2 2 $ 2 @ 7 % @ > ",
"@ > > - > > % @ < 2 - 2 7 t 7 u 0 7 7 u 7 u 0 u 6 0 c j 0 u z x z N z F N C A V B ^ B C ! Y Y / D W R ! C z C ~ ..[ ! Z } ,.W o...6.6. ...+.! N ..$.~ D #.! ~ 2.6.+.2.O.0.6.0.0.( %.+. .q.:.t.+.B F d C S ; t > @ 8 7 c u 7 4 7 F > 0 7 7 w 2 j v h 6 7 2 u c u 0 c z 0 S z B x k l x S f E F G J S B %.! R  .( W W 9.Q 0.*.O.0.! q.@.6.i.>.+.( e.i.e.5.u.5.5.u.i.f.h.e.h.7.8.h.d.i.8.0.f.u.>.h.r.e.5.g.h.h.f.i.h.3.i.f.5.f.c.f.p.i.f.8.u.e.i.c.u.@.4.p.h.p.0.*.0.t.i.f.i.t.i.h.e.7.7.i.h.p.v.8.c.rXd.6.i.3.i.3.O.i.i.3.>.u.c.p.i.0.@.8.e.7.X.i.8.X.7.i.3.7. .i.f.h.f.h.t.v.t.9.i.4.O.f.f.h.8.7.t.4.7.i.,.i.p.7.p.i.5.i.8.Z.p.u.f.u.i.f.i.f.Z.p.i.p.e.e.p.u.c.Z.i.u.d.c.u.e.8.e.f.i.u.p.p.h.i.8.3.e.6.,.t.t.f.<.i.4.:.,.4. .%.v...D X.] O.] { Q ..B H x C &.E G E J h u h H N z 0 z x h j c c u 7 7 7 0 u l 7 2 h <.<.z - i 0 > 2 < 2 h u t i 7 F 0 q 2 8 4 7 0 0 0 0 ; j 7 2 z 0 h z ..Q h @ > , > 2 2 2 2 2 i 2 y @ 4 2 0 t > 2 > t 2 2 2 2 4 u 7 7 , @ y 0 4 2 , @ ; 8 i 7 > O @ , , @ & % > @ 8 , > @ @ % - > > @ - @ @ - @ @ % @ < > @ $ , ",
"$ - > % O @ O O % O - - > - @ - - 2 - 2 4 - > @ 2 > @ 4 @ > 2 - 2 % 2 0 7 6 6 7 6 0 D ~ C T x z D z D f z [ D I Q ! ! %.+.2.q.q.O.6.:.W 0.( ,.6.6.1.1.6.6.6.:.r.<.s.6.1.f.f.t.f.d.d.e.5.c.r.d.d.<.r.r.+.( O.f > 7 7 9 h 0 2 0 0 j v 7 7 0 7 0 u n j 0 S z 0 0 0 j h S B h 0 u F x h h D B B E | | 9.#.D W ~ =.0.,.0.../ %.,.) _ :.O.:.1.) O.W ;.:.<.f.5.5.:.5.f.1.>.:.>.6.>.O.5.5.>.8.O.6.<.<.5.<.f.w.<.<.O.<.e.6.8.>.:.1.5.3.>.) <.O.:.t. .<.>.<.@.,.:.<.t.W Q Q +.1.:.:.>.O.>.+.O.5.i.6.>.<.:.5.8.O.>.6.6.) O.,.6.O.@.O.@.O.>.<.>.:.:. .:.+.O.Y :.:.O.1.( ( 1.O. .( t.( +.#.Q Q >.O.) ( O.( O.1.+.5.@.( :.<.<.]  .@.u.t.O.1.:.@.6.5.r.:.6.0.@.5.8.>.>.w.r.r.<.) <.5.w.>.<.e.<.<.1.O.:.>.i.8.4.6.>.( :.( :.O.>. .@.~ W W O. .+._ T E Y O.X.4.@. .Y ! [ W C B A z x F x S ' A h x A h z x 7 u k u t 9 h t 4 0 Z O.] H u 7 q 6 2 4 a 7 4 7 2 4 7 i 2 6 t l 2 h %.w...Z x V 0 f #.9.q.D Y #.W 9 y 4 > 7 2 7 a @ 2 7 u 7 > , i 2 2 > 2 8 2 y t 7 2 0 7 2 2 > - - 4 - 2 4 < > 7 > < < @ 1 - > , @ @ > 4 > 8 > > > 2 > > , > % @ % & , @ , % $ % O O ",
"@ - @ O , > O O % O , > @ o O @ O @ @ @ @ @ $ $ > ,   o @ @ @ % , O @ o 3 - o % @ - h [ T 6 > 2 h d v u S H N D F f d z N C Z z h B N z C z C Y D I ) W Y Y ..) .. .Y C +.W Y ) 5.+.( W ( 5.6.7.d.r.6.6.d.Z.t.Z 2 0 h u j 7 7 h 7 h 6 t q j l 0 x 0 v 0 V h 7 c 6 h J z h j h Z x | x B E Y C Y Y  .W ! Q Q q.>... ...C Y  .O.5.d.g.V.V.C.C.C.~.g.V.C.C.V.V.C.Q.C.~.V.V.G.~.C.F.C.V.F.C.~.C.x.G.V.G.C.G.V.g.C.~.C.G.C.C.V.C.C.V.V.~.C.g.C.C.V.V.C.V.V.V.g.F.F.C.C.g.V.C.V.C.g.C.C.~.V.V.C.V.G.V.x.g.g.C.g.g.C.V.V.g.g.C.C.g.C.C.F.V.F.C.V.g.~.V.g.V.g.d.g.c.h.g.d.C.V.g.g.g.V.V.g.g.g.V.g.V.g.g.g.g.V.g.C.g.g.x.~.~.A.x.g.C.V.C.g.g.V.~.g.u.g.g.g.g.x.V.V.V.V.g.F.C.V.V.V.V.V.V.V.V.F.V.x.C.V.g.C.g.g.g.u.C.g.V.V.V.g.g.g.g.g.@.X.Y B O.i.$.q...W *.O.Y R ' ] B G D B x x S z z K | d h K 0 x S 0 p u 0 l x D Y ,.z - 6 j 6 7 t 7 2 7 t t w 2 0 t 7 7 < > 0 +.>.d.+.R B E x I O.O.+.h d Y [ f i 2 i 2 @ 7 2 2 4 i 4 2 @ @ 4 2 8 > > 2 2 > > 4 7 - - 8 > 4 7 2 > @ 2 - 7 > 4 > 7 7 > > - 2 2 O < - > - 7 2 - 4 2 2 - > > > > O @ % - 4 > @ % O O ",
"@ @ @ @ , @ > @ , > @ % O < > O % O , @ @ @ 3 2 , > @ > @ > O % > @ @ > 3 , O > > % 2 u 7 @ @ , 2 0 2 - 7 7 6 u - 2 2 2 0 8 - : > 2 2 ; 7 2 2 2 6 - 0 6 2 6 9 0 c @ - 0 u - 2 h x ; - 7 0 h ; ; C C N C D Q 6.h.0 i 7 6 h j 7 u 7 7 h u u 6 M 0 0 0 n 7 u K u S j x h h v 2 x E N F m h Z &.C Q Q D E R R 4.,.W ) ( Y 8.V.:XMXDXDXDXLXHXHXHXHXDXHXHXGXHXLXLXDXHXLXHXHXLXLXLXLXHXLXHXLXHXHXLXLXHXLXLXLXLXPXLXLXHXHXHXHXLXLXLXLXHXLXLXLXLXHXHXLXDXHXLXLXHXHXnXLXHXLXLXLXLXLXPXLXHXDXLXLXHXHXLXHXLXHXHXPXHXHXLXLXHXLXHXLXLXHXLXLXHXLXLXHXLXLXHXPXLXLXLXHXLXLXLXLXLXHXLXLXPXKXDXLXDXPXLXLXLXPXLXPXLXHXDXLXHXHXHXHXHXPXLXHXHXKXLXLXHXLXHXLXLXPXLXLXHXLXLXLXLXLXLXHXHXHXHXLXLXHXHXHXHXHXLXLXLXPXHXHXHXLXLXHXLXHXLXLXHXLXHXHXLXLXLXHXDXMXNXV.d.O.W / &...Y D o.[ R ] C [ H D D E h x A h h h 0 S c h h f k 6 i 7 f Q  .A 7 4 t 0 q 7 4 4 4 6 6 0 7 6 u 0 4 2 , u O.:.( Y 6 J 0 d x $...Y f u 4 6 B Y h 2 t 7 - u 6 t 7 2 % t 7 0 2 > 4 7 , 2 7 4 @ , 2 2 @ 2 > - 2 > 2 > 4 - - > > > 2 5 2 7 4 2 > @ < < , - > > @ 3 4 > y > @ % > > > , > > > O o O @ ",
"% @ @ % @ @ > @ @ - @ @ @ > @ @ - @ @ - @ @ 4 2 > > > > > > - 4 > 4 4 4 - - , - 5 , > > 4 1 5 > @ > < > @ > 2 7 1 > > i 7 O 3 8 8 < 4 i 8 4 @ < s , 4 , 1 8 > > < , 8 7 - & , > 3 1 % > 8 1 # 2 8 4 6 6 : u N d. .0 0 u z h 2 2 i j l 6 0 7 u V h j 0 c 0 7 0 z S k 0 x V V x F F h u x z ! Y o.W G ! E G 6.Y C I 8.(.KXKXGXFXAXCXJXFXFXSXCXAXAXAXFXFXFXAXJXFXAXAXAXJXFXAXCXAXSXAXAXAXFXAXJXFXJXJXFXSXFXFXSXFXFXFXFXFXAXFXFXFXJXFXFXFXFXGXFXFXFXFXFXJXFXGXFXAXAXAXAXAXFXAXJXSXFXAXFXFXAXFXAXCXGXGXSXCXFXFXGXFXJXAXFXFXFXSXFXFXFXFXFXAXFXFXFXJXJXJXGXGXFXFXFXJXJXAXFXFXFXSXJXFXAXAXGXJXJXGXAXFXFXGXFXFXFXFXFXFXSXJXGXAXFXAXGXFXFXFXGXFXFXGXFXFXFXJXFXFXAXJXAXFXAXFXGXGXFXAXFXFXSXFXFXFXJXGXFXFXFXJXFXFXFXGXGXFXFXFXAXJXFXJXFXFXAXFXGXSXKXG.@.G Y &.G R ! D D #.9.G F E A S 0 0 N A L 0 h h 0 h x D b 2 2 x Y 9.Z 6 7 h h 0 i 4 7 2 7 j i 7 u j 0 2 7 7 9 _ f.>.N 3 @ u 4 + - 0 L 0 x b 0 ; ..%.u 7 4 2 7 0 7 t 2 @ % 4 7 c 2 > > - @ > 2 > , @ > t 2 2 4 > > 2 t - 2 @ 2 4 2 4 2 > 4 2 > @ @ 4 > @ 2 , - @ @ @ > 2 2 > % % < 7 > > > - > % O @ @ ",
"@ @ % @ @ @ @ o @ > @ @ > @ - > % > @ - - % @ > @ > > @ > > > 2 > > 8 > - > 2 > < > @ , > @ 4 2 2 - 2 > > 8 2 2 > > > 2 2 2 2 5 2 5 > @ 2 3 2 7 2 4 8 > > 5 2 7 k 4 5 v i 8 3 - @ y 7 4 > 1 > j i i 7 2 8 j z Y d.W d 2 2 n u 6 4 0 u 6 q K 6 h x d x 0 x K 7 h z d c h z L z d D D A B C  .4.Y ] o...+.( _ W >.C.MXHXZXlXxXvXxXGXAXAXSXGXZXCXCXSXFXzXvXAXCXAXAXAXGXAXzXxXAXAXAXAXAXJXzXzXAXFXAXAXAXzXAXAXCXJXGXAXAXGXGXCXJXAXJXCXGXAXGXCXCXCXAXAXCXAXCXlXAXAXGXAXGXAXAXZXvXSXAXGXFXCXCXAXCXAXAXAXCXCXAXAXAXGXAXAXAXGXAXAXAXCXAXAXFXFXAXAXFXAXCXAXFXAXAXAXGXAXCXAXFXGXFXAXSXGXFXAXJXFXFXFXGXAXAXCXAXAXAXFXAXAXGXAXJXAXGXAXAXAXFXSXFXAXFXFXGXAXAXSXAXFXGXCXGXGXAXFXzXGXGXSXAXGXCXAXGXAXzXAXGXGXAXAXAXFXAXAXAXAXCXCXAXAXzXAXAXCXvXAXCXzXCXDXKX(.>.Y G ! Q ] ! Y R B R $.z z H S h h S S h u S 6 h h , z ..( [ x 0 j 7 7 0 2 2 7 h 6 4 l M > u 2 2 b : 0 t.r.r.B ; 5 t 7 7 @ 5 6 j 2 n L } R ! | t 2 - 7 0 2 > > > 4 > > > 2 7 y 4 2 0 7 O > y > 2 > 2 y > 5 7 > > > , O > 4 - y a @ - 4 > , @ @ > 2 , @ 2 @ > , @ @ - 2 > > O @ O @ > @ > @ @ o @ ",
"> @ > @ $ % @ $ @ , > , @ @ > % O > % > % @ @ > , > @ % @ > > % 2 % @ @ < 5 , > > > 7 > 2 2 4 @ w @ 2 i 2 2 2 t > > 7 4 2 2 2 4 2 7 7 8 2 2 0 x l - h h 2 7 2 h B 7 2 d 0 2 0 j 0 6 6 h q 7 6 z ^ 6 2 q x h x z e.f...6 4 h h 7 7 7 0 K 6 n 0 h x h c z x d 0 K z F z v h z B F A Y Y N W q. .D o.4.( 6.Q W 5.>XKXFXCXtXbXaXgXuXyXvXlXmX;X;XfXyXgX;XpXpXpXlXpXcXbXpXbXcXmXpXpXbXbXpXbXbXtXZXlXvXvXZXlXbXbXlXvXvXlXvXxXbXpXZXlXpXgXZXvXbXZXnXyXvXZXbXZXzXxXpXnXbXbXZXbXxXZXZXlXbXCXCXnXZXNXyXZXlXsXMXMXbXpXcXbXpXvXZXZXyXZXDXlXbXlXDXzXvXvXpXZXAXbXlXZXCXCXAXZXDXbXDXDXZXlXnXbXxXbXZXZXlXlXAXDXbXuXvXCXZXvXpXvXZXvXDXyXxXZXzXbXbXbXdXzXZXZXzXvXZXZXAXzXZXDXlXyXbXDXgXpXxXDXlXvXZXSXnXZXZXZXZXlXvXDXZXZXpXbXDXxXzXDXNXDXxXdXcXbXpXZXnXZXSXFXFXDXDX7.B Q @.*.Y G ..[ D D x S A z u h 7 B h x K h z x % x 6.W z 4 j h 2 6 0 c 7 > L A 4 2 7 > 7 0 6 b z ! r.;.z - 2 u x 6 0 7 7 2 t 6 2 2 N g h 2 > @ 4 t 6 i > > > 2 > 4 > > 2 t 2 2 7 8 @ @ 2 0 7 > 2 7 @ % 7 2 % , % > 2 > 2 7 7 @ 5 > @ , < > @ , < > 2 2 4 4 @ @ > 2 > , O O @ @ o > @ % @ @ O ",
"- O > % @ @ @ @ . o 3 $ O > % % % @ > @ > , @ % - @ < > @ @ @ > > > , % > y @ @ , 2 2 4 7 2 2 > @ > > y 7 > 2 7 7 i 4 > 6 6 j 7 j u 0 p 0 7 2 0 0 ; u h 7 7 7 6 0 6 t - 0 j 0 0 v 0 6 6 l h 0 0 l h u 2 q h 2 7 C <.h. .0 4 u 0 2 u u 7 6 u 0 0 u d u c 9 h x h h z A A h h S D J z N R Y C Y W +.q. .Q  .5.#XDXCXlXxXlXbX;XcXfXgXmXcXyX;XmXMXfXiX6X:X:XjXgX:X6XpXnXmX5X;XfXmX5X:XfXmXcXiXpXpX*X;XaXaXcXiXiX5XfXaXuXlXpXiXpXpXcXmXfXyXtXcXMXbXtXvXgXdXpXMXuXlXbXuX*XMXvXbXMXtXcXfXmXMXMXyXNXgXuXgXsX*XMXcXmX;XXXgXcXgXMXpXyXcXpXpX*XuXfXcXdXiXcXcXmXbXxXbXcXaX5XNXlXtXlXvXcXuXtXuXxXbXyXnXcXtXbXcXcXbXlXcXpXtXDXyXDXpXpXcXcXnXnXMXlXnXbXdXpXbXnXpXnXlXpXDXgXuXmXpXmXjXpXjXiXyXbXbXlXbXcXdX;XlXDXgXcXgX*XgXcXfXpXcXxXuXiXgX*XgXcXxXgXlXzXCXCXCXDXKXx.U ) o.[ ....N Y N G E z F E H A x S u 0 0 l V D E C A h u 0 2 7 M t t u 7 6 h m 6 2 u p 7 6 9 6.t.4.N 6 5 b t 2 0 6 0 2 t - 2 7 u u 9 2 > - 4 t 2 2 7 > 5 < 4 t i 2 7 2 > 2 2 - > 2 4 2 q 5 2 2 2 > @ 2 7 - - 4 > 2 - 2 2 > 2 4 > 2 2 4 5 > > > - - 7 4 > @ 4 2 < @ O O > > @ @ % @ % % , @ ",
"> @ @ @ % > 3 % O @ @ O @ > % > @ % 2 @ > - @ > 4 4 - > > % % > < 2 > > 2 > - 3 4 7 > > < 2 > % 1 < @ , , < 3 5 2 - 2 > i y > > w i 0 - 2 < 4 < y 4 % w l 7 > y , 3 y < 1 5 2 w r y 3 2 M 0 p 7 4 n v 2 i 3 % 2 2 Y r.r.R 2 8 d u z c 4 4 7 2 t 6 0 k 0 n V z 0 L x 0 z k u Z W B t v G &.x | ] ..] [ V ,.0XZXvXlXgXuXaXpXtXzXzXnXyXuX/.uXbX/.uXxXfXXX=XaX5X^.=XuX*XyX*X*XlXuX5X:X;XdX5X5XpXcX*XiXuX;XuXuX5X=X7XdXbXcXtXbXpXzXCXuX=X5XpXpXlXlXuXaXuXlXxX;X;XDXCXxXuXgXlXpXpX*XdXuXXXpXpXpXxXtXaXSX;X*XZXyXtXdX;XfXuXdXdXuX;XpXpXbX5XlXbXuXpXfXgX;XbXyXuXcXbXyXuXvXlX;XuXvXlXnXxX*X*XMXpXxXaXpXlXxXtX;XzXCXlXtXvX*XlXpXtXzXbXlX;XlXlXCXZXyXvXAXzXyXNXnXyX*XbXlXpXpX;XlXcX;XuXnXlXbXxXlXvX;XtXbXzX;XlXxXlXpX;XdX;XzXvXpX;XMX*XtXxXpXvXlXpXbXbXzXvXGXPXz.Z P E @. .E J E R ] F B D E E z h h h x h V w.~ 8 7 z x 7 > u S 2 > w 0 2 w B z , > # ; [ 4.r.a.N - - 0 7 2 @ y y 4 > j 5 , 2 7 5 & . & 7 > > 4 w 7 > 2 2 2 2 6 h 7 > % 4 7 y 4 d 6 7 @ % 2 > % % , 7 7 4 < < % , y @ O O @ 4 , O , @ O 2 > % > 7 4 > @ > 2 2 > O $ 3 2 2 > > @ @ % > @ O ",
"> O @ > @ . o > @ o O > 2 - @ % 2 % @ - - $ @ > 7 u 7 - > > @ @ ; 2 > > > % O O 4 7 0 6 4 4 4 6 h 7 7 0 2 7 > - 4 7 2 0 7 0 7 6 7 8 5 > 2 h 0 6 4 t 0 u u 6 0 h h x c u 6 d h 9 h 7 4 @ > 8 t 7 p u 2 & @ u B h > O b ,.r.) f 6 h m 7 u l t u B h 0 t 0 z G A z z t k x B E z J h B R Q ..A E O.X.&.! g.:XZXvXbX5XaXmX+X+X6XhX+X X.X X4X@XW.OX+X3X+X.X0X:XuX5X5X8X#XE.+XXX+XE.XXuX*X6X5X-XY.oX4X XoX@X4X+XXX3XoXqX5X=XaXhXT.=XsX8XoX+XoX`.Y.7XgXXXiX*X4X^.'. X6XiX5X@XoX XsX;X-XaX+X`.7XuX=XhXXXjX X6XsX^.9X+X-X X+X3X4XW.=X*XjX<X3X3X+X6XtXfX;X+X@XoX7X6XiX;X+X1X,XE.;XMX-XE.3XiX;X X+X@X#X-X+X-X X#X+X4X6X-X^.OX,X#X6X3X3X6X5X6X/.iX;XsXXX0X6X7X5XhXOX`.4X X4XhX0XXXXXhX,X X`.'.#X#X'.Y.aXdX*XY.3X4X^.XX*XfX*X].T.@X@XOX.X9X6XoX5XdX;XgXnXvXAXxXAXHX/.Y W =...A B ! S x Y ' Z B B A x l B E h b m n 0 h q z d h 4 , 2 x j 7 u l l 4 $ > C w.}.6.2 & @ 7 h 0 7 2 h x 4 2 5 > - 2 4 7 9 l 7 4 7 7 , < > 7 0 2 % O 4 ; 7 i @ 7 2 7 , @ i 5 7 u 7 > 2 6 0 0 q - 4 2 2 > 2 > @ > 2 > > 2 2 2 > @ 3 @ @ @ @ 2 2 4 > @ @ , @ @ @ @ @ > @ o , % O % @ ",
"@ - @ % o O O > , o o < - > , @ > @ @ < 2 @ @ @ 4 2 4 > > > 2 8 - > > - > > > < > 2 7 4 2 5 @ 4 2 @ > 8 < 4 , - O 5 8 2 8 8 > 4 @ 2 - > > 7 8 @ 2 7 > > 8 4 4 i 7 + > t 8 7 y 8 7 t q 6 u 0 i t 2 2 7 y 2 7 h h 0 2 ; Y f.f.4.z V 6 k A 9 j u j l 2 7 S d f L J f h j x B G x z E B B C &.Y D 9...~ X.NXDXvXcXpXuXXX5XfXXX`.3X+XXX+X X=X+XoX@XY.+XG.3X3XXXiXaXY.oX:X*X5X6X8XY.:XiX3X7XiX+X X X+XoXY.oX^.*XhXXXXXE.+X5XjXXXY.7X;X^.+X-XjX*X+X5XXX*XXX+XhXXXY.hXXXiX4X^. X6X*XXX=XsX:XY.*X5X#X^.6XY./.+X+X6XwX X*X XhXXX#X^.uXcX;XXXE.-XiX*X;X5X-XXXY. X9X^.*XaX*X@X4X*XfXuX+X XhX5X=XXXY.4X@XY.XX-X:X X=XuXhX^.-X6XG.0XY.-X+X+X=XXXsXsXXX4XY. X+X+X*XXX XE.6X+X+XuX8XXX^.6XsX^.4X6XfXE.XX+XsXiX6X@X XE.qX3X;X4X X6X X6XY.T.U.G.G.*XXXsX5X5XaX;XdXvXzXSXLXV.W +.@.' o...z S H B B A H h k u Z E x x 0 u h M 7 7 l c 7 6 u h c 2 2 i t 6 R  .+.f.c.] h 7 y 6 l 0 7 7 z l 2 2 i > 4 7 ; 7 u u 4 @ 7 l > - 4 7 h u 2 > 7 > 7 : i i > 2 6 7 2 @ 2 7 4 > > 4 7 4 4 4 > @ > > - 3 @ 2 4 8 > @ > 4 > > > > @ < @ > 4 2 2 > > @ > 7 O @ > @ @ @ O O @ O @ ",
"- O O % $ @ @ > % O @ @ o % > o > O O @ @ @ 2 2 % o $ @ 5 4 2 4 @ > 4 > > 2 > 2 > < @ @ < 4 > @ O % > > > - < y , s 2 4 > > 3 - 1 K u t u , 1 2 7 > 5 5 7 3 & a 1 1 < 2 4 4 5 , 5 7 j u 7 7 7 b 7 4 t 0 u 7 7 0 0 n 0 : ! i.5.,.D 3 h Z h h 6 0 7 u h B S h h x h z 0 0 h B z x R D D E R [ ! $.,.W G.DXAXvXuXpXuX3X7XaX*XoX`.`.kX-XD.+X5X=X^. X@XXX X3X8XY..XY.`.uXiX;X XXX*X6X=X^.6X-X^.+X X7X<XXXXX=XjXXX*XjX=X`.4X-X*XuXhX3X^.#X+X;XiX5X XD.0X9XD. X+X7X5X-X=XY.*X9X-X6X+X*XaX5X5XjX5X4XD.XX XjX5XXX4X@X5X5X*X^.+XkXY.5XaX^.pX@XXXuX;XXX4X^.aX;X3X-XXX*XaXmX3X*X;XmX*X=X3X4X5X X6XhX-X+X#XE.sXgX/.-X/.3X;XXX5X/.hX^.5X#X XY.;XsX X#X#X+X+XhXXX5X;X^.E.@X+X*X;XXX*XfX;X5X6X6XgXfX5X=X7X+X`.`.XX-X4X=XhX+XE. XXX=X+X+XoX XVX*XfX^.uX3XE.hXiX;XgXbXzXvXHXj.Q @.Y R 9.*...B G $.D Z S S S D Z E F z h x u 4 i i u 0 h 7 7 l 7 > i 6 ,.x.d.e.<.t.C u 0 i 4 > 6 l 0 2 > t 0 6 t 4 2 0 u i - 4 7 ; h w 4 u 4 > 2 u t 2 > 4 4 6 4 - 5 7 2 8 > < O 8 > < > @ @ 4 @ @ > > - 2 2 @ , > > > > > - > @ 4 7 y 4 t 0 t 4 7 2 2 < 7 > @ , > @ 4 > , - > @ o ",
"- O O $ $ @ @ , > @ @ % % > @ O % % % @ @ 4 2 @ @ > > O 2 4 > - > > > - > 2 > % - 2 - @ @ 2 - @ @ ; 2 < 7 > 2 > - - : 2 7 4 - - : t - 2 0 2 2 7 0 - 2 2 2 @ > > - ; 7 6 0 @ 2 7 2 u 2 - i l u 2 c t 4 0 2 - 4 M x u S h ; T ( 5.@.2 > i V k d l 2 M h 0 z 7 h x B H ^ h h S B Z z R $.E N W Q ! I x.MXSXvXvX;XmXuX3X3XXX5X#X+X+X^.>X XU.4X0X-XY.E.VXXX^.hX4XE.9X+XaX XXXY.Y.9X`.E..X-X0X^.XXY.6XE.@X#X/.sX^.4X*XmXoXE.;XXXuX5XXX-X^.XX^.fX=XoX`.E.#XG.-X@X X^.XX6XXXhXY.^.sXsX*XXX:XiX^.E.+X4X-X*X*X*XXXY.@XXX*X=X;XXX XhX5X-X4XuX-XXX5X+X+XE.+XgX-X5XXX+X-XXXfX3X^.jX5X*X7X+XT.hX X/.hX^.5X+XE.*X;XsX+X5XiX-XXX:XjXG.0X6X+XkX XhX XY.Y.XXY./.5X;X+XhX6X-X XE.mXuX5X^.5X5XY.XX X4XiX*XY.0XY.Y.E.'.hX+XG.4X#XY.qXhX6XXXoXE.+X+XXXuXXX5XXXqXXXXX5XdXbXpXlXHXkX:.#.A D C D D G F C Y x d z B Z z B Z z x h h 0 7 u 7 u u l 6 2 k 7 4 Q j.b.d.O.U f.W 7 2 4 7 q u 7 2 > 8 u - 8 y > t k 6 2 5 w 2 i y 2 @ 7 4 @ > 8 i > , > 7 2 2 7 2 4 i - w 2 w 2 3 2 2 @ 3 5 - 6 c , > > % % O > - - 5 > @ , @ 4 0 2 @ 7 0 > > > 4 > @ 4 @ > @ @ 2 > < @ @ @ @ O ",
"@ O $ > - O o O > > @ , @ % > @ @ O @ 7 2 4 > @ 2 i 6 2 i 4 2 2 2 7 7 2 0 h 0 7 u 7 2 0 k 6 0 h z z 7 6 d N G d B D B x d B d d z h 0 0 z E Q Z B F B T W Y R W Y E D I Y B B @.N z 7 - i 7 7 0 u 0 7 < 2 t 8 @ 0 0 6 0 u 7 F :.d.] u o 4 h 9 V u 0 6 v h k l h z h h x x x S x F Y D A ..! D C *.DXDXzXpXuXcXuX6X3X+XD.Y.oX4XoXA.K.W..XU.#XoX`.'.U.oX+XE.E.XXY.XX:XU.E.E.oX@X`.=XE. X:X*X8XE.=X*X4XXX X X6X+XXX*XD.U.XX=XsXuX4XoX1X;X/.-X X#X1X@X+XXXOX^.XXsX^.+XXX+XXX6X+XE.XX6XsXhXE.4XY.;XiXiX*X*XhX^.=XaX5XXX*XXXY.^.D.Y.=XXXY.-X X3X=XqX6X+X#XY.-X=X+XXXY.oXY.8X;XXX4X4XU.`.-X;X;X*X5X^.0XiX7X*X*XkX^.=XsXXXhX^.`.E.XXiXE.E.0XXXU.wX.X-X*XaX X+XkX#XE.6XhXXX-X+X4XsXXX+X`.^.E.>X0XoX^.jX#X`.;X XoX^.XX-X XXXoX XoXE..XY. X,XE. XhX*X^.4X5XdXdXtXlXlXDXG.( N ] E ^ G } Y z J R D S z d x L 0 u 0 u 0 h h u 7 q 7 t 7 0 l 2 2 :.c.0.) O.W c.O.2 5 7 0 0 k - , < 2 u 0 , % 2 l 7 2 4 8 i 0 2 @ 2 > 2 8 2 i 2 @ 2 2 2 0 : 2 7 2 @ > > 7 u i @ > y 7 > @ < 6 H E @ % + > r 4 < > 8 7 , @ , @ > - @ < > 2 % % > i 4 - @ @ , @ - - - @ o % > @ O ",
"@ O @ < > @ $ O @ , @ @ @ > > - > O @ 7 7 > O 2 7 w 0 u 7 2 7 t z h 0 0 d z x V V z x L F z B A C [ ^ J Y +.! C ) ( ..Q Y ! Q %. ./ ! } ! I ,.t.( +.6.:.<.i.>.5.1.O.:.t.u.r.r.d.e.,...F 0 2 7 M ; h 8 2 7 0 7 2 i l 0 u 7 > 2 ] f.>.7.h > 4 d B h c 0 l 0 0 h d B 0 S z N B A B A D Y Y ' G D B i.ZXlXpXtXxXcX5XY.+X`.@XqXE. X6XH.z.`. XD.^.3X XD.U.0X^.oX3X=X^.+XXX XE.G.#XY.<X4XqX+XY.0X5X-XsXkXY.+XwXXXXXXX1X7X;X0X0X^.=XhXY.`.'.U.hX6XY.D.Y.E.6X4X@XY.-XsX6X5X+XE.6X+X^. XqX5XY.E.`.#X-X6XXX:X5X;X:XXX*X6X=X6X;XiXBXE.-XjX:X=XuXaX+X*X4XXXoXD.kX^.kXhX^.XX4X4XY.4XiX6X+XY.^.0XXXoX6XsX5X3X^.6X+XXX6XXX^.+X6XE.4XXXoX-X;XmXXX'. X^.@X XoXXX5XhXXXXX^.XXsXsX^.^.;X@X+X/.hX,X X@X5X:XW.n.#X6X-XT.*X6X$XE.XX6XkX XE. X0X#XD.@XE.J.oX4X5X5XXX+X4X5XfXxXcXvXAXMX<.T G [ T z Y Y B A A E x x x x h 0 x k 0 u c x 7 u 6 h u h S u 7 q B 6.6.<.g.d.f.D 2 8 7 0 K 7 @ 3 < 2 0 0 > 7 0 2 > i 2 0 6 q 0 > u 7 > 2 h k > @ t 0 u 0 7 t 8 l @ < 4 0 u 0 7 2 2 2 > > 6 6 V 0 % > w > 2 > , 6 2 > - 5 % @ 4 - 2 2 - > > O 4 7 - 5 > @ 4 > , @ % > o O @ @ @ ",
"% % @ % @ @ > @ O O @ - @ - @ > - @ > - 2 > @ 8 7 @ 2 7 6 0 0 7 h 0 u 7 0 k f z z h v d z F E H z B x z Z G T A F C N [ } ! Y Y R / 2.+. .E I i.6.O.5.f.r.u.6.f.t.2.t.,.f.d.d.>.6.h.c.d.I : 1 e u i 7 u 7 6 0 k t 7 7 7 7 7 6 u h :.w.6.x > i S 0 u 7 h S l 0 7 V x D B A E D F h A Y ] { o.! W &XCXlXnXuXmX^.iX4X`.].W.`. X^.E.T.E.3XOX6X5X3XY.Y.#X+X4X X^.3XE.@X@X X1XY.*XhXoXY.+X4XJ.`.+XXXXXT.Y.,X@X4XG.XXE.+X5XXX1XD. XfXXX+XoXJ.#X:X-X4X-X0X XoXU.#XXXE.4X5X XXX6X*XXX-X0XE./.+XE.#XwXE.XX#X*X XY.4X@XE.=XsX=X5X-X^.VXiX+X XdXfXXX*XE.A..X0XsX*XY.Y.iX XXX8XkX-X/.0XE. X-X6XoXE.E.Y.sXsXE.5X0XXXiX=XkX=X4X6X^. X#X+XuXuX XU.^.*XE.D.wXXX3XY.oXY.-X/.XX-X5XiXiXXXXX=XhXY.W.@XfX;XD.A.Y.Y.XX+X6XXXE.#XXX X+X X;X6X^.E.W. XT.oXY.#XXXiXsXXX^.:X5XbXcXcXvXDXQ.I J ' R G F B A B N G 0 z B S u j z h t l t 7 0 l x v c 7 0 0 i l q B c.M.k.Z./ > i i 6 u j 4 2 5 4 u t 7 0 l 4 2 2 7 u 7 2 0 6 0 0 t > 2 u 6 > 2 2 4 t > - 7 5 - > 4 > > 2 - < @ 4 7 > 4 2 2 7 2 > 2 2 2 j - - 4 2 7 4 7 4 > > @ > 4 > @ O % > > O < , > 7 4 O > O O & , @ @ @ ",
"% @ @ @ % > @ > @ @ @ @ @ @ @ @ > < > > 2 8 > > 2 > O > - 2 2 2 2 2 - > 4 4 ; h v ; 2 6 h 9 d u 0 7 0 7 0 0 c h 6 v h d 0 0 h z d 2 d B N z 7 z z z C ..W Y B E z f d f C Y Q V F C :.c.d.Y ; @ j 4 > u u t l h 0 h 2 2 l h u 7 > 2.6.r.r.z 2 y 2 u u 7 h u 0 h 0 d H J A N A E B E G A o...C >.MXbXpXdXdXiXhX=XY.`.S.T.XX+X@X#XT.=X X XsX+X^.kX6XY.+X XoX+X6X4XU.Y.Y.T.oX+X:X@XY.XXE.OXU..X5X=XOX+XOXXXY.`.4X X^.XXY.#XW.hX^.6XhX`.4XY.^.-X`.sX X`.T.@X9X-X+X^.6X4X6XXX*XhXG.Y.0XjX=X3X^.U.XX-X.XXX@X X4X-X=X+X XY.:XqXE.*X;X+X.XdX+XXXwX#XE.@X+XXX3X4X.XjXuXU.Y.+X*X;X,X^.6X-X*X+XE.E.wXiXXX6XaXXX-XsX:XY.#X X4XhX6X XXX^.hXwX^.+X0X$XU.Y.E.E.#XiX5X=X3X4XXX4XXX;XgXfX5XXX@XG.+XaXiX#X!.9X^.XXXX0XE.Y. XXX+XE.E.=XsXXX`.U..XXX@XY.6X XE.6XiX+X].;XpXuXfXpXbXmX( D ! ] Y B Z R x h S | x A x h 0 x h 6 7 u 0 q 0 h 7 h 6 u u 2 2 2 d >.d.<.W l 4 7 7 4 4 2 6 4 > u t y 2 7 q > > > 4 4 > u b 4 6 7 > , 5 2 a 2 7 > % , < @ 3 - a 2 7 @ , 1 % > 3 2 w > < 7 5 4 7 < > 2 2 2 2 > O @ 7 4 > > > > > 5 7 @ % O , 4 > > % % > @ 2 > % o @ O @ > % @ ",
"@ @ @ @ % O % $ @ < , O @ @ @ , , 4 > > - 7 2 @ % @ @ > < > > 2 , < > , > 2 - - 2 > < 7 6 0 2 2 2 2 4 @ @ @ - 4 2 2 2 ; 2 O > 7 - % @ 0 0 2 - 2 > 7 2 2 ; 2 2 7 2 2 0 6 u > - ; > < 2 O.k.f.W : a k t 7 4 t 7 2 7 u 0 6 l 7 2 7 u 6 Y 5.s.t.h > i 7 0 A Z h 7 z x z z V h A F F Y &.A N F H B V.bXlXbX5X XaX3X`.@X9X`.E..XU.A..X#XD.T.oXY.U.T.oX`.^.#X`..X4XY.4XE.G.@XOXY.6XY.`.OXY.#X@XA.U.hX#X.X+X XoX1XE.XX=XE.#XjXY.'.W.^.6X.X-X4XJ.>XT.E. X4X`.U.wX@X^.+XXX3X5XhX+X X7X+XqX+X XXX@X#XXX4X-XT.=X-XU..XsXiX/.+XU.E.BX X^.XX`.3X.X#XE.;X6X.X X X X;X X<X`.G.-X@XY.*X X X XJ.@XkX'.J.qXXXXX-X=X*X#X;X*XXX5XE.Y.Y.oX+X=XjX@XJ.+XhXY.Y.Y.9XE.E.+XoX6XjX XoXD.E.4XY.E.6XiX+XY.Y.=XhXJ.+X0XY.E.@XY..XXXXXOXG.+X-XY..XY.0XJ.S.T.-X4X4XU.XXY.4XE.-X-XoX5XdXlXxXzXDXDXD.H F Z G x A S x B x F z E x B ^ p 7 c x h L V J 2 j 0 d 7 y 7 7 0 6 q d 6 7 q c h 6 4 > j u j 7 4 0 7 4 5 > 8 y 4 & & o 2 b > > 3 O @ y - @ < % < % > 5 @ > i 2 @ 2 4 > % % p 2 , % , @ 2 4 > 5 > @ 7 7 @ , , @ - 4 @ @ % > 4 @ 2 > 2 < % @ < > > > @ O 2 2 > , @ > @ o . O % ",
"> $ O O O O % @ - - @ @ @ O O , @ @ , > > % > > @ > @ @ @ - > > @ , @ - @ @ 4 7 4 - @ 7 - > @ > 2 4 4 5 > > $ > i 8 - 7 a @ > y e % < u t 2 8 8 2 8 > 8 8 , $ , 5 - 7 > 4 5 5 8 a 3 @ 0 :.k.r.~ 8 u 7 7 4 6 2 q 2 2 b 0 6 0 t M h 3 - Q c.r.! u 6 p 0 z f x k J x L d x V E A B W T B D H H C (.vXlXZXsXXX5X+XXXoXJ.`.#X.X'.V.`.@XF.S.U.OXJ..X`.T.`.`.[.S..X4X-X@X+XY.`.E.E.E.D.0X6X+X@X&XG.sXjX+X-X^.XXE.-X+X+X^.+X*X@XD.V.@X+XD.@XQ.OXY..XE.D.`. X6XG.#XT.oX4X*XXX X4X+XY.5X-X+X4XY.E.+X6XXXU.U.uX4XD.T. X*XfX4X7X^.XX4X7X#XY.3XA.@X+X-XY.@X#X@X X-X X+XE.@X^.:X3X#X6X-X4XE.E. X.XY.Y.jX6XXX6X@X;XXX8X+X6XqXY.-X`.E.-X+XE.Y.-XE.U.9X6XXX+X+X6XXX+X#X@X@X_.J. X#X4X XE.6X6XsXiX X9XE.Y.kX4XE.`.'.E.#XkXY.J.wX XT.oXoXJ.OX;XXX+X+XwX`.,XoXS.@XE.oXXXcXcXpXpXxXbXG.z Y R Y B D C B ^ H z x H x A h 2 6 x h 9 h x k 2 0 x x 2 4 q p j 6 a , @ q 0 6 K 0 j 6 2 h h 0 0 0 0 x 7 2 0 7 0 u 2 u 7 0 6 h d 7 6 ; 7 h 7 @ u 0 2 4 4 h 0 6 - 2 l 6 - 2 0 6 2 > - 6 2 - > y - - 7 u 2 @ 8 2 2 4 5 4 > 7 > % 2 2 7 q 2 @ @ < 2 @ @ > 4 - > $ - , % o   O O ",
"@ @ O O @ 2 - @ > @ > % > O O O > @ @ 5 > @ o > @ > , @ O 2 2 7 > @ 5 2 > , > 4 2 > 4 5 o , < < % > 7 7 2 < 2 2 4 7 > @ % 8 7 - - q j 2 > 2 7 7 i 4 4 p 8 > & 2 l 7 6 7 - 2 i q k i i @ 0 5.s.d.N e > 4 u 7 6 t i 7 p 7 l 0 6 0 7 3 2 z [ W :.+.N 2 i 6 f z J h N z z z Z x B B / ! B [ &.! ] >XAXpXZX;X3X5X-X,XoX`.A.T.E.1X@X@XY.P.m.S..XE.4X.XoX-XY.$Xm.A.D.E.+X4XE.Y.eXL.E.OX6X XoX1XD.oXXXT.+X*X-X4XY.6X+X X0XE.#XwXD.>X6X<X+XE.D.9X@X,X#X@X`.qX6XY.+X XY. XpX^.^.oX+XY.+X#X+X-XkXE.E.E.#XT.Q.5XsX XoX`.^.9X XjX5X-X3XJ.oX+X4X@XXXoXoX`. XE.`.T.G.#X+X2X.X^.fXhXW. X=X X+X#XS.+X+XXXsX;XXXXX-XdX6X8X4XT.6X5XhXXXY.+X=XXX-X.XU.4X6XoXXXXX*XhXsX XD.XXoXoX@X^.oXXX6XoXY.6XiXhX^.*X0XT.#XwXXXoX$X@XXXoXoXT.D.4X^. X,X0XhX;X6XXXT.L.G. X XD.wX X+X*XaXcXcXdXpXZX^.x ' [ ..T A G D B N B B B h x K n A h l 7 7 h 2 u h 7 0 0 4 u l j 0 7 y , y < 2 7 7 n u h x d C x N ! Y B Y ~ z Y Q &.C E B A ..W 2.%.$.Y ! R R ~ &.d B o.I N ! D } Z N D C C C B A N D A z h 7 h c z 0 0 z l 6 j 2 8 0 h u @ , 2 4 - @ > 4 @ > 2 8 , - > > > @ @ > % @ > - @ ",
"@ @ @ o @ > > > @ % $ @ O - < o @ O > > @ % O @ , < @ O @ > 7 2 2 - > 7 2 @ @ > 4 4 4 % > > > > O 2 4 2 7 2 > 7 2 2 - @ > 7 0 2 6 0 0 2 4 i 7 6 0 - 2 t 7 7 4 - 2 h u t 7 6 6 z u 0 d 2 3 2 >.d.k.h ; 7 h j 0 0 0 7 2 2 0 h u 0 i 7 t 7 ; Z t.d.1.Z 6 i c z V N R x z H [ D D R Y B z ..W Y >.iXAXxXbXcX=X8X`.,XY..XD.A.T.L.A.wXT.x.m.'.T.oXXX.XY.4XY.J.D.'.E.wX XE.T.[.oXA.E.-XXXXX9XY.A.-XkXS.OX#XXX4X#X.X^.+X^.Y.OXQ.Y.4XG.T..XK.'. X XY.^.-XU.Y.XXXX@X XE.^.6X+X9X`.-X4X^.U.#XA.#XqXD.D..X=XE.4XaX6X6X-XE.D.sX6X^.#XoXY.6X-XY.6X-X#XT.J.+X0XY.E.>XoX XE.A.4XdXY..XoX XwX^.T.OX X5XhX^.4XXXXX5XuXY.G.U.U.-X8X*XXX0X XhX6X6XE.OXXX+XY. XXXaX:X+XY.@X^.^. XY.#X X-XXX+X4X X;X=XXX X X`.H.E.J.J.Y.9XE.D.oXJ.D.+X=XD. XXX^.+XE.D._.$X7X X#X@XE.6X3XuX5XXX;XmXpXDX*XF D o.Q D G A A S z ^ B S h 0 q x h z c w 2 k h 6 u t 0 h t 7 c 0 v u : 6 k t 4 2 7 j 0 7 0 x T ! ..Q ..' C W ! Q ) 2.W R h z ! ) ) W W  .+.D D  .Q Y E 2. .C Q ! Y N A R C Y ! B D E ! E C Z z d z c d F Z 0 ; 6 7 2 6 d u - 4 > @ < @ @ 4 @ > > > > @ @ > > O @ @ O % > @ @ ",
"@ @ % @ @ @ % % o O % @ @ , < > @ % > % 2 4 , @ @ @ @ > 2 @ > > 2 > 2 > > @ 4 5 > 2 7 - > > 2 7 7 2 > 4 6 7 > > 4 4 5 4 4 2 t 7 i @ @ > 2 w - 2 7 0 2 u 0 7 j 7 2 h 0 0 2 7 l 0 6 7 6 q 7 , 2 ( ~.V.@., o t u 7 u 6 8 2 7 0 h q 0 7 l 0 q 4 Y 6.r.s.W 7 7 2 h S B z z S D Q .. .Q E ' 4.! Y  .KXAXlXpXcX5XuXoX).U.`.9XU.U.T.U.0X.XU.2X<X XoX@XJ.Y.A.kXwXA.4X-X#XT.E.E.4X=X+X8X+XA.T.0XY.+XqX.XY.A.oX#XS.Y. X^.jX X!.U.E.;XJ.S.D.D.A.'.+X XU.'.E.E.#XY.oX4X9X-XE.D.6XaXY.W.+X6XY.oXY.D.`.E..X-X6X+XoXG.XX4X+XY.#X6XJ.'. X4X6X;X XD.4X*X=X+XJ.W.wX-X^.@X9XU.^.-X-X.XE.hX+XE.Y.XX5XT.Y.6X+XD.8X4X+X5XY.Y. XOX#XoXJ.E.5XsXXXoXU.4XY.[.XXY.@X@X;X*X^.E.T..XkX+X-XXX`.J.D..XoXoXXXXXsX=X3X=XE.D.K.'.`.oXkXY. X-X`.E.E.4XU.E.D.D.`.oXOXOXU.'.`.Y.7XXX-X=XpXcX5X;XdXxXDX;XN Y ! C ] ..B S B A z h h F x 9 k 6 h 0 u h 0 J h 6 t 7 u 6 k 0 q 0 0 h u u 0 b c 7 2 7 l u u N A h N ^ 0 u B A h 6 0 u 6 d u 0 0 z h d 7 x k 0 E B d 6 d Z S x S 6 2 7 2 0 z 0 2 2 q 6 6 6 c 0 2 7 2 2 0 7 - @ 2 7 2 4 - 2 2 @ 4 > @ % @ O > > O @ @ > , @ @ @ O O @ % @ @ % ",
"@ @ @ > % @ @ @ $ @ % @ > @ @ 2 > @ @ > @ > > % @ > 2 2 4 % % @ - > 4 - - 7 4 2 @ 4 < 2 2 2 y 8 2 < - > < 4 < O 2 > 4 2 > 4 t 7 w & @ 4 i > 2 5 > 7 2 7 4 7 w 7 @ 0 l 2 7 7 7 7 t > 4 j 0 r > 0 f.].x.V i y 7 5 6 6 c u 2 M 0 d z j h f d j 2 N >.a.6.N 0 a 7 h B F F z A W #.W  .! ~ Y [ Y ( MXvXuXpX;X5XjX9XL.`.%XE.D.].'.E.U.,X^.`. XE. X-XOX@XU./.#X+X7X4XY.D.E.4X X+X;XXX6X.XJ.T.=XhXE.z.=XY.D.E.J.-X7X8X=XoXT.A.#X6XS.&XVX2XT.D.OXoX].T.0X@X4X@XJ. X-XY.qX9X X*XE.OXY.-X4X.X%X XE.U.E.+X;X5X@X.X9XU.oX+X-X+XQ.1XE.:X5X3X4X-X3XXX#X9X.XU.S.-X+XY.`.`.7XjX#XL.6X XQ.6X^.kX5X*X^.9X>X`.uX;X8X4XoX2X6X^.+XhXR.`.6XfXXX,X'.U.XX#X0XXXD.qX3X XwX+XkX^.+X4X6X6X@X).E.9X3XXX4XiX-X`.@XY.>X9XU.E.$X'.0X*X9XoX3X-X-X@X0X%X9X4X`.T.U.D.K.n.H.`.E.4XoX^.uXaX;XcXpXdXDX5XB E | N ..Q A h N } 0 u S D S V b 6 S h x f z S c 0 u 7 7 7 l q i 2 7 b i 2 t 0 6 0 0 7 7 2 2 2 0 q 2 2 - 4 b 2 2 O & o @ 8 y > @ @ y i > > 2 > i 6 7 8 2 2 2 > > @ > , > , 2 @ & , & O , 2 @ 5 , % @ - @ @ $ 1 > - > > & % < O 7 7 > % @ % > 2 O @ > 2 - @ O @ O O @ O o O O ",
"@ o % % % % @ > O O @ , @ @ @ 2 4 @ O @ @ @ > 5 > % @ > , > , O % @ > > 4 , O 2 , @ @ 2 y 2 > > 2 > 4 i > , 5 > - 2 0 0 4 @ , 7 t 1 % 5 > < > 4 , - < , i i - > 2 i 7 2 7 b 2 7 i 5 8 u 2 4 i ; d d.d.k.! 2 5 5 6 7 7 7 @ 4 7 7 0 j d h x h 0 2 0  .6.( C h x L z B N z H B ! ] Q U Q D [ ~ ( mXCXdXaXvXaX=X4X[.U.T.S.E.,XT.S.K.T.S.Y.,X+X4XOXU..X4XG.U.E.T.#X#XW..X+XG.E.-XE.4X.XU.J.OX XXXE.hX-XY.@XE.@XT.+X=X+X@XT.J.#XoXW.OXY..XJ.Y.Y.,XY.oX-XY.@XE.-X X XhX6XY.XX`.9X.XY.*X6X^. XwX`.D.0X^.Y.`.9X.X XqXXX9XOXwX X4X=XXX X-X7XOXoXY.E.E.%XA. X6X+X#XU.XXkX9XT.D. X+X+XwXXXT.iXhXG.0X#XsX6XE.0X-XD. X6XY.XXoXoXfXkXY.oX'.T.4XE.E.9X6X+XG.#X+X4X4XXXU.:XhXY.XXwX#XXX8XXXXX^. X`.U.A.T.Y.@XU.m.A.XXW.E.Y.+X%XJ.A.2X X5XkXoXE..XT.1XE.].E.Y.qX3XsXE.G.dXdXcXlXnXhXC [ Q D Y N ' H z S S x L z 6 z H x u u V h 4 7 2 6 0 6 0 u 7 0 7 u 8 0 7 7 7 7 0 2 7 - 2 i 7 2 2 6 7 4 7 p 3 2 t 8 < < 2 4 > e 4 @ @ , y 2 > 4 M 4 < 2 8 2 @ a 3 > 8 > % a 2 3 > , O @ 5 > > 3 y > < - 3 , > > - @ < > , , o % - > 4 , > @ > < , % > - o $ % @ , > @ & O @ % ",
"@ O @ % @ @ @ 4 @ > > @ o @ @ @ ; % , % @ O O > > 5 @ @ > @ > @ @ 5 > > 4 @ % > 2 3 @ 2 2 7 2 % > 7 0 0 7 > ; 2 8 0 z d 2 1 > 2 d - 7 , @ 8 j 2 6 4 5 2 2 2 7 i 7 6 0 7 6 0 z 0 u u 0 > 2 u d 2 , 6 h.P.c.l & & > p 0 0 8 @ , y 4 0 u u 0 0 K 7 2 d I r.t.~ f h h S V N x x D Y ..E A ' F Y @.jXzXuXpXvXcXY.oX].OXm.J.9X+X`.'.L.1XJ.U.4XE.E. XT.D.+XkXD.F.Q.D.'.E.W.Y.1X`.T.OX-XY.E.'.S.T.#X^.0X X XhXXX XT.K.`.+XXXOXU.U.qX@XJ.+X.X`.2XY.oX#X X+XY.@XqXoX+XhXXXXXE.`.E.E.,XU.4X:X6XG. X@XD.@X+XOX`.D.oXoXU.U..XT.-XXXdX6XY.kX=XY.D..XXXsX4X6XoXoX XfX6XD.#X6X`.D.XXqX+XXX XE.oX;X X XY.D.jX*XXX6X-X+XXXhX=X#X4X-X;X*X^.,X X^.@X@XY.6X+X4X@XhX X:X^.@X4X#X^.A.E.^.Y. X^.6X5X0X X.X%XK.k.E.hXE.J.F.F.J. X4XD.S.W.I.J.*X5XXXU.@XkX+XU.T.W.E.+X6X3X6X.X6XfXlXpXcXZX:XW Q ,.Q } B B D h z G D x i 0 j W z 7 0 c h < < 6 b b 7 h u > - u 0 0 u k l 2 t 8 % M 2 0 t 6 4 7 2 u 7 u 4 > 6 h d 0 h t 2 2 q 0 0 - 2 9 h t 2 u 6 2 0 6 7 4 2 > > - 4 > - 7 0 7 2 7 2 7 > 4 7 h 0 7 > @ - 2 2 > @ @ 2 7 7 @ @ 7 5 %   < 7 - > > - 2 2 > % , > > - @ > > @ O ",
"% > > @ , > @ % - > @ . O @ > @ O 4 > 5 - 2 4 o o 4 0 > O $ o & & @ @ O % - y , , < , O 1 > 7 < O > - 3 @ O O . 1 e o @ , , > y 4 @ , 4 2 7 7 , > u 6 4 3 O > 7 < 0 7 - 2 0 7 2 > > > 2 h u 6 2 7 e V B.N.c.H = , 0 u u 4 > d h 2 x 7 h c z h q 0 u 0 N '  .W B x x ! R F h x B ....! W %.Y 8.BXvXlXlXaXuX5X+XJ.E.#XJ.T.m.U.J.S.b.+X`.Q.!.E..XU.E.`.@X`.oX4XY.Q.A.+X9X_.W.@X^.E.+XT..XXXE.@XE.3XdX XU..XF.S.wX`.4XjXE.J.Q.@XXXU.+X`.W.eXU.A.`.W.1X8X^.+X`.S.XX5XsX9XK.U.4XhXsX+XE.E.6XXX+X.XG.sX4X.XJ.4X-XE.OXE. XoX X@XY.^.hXT.T.OX+X+X7X`.L.<XoXU.-XhX/.5X=X X4X9XT.#X=XfX XP.oX X5X0X^. X;X=XaX).-X5X*X8XXX*X5X=X0XY.+X3X-X'.`.*XhXT.`.oXjX^.@X1XOXqX5X,X$XR.$XD.[.^.1XD.+X3XXXfXhX[.$X,XY.U.oX$XE.hX+X7XoXOX1X+X@XJ.S. X X9XoXY.Y..XXX+X7XXXsXXX;X*XgXmXpXZXMXQ E [ R ~ ! } ! B S x 0 A G h x u h c u i > 7 M l u z x 8 y l 8 v 2 4 j > 5 4 3 2 u h 2 , @ 2 i 7 i 2 ; t y > < 1 > - 7 7 < 2 x j > @ 2 2 b   $ , 2 6 l @ @ i 4 7 4 5 e , u h 0 i > > > - > > & t 2 2 @ % @ > 4 > 2 2 - > , 2 2 2 > 6 7 7 4 , @ % O > % @ @ - o @ % @ > @ > @ ",
"% @ > @ % % O @ > @ O o @ > @ > @ > % O @ 8 7 > > 2 2 2 - - @ > > 2 2 @ 2 2 2 2 ; q 2 4 ; 2 u 7 6 0 7 > 2 0 7 - 7 0 0 6 2 7 6 h d - 2 , 4 7 2 2 5 y 7 2 7 7 4 2 8 h 2 7 4 2 > 0 7 u 7 0 l h 7 7 > 3 6 E M.I.w.h 7 0 q a 7 2 j q 3 B V u 0 0 c q 7 B v 0 x R 9.' h A E B G B H A D W ] ] +.Y >.MXxXpXcXuX5X4XT.OX%XJ.].`.S.$X1XJ.W.,XS.n.J.oXJ.T.@XXXD.+XhX4X.XwXS.XX+Xz.D.4XY. X#X X^.kX3XoXqXXXaX@X4XE.E.R.9X#XY.*X-XJ.'.E.+XE.Y.4XY.G.E.T.U.T.G.qX-XY.OXE.0XXX*X+XU.wX#XXX-XY.E.XX6XE.XX0X X XY.J.oXY.^.`. XXX6X^.Y.9XE.4X#X+X4X9XA. X4XE. X+XD. X@X-X4X7X+X-X*XD.D.wXXX*XwXU.Y. X#X0X#XY.hX5XE.@X XhXhX-X=XjX*X^.4X X-X@XU.T.@X-XY.T.#X;X:X4XXXU.XXaX*X^..XK.A.U.`.S.J.oX,XoX-XhXE.D.U.E.4X9XJ.A.4X4XY.D.hX`.U.9XXXE.0X0XE.`.'. X1X4X^.6X7X3X3X X6X5XdXpXpXvXMXQ ! [ R ! D T E D z z K B z L z h x Z h d 0 h h 7 0 B B 7 ; h u x 0 h u ; 6 u 0 x v 6 7 q - 6 k ; 7 0 6 6 6 7 2 8 8 7 t 2 2 p y 2 2 7 u 7 8 @ > > t 0 w 2 > 7 2 - 7 > @ , > 0 u - 4 2 2 4 2 % , - 2 3 > , 2 8 > > 2 @ , 1 > > > > 2 8 2 > @ % @ % > @ @ 5 @ > @ O @ @ % > @ @ ",
"% % O $ @ @ @ O O o @ > % % @ > > > - $ , @ 2 6 7 @ > < - 2 t q 0 0 9 h B h 0 A C D f B N z f z C V h z Z ! W Y Z D Y D B B N Q ) x 6 > 2 7 2 7 4 3 2 2 h 7 i 7 - q 7 8 , 2 7 j 0 h 0 0 t t 7 4 w 0 8 - @.!.m.a.O.u 2 7 t c u 2 y S 6 2 0 7 z h c N z i 2 x [ C h x h N G A E D $.W Q W +.W @.MXxXpXaXuXXXT.T.'.H.S.E.OXE.S.U.]..XF.I.m.J.1XE.J.E.wXY.+X4X XJ.J.H.E.XX+XkXE.Y.%X.X-X+XY.oX+X^.+X4XD.4X9X`.S.`.7XXXG.-X#X'.Q..X`.Q.oX+X^.9XU.m.E.-XE.`.T.E.+XhXXXY.E.XX+XU.Y.oX6X5X=X6X4X+X3X4XU.W.oXqXU.D.oXoXE.-X=XE.0X-XE.Y.kXE.Y.Q.F.}.XX7XiXXXqXY.T.]. XXX4XkX@X^.7X1XU.Y.+XuX4XoXD.-X^.=X+XY.XX6XoX+XkX6X;X^.Y. X7XXXE.D..X#XE.D.wX3X*XXX4X X3XiXMX*XE.9X,X9X X.X,X X`. XJ.`.E.`.T.oX@XoXW.n.J.5X X0X`.oX=X X X@X8X8XY.E.L.D.'.L.5XaX5X3X+X3X^.jXaXuXfXpXbXZX .! ..D Y R A A ^ D B x S x z z k h 0 z B N z 0 6 k K 9 u 0 0 z 0 0 k u 2 h 0 7 k 2 u 7 7 0 0 2 7 2 2 v 0 0 7 u u 0 2 j 7 u < > < 2 0 q > 2 0 q 2 7 5 @ 6 u - 4 4 > 7 > 8 > - q 0 7 2 > > < > > O % $ @ > 2 > 2 - > < O 2 - + O @ < - - 2 2 > 5 > > % > > , o & O @ @ O , O O ",
"@ @ @ @ @ % > O @ @ @ > > % @ $ > < > @ % @ > 2 4 @ % 3 - 7 0 0 h j h x V z v z N D D C } W D C W h z C Y Y ! Y C [ ! C D D } Q ) ! R N 2 > , b 0 - > i u 7 7 2 y 7 i 6 8 2 6 6 7 j 0 7 > 7 7 7 u h M @ N ~.x.5.t.9.B 2 y b 2 t > 9 q 0 u 2 l 0 h x z u 0 0 m B F T h A R D o.C Y [ =.o.2.Z @.BXxXxXpXuX=X+X'.`.S.1X@XY.E.&XA.@XJ.l.T.'.S.K.U.@XE.^.oX6X#X@X).OXW.'.,X3X=X`.1X X).`..XXXqXE.`.#XD.K.E.+X+XY.OX3X+XqX+XY..XD.J.W.n.E.@XW.J..X`.E.`.@XT.T.OX-XXX+X9X4XsX+X-X9X X`.-X^.XX#X X+X4XH.U.#X9X2XD.+XoXoX^.0X-X+XE.+X X XoX#X9XU.D.4X;X6X*XXX+XU.`.Y.E.XX^.5X=XE.E.#X@X+XaX3XT.T.qX8XXXXXOXXX;X`.^.+X^.E.`.@X+X4X+XE.@XXX#X4XU.^.^.6X7X4XXX6X=X*X0X XE.XXoXY.U..XoXD.eXkXoX1X.XE.2XD.J..XU.qX,XU.oX`.+X8X7XoXoXoX4X'.T.T.T..XU.-XiX=X X XoX+X^.;X;XcXdXbXnX~ ! [ ' o.W Z F V B D F h A h H n 7 6 c c 0 u n 0 7 t - 7 y 7 0 7 0 K 4 2 t 4 t 2 5 y b 4 j y 4 , > 6 7 7 4 7 2 > t > > j 6 - 2 & 2 M 0 2 7 q 7 t @ @ 4 4 7 2 2 2 4 y > - 8 , > b 2 < - > > 2 2 # % @ 2 7 - - h S 6 - > 2 7 2 , - 2 7 2 > > % > > @ > < @ O @ @ % @ @ @ O @ @ ",
"O O @ @ , > o - > % @ O O @ % @ 4 @ > - > o $ - , % > O 4 > 7 2 2 2 2 4 t 7 2 6 7 h h 0 0 h S h 0 v x C N - 0 z z v h z A h 0 h D ! O.9.N @ , 7 7 u 7 4 2 - 2 4 2 4 4 0 u 7 7 > 2 2 l 7 2 q u 6 u 6 2 2 Q M.( u K rXr.0 , 7 0 7 2 h l u 2 0 u t 2 2 c z 0 n z z x F z E D R B D ..Y G ]  .U  .>XlXgXpXfX+X X-XoX XE.E.T.`.OX@X+X[.U.qXwXl.K.OX8X-XU.J.U.+XhXE.OX@XK.A.E.^.T.J.E.J.A..XXX+X`..XU.J.!.D.U.qX+XY.`.`.+XE.Y.E.+XY.`.OXL.Q.Q.`.9X9X#XE.'.U.OX;X^.+XXXhXXXU.+X3X@XU.E.U.oX`.Y.#XoX XE.`.`.T.`.oXS.9X X XT.+XsX^.7XE.E.=XG.1X X4XhX^.#XiXXX-X+X<X0X9X#XT.+X4XXX6X3X0X+XXX=X+XE.4XjXsX5XqXhX^.Y.mXsX4XT.T.oX4XE.T.-XqXE.`.+X`.^.,XqXY. X X X3X+XU.E.XX@XE.&XS.U.E.J.1X4XXX0Xz.S.).Q.E. X9X).T.OX$XoX4X+X3XT.+X XU.J.].eX@X4X.XD. X X4XY.`.<X8X;XtXfXpXyXgXZ C } ( W D Z H F B A z h x 7 B u u 0 t 6 2 t i 7 > 4 2 4 7 7 2 5 t 0 > w 2 5 y 8 > @ 4 8 8 7 y % 4 2 4 , @ 4 6 2 > 8 7 7 0 0 B - 2 > 4 i 2 2 > , 7 7 6 - 5 , 6 > 4 @ > > 2 < - 7 < @ - i 2 @ 4 % > 6 z h 0 2 6 Q Q 9 8 - t 7 z < > > > @ @ , @ > > 3 - > , , O @ @ O O @ > % ",
"@ @ @ @ @ > > > > @ @ @ @ @ @ - > @ 2 , , @ o % @ , > > 7 @ 4 > < > - @ o > 4 7 > 4 7 4 @ 4 7 q 2 7 7 h u < < i 0 - + 7 h 7 0 0 v 0 N ,.W S 7 7 2 0 2 - 8 > y 2 4 4 - 0 7 2 2 a i 7 7 u 2 - 0 0 l 6 w ,  .rXO.: Z ~.d.2 s 4 z h 4 6 7 0 7 k 2 7 l u u B c x h h z B D Y R D N D ..R ] [ ..~ O.NXxXpXfXcX=X+X X6X@XE.$X'.A.S.E.T.`. XE.+Xn.T.E. X+XXX%XE. XVXY.A.oX'.L.1XE.wXU. X XJ. XXXT.J.T.`.F.Y.@XJ.J.eX*X`.hXD.4XhX^.-XwXE.,XL.A.S.OXU.D.U.J.OX+XXX=XhX+X+X-XE.`.aX3X XOXqX[.4X X6XXXU.OX4XU.E.@XU.Y.J.U.oX0XD.Y. XhX+X@XXXaXW.T.+X5XoXY.4X;X4X`.+X+X+XY.oX9X+XqX6XXXXX^.^.oX4X6XoXD.Y./.=XE.;XXX X3XXX`.T.`.^..XE.Y.@X XT.J. X0X8X+XE.oXE.qX3X+X4XoXE.qX1X`.E.E.4XoXXX8XoX+X#XE.W.S.T.`.+XoXU.U.`.T.`.D.U.+XT.kX3XS.`.).D.U.@XU.J.E.U..XoX).oX*XuXcX5XuXbXMXC D ~ [ ! D I N E D T B x E h z B h h h V z 0 h z 0 z N f z x h 0 9 N h 6 d f 6 z 0 d z Z h 9 h 6 B z S 7 2 0 B 6 u V x 0 J ! C Z H 0 > > 4 > 5 > 2 l 0 @ @ > 2 - 8 - > 7 - 0 0 6 4 - > 4 > - 3 2 u N T z z S v  .:.A 8 7 2 0 u 4 > 2 , > > 2 @ , > , @ > - @ @ O > @ O % > % ",
"@ @ > % O - > @ @ @ @ @ % @ & @ O > % o @ 2 2 @ > > > > 4 7 2 @ 2 % < 1 @ % > 2 4 % % < @ 2 4 > 6 > - 7 2 % - > 5 4 - > > 4 4 6 6 > 0 B W +.Y 6 , > 0 u t 4 2 7 t 7 > 2 7 8 7 4 i i 7 u i < - x z 2 e 3 D A.l.r.5.&X>.- M - 6 h 2 0 u 7 2 7 j 0 k x c h k 0 0 S v x D Y o.} H R R ..o.*. .C f.BXvX5XuXaX5XhXJ. XE.l.J.,XJ.K.A.oX0X[.m.J.`.oXOXE.+X#X X5XqX-XU.Y.+XS.%X#XE.Y.U.+X@X9X^.kXwXD.H.2X'.Y.wXJ.l.D..XU.#XE.+XqXXXY.@X XY.<XOX`.9X^. X`.Y.oXoX3X3X-XXXoX4X-X6XuX0XL.U.9X-X`. XqXE. X6XqX.XU.4X-XD.kXoX'.@X`. X+X#XD.@X-X`.R.9XhXY..XoX XY.Y. XqXE.E..XE.`.#X4X`.E.E.`.=X X#XXXY. X^.6XoXU.+X5X7X+XXX+X3X6X4XY.kXT.T.OX].`..XE.4XXXY.9X X X4XY.D.-X@X@X@XK.+X-XoX6XoXwXE.`.@XOXOX$XT.U.oXU..X`. XqX`.T. XOXoXXX#XoX<XL.J.oXU.J.[.D.[.9X XW.[.6XfXuX;XxXlXyXW =.9.W Y ! T F N B C ! B A E ^ )  . .@.6.2.W .. . . .1.W +.Q ..O.:.0.4.Q ( ,.+.#. .) 2.@. .Q ( Y +.2.Y Y Y f } Y Y ..~ ! Y C W %.#.] h ; 2 : 4 7 6 2 4 > 4 7 i - 8 2 2 2 7 j 7 0 0 7 > > 2 > > 0 h v V D z z v C Y 7 > t 7 2 @ 2 4 > > > @ > > @ 3 @ O @ > @ 2 o O , @ @ @ O ",
"- o O @ > % % O % @ @ > @ o O , @ @ % @ @ > 2 > , > 2 - 2 7 4 @ > > > + @ , 2 2 7 > @ @ 2 y > 2 6 2 > 2 > 4 7 - > 7 0 t 2 > 4 j 6 > @ 2 Z 7.,.Y 2 2 4 7 2 2 > 7 7 2 7 4 t 7 u 2 7 6 6 2 7 j t 0 > r , , ; >.rX~.~.h.N 2 7 u 0 0 i v 6 2 q j 0 7 l h d 7 v l c x u Z D D D N B D Y B X.] ..) <.kXxXuXdXcX=X*XT.E.J.H.L.W.U.U.$XOXE.J._.OXoXU.U.^.T.+X+XY.+XE.4X+X4XU.Y.U.@X@XY.+XE.3X`.D.n.'.'.T.S.A.`.`.T.m.4X+X X0XG.XX6XJ.W.@XoXE. XoX X=X6X.X@X4XT.9XY.D.Y.#X^.7XY.^.^.E.`.E.oXXX,XT. X9X XY.Y.5X8X.X9X*X;XY.J.XX3XE.U.`.T.0X4XOXT.`.U.I.#XkX.XoXXX.XwX4X+X+XoXE.E.[.E.oXwX4XXX4X4X6XhX6XjXXXoX*X7XY.+X8XXXhXXX+X#X+XA.A.Y.#X5XA.OX3X+XqXY..X+X;X6X3XhX^.E.U.Q.sX3XE.0XY.A.%XJ.E.+X@XA.S.L.T.$X4X7X X7XY..X#X XY.oX XOX`.R.'.>XOXoXOXE.). XOX/.U.6X5XmXcXxXbXgX) Y %.R ] #.C E } Y ! x x D R D ! @.+.#.W +.R C ....( +.#.+.Y ! 4.+.B +._ ~ %.Q R Y [ W W Y [ D ..Y ~ Y R [ A Z C N C T F z 0 x d Y ( ( z 2 > 2 k 0 7 > 4 0 2 7 @ @ 7 7 2 7 c u c 0 u 7 4 4 2 a B 7 ; 9 [ z 7 2 6 7 8 @ 4 i 7 & 2 > @ > 4 7 > > - , , @ % > > 2 O $ @   $ @ @ ",
"O O O @ < % % % @ > @ @ < , > > - 7 2 > % , @ > % > @ @ > > @ @ - 7 < > > 4 8 - - @ > < - 2 > 2 > 4 7 2 > 4 2 > > - 2 2 2 , > > 0 $ $ - 6 Z W +.N 2 > 4 2 > 2 6 O 0 u - 2 7 0 j h 2 i > > 6 u 2 , u 0 h 0 - f +.4.0 7 7 u 2 t l t 2 7 z u u 0 h u 4 c E B 7 i c S S B F B B &.! Q !  .4.[ ! >.iXpXuX;XcX=XXX1XU.@X#XU.'.J.'.T.H.].Q.J.oX@XW.J.qX9XS.U.T.`.1XY.S.U.E.@XU.J. XoX8X+XT. X'.K.K.%XD.J.A.T.2X`.OX X5XE.4X9XU.+X@X#X-X4XG.J.T.G.-XXX[.,X<X X@XoXE.`.U.`.#XE.T.=XjX^.E.U..XE.`.`.+XY.<XE.4X/.U.,X X+X X`.'.E.Y.hX,XE.4X[.E.+X-X+X7XXXXX X5XfX^.#X+X X-X.XXX+X.X4X6X^.=XiX+XU. XoXU.+X-X3X=X+X4XXXoX9X`..XoXU.J.OX#X#X3XsX`.^. X3X XU.@X^.Y.hX+XE. X-XT.).aX+X.XXX X XE.'.T.[.D.Q.U.D.J.E. XoX[.XXE.`.XXkX=X+XE.U.T.J.K.&X6XOXA.Q.'.U.J.].D.+XXXgXvXpXCXbXI T W Y R R $.B B Z A x h J H %.D N D N h B A 0 z d z 0 0 S u 6 h 0 h J h 0 0 6 0 2 ; 0 6 6 2 4 - 2 - 6 7 2 2 6 > 7 7 ; 2 - 6 ; @ h ! Q  .Z O 3 7 0 2 @ @ 4 7 j 0 0 6 i 2 7 7 - 2 0 7 2 7 7 2 > 7 - 2 0 L 7 O 5 4 > - 4 - > > > > > > @ , > @ 3 > % @ % @ % O O % @ @ @ > % % ",
"@ @ O   % @ o % @ @ % @ @ > > 2 4 > 2 > @ > O @ > @ % , > , @ @ @ @ @ 4 4 > 2 > - > > @ > > 4 y 2 > > t 7 7 2 8 2 7 8 8 @ @ @ 2 7 % > t 2 2 V ~ :.z 2 , , 4 2 2 7 2 > j 7 0 0 9 0 2 8 7 7 u i 2 , > h z j % , : 2 i j u 7 6 2 6 > 2 j x 0 7 u h u w 0 E Z - w ^ B z x Y $.G ! ] Y D #. .( &.5.BXvXbXpXfX8X+XOXU.XXU.`. XY.E.A.n.L.T.S.`.oX`..XJ.U.F.S.T.E.T.D.}.`.J.T.4X#XXXhX`.oX`.+XOXT.A.T.,X@XOXT.E.T.9X^.jX3XA. X`.`.4XY.T.Y..XJ.oX9X3X+X.XU.Y.4XY.oX4XY.@XoXY.OX`.hXXXXX0X XE.^. XoX4X4X-X@X4X4X4XY.D.+X6XU.,XwX X6XY.U.oXU.3XiXXX*XaXXXE.^.*XhXiX:X3X=XXXY.+X6X XXX+X^.3X0XXX9X+X4XoXhXhX+X X4X4XU.Y.,XY.T.OXU.oX9X#XXX0X.X+X1X`.@XwXJ.+X4XXX3X6X.XY.@XE.oXoXoXJ.E.hX-XD.A.L.T.S.&X$XA.J.L. XT.E.4X+X<XqXoXXX@X@XJ.K.F.z.U.@XE.z.2XW.U.U.S.J.4XfX;XbXvXzXcXT Y Y ! R Y D } Z N C F 7 u Z R B h i 8 p 7 0 i 7 7 q 2 > 2 2 > 5 3 7 j 2 3 w 5 > 1 < j y 3 @ r , 3 r < r % < < 3 - i 2 , % 4 y 2 > 2 D >.+.x 2 - 4 t u 4 5 4 7 4 2 2 4 t i 4 4 - i i > 7 i 7 > 2 > y 7 9 0 @ , O @ > 5 2 4 2 > > > > 7 > > O , > , O O % % O O O - @ > > O > ",
"% @ @ @ % @ 3 @ $ - 2 @ O @ - > 2 > > , > > 4 2 > $ O O 2 > > , 2 @ - 2 4 2 @ @ > 6 t @ O < 2 4 7 > 2 4 > > - 7 4 , @ O 2 i 2 2 4 4 2 2 2 > 2 x  .Q D % @ 5 0 7 0 4 - 6 7 2 7 7 2 2 4 0 q 7 i u u > 2 h 2 4 4 t 7 i u 6 u q 7 2 u j 0 V 0 q 0 6 n x 7 0 h u z N R W D $.&.x D R $.] ] W &.! u.mXzXcXcXfX3XOXT.U.Y.J..X6X;X+XR.A.m.J.T.T.J.`.,XE.T._.W.E. X@XE.W.'.M.H.+XXXE.,X`. XOXA.J.%XA.'.1XU.E.9X X+X^.-X#XT.U..X.XT.4X3XoXF.9X4X@X XoXE. XoX.XY..XOX+XE.#X`.OXE.wXXXoX4XXX-X:X X XE.+X X^.U.XX6X4X@XE.qXXXXX=X5X6X5XsX;X:X*XXX/.+XtX;XY.oX-XD.`.+X+XsX*X^.XXD.%X-XY.XXXX#XU.Y.-XoXkX+XE.E. X X`.-X3X-XXX#XU.+X X4XE.Y.E.D.z.oX.XS.Y.,X XY.jXXX X0XY. X4X X=XOXD.T.T.XX@XOX`.$XJ.].J.`.OX`.U.`.OX.X_. X`.oXJ.T.D.Y.wXS.J.OXoXJ.A.T.'.'.A.4X4X.X-XmXuXuXxXbXxX} #.[ Y ' D C A B E B S h A L z S m 7 2 2 j u u 7 u l 7 i b u u 7 a 2 i 7 7 7 7 2 4 7 p p i 2 7 4 3 > @ < 2 5 % a 7 4 > 1 4 > < 0 < , 2 [ 6.w.N >   < u 4 > < - @ > > > 7 u 2 > 2 2 2 , > 2 7 > > @ @ @ 2 7 4 > > > 2 > - 4 > > - > O > 2 > $ @ @ @ O > 2 - @ 1 @ % > , @ @ , ",
"@ @ @ @ > @ % O O > @ O $ & > > > , - @ @ < 2 2 4 - > > , > @ @ 4 % @ 2 2 @ < > 4 7 t @ @ 7 2 - 2 , > > > 2 > - 7 , @ @ 2 0 0 ; 2 7 2 0 l 4 > 2 S  .q.' 6 o - t 7 t 0 6 M 7 2 4 8 > 4 0 u 2 2 j 0 y t 7 6 c h h u 6 7 u K 0 7 u x j 7 u 7 K 0 6 x u l l 0 z S x D %.W B D [ $.F Q #. .(  .! 3.6XvXpX5X5X8X X+X4X,XH.J.9XXXOXJ.[.%XJ.'.R.J.T.J.U.).J.U.E.4X+XE.A.D.T.'.+XY.E.@XT.9XY.`.H.T.%XS.m.`.D.E.T. X=XhX XoX@XXXoXT.E.3X4XJ.V.@X,XJ.-XoXoX XE.%X4XU.E.wXXXJ.oXY.Y.D.9X#XXX0X7X+XT.T. X#X@X).E.E.XX-X^.#XsXaX;X*XuX5XxXbXzXcXxXxXaXMX;XgXaX;XE.oX+XXX=X6XiX-X@XW.U.XXwXG.1XU.wXsX^.6X5X-X,XU.6X+X X8X-X+X+X4X0X^.+X+X,X%XT.$XW.T.#X@XT.,XY.XX^.0X XY.,XY.oX4X+X`.1XU.Y.qXY.T.`.$X`.J. XqXoX.X XT.^.J.J.oX@XU.$XT.oXwXS.T.OX4X{.oXY.T.}.'.hX*XG. X XaXcXuXbXcXZ G Y W ! R $.N E D u z B } k 4 0 z h h h S h 7 0 j 0 0 0 d 0 0 2 0 2 7 h 7 7 q K 6 6 0 h 6 h 9 6 u 2 7 u 7 > > 2 6 0 - - 0 7 3 7 2 > - 6 E :.+.z > 2 4 2 2 , > > 5 y t 2 6 2 7 4 > % - 7 2 2 @ > > > % 2 2 6 > 2 7 4 > > > - - > < & @ > 4 % @ > > > 2 7 2 - > @ @ , > @ o % ",
"@ @ @ @ @ @ o @ % O @ % @ % > 2 - @ > @ , @ o , t 6 0 > @ - 4 @ > > @ 4 2 7 2 4 7 2 4 @ , 4 ; 4 7 5 < 4 @ > 7 2 2 > 8 7 7 - 4 4 7 , > 4 7 2 % > 4 u Q i.( 6 4 - 4 0 j 2 q 7 - i 4 8 2 2 2 2 7 7 7 > 7 0 6 0 0 u u 7 7 u 0 4 2 0 h 0 7 6 0 0 h u 0 j u x E 6 0 K h x T Y  .o.[ D W [ .. .( I O.kXlXiX;X;X=X+X+X+X+XY.`.W.J.L.J.9X,X@XJ.K.J..XT.H.T.T.E.`.oX3X-X4XOXqXT.J.,X#XXX`.Y.4X9XJ.).`.z.T.<X.X[.1XT.4X6X+XT.Y.Y.9X4X.X`.J.-X X#X^.>XiXsX`.^.U.oXY.+X,X`.4XD.T.'.E.+X+XJ.T. X XOXOX`.^.oXoX].4X=X;X*X;XdXuXbXbXlXZXbXbXcXlXzXZXmXtXmXtXlXbXtXuX5X;XoX`. XhX+XoXJ.E.qX-X^.XX3XXX^.-X^.=X-X@XF. X+X+X^.XX4XoX X#XG. X+X6X6X@X,XY.Y.@XoXD.oX+X X.XwXE.9X4XT.J.].XXXX3XU.).8XoX'.U.T.Y.4X#X4XT.J.,XJ.T.+X4X4X7X'.'.D..XE.1X.XT.OXW.D.T.OXJ.'.E.D.XX5X3X5XpXbXvXMXD D N ~ ! ! R G E x S x R E 0 p h x x v B 0 h 0 h n 0 0 u 0 7 0 0 0 h h t 2 0 6 0 7 7 7 0 d B 0 - i u 7 - j i 2 2 7 7 7 2 6 i 4 @ - 2 0 2 > z +. .A + , i j 7 u q 2 2 2 4 - 4 j @ , > 2 2 5 > > 2 > > 8 y - > 2 - 4 > @ , @ > - @ % @ @ > > O @ 4 > > > @ @ @ - @ o @ @ @ % , ",
"@ . @ > @ o % % , o o , @ < > > , @ > > > @ $ @ 0 k 6 @ @ @ < - > > > > 2 2 - 7 2 > 2 2 2 7 4 4 6 @ - 4 4 > > 7 2 2 0 6 0 @ @ 8 6 > - > > 3 2 > @ > 0 >.<.) c @ % 2 0 > 4 2 2 2 - i 2 > 8 7 7 7 7 2 6 6 l w 4 7 u 2 0 7 2 2 4 u 6 4 4 2 7 0 h d v u 0 N F 9 i m 7 N ....4.R z ] ! T ..@.,.! 3.NXlXfXbXbXuX#XoXT.D.4XqXF.S.L.A.W.U.`.$XE.U.A.2X`.'.+X@X`.J.`.`.#Xz.+X#XQ.T.-X4XD.#X+XY..XW.U.@XVXE.E.T.E.[.E.Y.3XoXE. X4XY.Y.9XJ.,X4X`.`.^.:X5X+X4XkXXXXXhXE.S.,X%XD.J.9X0X#XU.W.#XwXD. X5X6X+X*XE.XXcXmXcXDXvXtXpXlXDXlXzXxXuXtXAXzXlXtXxXvXbXpXlXDXdX*X#XJ.oXoX9X+X+X7XXXXXqX^.uXXXXXhXXX6X X9X'.`.4X7XU. XE.T.J.T.T.4XY.^.=X=XXX-X+X4X`.U.wX@X4X XD. X+X-X XJ.oX6XhX#XT.U.<XXXE.%XU.wX4X+X XOXK.E.OXE.4X+X+X`.T.XX`.D.XXOXl.K.T.F.H..XE.A.2XK.G.6X+X6XuXtXxXZXyXQ R ] =...Y C E z V ' x x F x u z h u 7 u x h c 7 i 8 q l 7 2 a t 0 h l 4 > 2 y > 4 2 2 c l 7 4 2 M 0 4 7 4 7 i 8 > 2 4 7 7 2 < , > u 2 0 < @ h q.O.6 > < 2 2 0 z z 2 > 8 < > > > > 4 0 2 2 > > 6 7 > 2 0 4 > > > > @ @ , @ % 5 2 > 2 > > @ > @ , > > > @ @ , @ > @ - % @ @ % ",
"@ $ % @ @ > @ @ > @ @ @ > > , - - @ - 4 - 4 k h u 7 2 2 2 @ - > > > > 2 @ - @ 8 3 > 4 2 - - y 7 6 , 2 2 4 > - > > @ 4 7 > < > 7 7 7 2 > 5 7 2 7 2 , > d  .@.0.J - > 7 b 7 4 i 7 2 2 8 4 8 6 i 2 t 2 j h u 2 4 2 0 2 0 0 7 7 c K u 0 t 0 7 u 0 d h u u 0 0 x l x K ^ C B D C ! [ Y D .. .6.+.5.gXzXdXcXfX3XXXXX`.A.J.T.T.oX1XT.E.U.J.W.L.U.J.].`.XX#XT.m.W.oXE.OXT.D.oX%XE.+X8X@X XD.`.2Xn.S. XD.D.U.1X`.J.E.E.+X3XoX^.^.XXY.J.T.D. X X.X9XXX;X5X X X@X+X`.D.%XE.D.^.U.E.U.4XY.T.XX9X+X X+X3XY.5XpXtXbXlXpXpXyXzXDXlXnXvXzXpXbXSXzXvXCXzXZXZXtXtXlXxXuXMXfX X4X4X1XXXoX4XXX6X XXX X4XE.#XXXE.+X-XhXXXG.@X X@XE.T.4X.X.XT.XXXX;X4X#XXXT.oXY.E.oXU.@XoX XY.4XXXE.-XfX6X3XJ.J.+X4XT.OX`..X`.V.T.Y.`.qX[.J.XX4XY.E.OXA.9X^.j.$X`. XT.J.W._.1XJ.J.'.}.'.U.hX+X*XcXuXbXNXW ) +.W ~ &.' A B h A B x x L m v 0 h k 0 l 7 l 0 7 t 7 0 c i 7 2 7 2 2 7 i 7 8 4 > 2 7 t 2 < 3 2 - > 7 y 4 > 7 7 - y 2 > 4 7 7 8 > , 2 7 > % - B 9.9.D 6 2 7 9 h h 7 ; h S ; @ 2 2 - > @ 2 > O 2 y > @ 7 4 % % > % @ 8 4 - > 2 7 2 2 @ , , > > @ > @ $ @ , % O > , > > @ > > ",
"O @ % @ @ @ > @ @ - > > @ O o o 2 < @ 2 7 x ! D 0 % , 4 7 @ e 2 @ , @ 5 % 1 % @ @ 3 > 2 y @ - l 0 > 2 7 7 > O @ < O > < 4 2 t u 7 h v 2 6 7 2 7 2 > 2 8 B :.5.W h o 4 h 6 4 r 2 4 2 2 0 7 i 6 u u 2 j 7 - > h u q h h 0 j h h 6 d h h 0 x 0 q v z k y e i u d z x D h Z z J z D D R R Q +.C 3.MXvXlX;XiX=X8X4X)._.F.l.,X8XY.E. XE.R.K.J.2XE.D.H.oXJ.Q.K.Q.,X`.K.%X).^.3X+XE.XXE.S.,X7XL.W.%XS.R.'.W.D.oX.XT.VX.X+X=XsXXX4X%XD.OXT..XoXS.`.4X4X*X0X.X+X.XJ.OX X X@X0XA.W.'.T.T.`. XE.uXaX+X,X8XdXzXlXvXxXdXcXcXbXDXnXJXCXAXGXHXGXDXGXHXFXzXZXlXlXDXnXuXpXdXZXmXE.T.+X+X`.4X+XY.&XJ.9XE.#X7X4X6XT.+X4X@XY.oX`.Y.sX=XD.>X1X+XsXaXD.oXF.OXwXOX*X4X`.D. XkX X4X#XuXaXpX^.E.A.$X3X4XT.qXT.L.'.J.H.,XD.+X4X#XoX6X.XM.&XW.Y.#XU.x.E.hX`.#XE.n.oX.XU.`.T.`.J.^.hXfXtXxXbXkXQ Y  .Q D D Y x B B x h S z A A 7 0 Z B u u 7 7 u h x 0 h h A h 7 2 i t n h z v 7 4 7 z h 7 i 7 7 2 i 7 7 7 7 h z 6 2 2 8 4 0 7 7 , O % 7 u u 4 @ D :.r.R 7 1 t h q j k N ..6 O 7 0 < & @ 4 , o - O O O @ e o , @ O @ 2 > , o - 2 > @ % % @ @ % > > O % > - > O @ @ > & $ % % ",
"@ @ % o @ > @ > @ - 4 @ O $ O O 2 @ o @ @ 7 v F 2 2 2 , O 2 u 7 w 4 - 2 7 7 2 - % < > @ > 7 7 - > 2 2 2 7 @ > i 2 < @ 7 u 2 2 2 @ > 7 4 - > 4 2 0 7 , 1 7  .N.m.k.I 9 @ q 0 4 2 8 7 u l t 2 > 2 2 > l S v 2 2 j 7 B x 2 w 7 0 7 4 0 2 O 7 x x u 6 h z z h c h z x B E x V Z F ~ G E +.O.q.( d.gXCXtXyXgXXXXXL._.}.J.A.S.OX_.H.L.m.J.`._.).].A.D.4X`.W.OXR.).+XoXXX3XY.D.XXoX`.T.A.+XkXS.T.2XD.S.W.T.S.oX`.E.oX}.H.E.5X-XG.E.oX9X<X^..XJ.T.XX*XE.3X4XE.W..X'.U..XoX+XE.J.Q.oX+X6XoX+XXXY.oXxXlXZXxXpX:XiXcXSXFXFXGXZXDXBXVXVX>X(.eXVXVXVXDXKXGXAXAXzXZXZXbXZXzX*X;X+X+XiXuX8XY.qX;X:X*X=X+XE.;X+X`.XX7X#X.X'._.T.].H.N.,X X;XkXE.S.T.qXoXOXoXE.jXXXT.9X6XE.oX@X X`.E.U.W.9X#XXXE.9X`.J.J.F.l.wX0X[.Q.oXY.XXU.D.3X`.K.K..XU._.I.H.`.A.D.4XoXK.R.R.A.H.'.sXuX^.;XMXiX( Y Y E D W D N N x v x Z A z i D A h u q 0 z A 4 4 0 0 h 0 0 K V 0 c 7 a > 6 u 6 i 7 > > 5 7 2 0 i 8 o 2 2 7 5 % > - 8 > 3 7 4 8 0 ; 0 7 q 0 2 , O @ j F C z f f I ( Y z D N N W Y D D h d F ) Z d z z Z D C C B z f h 2 h z f 0 6 0 z 0 0 2 7 0 0 > O > - @ % @ % @ - @ > o ",
"@ > > @ O @ @ $ O @ @ % @ @ @ % @ @ @ , 4 > 7 h 0 2 4 , @ @ > - - > 4 8 6 4 > 2 > - 2 - 5 2 4 < 5 7 > > 4 > @ > < 2 4 2 2 5 4 t 2 7 - 8 4 4 4 4 2 7 4 > z u.c.>.0.h.Q 2 i 8 4 7 - 6 7 t 7 0 7 u t w 2 u i > 2 u t u 0 6 7 2 i 4 4 u i 0 2 h h 0 h j h l 0 x h h h x B A B E A ' N &.W ] %.Q h.KXtXfXgXxX5X+XOXm.m.R.eX).T.L.J.U.`.U.`.'.A.J.U.J.oXD.XXE..XD.OX@X<XOXU.@X@XE.T.&XS.Y.oXU.T.T.U.@XS.D..XY.oX6X'.A.H.`.E.kXY.U.$X`.oXE.9XG..X@XXX@X;X`.U.-X+X.XY.+X^.E.wX.XA.^.+XXX3X3X+XXXfXZXpXpX*XxXbXzXZXAXDXMX(.G.u.r.@.X. .] Y O.X.X.u.u.(.MXPXKXDXCXCXZXbXbXDXfX5XmX^.6X+X=XXX.X#X-XXX+XhX`.W.;X7XE.U.Y.Y.K.U.W.D.oX4XE.@X4X+XE.oXU.`.@XJ.9X=XY.G.XX7X XY.4XU.4X,XU.Y.@X+XT.U.4X+XS.Q.'.#X.XU.S.U.kX4XJ.T.<X`.A.Q.wXS.m.J.T.OXA.W.oX`.K.A.H. X`.+XaX;X5XpXbXfXY [ ( ] R R ^ L ^ S h h A m j 0 h S u 0 v u z c 0 7 l u u 0 x u 4 0 h 0 6 2 6 l 2 2 6 0 j > 4 i 7 2 > 4 0 7 7 4 2 2 > 8 2 2 7 8 4 2 4 b 4 2 y 4 2 > 2 2 0 h v 6 ; n F A h z A L F Y x x x z z E b 2 u c h h S x 0 l h u 2 u c 7 2 8 7 7 u j 7 7 u i > @ < > O @ O > @ @ > O @ ",
"> > @ @ % O @ % @ & O > > @ % > $ % , @ > > o - > @ > > > @ - 2 4 2 - 2 2 - > > @ > 4 2 8 > > - > > - < 4 u 2 - > 5 2 2 4 8 - 7 > 2 4 4 7 2 > 4 > 8 2 0 @.x.d.h s d.+.7 7 w 2 6 2 2 2 6 7 2 6 0 h j 2 7 y > 8 7 i , 2 x x 2 > 7 0 8 l d l 7 0 B F u y j 0 h h 0 A x z B B V H [ B +.*.O.! Z 3.MXlXxXvXxX5XXXJ.J.S.H.L.T.J.J.E.}.`.F.Q.OXE.z.E.wX.XT.@XoXY.J.F.m.T.U.U.`.wXOX1X%Xl.K.W.T.J. XoXU..X XE.7X#XA.J.OXD.E.U.`.9XU.E.'.Y.#X-X*X7XXX`.9XXX3XXX4X3XE. X-XY.!.D. X3X+X4XE.oXsX=XcXZXCXvXpXcXbXpXAXHXKXG.3.Y W W  .Q Q @.O.) :.O.@.5.Y U  .t.>XnXGXAXCXZXbXJXtXuXcX^.^.4X4X4X%XE.0X=X+X6XR.`.kX+X X`.E.`.D.J.-X5X3XE.A.A.-X5XY.XX4XE.oX`.S.4XhX+XD.@X@XU.+X@X6XXX*XhX@XXX4XoXOXE.D.'.H.S.OX[.,XoX XOXwX4XoX`.T.OXU.T.kX@X`.T.E.2XJ.J.9X,XS.$X X3X5X*XmXbXbXMXI B ! ' D Y E z x S n h x h 6 V 6 7 l 7 h L j 4 B D h w y 0 B 0 r 4 7 0 h 0 q u t 2 7 0 h 2 2 i 7 2 2 4 q 0 7 2 u 7 y 4 7 2 w - - 4 y > 4 2 > > 2 4 < > > 2 > 7 4 2 2 ; 7 7 7 2 6 6 0 7 6 u j y 2 6 4 2 6 i 4 % 2 2 2 7 7 0 7 7 % < > 7 h u 2 2 2 - @ > > , % . @ > @ O O   @ ",
"- $ @ O @ @ > % o @ @ @ > @ @ > > $ @ > - @ @ > > @ O > 2 > , > 4 2 2 - > @ 1 > 5 5 @ 4 > O > - > O > > 4 2 2 7 > > > 7 2 @ , 8 2 2 2 4 2 2 > > 6 4 t h 5.M.r.6 t <.Q @ % > 6 i 4 7 4 4 y t 7 2 2 t 0 2 > 2 2 7 0 0 6 S f j 2 u 7 > h 0 t 7 0 E N h 6 0 v h n x A h D R ' z x Y =...W W ( U e.BXxXZXpXcX+X`.J.wX@XH.H.J.U.OXJ.H.H.W.D.`.OXW.`.U.E.`.J.T.OXJ.'.T.J.`.].E.Y.Y.D.n.T.J.E.J.`.%XT.n.2X#X XoXT.K.U.2X`.`.OX-X+XU.`.4X=X.X XsX3X XT.U.+XoX-X=XXXY.E.qX-XT.A.9X4XT.J.9X+X^.pXvXlXzXbXvXpXAXHXMX(.u.W U ' #.t.9.%.i.6.7...4.q.2.q.q.+.+.Q  .8.(.KXHXzXCXCXcXlXvXiX4X3XhXE.D. X*X;X6XoXE.oXoXE.9X>X1XOX`.OX-X4XU.OX.X`.+XiXE.0X4X`.9XT.U.[.+XqXU.`.@X`.Y.@XoX`.aXhXT.U.4X`.`..XE.9XU.J.oXF.oX@XW.S.`.E.J.2X.XS.J.9X9X^.m.T.oXJ.T.'.T.`.m.S.4XsX8XfX;XdXbXiXZ B R &.! G Z C x h z B B S x L S q 0 c 0 h u 7 B D h 2 2 0 A x 4 2 u u 7 u u 0 2 2 7 7 7 7 2 2 4 u u 2 7 0 7 2 7 0 7 2 2 7 i u @ 7 7 2 2 0 2 > > y 2 - 8 > , 3 8 > - > i 7 7 4 > - 4 4 2 2 6 o > 4 , - > , @ @ > 2 > 2 - @ 2 7 @ @ 4 7 7 7 @ % O > 2 7 @ o @ % % > @ O o o @ ",
"@ $ o o @ % % % % @ < @ @ > % @ - @ > > % @ > 2 > @ O > > % , O 2 O > 4 2 2 @ @ > > 2 @ @ @ 4 > 7 1 > 2 2 @ @ 2 2 O , 4 h > 3 5 y 0 7 t - 2 7 7 7 6 y > E c.a.O.>.:.! @ < 5 0 2 6 K 7 2 4 2 i 4 2 7 7 7 7 l 0 7 l L z j h V v 0 0 u h 0 0 7 u z B d S L x u l h Z [ [ E ^ v C W ] ] Y Q y.~ 5.MXpXlXpXuX4XT.L.R.oXJ.m.K.E.wX`.T.,XXX#XJ.J.I.L.`.Y.J.`.$XA.J.+X,X@X X+X-X@X%XJ.E. XT.T.+X@XE.U.U.J.@XOXJ.Y.'.J.n.4XU.Y.qX*XY.7X8XmX#X+XoXY.T.S.XX@X^.wX`.XXU.D.+XE. X X,X+X+X`.$XXX+XvXAXZXZXbXZXGXDX>X3.D @.,.9.O.6.1.]  .4.O.9.o.Q ,.O.>.0.4.,.+.*.W G d.BXDXAXAXxXlXZXlX6X+XiXqXY.MX5XXX4XT.,X X+X'.`.].J.).4X%XE.T.n.OX+X4XY.oX+X+X[.oX`.Y.3X+XJ.U.OXT.OX@XE.T.,XE.+X@XY. X+XU.T.OXU.+X,XL.m.F.`.U.1XE.D.+X`.J.D.T.&XJ.j.Q.9XOXoXU.W.$XT.`.@X`.T.T.3X5X;XpXcXfXN ~ &.D C =.[ G A F A F B A B z S d 0 0 0 u A B B F 0 q x h S x 0 v 0 7 > > 7 0 j 0 7 7 j 7 7 7 i h x h 8 < 4 2 2 7 2 4 2 2 M h 2 8 2 2 7 7 h 7 - 3 - 2 p @ > > < O 7 > > 7 i 2 > 5 4 4 2 2 - t @ @ @ > > > 2 4 @ 3 , 2 7 - - 2 > > , ; t 2 @ o o 3 > 7 , @ % % % @ O O @ @ % ",
"% @ o % @ > % @ @ @ @ @ % @ @ > , @ > @ > , > - 2 o % , @ @ < 2 > @ > 2 2 - > < > - 4 > @ > - 8 2 , 2 > 4 4 > 4 7 @ @ 2 0 > > - > 2 2 7 2 7 6 7 2 0 @ - h O.a.d.s.E h < @ > 4 2 7 j 6 7 7 2 i 2 7 7 7 j 0 h d i 6 0 u 0 j 0 h 0 0 h 0 0 u h 0 h x F B h d h 0 z x R R z A z F ! D ] O.O.q.!  .MXvXuXuX6X^.oXD.m.-X%Xl.S.J.).L.`._.3X`.l.'.T.A.[..XT.E.H.J.E.8X7XU.[.E.G.hXoXY.kX6X`.0X,XE.D.'.9XE.D.U.Y.U.E.D.D.T.wXE.E.4X6X X`.XXoX#XG.qX`.0X4XiXU.z.U.2XT.`.U.U.U.qXT.Y.aX^.G.*XZXCXvXlXbXzXDXDXg.O.) [ #.+.7.*.O.@.+.O.4.@.W 4.X.O.X.7.5.e.7.+.O.,. .Y 5.(.DXAXvXvXCXCXpXXXXX5XiX*X*X+X#X^.+XsXwXY.J.U.`.Y.oXD.U.T._.J.sX^. X].-XXX).T.`.kX4XY.'.E.4XoXT.E.,X@XU.OX+XY.oX+X XwX,X`.J.'.J.2X[.9X XK.{..X9X XoXU.S.'.$XM.l.Q.@XJ.@X`.T.U.m.OX XqXA.wX4X^.aXfXaXcXN F ! C [ Y T N z E F B x D } z z B h u l c S B h c 0 u z z x d h F x q y > 6 7 c 0 2 6 0 2 0 0 6 2 c 0 > - 2 y t 7 2 i 4 2 q 6 7 7 2 i 0 7 0 0 2 < > 2 2 2 i 8 4 7 7 > - 2 > > % > 4 > 2 2 2 u 7 % 4 - O > i 7 @ @ @ - < , 1 > - > , @ 2 > > @ o O > 4 @ @ @ > > @ % O % @ @ ",
"@ % @ @ % - @ @ > > @ @ @ > > % O , % - > @ @ 2 > @ , > 2 > > 4 o > > @ 2 - 4 2 2 7 7 2 2 > > > @ 2 - > 2 8 @ % % 2 2 4 2 4 2 7 2 7 4 > - 4 7 2 5 4 2 2 h N { 9.x 2 2 7 7 - 4 c u 2 7 2 j 0 7 M 2 - u u 7 0 u 0 j 6 0 h 7 2 u 6 0 h h 0 7 h h z u 7 u h l k S x h u z A [ A Z S H E ] ] I T 3.kXpXaX5X5X;XT.L.@XoX`..X1XOXL.A.A.D..X`.H.@XE.E.H.J.&X].E.hX+X`.OXm.T.@XE.4X XT.E.oX@XXXE.T.U.S.E.9XJ.%XE.Y.D.E.[.J.`.[.K.T.6XXXE.#X5XXX@X@X`.4X^.hXwX`.OXOXoXA.T.OXE.Y.#X^.4XhX;XcXzXCXpXpXAXGXNX3. .O.6.+. .4.O.! Q o.o.{ #.@.6...Q =.7.Q X. .4.,.O.O.q.~ Y 8.G.DXGXlXtXlXZXlX;X3X`.U.3X;X X.X#XoXT.Y.6XhX X.X=X`.'.oXqXE.Y.#X4XOX5X4X.XT.0XG.W.E.oXoXE.#XwXT.1X XT.E.6XXXXXOXD.J.E.E.@XOXS.'.]..X@X'.S.j.L.OXW..XwXoXD.J.E.9XS.J.E.U.`.OXA.J.T.^.oX4X6X*XiXdXcXMXY H &. .Q f G x u F F z A x V J A x 0 u h 0 V A u i q u f f h 7 0 0 N B 2 a i 7 2 > t c 6 7 2 6 h 7 4 8 0 u 2 4 0 i - 2 i 0 6 - 7 0 7 @ 6 6 2 h u 0 > 3 > 4 7 7 u > 2 8 7 4 , , > - > 4 > > 5 @ 7 2 2 < > 2 - 4 > % @ > > > < % - O @ 4 > @ 2 4 < > > @ 2 7 O O & o @ @ O o @ ",
"@ - > @ @ & @ o % O > > @ - , , $ O % > % @ & @ > 3 - 4 > - > > % 2 , @ @ - 5 @ 8 2 7 6 7 4 > > y y > > 2 > > 4 4 7 0 - % 5 - 2 6 - 7 5 2 2 2 - < 2 7 8 2 k k 7 , , 2 2 7 7 7 k u 2 y 7 6 0 0 0 l j j 0 0 7 t 2 j l 4 u k 7 7 0 7 d j q 6 7 j 0 x h j 0 u h x z x K z D C B &.B F G ]  ./ F @.BXtX6XxXpXfXoX$X].`.z.oX2XH.L.{.W.<Xm..X).8XXXU.M.J.S.m.+X4XT.S.'.H.T. X@XG.6X4XS.T. X@XS..X@XJ.J.oXT.>XG..XwXT.E.qXD.J.$XU. X+X XoX;X=XXXY.9XG.+XXX+X4XT.^.&XE. XOXeXD. XkXG.+XbXCXCXvXnXZXHXNX ._ ,.X.@.7.>. .,.} %.] D W W @.O.+.4.p.,.G 2.Q Q 6.,.4.8.3._ C >.!.DXSXvXzXZXZXbX5XoXE.hX6X^.^.kX%XJ.^.8X*XD.4XkX`.T.`.+X#X`.oX`.E.5X@XU.`.OXJ.L.$X X+XoXJ.U.^.4X4X.XU.T.hX XK.L.T.T.L.9XU.S.2XU.J.`.T.'.T.'.T.Q.U.E.U.Y.1X].T.m.m..XE.T.OXJ.U.L.U.#XXX=XfXiXpXvX*XA T ! Q D } B A F z B J h x 0 0 x K 0 q K h h h 0 4 @ 7 c c 0 a l 0 A x 2 u 7 7 4 2 7 0 u i 7 4 h 7 O - 0 j > > 2 2 7 i 0 0 h 7 H x 6 0 ' N 0 v F f 2 5 2 2 4 7 t - - 2 4 2 @ > 2 8 5 @ > 4 % > 2 > > 7 2 2 @ @ 4 4 , @ - > @ % & @ > > 4 7 2 8 2 @ @ @ 2 > o O @ @ @ > , O @ ",
"% O > % @ , > @ O % % @ % O % > @ @ > , O O o > - 2 @ @ > % @ > @ > 3 , > > > % 4 > > 2 2 2 < O & 2 4 2 2 7 2 7 2 2 8 , > i > 2 < h 2 7 7 2 7 0 7 2 - 6 7 2 - - > 7 0 7 7 i 2 > 2 - > 2 7 t 7 7 7 7 0 6 h > 7 7 7 7 0 u u u 2 t t z x u 0 j 2 2 t h S z S l 7 c z B ! A z E E A &.} +.( Q I 3.DXvXlXvXuX+X`.D.U.+X[.Q.E.T.T.T.%X`.`..X,XJ.oXqX`.'.m.{.%XS.J.L.E.OXY.OX`.U.XX<X+XoX7X3XD.9X@X.X>X&XD. X0XT.).A.J.#XwXS.J.E.%XT. X7XE.oX X+XqX X`.@XoX X0X6X^.T.W.T.6X*X0X-XXXtXbXvXZXvXvXDXkX@.( X.] W Y W O. .3.0.[ D O.3.4...v.Q o.W  .Q { { X.O. .@. .@.4.O.W D G.DXAXlXZXvXbXmXjXG.XXhX4X X-X8X+XJ._.T.U.`.W.E.#XoXJ.T.@X XT.`. X0XoXT.XXXX'..XoXE.J.A.OX`.+X`.Y.-XE.XXoX`.4X4XD.eXE.J.T.4XOXT.@X X,X4X`.z.F.%X`.J.T.%X}.l.S..X.X@X XK.R.S. XH.`.+XoX6XgXpXbXfXA Y ..! D } E ' ' x B ^ h h h B 0 j 0 u 0 u 0 7 t 6 7 0 0 0 0 > 7 i 6 t 7 > t 0 u u 7 6 7 2 > 5 0 0 6 j 6 4 2 2 4 4 4 7 0 h h x l 7 z f.f.@.x 0 x z z h > > p 6 7 2 - 2 : 7 2 5 y @ 7 2 2 > 2 $ 0 4 2 2 % @ , - > a & @ i 0 > , 2 > > > > < @ y 0 2 > , > @ > , @ @ @ , % @ @ ",
"@ @ @ @ , % @ % % @ > @ % > > @ , % @ % @ @ % > > > < @ @ > 4 3 - @ @ 4 > 2 > > - 4 6 6 2 2 % O @ 7 t 2 2 2 2 0 2 2 % @ > t 2 2 2 7 2 - 4 t 2 h 2 0 u > 4 8 7 2 j t t 7 - 7 2 5 i > @ 2 q t > 7 7 8 7 i 7 - q u 0 h h h 2 i 7 2 7 h h 4 6 0 7 K u v z h x i 7 x B E E x B Y R B E ! W  .%.~ @.gXpXpX;XNXiX+XoX$XU.U.`.E.S.m.).U.T.`.T.OXoXJ.J.U.L.b.l.%XOXT.J.S. X-XT..X@X,XT.4X<X+XXX.XV.%XU.V.Y.U.`.+XS.S.'.$X^.T.A.wX.XA.T.`.oXoXT.@X6XXX+XU.U.E.A.E.kX=X@XA.D.+XfX-X^.fXbXtXxXxXyXLXkXO.! %.9.#.@.q...o.4.3.O.] Q 7.0.Y  .*.C X.! W #. .o.] Y o.*.9.@.e.@.o.&.Q /.KXCXGXzXxXbXpX5XhX X*XiX+X+X4XJ.K.J.,X%XD.T.1Xn.K..X`.`.E.T.U.,XoXT.wXoXL.T.9X1X`.%XU.J.+X9XE..X+XOXJ.J.-XoXT.T.J..X,XJ.J.%XU.T.Y.E.oX%XQ.OX1XJ.S.'.J.T.U.1XU.OXOXA.J.n.U.`.4XE.XX;X*XmXlXdXF ! ..o.D D H D D N z V A B A ^ u 0 h h c j 0 4 0 v v 7 < t j i 2 > 2 t l 7 7 0 v 0 0 i > 2 < > 7 t 0 u < 2 i 0 2 2 5 6 B B d 4 h d ( f.O.O.2.[ D N h 0 2 4 j z u x 0 i M u 6 - @ > 0 6 t 2 - , 4 7 2 4 > @ > > - > % @ 2 7 - @ 7 6 @ @ @ 2 > - b 0 @ @ O % > @ @ @ @ o O @ @ ",
"@ @ > % @ O @ % % > > @ @ > @ @ 2 > @ @ > > % O , , @ , - @ 4 > 2 % > > 2 > @ 2 2 7 t > - , < p 7 q 0 4 @ < 0 d 7 % @ 4 2 > - y 4 5 > 2 5 0 7 8 > 0 0 2 2 2 2 4 7 2 - 7 4 > y 7 7 2 7 i 0 7 2 7 u u 2 2 2 7 7 7 7 7 0 k 0 2 q 7 7 h u j u 0 v 0 0 u h l u l x | A h h N E  .Y D D R Q  .X...@.iXtXsX5XgX*X@XL.[.OX@XoX`.U.H.2XS.S.,XL.J.,XH.].L.T.@X'.'.J.J.`.S.E.@X`.T.E.OX@XoX<XXXXX7X.XT..XJ.oX>X+XU.J.L.'.D.W.E.`.@X#XE.E. XJ.6XE.F. X XhX^.U. XkXG.E.+XE.qX4XT.uX^.fXpXxXbXvXlXZXBXd.R 6.9.O.*.7.q.Q ..R Y Q  .] Q Q  .Q @.Y ] ..W ] O. .[ {  .*.#.4.7.W o.,.( 5.iXHXSXvXzXlXtXpX6X^.^.sXsXT.`.#X4X`.OXU.J.OXJ.Q.2XJ.S.$XU.9X XJ.OXT.+X#X+XE..X XJ.4X+X`.wXY.`.].`. XOX[.z.W.&XJ.@X<X[.T.K. XT.U.J.T.'.[.Y. XD.H.P.m.).T.S.`.oX@X+XK.L.K._.A.J.#XjXcXXXfXMXaXF [ ] ! E H D B h z z F h u h z c h d v u 2 u 7 0 u 7 7 4 7 h z 0 2 2 7 z h 7 0 h 6 t , > 7 7 t < 7 u 0 5 - 7 j 7 > - u z z u # q.O.Y W N ( <.5.( D ; - 2 h z B u z h 7 l t 7 7 - 2 7 6 6 0 - 2 2 > 2 4 7 7 - @ - 2 > > , @ - > 4 - 8 - @ O > - 2 > > > , > % > % @ O @ $ @ O ",
"@ > > @ O % % > % > @ $ o % > , > 2 @ @ > , @ > @ @ @ % @ 7 r @ > % > @ w 2 @ 4 2 2 > @ i - - h ; 7 , w h B z 7 - , 2 2 2 2 > 4 > 2 @ - 2 h 7 @ 3 > 2 4 2 > 7 7 7 4 8 2 t > > h q q 6 2 u t p 7 6 6 j 8 + 7 t t w 7 0 u 7 i 2 b 0 u 0 7 0 0 c 0 h u v 6 d z 0 z B l k | C ] D E ' [ W ....Y 8.BX;X*X;XiX6XOXT.U.[.OX X<X[.T.m.'.D.[.J.U.1XS.J.S.'.0XJ.H.J..X,XA.@X.XT. XOXT. X X X+X+X XOXz.Y.oX@XG.].J.).J.D.E.m. X-XU.oXwXY.,XE.-XhXY.E.`.8X4XU.#X-XhX4X@XE.U.*XY.:XaXaXxXvXzXlXJXLXC.( @.7. .*.#.@.@.W  .[ ' ..0. .Y $...Y *.Q B o.q...Y R W ] @.4.Q Y 0.@.Q 2.e.W d.cXDXCXvXvXpX;X*XhX3X6XiXE.D.oX=X X.XT.oXT.n.Q.E.J.E.`.4XXXT.`.T.U.U.+X X@XoX XT.7XqX+XY.oX9XJ.K.T.[.`.A.{.J.E.qXE.z.%XVXS.oX@X'.Q.m.W.4X XU.L._.T.'.oXJ.OXE.T.U.].).J.D.T.A.+XuX*XfXuXfXiXv Y ] C D Y ' S 0 c E N v h k h u c x h 7 t l h 7 i 7 2 0 7 7 z x h i 2 0 0 0 h h 4 2 > 7 2 t k 7 7 7 y 4 @ 4 2 7 7 > 7 h l >   C ) Z V x Y e.( ..| > , 7 h v N 6 6 t 2 2 > 2 t 7 4 > y 7 u 6 > 4 @ , > > 4 - 5 y > 7 > @ @ 4 > > - > 7 > @ > t > > > 2 % o > < @ % @ % @ O , ",
"> $ @ < , @ @ @ @ > @ $ @ @ % @ O % % @ @ > > O > 2 2 > @ > 5 < > > > 4 7 > @ , , , & 3 c C N 6 2 4 @ 2 Y 6. .6 % t 0 4 > % < > 7 7 i 2 u c 6 2 w > 5 y > 4 7 7 7 7 j > 2 y 2 > 7 l 7 7 7 2 t 0 h > 4 7 7 5 > i z 6 7 u j i ; 7 2 j u h h l 7 k h h x x z z B B f c z z h J D E E E D #.Q Y >.jX;X;XfX+XT.Y.4X1XE.`.`.E.T.}.F.E.@X`.J.E.U.).U.J.L.`.`.@X,XJ.T.%XT.J.T..X XXXE.E.+X3X4X'.S.U.qX XL.Y.OXJ.J.K.J.9X9XE.@XT.S.[.T.3X<XJ.4XE.hX4XJ.W.+XY.XXXXOXT.qX X=XsXiXjX3XtXxXxXvXFXNX@.Y 0.p. .@.G R #.@.@.0.W ..o.W Q ] ..Q Y  .[ D Y Q R ' W Q 9. .@.Y O.+.@.7.) ! W g.DXAXAXZXxXxXaX=X+X5XfX3X1XE.Y.4X+XJ.'.W.A.'.#X`.U.E.9X`.R.`.@X4X^.^.Y.4X+X+X3X X`.4XoXoXY.J.U.'.n.R.K.OX4XoXK.S.XX4X.XA.E.E.}.P.K.J.`.D.$X.XT.`.H.T.A.S.T.oX+XU.OXE. X$XV.hXXXG.mXaX5XfXJ D G W W ! [ A F J S h v h h z 0 j V 7 t i h h u 7 4 w k u u 0 0 l 4 4 u u h 0 0 2 7 2 S 0 2 2 t b 4 7 4 4 j 2 6 7 t 2 > 4 4 2 0 h u 0 c B z z h 7 0 h 0 2 7 6 2 2 2 2 7 2 4 > 7 > @ @ 7 6 2 @ - > % % @ @ > 5 @ % 4 > > > > > > > > > 8 7 7 u > @ @ 2 > o @ @ > > @ O > @ O ",
"> o @ > > @ @ $ @ @ %   @ % @ > @ > > O @ , 2 @ 8 4 2 @ @ @ > > 4 - 0 t 0 > > @ - - @ @ N t.e.v # 2 - h ] 6.W - > t 0 > @ , - 2 7 9 q 7 4 0 u i > @ 4 w > i 2 - 2 0 t 7 y 7 7 < 4 7 4 7 2 2 2 7 h O - 7 l - @ d [ k 2 u 7 6 w 7 2 0 7 z h j 0 h V F d z h z L S h N B B d h B Y [ Y +.! ..! >.6XvXbXmXsX`.[.T.A.[.4XT.n..XU.T.S.J.oX@X'.m.OXoX'.'.W.oX`.E.9XT.E.)._.T.Y. XoX#X4X+X X@Xl.A.,X+XU.S.`.J.Q.D.OXJ.U.`.T.'._.J.T.J.,X+X`.T.4XsX^..XA.+XwXY.J.`.`.E.+XoX;X;X=X*XgXpXAXHXDXg.@.&.2.5.6.{ [ ' ] *. .*.W Q [ Y  .X.{  .Q O.o.~ R G E D { #.! ] ] .. .Y @.>.O.9.+.:.(.DXzXzXvXpXdXtX5X3X XT..X4X,XwXS._.W.D.E.OX`.E. X X@XJ.W.U.oX X7X0X6XY.oX3XOX XU.'.OX`..X`.OX`.n.K.T.+X+X,XD.$X@XoXS.%X XA.`.n.'.J.F.Q.A.J.@XOXT.J.W.P.J.OXoXU. XoXqXS.J.hXsX#XmXuX*XuXS D E W o.%.G N ' x z h h x F ~ t 0 z d j 7 h 7 h 0 4 7 0 z k 7 d h 4 4 2 0 v u 0 h l u B c 2 4 h h > - h 0 2 4 0 2 2 > 2 2 6 0 t > > h 0 - > , 1 2 h S 0 > , @ 7 2 O 7 2 2 > , 7 > < @ 7 2 @ > 2 2 @ % 1 > , 2 @ 3 % @ 7 - - > 4 > @ 2 2 0 0 > @ > 4 2 > < @ @ % @ - @ O @ o ",
"- O @ , O O @ < % @ < t 7 4 < 2 > 2 2 2 - > 6 7 2 - > > > - 0 > 4 - 0 6 0 6 0 7 6 h 0 v f 6.5.N 6 f z S z z 6 @ , - > 7 0 7 7 2 8 0 > > 2 2 t 7 > i 2 2 2 4 6 2 > 7 2 2 j - 2 7 u 2 7 7 0 i 2 6 7 4 p 7 7 0 d I N 9 2 v d h 8 2 c 7 6 h S 7 7 v B 6 0 B F B d h B x E R &.E B H [ ..#.D ..D <.kXxXcX;XmX8X.Xm.J.U.@X4X@XT.`.E.T.U..X XoXT.K.F.J.T.J.T.oXD.OXOXE.9XwXU.E.+XE.T..X+X X9XD.T..XJ.@XJ.J.U..Xz.`.#XY.J.U. XE.[._.1X4XXX@XoX+X XE.9X`.OX`.Y.9XT.T.OX).D.*XjX*XcXZXZXJXHX(.@.O.*.@.4.O.Q o.%.! [ B Q @. ...! o. .D %. .#.R =.=.] ] X.o.W  .[ ] +.@.#.0.3.7.Q ) ) g.KXDXCXCXlXdXgX5X3XoXoX X0X`.J.A.J.'.T.E..Xn.K.wXD.U.U.>XY.+X XE.-X6XE.E.4XE.4X9XE.T.J.A.E.$Xz.'..XE..XT.U. X%Xz.K.OX].E.wX'.Y.T.J.z.!.W.U.@XE.n.H.T.}.U.oX.XS.E.J.U.T.oX X6XqXsX;XuXsX! T =.Y A F ! G D D h L A x Z B A B u h l z l 7 h 7 h 2 q x 6 4 7 6 2 t - ; 6 7 6 7 0 7 u 0 7 z 6 2 b 7 j 0 > 2 i - 2 7 p 8 2 j 4 @ 4 u l 2 > 5 - 6 d 0 h < > , 2 % > 8 t 2 > y 7 2 > y 7 2 > 5 2 4 > 2 2 , @ , > 2 - 2 2 - 2 @ > > 2 2 4 - y 2 > > > @ @ < > @ O @ > @ @ $ > ",
"> > @ @ % $ @ > @ @ 7 x 9 6 > 2 h 0 l M 7 l 7 q t 7 i 0 0 h u u 0 0 x F V c F H T &.Y Q z W Q +.6.,.Q N 0 4 & , & # @ 7 0 2 7 > 4 , > , 8 - 4 4 < 7 0 0 2 4 p 8 , 7 0 2 2 , 2 h z 6 h 6 0 h 0 j 6 k i > 0 &.h.rX9.0 - c S u 2 q S 4 7 h V 0 h h S K 0 h B x 6 S B h F Y  .W T A R Y  .R ..Y 5.mXuXfXdXzXpX_.L.}.J.E. X`.,X3X#XE.x.D.T.[.U.S.k.N.J.T.E.'.U.`.oXJ.oXD.n.4XsXoX).R.+X-X XXXoX].K.E.3X{.E.@XOXT.`.2XR.Y.@XXX4XU.T.Y.@XE.:XE.T.>XXX XOXE.+X-X+XoXOXE.oXqXiX;XlXCXAXSXDXg.W ,.3.3.4.q.Q 4. .A J J E ! +.O.! R R ! ] ..] A D  .Y  .+.X.R #.W ..! o. .4.( 7.0.#.#.) /.HXCXzXvXpXiX3XoXoXkX3XY.4X].}.oX3X+X+X.XK.A.R.T.L.J.J.oX+XT.S.E.hXqXA.U.+X4X5X6X'.S.K.K.F.}.`.U.Q.L.K.J.oX,Xj.N..XE.@XJ.E.oX,X`.).L.oX+X4X.Xl.~.R.<XT.H.A.T.`.J.L.+X`.Y.3X5X+X3XZXaXH Q Y G J z D D h x N G A c 0 h W H 7 8 x 0 6 u u j q i 4 8 5 > y y 4 j p t 2 M 1 > 3 a & % d N b a < @ @ y i i 2 @ q 0 7 2 ; 4 w 7 6 > 7 0 7 4 2 2 < > 7 h 2 7 2 > 8 2 7 0 3 - > 2 0 t 7 7 2 @ 7 4 > q - 7 2 O 2 4 7 7 > & , , $ 2 q 6 y @ @ 2 t 2 o % > @ @ % O o @ @ @ @ > ",
"@ $ % @ @ > 2 u d 2 o @ < 4 2 0 7 < 4 7 7 h z h 0 l 6 z B z z Z ~ N A f T W O.! D Y z Z z N O.d.5.) ^ @ @ 4 4 5 > 4 0 2 4 , > 7 0 7 i 4 2 2 7 4 > 4 4 1 * $ 1 @ & # 1 , 1 # % s , = = # # & # # > e : 6 6.M.N.j.~.d.B , , 2 h d t z z u 7 7 0 c z 7 u z B z l c 7 B ' J A B ' $.C R  . ...Y r.jX5XdXuX*X3X`.A.%X1X`.L.S.L.J.).9Xm.H.S.T.].F.l.,XoXwXT.H.'.[..XU.`. XE.U.E..XoXT.5X`.OX).OX[.&XT.oXJ.m.J.T.`. X6XJ.Y.^.,XP.H.D.Y.=X`.qXD.E.+XXX@XJ. XXX6X0X@XoX[.+X/. XxXzXvXlXGX:XD &.7.4.X. .7. .2.+. .Y ] ,. .Y R { [ ! [ ] o.( Z ' o.! Q Q W 0.] B ]  . .o.#.W X.0.@.o.Z u.KXCXzXpXvXlXXX<X'.U.5XXXU.T.OXE.E.].OX'.XX=X+X#XT.1X#XW.L.T.G.4X,X1XP.T.,XT.E..XD.$XU. X<X4XW.m.U.+X X@X,XoX+XU.z.z.).T._.A.T.%XU.K.m.U.E.oXD..XOX,X`.T.|.P.J.+X0XE.J.U.7X6XcXzXZX5XZ ! ..{ Y D ! ~ D A D Q  .Q  .+.:.:.+.) ) O.( r.r.O.O.,.<.6.O.w.r.w.a.r.w.a.w.:.<.w.w.w.s.w.a.b.;.a.w.W 7 > > < > 5 2 7 i 7 7 4 h 2 - 5 < 2 2 7 y 7 > < O 8 7 > 2 7 4 6 0 4 @ 6 2 > - 4 2 6 > @ 7 > O , @ 2 p 2 > % $ @ 4 4 > > 2 2 2 > - @ , , y >   % 3 > % > > > @ % @ O O ",
"@ O , % @ % @ 2 7 2 O O 2 2 @ 4 2 2 - 2 6 2 7 7 0 - 2 0 u 6 7 u 0 j h 0 h d h h h c 9 0 h S J Y C 0 0 o @ 4 2 > 2 0 l - > 2 2 0 2 2 2 @ 7 7 2 2 8 - @ > 2 6 0 2 6 6 0 9 6 0 9 0 h h 6 d d ; d 0 0 - w @.~.k.( f :.M.r.0 3 6 c 0 p v 0 h 0 M 0 0 u 6 v S x A x z h R B C E B D ! D ] o.Q ~ C u.tX5XuXfXfX8X).L.S.S.`.U.2XU.S.T.%XA.}.L.L.T.Q.S.T.OXU.T.J.E.OX X`.T.T.1XS.`.9XA.E.+XU.S.J._.A.J.@X,XJ.U.E.E.,X4XU.@XVXE..X XJ.E.kX;X`.+XD.1X@XoX^.oX-XE.XXXX[.D.E.E.+XkXlXlXzXSXLXV.x ) ,.4.@.=.o. .Y o.] R Y [ =.R D { o.W W W ] #.E  .Y o.o.Y X.X.Y ..] X. .W ] #.o.3.@.6.&.] MXGXZXpXbXvXXXOX`.`.#X@X.XJ. X4XU.J.@XT.z.1X9XA.S.9XW.J.T.@X@XwXJ.D. XoX`.9X,XU.J.`.'.T.+X#XT.J._.%X4X`.E.U.wX.Xn.2XT.U.H.K.T.OX.XQ.oXJ.`.wXOXJ.J.U.@XOXR.A.4XoXH.K.wX8XoXXXaXuXZX5X~ ~ ! ] ] E E | N N [ G z G R ! +.D [ D [ ! D %.=.C ..R R R ! ..W +.#.Y ~ Q W o.+.2...+.4...0.i.Y y.0.6.( d 2 3 4 4 4 5 4 - 7 7 > 8 2 2 > 7 6 2 2 > @ > > > 7 2 t 4 4 t 0 4 - , @ , > 4 > 4 2 2 7 2 @ @ 3 @ 4 @ > > @ @ < 2 @ 2 7 2 > > > - < @ O % % @ > O o > < % @ 4 < , % ",
"@ O > @ @ O O @ > @ @ , > @ % O O @ - 2 > @ 3 - < > > - - @ @ @ @ < > - 2 - @ > 4 - - 7 2 @ - 4 - O % 3 - 7 2 4 2 2 2 O , 8 7 6 - > 5 , 2 7 8 7 4 , 7 z D C Z Y I 1.W ) ( ) W Q ( >.>.5.O.Q 6.+.[ n h d.}.j.W @ B d.M.@.x 2 u 7 0 0 2 h x u 0 j h z x h 0 A N z B B A [ G T D R ~ W X.W ..~ r.MXuXcXtX8X3XT.].b.K.4X9Xn.!.$XT.T.S.U.].S.J.L.'.m.R.OXT.K.U.E.U.OXoXT.#X$Xm.E.E.].J.T.`.S.H.m.J.K.OXT.J.T.`.'.].E.9X+XS.J.+X`.Y.9XY.T.@XU.T.,X`.E.+X-X4XE.[.9X4X-X@X*XdXcXvXCXDXBX5.Y ..+.@.] O.R X.3.#.D ..[ N A [ X.*.4.W [ ! ..Y B W C D W [ #.W Y O.o.{ ] $.] Q 9.5.>.%.)  .(.ZXvXzXvXZX*X^.4X4XE.`.wXU.oX9XR.P.A.T._.n.K.D.W._.S.n.Y.3XT.W.W.-X3X+XOX+XL.1XY. X$X%X X`.J.}.n.U..XoX[.L.n.T.J.$XK.n.H._.J.).'.Y.8X[.'.OXD.S..XA.S.T.2XS.oX`.m.].T.XX=X3XaXpXbXaXT Y ..G Q A x D ! B V 0 x H R T ^ u k A h 0 7 7 2 2 h 7 7 0 z 0 7 q 0 2 7 t 7 j 0 0 2 7 6 0 q 7 2 @ 5 ..w.W h - 2 u 0 2 4 - 7 2 > 2 2 y , - 4 7 8 > 2 i > 2 2 @ > 2 - 4 4 > > , @ , @ > > 4 8 7 7 > > 2 > > @ @ 2 2 @ @ 2 7 @ 2 5 2 O , > > > % $ O 3 > % o > -   O @ O % @ % ",
"@ $ @ o % O > > @ > @ O % @ - O O 2 @ > > @ @ > > @ @ - > , 2 > , % O 2 > @ @ - > < - 3 4 > > r O O > 2 2 7 > - 2 4 5 > @ > > > > - w y - 0 7 @ @ 2 0 Q q.t.+.6.t.t.:.i.e.,.q.+.,.f.r.f.f.e.6.i.C z f t.~.I.3.; ..M.l.Y v u 6 u 7 2 u 7 7 j u u h S z h h Z B z E z x G B ..Y } ..o.#.Q %.I e.BXdXxXgX+X,X`.J.J.wX XoXY.S.A.U.J.L.`.J.).'.L.OXOXS.].T.oXT.OX@XU.E.4XJ.S.U.+X0X'.K.,XE.W.F.2X'.n.J.T.`. XU.z.@X4XU.J._.m.A.qX-X`.L.4X XE.1XE.E.`.Y. X X`.oX XE.-X>XZXzXbXyXCXLX>XQ 4.]  ...Q  .Q ] +.Q R Q Y Y W Q ] @.O.O.[ B } Y D =.%.W [ R W o. .#. .Q W [ Q  ... .@.Y #.] g.DXAXCXzXxXdXfX XY.OXD.W.S.[.E.J.oXU.'._.I.m.T.J.E.)..X+X`.oXoX XXX#XoX@XY.A.OX#X@XA.T. X,X'.`.$X].OXS.T.T.P.%X.XS.U.Q.&XT.m.J.).,X4XoXn.J.$X'.`.OXU.J.).J.`.oXJ.J.@XU.8XsXaXcXxXaXT Q ..~ D G D x Y F h u h 0 z D d h u k 0 v 2 > 4 u 2 4 u u q 7 7 2 6 7 5 > 7 2 2 > y 7 2 0 i 4 ; > 4 f 6.5...6 2 4 4 6 7 7 4 > 5 > 2 2 , @ 7 7 @ > 2 7 2 4 i u 2 2 7 - @ < - 4 > > > > > 7 4 6 2 > > 4 2 4 > @ 7 2 @ > > 2 @ 2 > > @ 3 3 o O 3 % O @ > > % @ > % % > > o O $ ",
"@ > & O @ @ , > - @ % @ o , > > > - @ @ > o > > @ > O < y 4 > 4 - > , @ - > > y 2 2 < > > i 7 - 2 > - u 2 2 < @ > @ % 4 4 2 @ 5 7 2 4 7 4 7 7 > 4 H ..) O...! ! *.H E ! #.T z ^ A $.C C D ! ! B 0 0 2 h Q d.c.5.r.f.r.6 4 0 x t 4 7 6 h j i 7 h 0 d h z x h F z B S 0 z A ! Y C R R  .Q ~ I <.kXdXtXcX3XoX<X`.oXoXT.E.oX'.wXJ.S.L.`.T.@X).m.'.2XJ.,XU.,X'.L.`.XX#XoXS.H..XE.7X4Xm.T.R.Y.S.R.A.U.].J.T.9X X+XsX`.wX$XJ.J.E.`.@XXXD.Y.`.`.#X.XE.T.hX=X+XE.`.oX X^.^.pXpXMXCXvXDX~.W 7.X.@. .%.X.] ' Q ..W Y W ..4. .D D ..Y R ^ E o.' G D ..o.D D C D [ [ ] { W +.:.] +.6...[ ] r.KXAXCXyXvXfX XT.E.3X X,X`.E.`.oX`.@XOXm.S.U.@X4XXXJ..X-XD.4X8X3X.Xj.K.+X+X@XT.#XoXm.[.9XOXT.OX%X`.W.j.K.$X1XU.D.U.OX).OXD.'.`.oX,XJ.Y.T.W.].).T.).E.D.J.U.T.oX XT.OX+XfX*X;X5XfXjXN ..! R D D E C A A B B H F h A d h p 0 u h h h h 6 t l h 0 z h 4 7 q 0 4 4 j 6 q 2 7 7 h u 0 q d 0 i + h ~ 6.Q 0 @ u h 6 0 M 2 - 4 7 > y - 7 - > y - 7 7 2 7 v 2 8 7 2 i 7 0 E A 2 2 2 - i 2 2 % < > > 7 2 > - - , @ 2 2 @ % , % @ > > % > % @ % O @ 2 @ @ O @ > @ > @ @ % @ ",
"@ O % @ @ > - > - > @ % @ @ 5 , @ > > o , > 4 @ , < @ @ > > 2 4 > > > @ 2 5 2 2 2 2 2 > - 7 0 - 4 7 6 2 2 7 > 3 > @ , i 6 4 2 > 2 i > 7 7 @ - 7 N  .,.Y F 6 7 6 6 @ - u 2 2 - 2 4 - 2 ; 2 0 0 > s h 4 $ 0 ( s.d.c.+.0 2 i h l 7 i v u 7 2 7 u l 0 h n z x B h x z z F x D R Q R E ! Q ] ..Y O.kX5XaX5X8XXX+X1X<XT.,X@XU.J.'.A.L.m.OXOXT.J.).P.l.P.'.D.D.E.'.`.6XE.E.oX`.T.D.OXU.U.K.K.oXwX].J.T.].2XD.U.E.hXoX XoXH.n.'.oXU.%X+X@XE.`.qXA.T.#X X;XU.,XwXY.-X6XhX0XpXcXaXzXAXMXg.O.*.8.>.%. .O.&.Y Q @.o.9.R A @.,.G G Y ..R A D ! D A Y R ! R o...x E R ] ..*.4.W $.*.+.W ] Q @.5XDXCXAXbXgX3X4X0X,X#XoX`.E.,X`.+XU.OXOX$XT.+X6X,XOXE.qX`.XX+X3XK.b.'. X4X+XT.E.T.oX4XK.b.`.@XK.l.P.Q.S.n.`.J.K._.I.H.`.^.%XD.T.oX`. X{.W.n.`.U.'.E.OXwX`.S.E.4XoXn.#X-X5XgX5XcXhXC C ....o.&.G ' J h H B z E x M x S h 7 q d x z x h 7 7 6 h S 2 j u 0 7 l c 6 0 h u 0 2 6 K 6 K x 6 i 4 4 6 ( ( E 6 6 7 6 6 k 0 > - 2 7 7 2 2 q 4 4 > 7 4 2 2 7 l 2 > 7 l 7 x ! ! C B 0 > > 7 - @ > 2 5 - 2 2 8 > > > @ > 8 @ @ 2 > @ % @ > > @ % @ - > @ $ @ < > @ o O @ O @ ",
"@ @ O @ @ @ > , @ @ - , > @ % @ @ > 3 > > - @ @ @ 2 > > @ - > > > % @ > > > , - > 4 2 2 4 5 - > 2 2 - 2 7 4 - y 7 2 2 2 - > i i 7 % - i 2 @ - d O.:.C ; 2 t 7 2 2 > 7 p 7 4 i 5 8 > t 7 7 p a O , 0 4 4 l Y @.q.9.A ; q l 7 2 0 u 6 u 0 x x j 0 0 h u m S S x u 0 Q %.G T Y [ D R W #...Q W @.kXdXaX*XaX<XT.U.I.z.L.`.1XT.A.J._.W.eXA.D.oX'.m.J.U.J.W.A.U.,XoXE.`.%X XT.T.S.n.L.U.J.Y.T.J.J.$XJ.H.A.[.U.,X@X`.`.oXU.4X7X X`.,XJ.3X9XT.T.J.E.4XXXfXE.E.+X XXX6X X+XpXfXpXvXAXKXu.! o.@.3.,.] @.W [ @.O.+.G x o.o.D E ' G ] ] ! D R #.W ' D B R G E E R ' ..Q  .o.] [ Q .. .,.] X.>XDXCXAXZXxX/.-X.XD.J.T.3X3X`.oX4X+XqX+X`..XJ.%X'.@XA.'.U.+XT.m.S.@X XD.U.oXT.n.J.4XOXA.`.oXT.K.d.S.}.A.F.F.T.T.A.z.Q.OX+XY.T.T.E.+XD.j.R.@XT.J.m.A.$X`.H.T.R.1XH.U.+XU.+X*XfXZXaX~ Y Y D ' E N z H B x Z h d 0 x u 0 x c c 0 0 0 c v h h 0 7 h u 0 6 K 0 h j 7 u l t i i 6 k j 7 - - u 2 8 2 t B ,.B h % @ i 9 6 7 2 4 2 7 2 6 0 > - t 7 2 i 2 , 2 2 4 7 - 0 F N Q  .h l - @ 5 % 2 7 7 - > @ > > 2 @ > - 2 5 @ > > % @ @ 2 i > @ O , > > % O % > $ O O @ % > > ",
"@ @ @ , % < , O & @ % @ @ > @ @ @ @ > @ @ r - > @ - - @ , > > % - > % < > , > 2 > > < 2 2 , @ > 2 , @ 2 > @ 1 2 2 7 7 t 2 > 2 2 7 $ > > > > x Y t.Q 2 , - 2 - 2 4 2 7 7 - 4 0 7 2 0 u 7 6 7 0 7 2 9 7 0 7 6 h h 7 z c q t 7 7 l B u q b 0 h 0 l h c 6 h x d h z v ( Y h ! R W G R D [  .[ Y 5.VXdXxXpX5X3X,X).m.].E.U.J.).H.T.H.z.K.b.<X,Xm.R.1XT.n.$XW.'.`.oXE.`.5X<XT.'.'.S.L.J.oX'.T.S.S.H.J.E.S.%X+XE.OXU.oX,X`.4X XoXoX`.T.T.XX`.J.wX,XY.Y.sX+XU.U.+X#XE.E.S.5XaXuXzXAXKXu.Y ] O.O.] #.9.! Q Q @.#.C R *.%.Q D T C Y ! Q G T +.D B E $.D E R D W Y ~ ] Q  .W 9. . .4.+.X. .>XDXCXCXvXbX;X=XT.J.J.T.6XOXU. X4X=XE.`.6X#XS.T.J.T.U._.A.@XOXS.T.XX X`.J.U.].m.K.oXJ.OXwXOXJ.W.2XK.A.F.&Xj.z.%XU.I.[.OX`.`..X@X+XoXJ.J.W.qXU.S.P.W.J.b.L.R.j.m.9X`.T.+XhX5XuXZXiXT Z &.W Y A E h ' G z x V S c z l h S S 0 u k 7 h h u h l 0 7 z 0 u u 6 x 7 2 7 2 2 - 4 j 2 7 2 < > a - < > , z ( 1.I u % - j h 6 4 2 > j 2 2 7 8 2 7 j ; w 8 > : 4 7 b 4 0 z B Q ] 0 < @ > @ @ 7 7 > > > O O @ > @ 4 > > $ > 8 2 > & @ 2 > @ > O O % > @ @ , @ o O & > O @ o ",
"@ % @ % @ @ - @ @ 2 O $ O - 2 > < @ > % > > @ 2 2 % , > 4 > > % @ 4 8 @ < , 2 0 4 > @ - 7 7 4 > 2 4 > 2 2 7 7 4 8 2 2 > 7 7 7 > , 0 > 2 7 z ( 1.W 6 % 2 4 7 - > 2 u u 2 > 2 i v 7 q 0 6 i 4 7 j 0 - 0 u 7 7 0 6 0 7 2 7 0 0 h h x i 0 7 7 0 u u h z z h V x N N ..x A C C D Y D Y ' .. ...Q 5.mXdXfX5X5XE.`.`.oX3XsXOXm.n.`.oXK.S.L.L.&X%XwX).oXoX_.z.}.].T.'.`.Q.[.T.J.T.$X'.T.J.E.D.l.R.}.U.9X'.OXU.E.'.wXE.U.#X XU..X@XA.H.9X=XT.`.OXD.$XT..XoX+X+XoX`.`.Y. X0XmXdXuXlXAXLXd.} 4.5.i.! D ] ] Y B  . .#.] Y ! Y ! { H A ' ' R ] B R ..Q / H ' [ Y %.o.[ [ Q Q Q X.! Q ,.] o.] >XDXzXvXcXcXxX3X`.@XE.#XOXOXOXOX8X-XS..XoXY.XX.XU.Y.qX+X@X].T..X4XW.A.E.OXJ.2XE.OXT.n.oX,XOXn.n.!.eX`.l.}.J.].K.'.L.S.`.).S.wX9XoX+XoXS.J.hX#XA.'.J.'.U.W.J.I.{.}.m.Y.jXuXuXfXcXmXC  .[ [ ~ Z D C } B z z x h u 0 E B f h h h 0 k 0 n h x x v 7 < h h 7 q h h > y M 0 2 5 8 > u 0 7 p 6 - 4 5 > 2 u ..) ( 0 O 6 k 7 b 6 - < 4 < @ > > > 8 @ > 4 @ 2 7 @ - > j 4 0 E f - @ 8 t 4 + 4 4 - > % @ 2 > % > > 4 > @ % 2 @ 5 > 2 2 > @ @ 5 @ @ , 2 > @ % % % > $ o % @ ",
"@ o @ O @ @ , @ > % > @ O > > - - 4 > @ % > > 4 2 - > > @ @ > > > - 8 2 - $ @ 2 4 @ - i 0 2 2 - - 4 2 7 7 2 2 < 4 > 2 0 l t > 4 > < a @ v ) @. .6 - @ @ 7 7 > > 7 7 - 2 2 > u h 6 7 7 2 2 2 7 u u 2 u u u j q h 7 i 2 0 l 0 v h h 2 0 t 0 l 7 7 h L h 0 l x F G A x A $.B C R T &.! Y  . .! r.:XuX5XiXsX<XoXU.`.oX3X,XS.L.[.T.U.j.2XS.d.n.E.).`. X`.'.S.T.OXT..XJ.).J.oX9XJ.`.oXU.J.H.T.T.OXA.Y.`.oX`.Y.U.@X`.E.XXXX@X.XF.,XA.T.XXoXT.T.W.U.D.W.E.qX6X-XE.oXoX0XXX*XpXuXZXAXNX@.D  .>. .! o.0.{ W } ..@.#...&.o.] [ R z D ' B D G G [  .( A D Y D ] Y W Y [ [ #.] Q O...( 4.@.] &XZXCXzXbXdX*X^. X+X+XU.{..XU.E.`.#X.X1XJ.`.9XXXE.oXXX`.T.L.R.T.wXA.S.T.oXT.J.E.@X.X'.L.`. XT.K.n.`.J.T.n.L.m.j.Q.1XD.OX`.n.U. XXXqXT.T.1XXXU.D.L.S.L.`.K.z..X'.d.n.wX7X5XuXpXpXdXB  .[ ] Q D Y [ z B F H h S c m x z B V d l 0 u 7 h k h 6 K u i 0 7 i 0 0 u 7 2 2 7 0 7 7 7 0 2 u 6 < i - u y , > v 6.6.Y d > % 7 0 2 > y 4 2 % @ 4 4 - < @ , < 7 2 > > 7 > > 2 z 7 > > 4 0 7 > 4 > > $ $ O - , > > 2 > > > 2 @ o 4 4 - > , @ @ < > > @ > > > @ > > @ , > O @ ",
"> @ % @ @ & - @ > @ @ < 2 > > % @ > > > O > > % O @ 2 2 > > @ > , @ > 7 > @ @ - > > , 2 2 > 4 7 7 2 2 @ 2 2 4 2 > > 2 u 0 i i l 7 1 2 0 ! +.N 0 % 5 > 7 8 2 2 0 7 > 7 y 2 7 6 2 7 - < > 7 l i 7 t 0 i ; 7 7 6 u 7 h t u 0 q 0 l c 7 h k v u 7 u h h d 0 u A B x z x z D G H G D Y Y %.4.o.I r.mXxX3XtXmXoX`.).L.3X<X X,XoXS.S.}.J.T.)._.Q.H.OXU.9XoX`.T.n.`.,X@X[.+X4X3X-XU.D.oXJ.S.m.T.S.T.!.S.$X`.T.OXT.S.U.@XT.oX4X XE.4X X@XoXS..XU.^.+X X+XoX+XXX-X6XwXU.`.XXuX;XbXZXDX:X<.] @.>.4.X.]  .X. .@.Y 4.%.D o.W o.[ C X.[ C [ Q B G G N Z D E Y W ] C ! W  .@.Q Y  .*. .X.4.2. .&XDXCXCXcXmXXXT.OXT.+X,X_.D.T.U.J.%XoXXX4XT.R.E.^.+XoXOX`.U.`.`.T.oX+XE.OX@XY.J.@XkX XU.J.U.wX'.J.m.&X'.A.m.].F.A.T.OX1XT. XE.D.kX6XS.b.!.m.A.OXT.Q.S.S.%XT..XA.).wXT.+XgXxXuXdXfXF D ! W Y ! F B R G L h N A E A 6 h V x 0 q h n h 0 x 6 0 h 9 0 y 2 7 t u u i 2 @ 4 l ; u 0 0 0 0 2 7 y 2 4 0 7 2 2 h C )  .h $ 6 q 2 6 i 2 - > > > l 6 > 8 5 > @ 4 2 2 7 @ > % @ > < , o - 2 7 @ > > < $ o > > 5 2 > > @ > > 2 < 4 > @ O , 3 > @ @ , @ % @ @ > 2 - O O > @ > ",
"- % % @ @ O @ $ @ , O > q 2 @ @ > > - 4 > @ % % @ @ > 2 - < @ 2 > @ > > @ % % , > - 2 - > % > 7 0 , 4 5 > < < - 2 2 7 0 2 t 6 2 7 2 h W 6.R u , > 2 7 4 2 4 t 7 > > i j h u 7 % 4 @ < 4 7 0 7 2 5 7 2 7 6 7 7 0 h h n u 2 i 7 h 6 0 z u 0 0 0 0 j u k l l x N x S H F J B R E Y D R W X.+.T r.kXlXaXuXqXT.T.9XL.).L.OXU.T.$XS.H.I.n.[.J.m.L.J.T.4XE.T.J.W.'.`.oXoX+XJ.Y.D.2XT.U.%XW.m.OXOXH.Q.m.T._.E.J.1XJ.[.oXJ.+X+XoX,XT.`.qX XS.'.-X6X+X+X3X4X4XoX+X@XU.XX@X.XcX5XdXpXCXBX3.! 4.@.>.{ Q W ..4.>.O.] D ! o.B D Y ! ..D R { ..o.x [ $.x R D o.[ W [ .... . .4.O.R  .#.6.Q  .3.eXHXAXlXxXiXXXY.[. XoX-XoXE.eX.XT.E.Y.3X3XJ.S.`.oX4X XJ.T..XT.T.J.6X6XW.Q.L.`.E.T.+XE.E.K.S.U.T.L.m.A._.OXOXT.n.m.U.OXS.J.,XwXz. XXX`.m.I.K.K.m.T.$Xm.A..XE.`.1X1XE. XsX5XuXxXcXfXS E [ D R E A z R D h J A F z h 0 6 0 h 6 0 7 x z x u 2 t h 6 h 5 2 0 u 7 l 0 7 4 2 t i 7 7 0 t y 7 2 > 7 2 7 0 u 8 O 2 ( O.~ 7 4 2 7 7 2 7 7 4 4 y t u 2 j 2 O 4 2 7 > 2 2 - , , > 2 4 8 @ 4 u % > > > o 2 y > > @ > 4 , @ 2 2 @ > , > @ O 2 @ $ @ @ % > @ < > 5 @ % o @ % @ ",
"@ @ @ @ @ @ 1 @ @ > % o @ > 4 > - - @ > 4 > > % , 8 - > > > 4 4 4 2 4 > @ y 2 > > % > 2 7 2 > 2 ; - > > @ @ > > - > 3 > 4 h 6 2 7 d +.5.+.h 2 4 7 t 7 6 2 7 7 7 4 7 7 6 h 0 7 y 7 u x j 0 6 6 i > 0 7 > 0 7 7 u t 7 0 6 2 u 7 0 c c 7 > y h z h h 7 u t h B B z F x x z N Y D R [ $.Y *.+.C >.kXpXaX;XoXE.Y.T.]._.K.U. XoXH.m.H.A.Q.Q.S.J.]._.S.!.T.OXE.).J.S.E.8XE.Y.wXS.H.W.U.`.H.L.F.D._.J.W.m.l.'.z.{.&XU.#X4XXX XT.U.J.`.T.@X_.J. X<XOXJ.[.,X XXX+XXX+X+X-X6X*X*XbXvXZXDXr.) @.u. .Q i.O.X.Y ( O.] Q  .O.Q Q W R B A ' D Y 9.[ N G R R Y [ C E B E [ #.Y !  .9.Q Q O.#. .3.VXDXAXxXcXfX5X+X4XL.T.+X+XE.E.E..X9XU.E.qXhX#X@XE.=X+XD.T.+X4X`.J.J.{.S.l.&XU.'.T.qX4XE.K.&XA.D.wXJ.j.A.'.L.!.J.H.W.T.I.n.+X,XJ.].,XoXoXJ.}.OXS.`.K.S.E.U.T..XK.D.4XXXXXaXuXpXMXfXF C D D %.V B A R R x V N z h Z z f u q h f N z 0 | t > i 7 0 h 5 0 0 v 2 u 0 u 7 i 2 7 7 7 7 7 < 8 0 > 4 y > 2 0 > 3 4 h C Q ( q 2 6 2 - 4 u 2 @ < 2 2 7 7 @ 5 t 7 4 > 2 4 6 7 , > 8 7 @ > 5 - % @ ; 0 4 y > > , > 2 > 5 $ @ > @ > , > w 4 , & @ % @ @ < > @ % > O @ @ o o @ ",
"@ o @ < < @ % > O @ @ @ % @ 2 2 @ - , @ > 2 @ @ 2 2 @ @ , 7 2 4 > 7 i > > > 4 : 4 @ 3 4 7 7 > 4 7 @ 7 2 8 2 > t > > y , 2 x h u 0 Y e.( N - % i 7 2 2 7 u 2 - 8 4 7 i 0 i 7 0 7 0 d h u 7 u k t 2 u h 6 i 0 u 7 0 i 7 2 t h 0 h x u 7 < > h F z 0 h K u 2 x E x A H A z ' E D Y ] ! D Q ..Y 3.BXdX=XsXqXT.T.oXL.).).J.@XT.n.P._.$Xm.k.K.T.H.[.L.m.A.T.`.J.L.L.T.oXE.@XE.2XW.S.U.'.T.j.b.&X'.m.J.L.'.E.S.K.Q.E.Y.`.+XoXS.{.J.OX.XoXE.+X+X@X_.S.T.`.D.OX9XOX7X+X^.;XpXMXxXzXAXLXg.( 5.h.7. .[ +.+.D Y o.#.+.@.4.!  .! [ A z F E N ] } ] W Y ! D C [ E Y ' B %.Q D +.4.O.] +.7.X.X.BXZXzXvXcXpXaX;X'.U.@X#XJ.-X@XT.4XXXE.E.E.+XXXXXD.+X7X_.oX6X7XT.].A.W.&XA.S.J.S.U.,X XT.).K.n.1XoXR.n.J.L.z.S.I.R.A..X_.H.oXJ.&XS.T.oXOXS.J.U.J.m.H.Q.9X`.T.].A.b.E.3XsXjX5XdXmX7XF A ! D C x G T G x F h h B z A E Z v z G 4.0.6.B N d h u 7 u u t 0 h 0 i 7 0 7 9 b 2 2 4 > > u @ 5 7 7 0 7 @ 2 2 u 7 - y 7 D 1.B h 2 i 7 8 7 > 4 8 < - y 2 > 7 0 2 2 > > t 6 0 @ 2 2 0 2 2 - @ < 7 4 7 2 > @ > < @ 4 7 @ $ @ $ > @ @ - 0 0 @ - 4 - - > > @ O @ % @ > > O @ + ",
"@ o O > > % @ > > , O > < @ % @ @ > 2 % % > > 4 - 2 > % > > > @ @ 2 7 @ 4 - > 7 2 @ @ 4 6 2 % 4 @ @ 2 > 2 2 > 7 2 > @ t m z N C ) 0. .6 7 y - 8 t > 2 7 7 2 8 y > 2 7 , - 7 h 7 7 9 u 2 2 2 i u 7 0 2 u 0 u t 6 7 q 4 t 0 h d 6 z 4 i c x v h h 0 c A x F V z z C ^ B N D C } E Y o.] Y +.! e.VX;X5XsXsX7X`.`.S.[.m.H.H.J.wXOXm._.D.m.H.S.m.W.1X,XH.L.].J.2X`.].'.@XT.U.U.J.`.E.OXT.I.{.2XS.S.A.W.eX).&XE.J.U.m.W.oXY.Y.T.J.9X.XU. X<X.XoX`.T.1XoX`.G.=XXX#X4XE. XgXcXpXgXpXKX&XQ 6.@.O.4.W Y Q ..%.W D  .@.@.D $.D W ..%.N ^ R [ x R W o.E ' $.Y Y o.R D $.D *.4.D Q 7.....O.u.KXCXzXxXpXmX XY.XX9X XS.E.4XE.J.OX`.OX%Xn.U.`.E.`.#X@XK.T. XU.H._.'.A.).9XD.J.OXJ.'.`.OXT.'.'.$X'.`.%XR.H.A.'.L.m.T.K.D.OX%XT.T._.`..XQ.S.Y.W.S..X'.U.&XQ.A.H.OX!.J.oX+XY.dXcXMX5XF } ....! G B C ^ h N A V z z G J C O.#.( f.c.h.1.Y C A h 7 6 7 h h i - t j 7 u h u i 2 t 7 u h 2 7 l 0 7 4 4 2 2 7 6 2 4 0 9 T Y D - 2 8 7 4 > > % 4 7 2 , r - > 7 > > > 5 2 4 @ 5 @ > 7 7 7 2 8 2 % > - - 7 % - - 6 2 2 - > 2 @ < u 7 2 6 @ @ 5 4 7 7 @ @ % > > 8 + - % > % ",
"> $ @ > @ @ > < @ > @ 4 - % O . & > @ O o @ 2 2 > O & $ , & 1 % 3 , > 4 8 $ @ 2 @ O & O # . X , @ O & O O & 5 3 : s > ; V B +.r.d.1.6 O & 7 2 2 w 2 t 2 - 7 > > - 7 5 5 , u u k z 4 7 i 4 4 0 0 h - 4 i 7 6 0 t 7 2 6 v h 7 l q z 7 6 F D h 7 7 u u h D A c 0 S R v C #.E z x G %.Q R D Q ! 3.kXpXdXuXXX3X[.T.n.'.U.R.P.S. X+XU.$X#XJ.I.}.A.Q.m.U.[.m.n.J.J.Y. XR.E.[.{.U.#X4X`.J.T.T.oXS.S.{.z.E.E.A.U.[.`.F.S._.[.T.@XoXoXD.J.W.3XE.J.oX+X=X-X+X8XXX+XjXXXoXoX@X/.dXpXcXlXbXVX .o.#.,.@.+.o.=.Y Q R E E ]  .A R E Y O.( N S R G H Y Q %.D D W ( @. .] [ D G 4. .T 9.p.@.%.D g.HXAXxXzXvXMX XJ.9XjXU.S.wXY.Y.2X$XU.Y.@X_.P.].'.oX`.m.J.9XOXJ.1XY.].oX+X+X3X,XJ.I..XU.K.J.).`.z.K.oX XT.`.).oXT.P.}.l.A.`.J.A.D.Y.+XU.n.Q.W.A.K.-X.XJ.l.W.2X)..XoXL.].oX5XfX;XcXaXv E Y I D [ D H S z x S z V G I J  .r.a.r.w.d.b.d.f.8.Q F 7 8 u z V j - k 0 6 i t 6 u h v u h z 2 7 f 0 t 2 i 7 t 2 < y w 7 l q W ~ i @ > 2 4 7 - 4 7 7 6 2 8 @ @ , > > @ @ > $ % @ O O 1 O 4 7 6 < O o r 7 7 @ 2 j i 7 7 2 > u 7 0 q v 0 8 5 4 , 2 9 0 >   @ 2 - 7 @ % 2 > > ",
"> - @ > , @ , O @ > > > % % @ 4 O % $ . > x Y W Y 9 6 E C ) N Y I Z C ( O.~ N R ) O.( C ( W W W 1.( ) ;.:.<.( ! U <.w.) ( <.<.O...i 2 - 2 > > - 2 4 > - > t ; 0 d 4 > 7 2 h z z 0 7 2 7 k 4 , 7 6 7 K j 6 0 0 t 7 4 4 0 d 9 h h 6 Y E 0 d d N C N N x z h G Y B Y J C D D x F o.Q W .. .,.W 8.hX5XuXmXhXY.J.I.b.K.J.,XOXb.OX.X].L.D.$XP.m.H.L.S.].`.`.J.J.U. X+X&X X}.n.Q.T.].,XV.D.U.E.oX,X`.U.oX`.U.T.L.D.J.'.).`.-X'._.'.[.U.,X+X+X3X7X9XU._.T.U.uX7X'.L.J.`.7X*XZXxXtXpXDXMXg.Q 4.O.>.#.! ' R ..Y W ~ ..Y G ! ] Y Q ! [ Y B m X.D G x G [  ...[ } B Q  .O.( O.! @.@.Q &.( (.GXCXvXdXpX:XG.OXD.Y.,X6X6XD. XwXD.OX+X@XE.$XU.!.b.L.K.W.^.@XJ.oX+XJ.9X_.J.$XE.x.OXuXhXQ.k.'.@XoX4X2XA.T.oX`.}.J.].Q.F.l.U.'.J.J.T.+XOXn.S.~.j.F.P.L._.F.n.$X^.S.$XT. X7XqX:XiXcXuXf Y ! %.E D ! x B F ^ B z c Z Y u 1 1 B 6.C l F ) f.I z l u 7 s u 7 l u t 2 7 7 i 2 2 7 l 2 2 1 % % > O % 7 h 2 2 b 0 6 7 @ r : 6 E <.:.B 2 e 2 4 2 4 > 4 2 2 5 2 - > 2 6 q - > 7 0 d B V 0 d A D Y C z z z C T f h 7 h h l 0 h B 2 6 h J h h h u 0 7 2 > , 3 > > o , > @ @ O ",
"> > % @ $ O @ % > > - o > > - 8 @ @ % % 4 6 B ~ &.c h k f H S B B z z Z D V d A E E Y z H B F C T ! ! ! ( 2.! N Z ..W ! ! R ~ S f t ; 2 8 > > 2 7 2 - i j 2 7 0 h 0 0 < 4 S d 6 j j 2 0 0 - 7 0 n 0 2 7 l i 0 t 7 4 2 h x 7 7 8 < 7 j u u j 0 c 7 b i c 0 c u n F l x E | A A Y  .! ] ] Q B u.BXaXuXxX=XE.^.J.Q.m.L.[.[.L.U.U..XT.S.S.A.J._.T.D.1X`.S.W.'._.`.OXQ.`.z.J.J.`.A.`.%XJ.OXJ.`.@XE.T.+XU.W.R.m.`.T.J.oXOX#XU.n.U.E. X'.U.4X3X+X8XU.T.E.4X4XU.[.oXE.U.J.fXpXxXlXxXyXHX/.3.#.+.t.@.Q o.#.! ] o.Q Q ..Y R =.] B D ..D z A &.' E ! =.] ] ..Y D [ ! o.+.X.+.R ] 4.0.&.Q MXGXCXcXlXlX=X@XwXT. XqX3X=X>XE.%X X`.@X.XE.T._.F.M._.J.J.Y.OX XT.$X`.T.U..X`.'.T.<XqXJ.D.).L.A.R..XJ.T.OX.XU.U.T.A.F.J.J.wX_.U.U.1X,X.XS.H.S.J.S.J.OXU.b.U.$XU.J.A..X+X XXXhX5XcXaXN Y ! ~ C ! T A B Z z N x h z / z 0 t 9 1.i.C ,.f.6.C z n u 0 8 v : h h 6 4 l 2 u 4 4 2 7 t t 6 @ 2 i 7 > > i 7 7 2 7 7 7 2 2 4 6 h W #.Q 9 2 y 2 > > > > > < @ @ > @ 4 > 8 4 7 7 0 u 0 6 l h 6 A z z V v 7 d h 0 0 0 2 > 2 6 j S 2 i j 0 ; 7 6 2 6 - - > < o > @ @ @ @ @ $ $ ",
"O @ & o @ < > @ @ > > @ , 2 4 > > > + > u 6 x A h z S 2 7 4 7 l 9 4 0 u 7 7 q d u > j x h 0 i u 0 h x z z 9 u 0 k c j c k 0 u 7 - 2 7 7 4 > < 7 8 2 2 6 v x k h C 9 v > > h h 2 w 7 2 - 2 6 h v d t 2 0 q 2 7 0 7 7 2 j M 5 > 5 a 1 > 7 i l a a y s a w j M y i n h z x S x H R ] R Q W ..Y u.BXpXdXaX5X4XoX`.OXA.A.L.U.,X9XU.S.].K.l.{.OXT.L.F.'.E.L.L.m.S.oXT.H.oXJ.1X4X[.).[.OX`.)..X@XU.Y.`.J.).H.b..X,XoXn..XT..XoXwXE.Y.9XJ.}.J.U.7X3XoXU.3XqXD.D.E.^.4XoX.X6X;XlXZXxXyXZX;XY ~ #.>.e.) @. .] ..D W 9.o.B &.Y Y ' A ' Y ' F Y ' B W O.C G Y @.Q Y [ [ Q +.0.+. .O.4._ u.KXAXvXlXMXbXsX XoX). XT.E.T.9X XT.@XL.S.W.[.L.OXOX{.J.E.$XOXJ.T.E.A.T.@X X4X`.l.H.4XS.U.T.D.I.n.!.J.`.wX'.T. XoXJ.D.A.J.2XoXS.9XU.).J.J.&Xb.A.kX#XoX.XJ.E.$XJ.K.@Xn.J.+X6XuX5XfXfX5X~ +.Y D Q ' &.R A z E A D S 0 d z h x 0 A >.s.5.:.E l h 6 7 h i l h j q 5 4 7 2 q 6 7 7 6 7 7 h 4 j h 0 0 7 - 4 2 @ < 4 7 7 7 4 6 2 7 Z ) D d 0 y > 2 7 4 @ 2 , @ 3 > 7 o @ 4 7 x q 8 5 7 d d k v 7 u 7 4 > 3 2 4 4 6 4 7 2 2 > ; 2 > 7 @ @ t 2 > 2 , % > > - - @ @ > @ o o , ",
"@ @ > $ % > % @ - @ > - > > > @ > @ < > - 2 0 0 2 6 2 @ @ @ @ @ 7 5 @ - > , > 6 2 - 2 7 2 @ > > 2 - 2 2 2 > O 7 i @ @ - - > , 2 2 % > 2 4 4 2 2 @ t p 6 k h h z f q h 7 - 7 7 2 2 @ 4 2 j l h 0 7 4 0 u 6 - 2 u 0 u i 2 2 7 0 6 d 0 0 A f 6 0 6 f f z d z u d z Y x F A x R A C R Y  .W +.C u.kX;XcXpXXX@XU.L.%X`.H.$XY.XX}.n.T.J.H.b.U..Xz.J.J.H.U..X!.S.J.T.U._.L.oXXXT. XoXS.H.L.J.`.T.Y.kXwXQ.OXW.A.W.`.m.).].L.J.U.`.`.,X`.#X2Xl.OX7XT.E.+X4X].D..XwX3XXXT. XE.iXlXZXpXbXCXnX>.+.6.3.>.O.) @. .X.D W ] Y Y W D E R D E E R D Q E D ' 4.%.A R Q 9.] Y O.@.O.( O.0.*.O.W (.LXAXCXbXyXxXXXJ.OXoX^.,X4X`.D..X].T.S.T.K.n.H.U.qXE.z.J.J.T.S.J..Xm.L.#XoXE.9XU.T.Y.{.T.oX2X@XU.l.H.,X Xm.'.oXoX,X2XQ.D.T.`.A.U.W.J.T.$X!.l.T.4XY.OXY.OX@XT.m.J.@X&XA.4X7X*X5XtXfX7XI C R o.D D E Q G Z G A c z v 0 V J c k z C <.1.z 0 2 0 j l u 7 0 7 8 7 2 7 0 7 7 7 2 2 2 2 7 i 7 6 2 7 u 7 > t 7 < > > b 7 2 2 > @ @ 6 ~ ! C N 0 0 4 7 4 0 h 4 @ > - y - > 5 6 B h - 4 x x 0 4 6 2 2 @ @ @ , > % o @ 7 7 > @ 1 > 4 - < > @ > > > > - @ @ - > > @ > o > $ O % ",
"@ @ % % @ o @ , O O @ < - - > o > O > , O % 2 2 7 > % O % @ > 4 4 > > 2 @ @ > @ 4 2 2 6 7 > - > 2 4 , - 2 @ > 7 0 @ > > 2 2 2 < % @ > % 4 4 2 7 7 2 2 7 - 6 h L h 7 - 4 2 u 0 0 9 2 0 h h u t t 0 0 u 0 0 7 u u 0 7 u z D 4.O.( s.a.w.1.O.>.( w.<.w.O.t.( 5.<.r.<.Y Q } B Y ..} W ( 4.+.! C u.kXdX5X=X8XoXL.k.T.OXS.S.OX,XS.n.].T.2X].S.L.J..XW.S.m.`.D.S..XT._.J.W.OXY.Y.kXK.n.].T.`.D._.T..X%XR.S.$XJ.S.W.J.T.H..X@XT.A.J.U.S.U.E.@XT.'..XJ.T.XX#XoXOXT.OXoX^.-X+XiXbXbXdXbXAXDXz.Y +.,. .%.o.Q Q #.o.! o.D O. .A D R R R D ' Y R [ W N Y [ R R D $.o.Q Q q. .+.5.4.2...8.KXGXCXvXyXlXbX^.J.oXJ.oX0X-X@XU.oXOXA.$XW.J.%X2XU.T.T.H.D.E.J.R.T.'.U.4XoXS.m.%X`.E.J.E.S.F.A. XqXT.S.U.9X`.[.OX%XJ.W.$X`.T. X$Xl.`.`.,XH.J.L.S.$XJ.J.hX.XM.j.oXkXT.U.T.0XhX3XfXdXgX6XZ C ....Y D F A Y [ x h 0 d | B h 0 u u 0 S Z N 2 l l 6 2 i 6 v k 2 7 4 0 h h w 2 i % 2 7 u 7 @ 7 4 > 2 2 0 h 4 2 8 2 2 @ > y 7 2 y > 2 h %.Q 1.W A u v F B z 2 2 2 , 4 > 7 > @ x A z V ^ h > . v c - O % 7 0 % 1 > , > 7 2 - % , - - > 2 2 % > % > > > > O O @ @ > O , % O O ",
"% > - @ @ @ @ % @ , $ > > - 3 > > > > > o O @ > < % @ @ > > > 4 @ - 4 < 2 1 > @ 2 7 7 2 > > > 2 w 4 4 @ 2 > 2 w - i 2 7 q u > - @ 4 y @ 4 y 7 7 2 t 8 8 7 u h k 2 > < > 7 t h h c v h c d 2 i t - 7 0 t u 0 t 7 4 2 0 W a.r.r.c.d.k.c.r.i.c.d.k.N.r.f.f.w.c.d.h.r.G ! ! R Y Y Y Y #.4.Q ! D 5.VXuX5XaX5X+X).J.F.J.J.J.W.n.L.$X{.).oXT.S._.9X`.A.K.Q._.T.D.'. XJ.U.K.A.4X3XE.D.J.2XT.).`.OX[.A.A.n.J.).OX$XD.`.[.J.E.T.L.K.'.].W.W.-XT.A.$XU..X@XT.XX4X`.n.J.oX@X;XiX*XuXuXuXlXSXZXBX5.+.q...Q  .( { X.4.W ] [ 0.#.B R =.Y D D D #.R ..Q ' S B o.[ W D [ q.4.X. .:.8.+._ W (.HXlXCXvXvXDXtXOXOX XwXT.Y.XX/.#XE.Y.T.D.U.U.[.1XA.J.OXR.W.{.T.U.`.m.E.4XOX_.K.n.].T.oXoXT.M.T.`.+X4X.X.XT.oXE.n.J.S.J.J.J.U.U.&X<X4X+X@XJ.J.OXJ.m.J.<X`.n.K.'.E.U.D.T.D.oX XXXfXxXcX3XF ! +.I D $.H A z B z m x x S 0 9 j l 0 0 h y > t n h 2 j u 7 Z l 0 6 B &.z z c 7 0 2 7 7 u 0 5 2 i - > 2 7 l @ 2 i 7 2 2 > 2 q 8 > 7 4 > 0 D I +.G z z Y z d d 2 - - 2 2 u 4 4 t 0 h x v 2 , o 0 i 5 > > 2 6 4 @ @ > > 4 > > 2 5 @ 1 > 2 2 % > @ @ % - @ O O @ % @ @ O @ @ @ ",
"@ > @ @ > > > - - % @ > > % > , 4 , > 2 4 5 O % , > @ % @ 2 - @ < y - - > > 4 , > > 4 2 > , 2 4 2 4 > 4 y 2 7 4 > 2 4 2 2 , 4 < , 0 0 > 4 2 > 4 2 u 0 0 u 7 2 > 7 @ 8 4 i d z h 0 0 u k p 0 h 0 7 2 7 i 7 0 7 3 @ h o.s.d.r.) 6.2.O.( ! @.5.t.O.t.O.9.( 1.4...O.W J B Z B D %.Y ! Y D Q 2.Y 6.hXuX5XsX5XE.,X_._.K.J.U.}.A.`.2Xm.).T.[.].A.H.T.J._.m.l.].U.E.,X4X'.S.A.oX3XE..XP.J.J.b.).OXW.].J.).U.).R.S.U.1X[. X@X9XT.T.$XS.^.wXU.S.D.'.D.E.XXJ.U.T.@X4XT.A.T.6XXX=X6X5XxXlXpXpXDX(.W _ o.3.3.t.W  .#.D W o.Y Y #...~ ~ [ A D ] D Q Y ! D E o.Q ]  .W ~ R D +.>.8.,.( d.gXCXZXbXlXlXbX XU.T.U.9X`.,X X=XuX+XE.E..X X,XE.S.T.R.I.F.S.m.$XE. X3X,XU.U.T.U.H.S.oX8XU.+X9X`.E.E..Xm.Y.+X@XS.S.%X$X8X%XJ.T.].L.D.Y.@XT.F.W.`.U.oXU.{.Y.).J.>X#Xz.J.+X=XE.^.7XaX;XMXsXD o.Q +.[ R ! F H A S F Y C h l u K k u m j > y l h 0 7 l u h C b h D ,.O.....z x V h u 4 0 u h 0 h z h t @ 2 7 7 t 2 - 4 2 2 @ 7 2 2 7 5 2 h d H H f D C 0 7 7 > - 7 t 2 > > 4 2 > - - @ @ @ O @ @ 7 7 7 2 @ 7 2 2 2 > > > , @ 4 - O o > @ @ < > > > @ % @ % > @ $ O O O % O ",
"@ @ % @ > 5 - - , @ @ @ % 2 @ > > > > 6 2 4 > @ % @ @ 2 > > % O > > , < > @ > 4 > > 2 > > > 2 2 7 @ 4 2 2 > 7 7 , 4 7 2 4 4 > > > 6 y > > - > 2 y 7 7 0 6 b u 2 y 3 2 7 S x V j 0 h 0 7 t u h 7 2 4 2 2 0 0 7 > 7 ..r.O.:.Y h 6 9 2 @ 2 7 D f 7 u 0 h z z h z h z k h x C E ! W [ G Y  ...Y 5.BXvX*X-X:X-XJ.S.R.S.T.E.J.T.OXn.A..XT.`.'.J.A.&X).H.A.H._.H.[.Y.U.K.!.OXT.`.L.m.J.U..XOX`..X'.J.T.oXOXT.K.'.OXT.D.'.S.Y.].).L.T.1XU.J.eX'.D.S.U. XE.2XoX X XOXT.OXoX3X;X@X5XxXfXcXnXAXKXu.U ) @.6.5.Q ..Q O.0.O.R D R ] W R [ R ! ' [ Y T Y Q Q ] W *.>.4.o.D 9.q.#.7.) :.>XCXCXvXvXvXbXaX`.`.[.`.H.).@XE.8X4X^.+X`.+X+XoXU.[.K.A.M.'.n.l.W.L.4X7XY.n.OXXXoX'.'.4XU.OX,X+X@X-XW.S.z.U.qXoXP.oXD.OX`.U.`.L.J.J.T.T.A.J.1XK.n.`.4Xn.n.oX,XT.J.Y.`.@XE.qXqX+X5X8XuXfX6XF Y ~ R Y Y N H A B z ! E z S k h 0 l 7 7 b u j 0 6 v x u h z z 7 Y 0.) ( W D B E h 2 0 7 7 u D 0 j } z 0 u 7 4 7 4 7 i w 7 7 8 t 7 - 7 7 4 ; w 2 u z } ^ 0 2 - @ 8 7 2 4 @ $ 4 - - 1 , @ % @ > 2 > > - l 7 @ 2 7 4 > 2 @ % > > 2 < @ , y - > % - > @ @ % O % 2 @ O O O @ @ O ",
"> > @ O @ , @ % % O O @ 4 2 - > @ O > 7 > 2 @ > > % , - @ @ % @ % 4 > > % @ @ @ @ 4 7 > @ 5 2 0 > @ 4 7 7 @ @ b j 2 4 > 4 8 7 7 > 4 w @ > 0 7 2 3 - i u 6 h h 6 t 2 0 o.C h h c 0 0 u 6 0 2 l 7 2 y 0 7 0 4 8 9 9.k.j.Q 7 > u t l j i 2 0 v 0 0 v S h 0 V x h B W h x x | H N A o.( q.Y ] ! 5.VXpXuXgXmXU.J.2XS.S.[.%XS.S.{.U.D.R.1Xn.H.m.J.R.J.K.K.T.E.'.R.m.T.U.W.U.+X0XT.J.`.[.T.oX`.OXQ.n.%XS.U.$XH.OXS.J.`.9X$Xl.K.T.T.&XD.J.OXW.K.$X.XT..X4X4XY..XU.T.1XU.`.+XY.E.^.:XiXdXuXyXDXVX( ) 2.+.Q >.+._  .9.] R ! Y Y ! E R R ..W o.[ $.} R ..} [ o.*.#...2.4.8.<.) W V.cXbXzXpXpXlXbXXXoX4X6X@X$X<XS.S..XE.`.`.+XL.1XJ.T.OXS.A.K.2XK.b.I.S.R.J.n.`.9XoXU.U.@XOX'.+XU.T.9X[.A.A.F.A.S.E. XwX`.U.l.A.W.m.T.OXU.L.E.m.T.J.T.J.J.'.T.{.U.S.'.,X`. XT.J.,X`.hX;XpXbX3XE C ! B C Y B G H C E N h h | B x f c z 0 0 n h h u u 7 6 u 0 0 z &.} 0 W O.D Y E h 2 7 u u 7 u 0 u 7 2 h B S h > @ 7 6 < < % t 7 2 > 2 6 2 > > 0 v h 6 ; 2 6 i 2 > > @ > < > 2 7 q > - 5 4 > > y 2 ; 2 % 2 7 2 > @ , - - 2 > 4 - 2 > > > 2 > > > @ > @ @ @ O % @ @ @ @ @ @ O ",
"% @ % > - @ % @ > @ > @ > > @ 2 > % > 4 @ > > - > > > % @ % , > @ > 2 > > @ % > 7 2 2 > 2 > 2 4 2 @ @ 2 l 4 > 6 6 2 4 > @ 4 > - 2 - 2 @ 2 4 0 2 > 2 7 0 0 h h u 4 6 B q.! 9 h K 0 2 2 2 7 j > 2 6 7 i 7 0 2 6 R d.d.Y 2 , y 0 7 2 z h u j 7 k x 0 h V S 0 0 L / B S x B z S x ' ( ( @. .+.I 3.kXpXfXMXfXU.S._.m.U.,XJ.J.&XH.T.W.K.T.n.m.S.A.J.).T._.n.T.A.J._.J.T.[.@X4XU.Y.U.E.wX`.4XT.A.Q.S.T.{.oX@Xm.W.J.,XwXJ.U.`.T.}.l.W..XU.U.A.l.D.E.E.9X XU.OXJ.U.#XY.`..X8X`.4X.XY.uXuXbXxXxXDXG.C Q +.Q ] @...O.o.W Q ~ ..R ' D R ..{ #.#.W B D  .%.! [ ! #. .+.4.*.4.w.( d.MXvXvXlXcXcXcXaX+X`.#X X XA.].P.H.1X1XT.,XoXS.'.'.W.m.J.&XH.H.D.Q.I.m.E.{.J.E.XX9XJ.OX+XT.L.T.J.$X[.T.@XQ.!.l.Q.'.,X].A.m.n.J.H.1XOXU.U.[.'.U.`.].Q._.D.oX4XA.A.W.OX<XS.T.P.`.oXT.`.5XuXxX*XT C [ R B ! ! E C N F x u h B B S 0 k V h 0 l x h c 0 0 u 7 7 x E f 7 j f } ~ o.H 6 0 u 0 6 7 u u i & @ c z x 0 7 @ p 2 > % O 8 2 % , 2 7 7 4 @ @ 8 7 7 4 t 0 u 2 > 5 > 2 4 > 4 7 4 2 3 > 4 > @ 4 2 > @   - 2 < , O 4 2 > , @ > @ > > 2 - - > @ @ @ > > % @ @ - > % O O @ @ % ",
"@ @ @ 2 2 > @ > , % > @ > O O < 2 5 > @ $ > < > 4 > > > @ % > 4 > @ - > @ 5 @ 2 u 0 7 4 7 > > > > 2 7 > 2 h x 7 2 q > > > 3 @ 7 2 > > 2 2 4 t 2 i 2 y 2 7 u 0 c 0 Y I C ! B z z 0 4 - u 0 q > 2 7 0 u 2 2 h +.t.>.Y d t y j c 6 0 u j 7 0 h h u h 0 h 0 z x ^ z h J B | C G N D ] W  .@.[ E e.MXlX+XtX*X,XoXJ.OX`.oXD.oX9XS.T.2Xb.S.&X'.S.'.'.L.T.J.K.2Xm.}.[.H.[.3X4X`.J.`.`.-XU.D.T.J.S.2XOXA.Q.T.,XD.F.,X1XA.S.J.OX2X'.J.T.$XS.U.J.S.J.F.m.S..XS.T.`.9X4X4X0X`.qX X8X,XE.jX;XgXcXCXSXHXV.( ( &.7.O.Q O.4.O.*.0.D D ] Q ..' ' +.{ Q ....Q  .#.Q  .X.+.4.7.@.,._ 8.nXHXAXvXxXvX*XmX5X+XE.T.S.`.Y.J.J.%XY.J.4X.XL.S.@XwX).m.A._.T.A.J.%X`.D.'.K.K.T.T.`.`.L.T.U.S.2XOXS.J.oX%XA.Q.F.W.OX@XU.T.H.P.U.H.[.`.`.2XU.J.OX X9XS.$XJ.U.OXT.E.J.J.E.`.4X`.oXL.+XoX7X*XbX6XD ....[ R C Y Y D F N J c x k z B x u 6 v u 6 0 S n 7 7 M 2 h H 4 - j 0 2 0 ! E 0 7 M 7 7 7 7 t @ @ < 7 7 k B h S 2 8 > @ u > 2 2 > % - 4 2 - < % > 2 7 4 y 2 2 > > > 0 u > @ @ > > > > 2 2 > > @ 2 > 5 & > > @ > > 8 2 @ @ > > % % - 2 2 @ > > @ > , % O @ , @ % @ @ > % @ O ",
"@ % @ - 2 2 > > > @ > > > O @ > 2 2 @ O @ @ > > @ > 2 > % % @ 2 2 O % , > @ > 2 0 7 6 4 > % % @ 4 q 4 1 > 0 x 0 > 4 4 7 > > > t 4 % 4 0 8 - 4 2 j > > 2 0 u 7 7 u Y D f f A A z 0 > 2 0 7 4 > 2 h 7 7 @ 2  .d.f.N 8 q 0 6 h j k z 4 u 0 k x j l L h k c z H z H h J x h D =.Q H ..Q 9.Q ..] u.BXlX-X#X5X8X).L.U.oXT.1X[.J.n.A.R.m.b.A.J.m.$XU.m.L.T.Q.n.n.`.D.T.OXoXE.T.).T.E.`.'.E.m.OX`.T.T.U.T.).`.T.T.J.E.W.W.T.U.J.E.$Xm.n.F.W.OXOXL.n.!.R._.J.E.`.+X^.-XoXK.XXE. X`.^.:XfX:XyXnXAXGXHX/.R ) 6.#.D ..#.@.3. .! [ =.Q  .B D Q } R #.W W ..Q Y ! 9.@.O.e.>.O.>.NXHXlXlXlXlXZXlX;X8XT.oXT.OXqX+X1XE..XU. XXXS.L.$XD.`.oXI.M.T.E.E.`.$X'.A.'.S.P.$XL.J.OXJ.U.$X$XS.E.@XT.Y.@XA.OXT.n.T..XJ.n.H.U..X}.J.oXE.J.K.T.`.T.T.OXJ.`.`.U.9X`.OXT..X<X`.oX@X+X5XjXXX;XbX-XV Y G ! R R T ' N S N N N z c 0 A h 0 0 S v j u u 7 t 6 h 2 h h - 7 c 6 7 u 0 h 6 2 2 t 2 2 i 6 & < 7 6 2 0 0 A N S 6 > i k 2 > 8 2 @ , - a 4 > 7 - 2 @ 2 2 7 7 , @ > 7 7 @ 2 4 % , @ - 2 - > 4 @ 2 @ @ @ - > > 4 2 - 2 > % 2 2 > + 2 > o > - 2 > % > > @ @ @ > o @ @ - O $ @ ",
"@ $ @ > > @ @ O > @ % @ @ , 2 - - @ > , @ @ % @ @ > < > > @ , > > @ 5 > - 7 2 @ > i 2 - > O < 7 7 2 > > , 2 ; 2 i > > > 2 > > > 8 @ 2 4 @ @ 4 7 7 > > 0 h 4 > 2 h 7 d D D f v 7 t 2 7 l h M t 2 0 > 4 x o.<.w.] 7 w 0 2 6 l 0 7 x 7 0 h u h 0 h N x c h x z h J x E E x x E ! E Q o.! ] ! B 3.kXdX;XjXmX7X[.H.'.K.S.J.`.1XL.A.n.W.l.l.J.A.K.l.b.'.J.l.m.T.T.J.z.`.E.J.T.U.J.T.U.OX,X'.L.T.).`.`..X4X XS.T.oXT.T.OXT.J.OX`.J.z.S.I.J..XT.P.T.U.,XS.S.W.@XoXE.E.`.).4XE.E.6X+XJ.+XNXuXpXcXlXvXHXG.O.) q.E W ] @.@...[ .. .Q ,.9.[ o.{ Y W o.Q ] 4.4.(  .7.@.) W V.DXHXCXcXbXzXvXZXfX X_.J.`.OX@XY.E. X XA.T.hX+X$XoX@XT.U.oX$XS.J.S.`.J.l.l.'.J._.2XJ.'.K.W.A.S.S.$XU.A.1XVX`.E.oX`.T.T.oXOXK.I.T.J.W.W.n._.`.J.Q.U.).U.A.$X`.J.`.S.$XA.[.[.S.wXU. X@X+XXXiX8XfXnX=Xv Y B ~ R ! N E F z B E N z c c d n u v x h 6 h h u q 7 l h u 2 2 t c 0 7 l 4 0 c 0 4 7 7 6 u u > 0 h u : i 0 S z E E 0 2 2 8 @ 0 i 4 4 % , > 7 7 7 > @ 7 u 6 l 2 2 7 @ > % > 7 @ O , 4 > > 2 > > 2 7 > 2 2 2 7 4 @ @ % < 2 7 7 7 - @ < $ > > > > @ @ > @ @ @ 4 . o O % @ O O ",
"@ $ O > > @ O O @ @ @ % @ > 2 > @ > > , > > , > , @ @ @ w > @ @ , - > > 2 > 4 % @ 2 2 2 @ @ 4 2 4 - 1 > > > % 4 7 - @ , - 7 i @ > - 4 > @ 7 7 2 - > 7 6 7 2 < t - @ 6 D ~ B u 4 i i 2 0 2 2 2 q 6 @ 0 ( r.t.[ 0 2 7 h 0 0 j t 2 t j 0 h S u v h B z x h j L x z z C G L S z A Y  .D Q R W [ u.:XxXcXpX*XE.[.S.J.S.H.n.T..XJ.P.OXOXb.n.S.z.{.J.J.S.S.T.J.W.S.`.$XH.).'.D.T.2XOXD.<XL.J.K.P.T.OXJ.T.H.T.D.R.9X`.T.A..X X,XE.m.n.n.!. XJ.T.T.`.,X`.E.&XA.U.@X[.H.$X'.E.oX.X0X1XT. XjXgX;XfXuXuXCXDXiXr.C W q.4.Q Y  .Y Q  .4...Q Q ....#.o.! ] Q O.7.@.0.3.:.O.C.LXGXAXzXxXzXCXpXuXgXU.n.'.`. XE.J.U. X X'.,XY.E.Y.T.T.`.1XE.D.@X$X,XOXH.!.K.OXA.j.P.n.W.%XU.U.'.S.F.wX'.z.S.L.U.@XJ.T.'.0XT.z.'.K.U.K.l.n.D.T.J.`.n.L.wXT.{.OX[.OXJ.j.Q.,XT.D.OX,X X9XD.`.-X*XdXfX6XN E ~ Y G R E T x A B B V V d h u v V h h k 7 V d l u u 0 M c q 2 c u 7 7 u 0 j h x 7 2 7 0 6 0 u 6 2 u 2 h 7 2 7 B Y D > < 7 > 6 2 2 < @ > 4 2 0 0 > , w 7 0 6 4 > 7 - O > 2 2 2 @ , - - 4 4 , 2 2 - y 4 7 0 6 6 @ , @ 4 2 7 7 7 0 @ @ 3 @ > > > > @ , , @ > - O O O @ > @ o ",
"> % @ , > @ @ , @ > > , > > @ - % 4 > O @ , @ - @ @ > > 2 > - @ > > - 7 2 o 3 > 5 @ % > 4 7 > > & 4 < 4 > % , 2 2 2 - 7 7 > - > 2 , > 4 4 7 7 4 > 2 u > 7 > 2 t 3 , 7 h x u > 2 y l 0 7 > 0 u h h d  .r.r.! - > 2 6 q l i 7 0 2 7 B z h k 2 0 c v 7 h L h h h S ' z x R B A D ! R W @.q.,.D 8.BXvX=X;X=X`.].wX].OX).].$Xj.H.'.W.F.L.K.m.U.R.$XH.I.W.}.I.U.2XT.A.S.J.J.OXE.U.oXL.E.U.J.K.'.,X@Xl.$XY.T.OXE.L.J.>X@X$Xm.U.OX&X'.S.&X`.D.oXU.[.E.J.oXE.T.@X1XT.).T.U.<XOX`.U.XX XJ.^.uXtXdX=XgXpXzXKXMXu.] ) +...X.6.4.+.Q o.Q W Y Y Q Q ] Y [ [ @.3.Q 3.O.X.G.ZXZXAXzXlXnXZXDXbX3X X`.U.T.+XE.].`.'.4X X3X#X'.T.A..X_.m.E.oX1X4X+XqXW.z.A.$X'.m.j.K.Q.U.A.T.$XOXD.E.T.'.E.S.W.T.S.2XW.n.`.J.S.OXQ.P.P.n.A.T.T.`.T.m.S.`.OXJ.K.1XqX%XU.`.W.U.T.J.J.'.A.].qX3XsXcXcX6XA E } [ E [ ! E Y D B x z S c B u 0 h 0 7 0 h h 0 u 6 h 7 6 7 u 6 0 q 2 0 q > u 0 6 t i 7 0 7 7 t j 2 > 7 7 6 2 2 6 0 z j 0 7 i i 7 - @ , 4 6 7 t 8 @ < , > 7 - 2 2 2 5 < - > > 2 > 4 - - 2 - @ 0 7 - > @ @ 7 : 7 > > , @ 2 4 @ ; 4 2 2 > 8 O O @ @ @ % > > , > @ O $ @ % @ & ",
"- - , @ o > 4 4 O O @ 2 , > % @ > 2 > $ @ - - $ @ - 2 7 @ - > @ @ 1 - 7 > @ , 2 7 @ O - 0 4 % . * ; 2 < - 0 0 2 2 y 4 2 2 $ > 2 2 5 > u 7 7 7 7 7 0 u w > > 2 7 2 7 h q 2 7 7 4 7 7 0 u 2 q i 0 p ( a.r.W h > 3 7 , 2 u 0 x l t i j c u 7 8 l p 0 i i 7 v 6 0 u L l B D ] =.B Y  .) 4.O.3.Y u.BXcX5XsX8X4XJ.D.m.Y.oX,XS.l.P.A.T.D.J.m.J.$XJ.L.m.R.S.A.A.n..XE.n.P.T.`.OX`.@X,X).Q.eX}.n.U.<XoX).~.&XJ.U.K.I.l.U.T.`.P.H.T.,XT.J.Q.J.'.oXT.T.J.I.'.E.-X-XA.T.T.`..X3XT.[.R.XXsX@X X5XbXaXpXcXcXgXyXAXKXrXW F ' W f.e.Y ..R H G $.} [ ! o.$.[ D @.8.Q #.h.BXGXFXAXGXDXAXpXlXvX*X@XT.OXXXY.K.U.U.{. X@XY.+X+X].m..XT.{.F.Y.7XOXm.E.`.n.&XJ.1XJ.S.~.F.n.`.OXOXU.J.OX4XU.T.wXJ.S.$XU.W.K.J.W.T.OXU.m.].S.L.].E. XE.l.I.L.J.+X9XL.J.T. X,XA.n.D.9X4XU.{.n.[.oXXX5XaX;XqXF D E D Y ~ D G G G S h B k t c u u K 7 j 0 x l l 6 h l 8 @ t l u i 5 4 v j 8 6 t b > 4 u 2 y 0 > t 4 < , > u p @ > , j ^ N ; > 7 q > @ & 2 t 7 2 > @ % % % % . 2 - @ 2 6 4 @ @ > 2 - y 8 > > @ 6 2 - , & $ O - i 2 7 4 > > % s > > t 0 0 t $ O 4 > o $ > > o , $ o @ o @ - @ ",
"@ > 2 2 , * o 2 6 2 O $ % 2 - 2 @ - 4 @ @ > > @ > @ > @ 2 4 7 2 2 O + ; 6 2 - > 4 7 > - 2 6 7 2 2 % % % $ 1 @ 4 < > > - > 2 7 0 @ i 4 % - 7 8 > 8 O % 7 6 2 y 6 0 h t 5 @ h h 6 7 2 2 0 d > & 9 ! r.5.d 2 0 h 6 h h 7 7 8 i x ~ W 2 6 C <.r.w.<.( ) ) :.5.,.( :.r.r.r.5.#.n S } B ^ ! Y ..V  .kXdX5X-X#X@XU.0X).l.b.K.).T.b.K.m.L.n.J.&XT.U.K.n.R.A.A.A.).E.%XI.P.,XL.m.).7X+XT.2XT.J.I.T.Q.T.wXj.d.&X`.oXW.Q.S.n.K..XJ.]..XXXXX XI.K.A.J.,XL.l.E. X].P.S.XX5X3X+X1XoXE.-X9XK.D. X0X#X8XdXcX;XpXdXpXDXDXu.:.9.A %.Q O.i.3.9.Q O.O.,.@.W Q ' X.@.q.1.g.LXGXSXlXZXDXlXvXzXiXE.<XJ.OX+XXXT.m.+X7X4XwX'.n.,X X+X`.'.T.H.J.L.9XXX=X6XJ.oXI._.m.T.1Xj.F.l.z.K.].`.].m.J.&XJ.[.oXH.m.OX&X!.J.wXT.J.J.R.J.S.N.oX,XS.z.0X`.[.S.J.2X'.H.L.!.U.`._.).oX`.U.T.L.%X].`.;X5XiXhXF G D E [ Y ! 9.N x ^ Y D D B E 7 p M 2 0 t 2 7 S Z 7 u d f z h h u h 7 0 u u 7 2 2 0 V 6 7 i % 4 > < 4 t 2 3 , , 7 0 2 2 p > q 4 > 1 2 7 6 7 u @ 2 d 0 N x 2 0 4 % O @ 4 4 % @ 8 - 2 5 > 7 i > % @ % > @ 2 4 4 2 - 2 > 4 % o @ d u - 4 7 @ 1 5 > - 2 @ @ 5 @ @ @ @ @ @ @ @ O ",
"@ @ 7 2 > @ o 2 7 > @ @ @ @ O $ O @ > > > - @ , % , @ 2 7 @ @ 4 7 O 3 4 > > < 4 > 4 4 - > > > y - 2 > > @ @ 2 i - > y 2 - y 4 7 - > t 2 4 6 2 4 2 > > < 2 j 2 0 l u > 0 6 c c 4 - 0 7 7 y 2 0 +.w.6.Y l 7 7 u c u i u w 6 0 z W +.z G $.#...( o... .Y ~ 9.W Q ,.O.Q ..O.] f G D C Y D  .#.Y >.kX;X5X3X;XE.[.).n.S.b.H.`.9XJ.2XJ.L.`.Q.n.J.'.J.A.Q.I.2X'.'.S.J.l.l.T.OXJ.J.'.`.`.U.A.2X`.J.J.'.S._.S.K.&XT.S.}.W.n.U.T.OXU.T. X4X4XJ.T.J.!.F.m.K.J.1XJ.A.T.9X+XD.6XG.D.OX XT.J.@X4X`.L.`.gXxXpXbXvXuXvXBXd.>.9.$.=.] ] 3.4.X.! q.>...4.9.*.{ ] q...+. .NXGXAXnXJXZXvXcXDXXXE.XXE.0X.XU. X]. XY.`.oXU.J.1XY.D.@X'..XT.'.T.T.+X%XJ.n.+Xn.S.K.K.S.F.I._.m.m.A.J..XI.S.T.E.'.m.1X{.K.D.A.T.J.J.S.wXA.K.}.A.H.OXOX.X%XT.].'.A.S.A.$X.XU.S.E.T.).J.$XQ.H.m.T.`.hX=XfXmXaXx Y ! R D B [ ! E B z z G E z A 9 V S f c 7 < 7 j u 2 0 c 0 k 0 p 7 i 6 6 4 7 7 O r i 0 7 i 7 2 4 2 4 2 i 2 > 4 > > u 0 @ 2 2 2 & @ 2 2 6 i 4 4 y 6 0 L x t 0 7 6 u 7 2 0 x 7 h 0 6 h q 2 0 x d h h 0 h h h 0 0 h h u 0 6 2 2 4 z h l 7 2 7 4 - 2 2 > 1 > 2 < 2 @ @ @ @ > O @ ",
"% @ < 2 2 6 2 2 > @ @ 2 @ @ & . $ , O , @ , @ $ @ @ , < - , > % > > > 4 4 @ @ 2 2 y 2 > 4 > , , > i 7 2 p > 4 7 7 7 q 0 7 - > 2 0 @ 7 7 7 - 4 4 4 6 7 > > h x 0 7 2 2 u 0 7 > 8 2 0 c - % 6 I j.k.h i l 7 2 0 j 7 > 4 h v h ' #.( 7.1.Q | h 0 D Y / E h S z D D x D z H Y Y { D { +.@. .+.C u.BXvXpXaXjX+X).H.).S.A.L.m.2XK.J.1XH.T.S.j.n.'._.H.l.L.&X_.l._.m.m.K.K.A.%XOXm.S.oX`.J.l.T.4X,XA.m.[.OXb.n.L.J.A.[.E.`.`. X'.J.'.J.l.oXT.n.Q.z.D. XD.'.@XU.T.U.T.H.D./.`.T.J.,X6X+X0XE.`.U.3XdXcXZXxXuXZXBX5.Q | Q  .] Q W Q ] G Y Q ..3.+.*.[ Q O.,.t.{ IXHXvXzXZXSXCX;XhX^.:X4XT. XE.E.OX+X-XY.D..XoXoXJ.F.T.T.H..XA.1XOXm.}.P.A.M.[.`.OX_.j.M.wXm.P.J.J.J.Q.Q._.U.U.[.J.I.%XA.K.J.@XOXS.T.$X'.H.W.Q.J.S.S.U.S.I.J.).J._.H.U.%XA.OX.X!.m.).R.P.Q.H.T.n.oX4X+XuXfX6XF H ! Q D D D A D | A H V c B H  .C F x h k l u < j x 0 c 0 7 0 4 u l 4 7 7 0 u 4 4 2 u q 6 0 q 7 7 j 6 j 6 0 t < > 4 j 2 4 y 0 & > 7 2 7 7 7 2 7 8 2 7 0 6 u u x h h d z z h S h Z F x Z z z B C D z C E z h f V A z x h n h x V h 0 7 h h 9 2 2 7 @ @ 4 4 @ - > > @ @ < > @ ",
"@ @ @ > > 2 2 4 4 > @ @ > @ > @ O > 2 @ 8 u - > 2 7 7 @ @ > < @ , 2 7 7 0 0 7 t - 4 - u 7 @ O > @ 0 2 - 7 7 4 - 7 u u 0 7 6 7 2 6 i i @ 4 2 4 2 - 7 2 > > 7 u 7 4 > > t 2 > > j h 0 l 2 0 ] ,.r.:.w 2 u 2 7 u 0 p 2 ; x 0 6 B 9.) q. .I z 6 0 h h x h 6 0 h h F A E N A z R [ B ..Q O. .W Y 5.hXvXfXcX5XT.m.).$Xm.T.2XH.A.E.m.J.R.T.T.}.F.S.J.K.H.S.l.!.j.P.T.m._.J.J.<X,XS.{.'.'.W.S.L.T.'.J.&XU.`.].n.b.L.L.oX+XoX`.'.T.S.`.'.!.wXJ.m.F.Q.D.oXU.J.OXD.'.OXJ.J.T.kX].j.I..XE.#XY. X#X XY./.bXZXxXpXbX-XO.Q O.4.@...] o.&.! ..Y E o.] Y Y @.@.*.4.q.Q G.LXCXSXCXSXvX5XoX`.Y.=X`.E.U.OXJ.XX+X,XY.1X+XoXA.n.}.H.l.&XR.n.E.1XS.J.I.n.J.9X,XJ.j.K.Q.S.j.W.$Xm.j.S.J. X@XP.S.wX@X XJ.W.U.U.L.$X{.D.S.Q.J.J.<XwX].K.L.L.S.K.A.K.&XD.L.E.D.A.).J.A.Q.S.L.].`.3XE.4XdXbX6XD A E +.W D A C B z N Z x h z D t.Q D B F A z 0 6 E %.C z u h z z D B S C Z D B C T N E E f h 0 , 2 7 7 i 2 7 t @ 4 0 6 % , 7 h 4 > 2 2 2 - 4 - 2 2 y - 7 0 2 6 u 7 0 h l 0 7 z 0 h h 0 0 2 6 M z h h h z 0 0 0 v x 6 u 6 u 0 7 h 0 @ 2 7 6 0 2 > @ , @ > > > 2 O @ 5 % @ O @ ",
"O % O > @ % > - 7 > @ > - 7 h 0 : - j > 0 k 0 u 0 0 0 7 > 4 7 7 i u 0 x h c h 7 > > 7 0 u q 7 4 4 > @ > > 2 > - - 7 4 - 2 l 7 7 - 7 4 > - 7 8 4 7 i 7 7 2 q 2 @ > 0 i 4 < y 2 6 2 5 > h O.t.( ! d q 2 u 0 u j 6 6 7 v F h v A #.@.[ A z h 7 7 c 7 0 F J L h 6 J F F B F N F E E R Y W Y ..! <.0XvXuX*XiX4Xm.L.T.,XT.K.].T.L.n.m.T.m.J.S.J.U.K.b.J.m.H.T.'.J.9X'._.T.U.E.OXT.Q.n.l.T.Q.F.b.m.H.P.W.J.,XOXn.n.,X[.J.S.J.U.U.OX%XwXJ.D.F.I.n. XT.T.U.1XU.+XqX,XT.XXI.XX#XT.U.E.U.F. XjX*X6X3XuXcXpXxXbXDX~.Q Q #.v.,.X.Y R ..] 9.! o.] ' o.X.4.4.O.) t.O.g.DXAXZXAXCXbX:XXX-X X6X*XE. X4X@X.X@XOXT.L.%XwX$XK.F.P.I.A.$XS.J.`. X+XY.Y.oX9X).OX$XS.J.J.E.0X{.l.S.T.[.S.j.m.J.,XS.`.`.A.j.U.T.}.J.l.n.m.!.A.J.OXJ.{.T.S.H.2XS.T.T.T.S.U.,XT.J.].E.T.J.n.H.4X3X X@XXXgX/.A C D $.Q ] D ..z B } B A x h D &.C D N E B C z I 6.( ~ ~ D ! %.) W ( ) Y ( ( ) W 2.( 2...R F B 2 2 0 2 7 2 2 7 2 2 u 7 > , < 2 u 7 $ > 4 2 > 2 > < > 4 j u 2 - , O 2 0 2 8 - 4 2 7 > - 7 t @ 2 @ > > - > 2 - - 2 @ - - @ o > - 2 2 o < 2 7 > @ $ % > - % > @ , @ % % O % $ O ",
"@ @ $ > , O @ @ > 4 2 2 6 0 v h h 2 7 2 2 h 0 7 0 0 6 7 4 i 0 4 7 7 6 0 9 j 7 > 8 2 - 2 7 u 7 7 > @ < y > > 5 - > 2 2 < @ t 0 0 8 - 2 4 2 6 7 2 7 - i 6 7 w 2 i 0 0 7 2 7 2 > 7 7 > 6 +.f.t.f 7 2 6 0 l u 0 h 7 j i 0 h B C %.O.I v d h z 7 7 S 0 t z x z 6 h h D z V D x G x ! Y Y ! Q [ C ( 0XlXiX3XhXD.).).'.).T.x.T.`.S.&X'.L.j.M.T.`.Q.L.H.S.T.2XD.T.T..XT.).OXOXA.T.J.U.&XL.D.z.m.P..X).l.j.z.U.1X`.A.%X+XOXU.OXE.4XE.U.U._.U.m.F.m.wXL.n.W.W.J.+X XoX9X+X.XXX^.+X,XT.$XT.4XXX=XOXY.3XMXgXdXpXDXh.W Q  .o. .%.W  .] Y Y [ $.] D ]  .#. .X.+.6.) 8.DXAXvXvXzXMX/.XXsX+XE.8X XoX+XoXD.`.`.H.U.F.x.Y.T.l.J.K.n.9XOXn.Q.4X X@X+XT.A.U.).J.H.,XoX+X].j.b._.[.T.'.!.S.L.oX.X.X$XT.T.%X}.l.].`.W.}.T.T.,XA.l.&XJ.k.F.H.}.A.'.T.J.oX9XT.S.L.S.W.L.$Xz.`.OX3XXX5XMX5XT ! E ! W [ E +.E D A h h J h G E Z F F D B ! ! #.t.W Q +.C Y $...! O.....Q #.+.Y ( Q +.[ N Q ! k v 8 - 2 2 4 4 2 2 2 u > 2 4 @ j 6 @ > > ; 2 > > > @ 2 t 2 8 , & @ 4 > @ , 1 @ 2 > % @ > 3 @ , $ @ > @ , , 5 @ , 3 4 % > % , @ 7 - > @ @ @ & % O > 2 > @ > @ O @ @ O O O O O ",
"O O O > 4 o   @ @ > 0 h d - 2 2 t > > 2 2 7 7 2 2 4 @ 4 7 2 - @ @ > 7 2 2 - > > 2 2 > > > 6 0 0 2 2 , 5 > 2 7 2 @ > 4 @ , > 2 2 0 - 7 - t h 7 > 7 7 2 6 u 7 7 l c 0 ; u x 7 > 3 2 h +.5.1.Y 6 7 8 7 u 2 u 4 6 t 7 , 2 z #.( Q ..D K v u c u 0 z | L 0 u x H A u h z A G z ' D Q o...W ] [ ! i.kXtXfXaX4X`.).L.n.U.`.T.1XE.A.$XU.R.n.b.P.A.z.H.H.W.T..X,X_.I.S.'.).z.OX_.A.T.].OXT.'.'.]. X#X@Xn.'.@X`.'.J.m.S.T.oXoX4X`.E.U.`.U.S.OXU.OXJ.S.J.Q.'.l.$XXXT.T.H.T.wX-XJ.T.'.n.F.0X XD.oXU.U.6XdXuXuXAXBX3.W ,.7.@...! ~ 7.i. .B %.] =.q.W ] 0.Q @.@.i.6.@.(.HXvXAXnXbX*XY.^.=X=XsX6XY.oX+X X'.J._..XT.E.'.OX XT.S.).oXL.S.T..Xm.T.1XJ._.L.T.@XJ.R.Q.J.'.T.J.m.n.A.M.OXoXOXS.T.J.H.XXoXJ.F.H._.).T.R.J.`.,XJ.R.J.m.z.D.J.OXU.].U.1XJ.d.Y.4XT.z.l.}.S.J.'.L.XXsX;XMXaXZ G D Q W B G B T A z c h v h u V h h x A v c Z B A z R E N u 0 7 ; h h z 0 u 7 u 7 h x h f C W ! Z h 6 2 > 4 4 7 2 @ 7 7 t 2 @ , 6 u 0 7 7 2 > - 7 i > > 2 , , > @ 8 > % 4 , @ > @ , @ > 2 8 4 $ > 1 O > > @ > > > 4 4 o @ 5 7 > O 2 6 % o 2 > > > > > @ , @ O @ > @ > @ O O ",
"% @ O O > @ 5 O O > 7 6 t 2 % , @ o @ > 2 @ $ O $ O O > 4 2 @ > o 7 7 - % % % @ > > , @ O 2 7 2 @ 2 > > % 4 < 2 > < @ , > < - 5 7 < @ @ > 2 > , > 7 8 q ; 6 j 2 7 7 2 d j 7 7 > 0 ,.<.( D 6 2 7 0 7 u 2 0 w 6 u 7 7 6 ! t.Q ' V h 7 0 h 2 n h d A h 2 h d h x 0 V A x V h G ! %.O...+.Y T _ u.iXpXjX5X+X7X[.S.R.OX'.H.J.,XD.l.$Xn.S.wXl.J.Q.{.L.m.S.L.J.T.M.M._.P.OXOXK.m.'.J.J.S.m.T.@XJ.D.K.m.'.,XJ.J.$XH.K..XoXU.OX`.U.oX4X).S.OXU.J.R.z.n.J.U.S.).,X+XE.A.E.E.-X'.A.T.1XJ..X XqX1XoX=XsXpXtXfXHXMX( #.:.O.0.B W  .@.Q o.W o.X.D W 0.] o.Y @.7.>.6.W A.HXJXCXyXKX/.XXwX`.E.=X X`.`.6X5X.XI.U.D.1XT.l.U.OXT.$XJ.[.T.).F.m.J.L.S.J.`.L.E..X`.m.S.2XT.T.S.S.P.K.j.A.T.{.l.S.OXT.1XT.S.A.W.I.D.z.I.4XY.l.H.Q.l.P.}.2XJ.@XoXU.W.OXS.N.R.`.S.m.l.b.n.1Xm.OX+X5XdXdX*Xf E Y ..! D B B D B x x z v 0 t f v h z z 0 0 0 7 h x 0 h k 7 w 6 i t i 2 2 i t 4 7 2 0 b j V x B W W x 7 t 4 4 2 2 2 2 u 2 - 4 @ 2 t 7 > 4 4 2 > 2 2 2 < @ @ > 7 2 7 2 2 4 2 2 2 2 2 > 4 - 2 7 % > > > 2 > , 2 - - 2 2 % @ @ 2 % - 6 7 2 @ 7 > @ < , O @ > @ @ $ > o % @ O @ ",
"> % O o O @ , @ % @ @ @ @ + @ @ @ @ > > 3 % % O @ @ > 2 - 4 > > O > 4 > > % > 3 > > > 4 2 @ O > > 7 2 - @ , @ @ 3 & , t 6 6 ; > @ 7 @ O > - 2 , @ 2 l > @ l J > & , 4 j > @ 2 Z W t.O.d 6 7 2 7 4 0 i 4 > u 0 - 2 H Q  .O.h u 4 4 6 7 0 q i 7 h L z h S L z x L h N H C A z z ! R C W D %...>.*XdXaX=XaXoXn.,X.XA.J.E.n.'.].m.H.m.A.OXH.S.$XS.L.).L.OXR.S.n.N.b.m.S. XOXT.].m.U.R.l.F.OXT.b.x.j.M.E.U.)._.z.J.T.U.`.oX4XJ.U. XU.T.U.m.J.P.$XT.4X,X@X XT.]._.OX XoXE.Y.`.0X`.].+XU.U.@XoX3XpXZXvXlXCX>X] +.@.3.*.#. .4.#.! o. .9.O.o.9.o.D ! Q 0.@.@.6.Q u.KXAXvXxXZXuXE.OXY.-X4XY. X6X`.'.K.T.E.J.J.J.l.J.2XA.Q.).`.#Xm.n..XE.T.OXE.L.T.$XA.&XQ.'.J.S.S.9XJ.J.J._.Q.j.F.W.`.+XT.H.J.W.S.P.`.%XT.L.J.1X`.F.D.W.m.).T._.'.Q.J.[.`.H.S.F.T.'.A.L.H.I.'.T.7XXXuXdXdX=XF E C ] [ F A H A E D h S c v k h K 0 0 k h 0 0 7 u K 0 6 u c i 0 h 0 i 2 7 j j 0 0 2 2 j 0 u 0 2 J 6.) 9 > > 2 - 7 7 j 2 - i 6 7 4 > > > > 2 2 < 7 @ > 5 - @ , > u 7 2 4 4 @ t 4 , > 4 7 > > @ @ < 2 - 4 > % > @ 2 0 - @ , @ @ u t - > 2 7 > > , O @ > > O % % O o @ @ @ @ @ ",
"> o % % O o , $ @ O o $ @ % % O O @ 2 o @ > @ % , 3 > > > 2 - > % > + 4 > @ @ 2 @ % > 4 > > , @ 2 2 > > % 4 2 0 > 2 2 7 h m ^ 0 8 z 2 2 7 6 c 7 7 h z h z A z ; , 7 d N 6 t 9  .>...0 2 > 7 i 2 2 u j 2 > 4 i 7 h D W  .E 0 t y 7 t 0 h 0 7 u d h h Z z h B N H h z A B D E H S Y Y W Q D Y >.kXuXgXiX5X9XA.].oXoXT.T.'.J.H.W.Q.R._.T.T.].J.H.H.OXA.A.2X{.j.K.H.S.D.T.OXoX@XS.'.J.n.l.J.$Xl.l.}.}.W.1XoXn.W.T.T.T.J.T.OX).].T.'.J.J.2XOXL.J.,X`.U.OX.X`.`.D.U.E.`.OXE.Y.hX`.T.T.].'.@XsX5XlXvXlXzXKXz.Q ..@.q.Q ] W ] ..Y #. .Q @.o.E o.Y ] [ #.=.3.f.( 3.MXAXvXxXAXlXJ.U.#XjXE. X6X4XU.T.W.E.4XeX%XF.L.T.].U.Q.U.J.1XA.U.wXS.A.T.L.`.T.J.K.%XT.{.m.m.J.qX`.U.OXT.D.l.b.OX XoXOXT.T..XJ.n.$XE.E.U.A.OXoX`.D.J..X].H.U.l.F.W.S.T.Q.l.S.Q.D.L._.S.T.H.T.8XiX=XxXxX;XF D D +...A N B B D A A d h c 0 x h c 0 6 l 7 0 h h 0 0 S h 0 7 h d 6 h u 2 0 6 0 h h 0 u 0 u 5 > 0 Q +.D 0 > e 7 7 7 2 w 2 0 l 4 2 2 8 4 4 7 0 2 > < @ > 4 > - 2 0 0 7 2 , > 4 2 @ > 6 7 2 @ > > - 4 2 > - > > > 2 2 5 O @ % @ u 2 4 2 2 4 > > > > $ @ @ O > > @ @ , % O O @ ",
"% O % > , @ @ @ % & O % @ > % - 2 O 3 @ @ @ , , O 2 @ O @ 4 @ > > 2 - > > > - 4 > > 8 > @ , > 2 > @ @ i 7 D ..Z 0 A x h h x T N ^ Y C [ Y z W [ h ^ ..Q ..C ..#.) +.Y Y O.:.1.1.o.h - t 7 2 t u 6 7 > - 8 < t x x c x F x 0 t j h t 0 u 0 V 0 x x S J V x D D d 0 A x B B D [ Y E !  .@.] Y O.kXdXyXdX4XU.R.J._.E.$XJ.m.P.D.m.2X'.l.L.U.).)._.'.'.$Xj.S.F.T.H.m.L.n.A.}.'.J.J.S.n.oXR.d.F.R.U.U.].T.J.J.'.'.E.J.E.9XT.J.}.J.U.`.E.U.'.,X,XU.W.K.T.S.J.T. XoX4XT.n.].oXD.4X6X X`.@XOXY.sX;XdXpXtXvXmXd...! { #.W o.*.X.D 9.Q Y  .o.G D +.Q W B R W @.0.6.Q (.GXZXpXvXlXoX+X X8X+X+X6XOXT.E.U.U.W.H.Q.J.'.D.,XoXS.D.S.L.qXXX`.T.J.P.J.T.$XA.J.oXS.`.S.'.,XA.E.U.m.b.W.K.J.`.`.`.U.J.J._.J.J.S.A.m.2XT.J.`.+XH.D.J.K.L.).T.'.T.D.I.I.'.$X'.W.P.K.[.OXm.A. X X3XpXcX5XF D Q ,.R C D E B A z F Z N S 0 0 h z v 6 c l 7 l k h u 0 h 0 2 0 h h k 0 0 c 7 7 0 u h 2 t u 2 > 7 u N ..D h 2 M 2 2 - 7 t - < - - 0 t , 2 7 0 7 2 4 2 > > 2 > 2 > > - 7 2 , % > 8 > 2 > - > , > > > 2 > 2 @ , 2 > 4 > 2 4 > @ > @ > 4 > - @ > @ @ @ @ @ > > > O > % @ O O @ ",
"@ , > > % @ - > @ @ @ < @ O @ 2 2   % > > > > > > % > O @ 2 2 > 2 , , @ < 2 2 - 2 4 > o % 3 2 @ > > 2 0 E I ( E Z 2.Y B x d z z ! Y ) ( Y [ W ! z z E Y ..z D <.s.r.4.O.:.a.r.W h 2 > 0 h t 7 7 7 w 4 2 w > u z x 2 7 0 0 f q 0 u 7 7 l j z A A N 0 k h 0 Z E x h A V x F A D W ' ! W @.#.C Q kXdXdXxX*XT.`.J.H.n.H.H.J._.I.d.H.U.b.I.S.).,X).m.L.`.L.F.l.U.OXK.J.}.M.m.L.A.Q._.P.`.'.K.j.J.@XS.J.9XS.H.E.A..XoXOX XJ.F.I.S.U.T.D.J.U.oX`.H.U.T.'.'.U.J.4X7X+X`.J.T.+XOXoX+X3X4X4XT.U.+XmX;XcXcXZXVX5. .....@.#.Y  .Q D 9.] [ { W D Y o.O.i.0.Y  .4.@.1.O.G.LXpXzXvXDX;X7X3X+X XXXU. X X#X.X`.S.L.'.J.U.9X X XT.OXL.K.4XJ.J..X$Xm.T.).'.D.@X+X`.T.`.`.).T.$X{.S.M.A.S.U.'.L.E.1XH.S.T.L.].L.W.S.H.F.T.J.9XT.J.T.U.'.m.).eXW.D.F.n.U.L.m.m.l.L.OXL.R.W.9XT.+XbXmX6Xv [ 9.Y D F W D B h z B A B x u u v h z h h h u u u 7 l 7 7 7 3 u h 6 7 8 2 0 7 7 l 6 7 2 6 j 0 7 - % 6 B ..F 0 0 2 8 p 0 7 - > > 4 7 7 y + 7 0 6 7 t 7 > < 4 2 2 % , 2 2 0 - @ > > 2 1 % < < 5 2 - @ 2 > 2 > @ > @ w 2 4 2 > 2 y 4 - 2 < @ > @ < , @ > , - > % > > @ @ O o > ",
"% O O @ @ % O @ - > - > > @ @ @ > O % % > 2 2 - @ - > > @ % @ @ , O @ % @ , > @ @ > $ % < > > @ @ > z W G h 7 2 h T ~ B B E A B Y z F h 0 Z h v z 6 2 6 0 - 7 ! :.W [ [ D ( ! 6 7 2 2 7 6 2 4 2 7 2 j y 2 7 0 z L l u z C Z j 2 < 0 u 7 2 h c d d h h m x 0 h A A E x z F f N Y ! D ]  .Y %.3.#XdXuXsX7X+X<XT.J.Q.I.K.U.Y.J.H.z.m.J.J.{.S.).U.H.'.K.m.S.W.H.T.T.m.I.T.A.H.'.1XF.n.H.J.A.Q.m.OX[.oXT.U.J.K.m.D.@XoX`.@XK.'.,X`.oXJ.&Xm.J.L.J.K._.%X.X+XS.U.4XY.Y.-XT.+X,XJ.E.<XoXJ.T.+XXXcXpXdXbXpX!.:.:.W ] o.4.4...Y ! Q W =.] Q $.#.Q Q O.0.W 3.>.,.6.@.g.KXbXCXvXbX5X`.qXU.XX-XU.oX+X`.U.$X`.wX].H.L.E.M.m.H.J.oX,X+XU.[.T.T.S.R.n.T.`.,XE.`.E..XOXU.&Xz.P.}.a.T.'.T.Q.A.S.T.S.'.n.M.L.H.'._.l.T.OXT.m.L.'.W.U.H.b.H.L.b.R.T.OXW.b.I.n.H.1XJ.S.T.XX4X3X5X5XdXaXv D R Y [ E G D A E N N z S m j A z u u z z h 6 q 7 7 j u 0 q 0 k v u t 7 2 0 7 u 0 i 0 - i u 6 7 0 2 4 0 B R N 0 u > b 6 7 7 6 > 2 2 > 0 7 2 2 j h 0 q 7 > - 2 2 5 2 > > 7 2 > 4 > 4 > O @ @ , @ > @ - < @ > > @ > 5 @ 4 @ > > @ w 2 - @ > @ > @ > @ o % O % @ @ O O o % O @ ",
"> % o @ o $ O @ > > > @ % > % o > , @ @ > > > 8 - > 4 2 - > % , @ , % @ @ > > 5 @ @ , - > 5 @ > 2 d C C z 4 O O 7 7 h z 9 h 0 7 z 2 5 @ 4 j 2 - 6 5 , % , @ > 2 7 7 6 2 > 8 2 @ t 7 2 8 4 7 t 7 7 0 7 4 4 x 0 0 u S z Y } ^ 0 @ 5 0 u u 0 0 h h h u h h c u h Z D A E D F c x E C T D ] ..! O.#XdX;XuX6X<X3XOXA.P.K.H.H.J.'.E.2X_.<XT.J.m._.).,XJ.A.T.T.E.].b.J.L.{. XwXR.m.J.W.H.j.m.T.`.b.K.`.OXD.$XJ.).1XOXm.L.`.oXb.OX`.,X1Xj.n.{.}.I.n.S.J.m.Y.+X`.$XL.+XhX-X6X`.U.[.T.<X`.P.%X7XdXZXxXpXbXDXC.U 5.1.+...*.W Y ..q.Q o.W o.+.@.7.W %. .] X.i.,.3.@. .5.iXlXpXdXxXMXE.T.'.4XhXE.`.4XhXoXn.OXT.H.'.T.W.P.F.S.m.oX9XV.1XwXJ.K.J.m.H.'.`.1XJ.H.U.L.`.W.m.S.S.J.A.J.Q.F.l.H.H.P.A.}.n.n.%X.Xn.A.}.D.J._.S.W.W.k.9XL.m.F.m.H.H.J.L.R.b.P.T.).oXH.P.[.3XXX*X;XdXsXcX^ E Q ! Y N E o.G A Z F u h S h [ N 7 l l 0 h V 7 7 u 6 u d d x 9 u v 0 7 2 i 0 0 6 6 0 0 h 0 h 0 h j i > 7 D D B z 6 4 2 0 x F > > 8 0 0 c 4 - 7 6 0 2 2 7 7 v 2 - 4 > % > 7 0 > 5 2 > > 3 @ 2 % 2 2 - > > < 2 > @ > , @ > > > > > 2 5 $ - > O o % < O o @ > O O O O @ , @ @ ",
"% @ , % o % % % > > > % o O @ $ @ % % @ > @ - , , @ , @ 2 > > , - 8 4 > @ 2 2 > > > , > @ i 2 - < C N c 7 - @ 5 u 4 > > > 7 2 4 8 , > @ 2 6 2 4 5 3 2 8 t 4 4 @ % > 2 2 7 5 % 2 7 0 u 2 2 7 0 7 4 7 2 < 2 0 2 7 h N Y Q x 7 > 7 j 7 9 n K 0 u c j h k 0 9 v x x z B G N H S L R E ! ! C ! Y @.>XuXsXfX+XT.).H.H.b.m.J.T.H.A.T.OXK.).2Xl.P.)._.L.Q._.n.n.U.H.l.T.).W.H.J.OXA.S.OXW.M.R.).).H.'.).H.2X].m.L.U.OXU.H.S.].U.).b.J.J.K.P.{.l.K.!.&XU.n.wX^.`.1XA.U.9XE.T.`.E.0XU.).`.L.m.Y.uXbXcXuXvXDXi.Q 1.3. . .%.Q +. .D [  .] Q R W Q #.9.o. .X.9. .0.4.W  .VXDXvXxXvXfXY.@X9XJ.E.,X3X@XE.T.`.T.m.J.L.'.T.S.$Xm.U.'.D.%X1XS.).'.W.oXOXT.1X]._._.`.`.T.T.T.'.A.l.!.oXS.).S.l.S.n.H.F.P.$XL.).F.`.$X`.J.H.$XW.z.H.{.`.T.I.I.K.n.K.A.OX_.J.L.U.).T.A.S.[.+X5XmXgX5XaXF H D W W Q ! D B F A A D E z z x 6 c J 0 7 t v l 2 u u j h 0 h i 0 0 h u u 0 7 j u 7 7 l h 2 6 > 2 2 t 4 @ 7 x z D h 2 0 i 0 6 > 2 7 0 0 4 8 , > 7 u 0 7 h c d q w > > > @ > 2 2 7 @ @ 4 7 > 2 , > @ > , - > @ > % @ - @ y 4 2 < 2 @ @ @ > 4 @ @ , > > 8 2 O @ > @ @ > > @ O ",
"$ o > - @ % O % O @ @ , @ @ @ 3 @ O @ @ > % @   , $ O O 2 > > > > ; - < , 0 2 > > 2 - % O 4 - 0 k D d 6 - 2 h 0 7 % . . $ < @ @ @ , > > > 4 7 7 8 - d B z 6 2 4 > > 2 4 7 7 u 7 7 q u 2 > 7 7 6 > 7 7 7 8 > 4 7 t B ! ! 6 1 > d d 7 0 d x 0 7 0 h 0 c u l S k u h D D h L z B D E A  ...W T  .>XXX5X5X0X.XH.]._.b.l.m.I.].L.J.H.S.I.m.m.!.Q.n.b.K.R.J.'.$XH.m.m.U.U.K.j.P.Q.Q.4Xm.R.J.`.4XoXH.J.S.K.j.R.OXA.S.oX,X].S.`.$Xn._.S.I.m.J.H.$Xl.F..XK.`.D. X XT.J.`.z.H.9X4X#X4X#X-X@Xm.).5XdXfX;XDXAX,. .>.,.>.( Q  .>. .Y ..#.4.Q F o.9.o.Q ..Q X...W O. .t.@.>XCXSXGXxX5X<XE.`.].J.U.oX.XJ.E.qX}.l._.H.H.J.XX4X`.9XK.H.'.J._.b.l.$X4XE.E. Xz.}.K.U.Y.W._.L.J.2Xn.&XOXd.T.@XP.I.F.n.F.K.'.j.l.K.W.T.6X].S.).W.R.I.l.J.[.J.b.b._.T.J.[.T.T..X1XS.m.$X).OXT.+X*XuXfXfXF T ! Q #.W ! Y R z x C O.q.E P i 7 h z h j 2 7 h 0 l 6 7 7 j w , 4 u 0 0 h > 4 > 8 2 > 6 6 M S > @ y > 0 8 > d G D 0 7 4 4 , O 2 i u 7 2 < @ o > t 6 0 h 0 7 z > , > & 3 - > > j - @ , 4 ; > 4 > @ > % > > > , O > 3 - 2 7 2 q %   $ O $ O @ > > > > - > > , @ > - > > > > > ",
"@ O @ 2 @ @ , - @ @ - 7 6 - % %   2 - - - - - @ > @ @ 2 @ O $ @ @ @ 2 > - > O > % @ < 3 3 - ; N Y 7 2 - 2 2 7 @ O > > < 4 2 2 > 4 > 2 7 7 7 7 7 6 7 8 > > 7 0 j 4 3 6 7 2 @ y 7 > @ - 0 d 7 2 4 2 0 u h f v 7 > D 6.:.Y 2 7 u 0 7 j a 2 7 7 v x v 2 8 7 h B R B h Z A Z J A C O.D [ ! ..Y Y >.%XaX3X7X5X7XH.H.L.OX).K.OXU.H.{.W.m.L.4X'.T.R.M.I.J.'.S.}.K.I.z._.oXF.K.n.L.,XL.I.k.F.XX_.m.n.}.[.I.T.).U.OX[.).P._.F.A.R.J.L.2XD._.J.A.m.l.~.F.S.K.F..X@X#XT.A.`.`.T.9X'. XoX XW.@X3X5XaXuXuXxXCXZX..E 0.6.3.4.Q E R W  . .E A Y +. . .Y  .o.Y Q ,.6.3.+.+.D rXKXAXlXyXZX=XU.%XE.3XY.oX3XE.).oXL.A.Q.J.`.+XD.!.S.Q.OXoX).J.W.2X|.J.'.D.J.,XL.J.K..XT.n.T.).T.P.]..X`.oX'.n.P.S.I.H.K.W.U.T.1XJ.b.K.`.J.b.].1XW.j.n.T.S.P.F.m.}.J.S.}.x.m.T.oXE.A.}.&XE.+XfX/.aX5X3XN E Y C ..Y Y D x h c x A H x ! m z B 6 j u 0 i u h x h 6 v h 7 z h 2 t u 2 0 0 0 j h d c > 2 v ! h - 2 w w 7 6 h z Y G 7 - 2 , 2 2 0 0 3 > 8 4 2 4 7 2 j > 2 B u z C N h 0 x d 0 2 7 0 h 7 h 6 7 7 7 6 d 7 , > j 0 ; 7 2 7 7 > 6 7 7 6 9 d 4 % > - @ @ > @ > @ O % - @ O O @ ",
"> > o > , , O @ @ > > 2 2 @ @ @ @ - > % @ @ , @ @ % 2 > > , O > - > 5 @ @ 3 > - > O @ @ - 7 v h x < > > 4 w 4 > y - 7 2 ; < 4 > 4 > 2 y 4 4 6 7 7 i 2 2 4 7 y 6 6 6 7 2 t 7 7 7 0 7 0 4 7 4 7 7 2 t 7 0 z K 6 z 6.6.W 0 7 7 i 7 4 2 0 j u 7 0 c h d z ^ x B ^ B B z B B Z B } ..D E W ! Y B >.(.uXsX3XXX`.).m.T.L.U.T.H.T.U.W.J.L.wX].A.L.OXH.S.Q.Q.j.j.S.P.l.T.U.b.n.OX'.D.J.R.K.U..X'.m.L.J.S.F.T.OXn.J.OX`.H.J._._.M.n.b.L.H.Q.T.^.2Xl.A.T.l.!.F.J. XT.#X.Xm.4Xn.T.9XU.oX9XA.T.6X5XuXfXpXMXDXbX~ @.3.3.4.i.! D D $. ...D Y '  ...W o.=.D '  .O.9.@.6.,.W 5.KXCXvXpXvXsXXX.XoXOXOXXX6X XD.wXJ.S.m.Q.OX.XoXS.m.j.'.E.@X_.l.K.'.D.T.'.T.T.wXT.b.OX&Xl.'.[.J.A.'.S.J.wX`.H.U.l.P.n._.T.E._.A.H.A.`.[.L.].`.S.J.A.S.@X].J.j.P.J.A.M.m.J.T.wXoX'.{.n.V.oXqX7X;XcXaXaXz ! [ ..$.! E x ^ S F N B h N B u v z S S c u t 0 u 7 6 i 0 0 u S 0 u i 0 0 v u 7 t t 0 u 2 > 2 h 7 7 2 i 7 2 2 h 6 z E S 0 2 @ 2 2 6 7 8 - 4 7 2 2 7 2 > < 4 c 0 u h h h 0 0 0 2 4 7 7 h 0 7 7 7 0 7 7 7 7 > < h 0 7 2 > 4 4 i - 2 2 2 t 6 - > 2 @ O , > @ , O O % < @ $ o O ",
"> @ @ @ o $ o @ > % @ o O < > > > 7 > O > - 3 @ o > 4 @ O > % > - > - @ > % > 2 7 8 @ 2 6 z Z 7 - % % > @ 2 2 - 6 7 7 i 4 > > 7 7 2 2 @ - y 7 2 > 4 2 7 y @ % 7 7 u 0 > 7 t 7 7 0 A S - > 7 7 > 2 4 6 0 4 2 z O.t.N h 6 0 p 7 7 8 h V h u t 7 0 0 d N N h h h z N z z A D S A Y Y E Y o.%.D 3.VXuXuX5X4XJ.[.].].m.OXOXJ.L.'.U.L.).J.n.F.R.L.[.R.I.I.W.A.S.Q.m.P.J.m.l.OX9XU.L.}.J. XT.J._.[.E.].S.J.[.).`.{.T..XA.L.U.m.n.S.m.L.m.D.2X$XS.J.U.Q.&XQ.S.`.XXOX.Xl.T.].+XsXJ.m._.OX`.`.6XmXxXXXgXMX*XD @.0.O.O...{ [ ! R R D q.[ Y .. .=.o.G ' Q !  ... .4.e.+.5.kXJXxXdXxXuXY.`.@X[.`.+X XT.T.T.T.$XY.2XS.oXqXY.OX].T.`.U.$XH.W.$XA.J.OX`.F.b.K.W.S.L.I.{.D.S.%XJ.].Y.m.`.eXK.l.R.S.W.S.).`.n.}.S.).E.T.).T.OXS.I.n.L.`.J.P.'.oX$XJ.oXoXJ.$XT.n.J.E.J.XX7XXXiXdXcXcXC D ~ [ ' A N z S z Y R z z S h h l 0 f F x 2 j q u k 7 j l 0 7 0 0 u 7 - j i 7 7 u 5 @ 4 u 7 y @ 7 7 2 j 6 7 2 6 h i h ) Q 6 5 2 - 4 > 6 2 - 4 - - 2 7 > % - > 6 6 2 4 2 2 - 2 7 4 2 2 7 2 > 5 > 2 t j 7 7 - t j 0 7 > > > - 2 > > > + > 7 y 7 @ @ @ , o @ @ , O O @ % @ O , ",
"> > > @ O O @ @ @ @ > % @ @ > > @ - > , - > @ $ % > > @ > @ > > > > > > @ > @ 8 - , - S B 0 0 2 @ % > 2 > 7 - > < < 2 2 - > - y > 7 4 > - 2 4 3 , 4 t 0 2 w < 4 2 0 7 - > 2 u j 0 h c > 4 7 2 2 7 h 6 y > N ..:.+.6 4 i h 6 2 0 7 h u h 0 t u l q h L n h c 6 B C u z D D F z D D R D ] W B 5.#X5X3XfX XoX).L.D.D.J.].].b.S.].].).b.l.H.}.T.T.L.m.Q.A.$XR.S.K.n.m.%X1X).H.W.b.l.OXoX`.9XS.1XoXT.)..X`.}.H.U.`.[.A.K.`.A.F.P.L.].S.j.T.T.L.'.2XJ.T.`.Y.E.@XOXn.I..XH.U.+X].l.m.<X+XG.;XcXgX:XfXMX/.E *.q.W W ! E W ! G Y R ] Y A D Y Y Y D X. .@.+.Y o.3.@.6.5.VXSXpXpXlXbX+XoX3X X X X^.E.XX].S.D.F.U.OXJ.+X4XE.J.2XY.l.J.].S.'.m.L.2XA.S.n.K.J.P.T.J.K.J.E.eXJ.OX.XJ.oXJ.S.J._.K.}.T.T.L.L.J.T.U.J.1X[.`.'. X`.OX$XH.A.J.OXU.'.!.`.U.H.L.Y.@X@XqX4X3X4X;X6XuXbXaXZ ~ ..Y D C ! ' B B &.D N n h v x L j 0 h A 0 B x z 0 0 7 h 0 0 8 b h 2 i 7 i 2 l 7 > 2 v 6 7 2 5 4 j 4 6 2 7 7 4 t > ; ~ Q z d 2 < > 4 2 0 4 4 y 8 4 8 7 @ > > 7 4 - - , y > 2 7 7 > @ > 2 2 > 2 > 2 2 - 2 - 7 7 - @ > > > @ 7 , - 2 > @ - 2 7 @ @ , @ % @ @ @ o @ O O @ $ @ ",
"@ @ , @ , % @ @ @ - O @ O @ > 2 2 o > w - @ @ @ > @ > @ 3 @ > - > @ > 4 > , O % 2 - 0 A z 6 2 > 0 7 7 2 4 7 0 < @ @ 4 > > 7 7 - , 4 - 2 > 2 @ @ > 2 2 2 7 l 7 - 1 2 2 2 > > - h h 2 4 7 6 7 u 7 x 0 7 7 x O.1.%.0 - 7 q 7 6 h 0 t b > q u 0 u q 7 - 4 c 0 h h H L z x N Z D Y G D E D E / D O./.uX5X=X XoXJ.L.1XH.J.T.Q.L.S.T..X`.K.S.H.`.R.!.I.].J.J.@XH.b.P.l.L.l.P.OXD.J.{.I.J.J.T.}.m.S.@X).[.T.m.J.E.`.T.J.l.m.L.{.S.b.L.L.<Xb.m.[.`.F.m.U.U.7XXXL.J.J.Y.).2XL.`.E.m.R.[.E.T.XXbXiXdXfXxXMXx.S [ +.9.Q 9.%.Q =. .#.#.Q G E ' ! Q >.i. .( =.W  .q.i.6.q.Y (.CXDXbXyXZX5XJ.;X8X`.T.L.>X@XT.T.T.U.E.4XT.J.U.T.oXH.I.$X%X`.A.J.P. X$XL.m.)._.J.H.1XU.S.'.`.m.U.U.T.).L.m.m.'.S.j.S..X_.I.L.L.U.`.`.@X`.S.b.T.T.A.!.n.P.J.T.oXU.m.l.R.).H.E.4XqXD.]. X^.fXpXdXcXaXN } #.! E B ! %.$.B x h B B N D x h 0 h 7 u z B z V 2 h u 0 l t : 2 0 S 0 2 6 0 4 8 0 d u - 0 d 2 4 i 4 < 7 7 2 2 - 4 2 q d W ) d - - 2 0 7 2 > @ , > - i < @ - - > 2 , 4 4 % % > - > , @ < @ @ i 4 @ > 2 4 @ 4 > - - > - > , 2 - > - 7 7 > $ @ @ , % > > > , O @ % % O @ O @ ",
"% O $ @ @ @ > , @ @ o O $ > > < @ @ , @ > > % > @ @ , @ @ > 2 > > % - 2 > @ @ , 7 0 z h 7 2 , 2 2 7 2 4 2 6 ; - > 2 > < > t 0 2 , 7 > 7 4 > 4 8 > 2 , 2 7 2 0 < > y 4 2 4 7 4 t 7 > - i 0 j 7 2 0 < 0 B ( ,.Q 0 - 4 t 2 2 7 0 u 0 4 > 6 l h 7 6 h 0 B E z [ A 0 z x A h F D Y D A ~ W ! ! B 3.>XaXuX+XqX3XS.L.`.J.J.S.m.F.'.J.m.U.].].,X`.k.d.I.J.S._.J.L.L.n._.].d.m.`.`.H.U.m.R.OXn.m.'.J.U.U.J.H.m.j.%X+XJ.T.m.n.S.'.m.A.Q.W.H.~.H._.'.k.S..XK.XX4X,XI.T.wXU.j.].OXQ.J.T.Y..XL.*XbXtX;XlXbXwX<.E O.%.4.X.,.>.] Q W ] ] =.] R D ] @.@.X.] #.O. .+.#.Y +.i.Y V.HXZXyXxXZX;X^.+XhX@XD.J.@X.XE.9X].XX$XU.,X{.`.`.9XJ.P.J.S.K.Q.m.H.`.$XI.Q.`.D.T.m.T.eXS.U.L.T.J.].W.H.`.[.}.H.P.z.'.m.m.L.`.OXb.1X#XU.A.].).J.I.l.d.S.2XJ.m._.T.U.b.P.[.T.[.L.`.l.U.+X4XsXaX;XxXgXv A O.9.[ ' ! B Y D F ^ x D A V h k h d l u 0 h 0 v h 7 i i t y 7 4 j 0 2 j 7 y @ 2 0 0 u t j z 4 i 7 > 4 7 7 7 > 7 7 7 > 2 C ( } x @ 2 i 4 2 > @ % > > - 2 5 7 > > - 8 - > @ @ 5 < > 2 , @ O , 7 > @ 7 7 @ @ > @ - 7 < @ > % O 2 2 @ 4 > @ O o > > @ > @ + O % @ @ @ , $   O ",
"> O o @ @ > % @ @ % @ > @ O @ % > > @ O @ > @ O @ @ > > @ < @ @ 2 % % 2 2 5 7 u 0 h z 2 > @ 2 2 > 2 > % < , @ > 2 0 2 @ > i 7 > @ 0 i 4 2 4 l j - 5 5 4 0 2 7 7 7 < > q 7 - 4 w 7 > 7 6 0 7 - 4 w > d 3.>.%.h l 6 7 7 b 7 7 - 0 h 2 2 7 t 7 2 B Q w.j.r.O.F h z D u x x A z B N B B { ..! B 6.>X5X6X=XXXqX).b.2XH.n.2X&Xn.'.J.P.b.`.oX`.H.`.J.m.n.A.m.P.J.2XOXL.m.z.R.4X`.@XOXL.m.F.N.A.).`.oXJ.T.A.2XJ. X_.l..Xm.H.K.OXJ.m.l.{.n.l.}.S.J.oXoXU.A.D.T.H.L.T.F.J.L.m.J.J..X+XU.`.oX5X5XuXlXzXDXF.O.( 4.4.O.( @.] o.]  .#. .D Y  .Q Q @.] o.[ Q o.] =.,.Q @.%.W g.nXpXlXpXyXtX3XXX XU.^.T.`.E.oX{.m.U.L.`.OXT.[.'.A.S.'.F.l.m.H.I._.4X'.d.J.oX<X.XA.m._.A.H.T.9X[.I.F.J.L.T.n.j.}.J.Q.S.H..XP.n.P.M.J.T.b.J.T.S.H.{.m.J.%XT.l.l.wXU.l.T.&XJ.m.b.H.T.`.,XoXT.3XaXMXsXN H D ! Y Z N m B V D A z 0 h h h z N Z z 2 t 0 2 u S x 0 - 6 6 z u 6 0 h 0 - v h 6 0 l M i 4 2 < 2 4 2 y 7 - 4 7 u 0 2 7 - 2 h 1.2.7 % r 4 4 2 5 > 0 8 > > 8 7 > 7 @ y % @ 8 , > @ 7 7 > , 5 @ @ @ 2 5 2 2 < @ > 7 4 @ > , > o % @ - > O   O , 2 > 4 % % > O $ @ @ @ > O O O ",
"> $ O % > , O O & > o , < @ @ O % - @ @ < 5 4 @ % > @ , % @ > , > $ O @ - - 6 h z h 2 > , 2 > 2 > % @ 2 @ @ > 4 7 h 0 2 - > - y 4 2 > 2 2 7 2 2 2 > @ 2 u 4 > i 7 > > 6 6 7 8 2 7 ; 0 j 0 7 4 < 4 h W t.O.9 , 8 h 7 2 7 i 2 2 7 h q 7 h i 7 d +.>.x.!.k.t.] h A Y l h E B x L A D C Q ..%.C @.VX5X<X=X6X+XT.].b.n.T.`.H.A.A.L.m.m.,XH.H.H.T.,X].A.P.m.H.Q.A.OXT.L.H.J.oXT.I.A.[.'.n._.!.l.[.1X'.`.K.U.].).m.b.@X'.L.n.).OXm.K.K.S._.T.b.$X4X`.'.D.I.K.m.T.D.K.J._.J.T.L.`.].E.U.=X5XuXcXlXzXDXd.R @.t.e.7.@.v.] [ o.D Y ] =.=.#.4. .] *.o.C ! W %.W W 4.4.*.4.8.0XDXZXpXxXdX*X X`.,X4XoXE.@X,XA.b.oXoX'.J.T.U.H.OXU.J.F.I.n.H.b._.S.Q.F.F.).3XA.S.R.H.L.L.L.J.D.Q.U.OX].J.$XF.m.D.L.'.L.D.T.P.S.j.J.}.n.Q.T.T.L.T.,X XS.OXQ.m.&XH.'.P.A.S.H.].H.oXE.+X3X4X*XdXbX;XF Z W C ] Z A E F N Y Z A L F D [ ..W %.! Z N } E D ..C B D A N Q C z A F A f R q.+.! V - > 4 > > 2 2 0 4 2 2 w 7 h 8 2 7 7 2 t Y W Y h 2 @ > > > > > 2 2 , 7 6 % 2 > 8 , @ 7 2 O > 8 > @ > - < $ % > @ 2 < > > 4 2 > > > o > > % @ > @ % $ O 7 2 > > > O @ o   @ % @ O > @ o ",
"@ > @ @ @ % , @ @ @ @ O O O > , @ @ @ - 2 2 2 > % % O > 2 > % > > - @ @ $ 0 B h h > @ , 2 @ > 7 2 7 2 2 @ @ > @ 4 7 0 i 4 @ 4 6 7 O , 4 2 q 7 - 4 2 > u y 2 - 7 2 t i 7 6 4 < 2 i l u 7 q l @ > h r.1.q.x - y > 2 u 6 2 2 2 2 u u i h 6 4 , x t.6.) +. .:.,.Q x z n 0 x N A D x z A Y Q Q ! @.BXjX+X3X5X.X.X].m.F.OXL.m.I.Q.J.S.`.U.l.K.}.m.J.OX_.J.H.S.eXR.m.].).l.T.J.A.J.n.S.K.`.wXk.M.OX`.S.F.1XH.T.A.D.,X].H.n.!.n.H.&XS.m.}.$XR.U.D.A.H.[.`.K.M.J.9XOXF.`.E.m.OX'.n.z.%XOX0XuXuXdXdXlXMXu./ *.3.7.9.] ] Y Y Y R ] #.[ Q ] Y @. ./ A @.>.D !  .@.7.*.7.*.O.>XAXzXlXZXuXoXoX`.E.,X XE.%XU..XJ.+X9XS.L.,X,XU.T.$Xm.J.Q.l.I.Q.'.j.m.R.J.!.T.J.T.S.{.F.J.OX`.J.2XQ.A.T.T.,X_.l.F.T.U.A.b.L..XJ.m.2X'.n.OXoX1XM.W.oX[.T.`.W.P.k.F.`.n.l.z._.`.J.D. X6X+X=XcXuXpX8XZ T C ..Y T J z A z B 0 ^ } ! !  .Q W W Y ,.:.t.6.6.:.1.t.O.,.1.,.( Q 1.:.6.1.<.d.d.r.>.N 7 2 2 > 8 2 7 5 + 4 7 7 2 y 2 2 2 2 > 4 h Y ! h 7 4 2 > > @ 2 i 2 2 - - 4 2 2 2 4 2 > , - @ @ 2 y > > 2 > > > 4 7 @ > > @ 2 4 % @ > - % , > > > > 2 - @ > > @ > > @ @ o > @ O % @ @ ",
"% - , O O % > @ O O @ % O @ % > 3 @ 2 > > > @ 5 > @ $ - > > > > > > @ % > h h 7 5 , > 4 > @ - q 6 2 2 , @ > > > , > @ 4 2 4 t a 7 > O < > 0 2 4 > 2 > 4 i - , 2 2 , 2 4 7 > i j S 9 u 7 q 0 u 0 o.a.) 2 - 0 0 @ t u h 2 2 i 4 7 u 2 l 6 i s C k.5.N d f ) <. .z V x h F ^ A D ' B B ! ! Y I O.VXxXXX8XsX-XJ.H.H.Q.Q.l.I.m.'.H.n.,XQ.l.M.n.z.T.).l.m._.m.l._.m.U.U.].m.H.S._.b.m.m.oX[.l.F.`.$Xn.M.H.H..X,XT.@XA.Q.n.l.I.P.T.'.A.m.k.2XH.m.,X`.@XU.S.H.T.).A.J.T._.m.2X$XU.A.J.^.+XpXcX5XpXDX:XO.K @.e.6.Q &.] { [ N [ $.R G R ..D 9.R D D @.,.Q ~ *. .#.3.O.Q Q !.DXvXlXcXcXXX X.XU.E. X<XT.U.qX`.U.oX@XoX`.[.`.'.oX).m.F.F.j.H.!.F.j.S.T.n.m.K._.S.m.m.J.1XU.A.m.m.M.K.T.S.S.J.S.$XE.P.).L.K..X'.H.K.J.S.n..Xb.T.A.U.9XJ.A.S.j.R.J.b.M.l.J.`.H.{.U.3X3XuX5XpXbX5XF Z !  . .R F z E A m x z B ~ Y ] C R T D W ( :.6.#.Q 0.1.Q O.) +.! ( q.6.:.<.5.>.:.6.f.,.C u 5 8 - 7 7 7 0 y - 4 > 8 > t 7 8 > 1 > h C ! z 2 2 % , 7 2 , > 4 @ 2 a : 7 4 @ 2 2 4 - < > 2 2 2 2 2 2 @ 8 2 @ y > % > > , o O > > O > O @ , @ - > > > @ @ - @ O @ % > % > > % @ ",
"% $ < , O % @ > < > O @ > @ > > @ % @ > , % - 4 > > - - , @ > - @ 2 2 0 9 h 0 > @ > 2 2 , > > 7 7 p - - 7 0 7 2 @ < @ q 0 - 7 2 u 7 > 4 - 2 > 2 2 > 6 9 6 4 - 0 - 7 2 2 7 - 2 2 h 6 6 0 6 9 z ( s.[ 9 2 2 0 7 7 7 7 0 0 j 7 7 6 u w 0 d 7 , z c.r.t.W Z e.d.O.z B x x B z A N B } T A W ! C O.-XdX5X3X7X@X`.J.D.l.].'.K.n.n.`.%XJ.W._.j._.}.T.H.Q.F.H._.S.Q.L.H.P.}.n.J.S.L.m.R.K.K.'.`.U.m.L.T.U.F.S.T.oXOXT.T..XA.A._.S.H.)._.[.m._.A.J.oXoX%XU.`.`.[.oXT.1XQ.I.S.m.J.OXwXT.Y.6XaXuXaXpXDX/.W / ( :.4.Q ! o.#.o...] D Y ' G ..' [ Y 9. .{ o. .0.o.D ..0.,.#.W h.ZXvXpXbXyX=X>XoXT.A.R.OX`.U.[.OX`.E.qXqXT.T.E.oXT.E.P.b.P.A.S.m.S.m.W.U.J.H.I.S.P.S.n.T.9XA.J.U.I.K.n.L.T.`.$XT.m.j.'.&XS.m.j.}.U.A.J.W.J.l.R.L.l.S.`.OXoX$XQ.T.M.H._.m.l.S.].Q.%XU.oXsXY.fXDXhXT C #.Y Q ..D D A B z x B B h v m h z B x z V d h 0 h V 0 6 z z x R ^ d h h Z z z 7 u ) f.e.B 2 i 0 6 7 0 2 2 @ 8 2 7 0 t 2 8 > 2 2 > h ' R 0 > 2 > 2 4 3 > > > 7 t 6 - > @ > 7 6 2 4 6 - i > @ < > @ @ - 4 7 2 > @ % @ > 8 @ % > 4 @ - < @ @ , O o > 4 2 > @ o % % O % % @ @ ",
"- O > @ > > % > > o @ > 2 % O @ @ % > @ > @ > t - u q 2 3 2 2 2 7 0 h z x x 7 @ > 2 2 @ @ @ > 2 2 3 @ @ i j 7 4 4 q h D E C B f B D Y I H S N F D E R R E &.d A V B A c Z J S B 9.Y o.&.~ 6.>.s.w.9 @ 7 c 4 7 7 7 7 0 6 u 2 q u u y h 0 j 4 0  .<.f.h.d.u.f.Q z V x Z x S S z Y ~ ..Y ! ..D @.0XxX6X3X`.).`.H.2XJ.z.J.L.K.P.T.1XL.n.H.j.S.S.A.}.n.A.L.).T.L.].J.L.I.l.J.}.K.H.J.l.n.A.`.OXI.S.E.OXz.J.wX`.H.H.9XT.J.S.F.H.'.J.K.L.W.T.'.U.T.T.U.#XoXL.1XY.oXT.K.k.S.J.].J.D.E.+XhX6XfXfX5XKXG.] =.>.O.X.9.W ( W +.o.Q D E E Y ~ R E W #.Q Y { W 0.Y &. .4.( 4.W %.CXvXyXmXtXuX@XS.).K.m.n.,X,X'.T.,X`.D.`.E.T.`.OX`.$XQ.l.I.m.J.T.J.L.'.T.U.J.b.H.F.S.R.&XQ.m._.F.j._.F.m.T.,X2XL.l.K.m.n.S.I.n.b.J.Q.K.J.T.L.'.S.Q.S.U.).T.'.H.S.j.!.oXY.I.I.R.k.K.`.T.6XMXaXcXhXZ Y ..] W ! ! A G A h z D A n 6 c c h 0 u 0 7 7 7 j 7 > , 4 l j > 0 0 : < 4 2 @ 4 8 > d >.r.+.0 - u - 4 q 2 i > y 2 2 t - - 7 u 7 7 , @ h +.[ 0 0 6 - 3 @ > > > - 2 0 < O @ 2 i 2 @ 2 6 6 7 - > @ , < , > 8 - > > @ % @ @ 4 > @ 7 - @ > - % O , o @ 2 > - % @ & @ @ O @ > O @ ",
"% $ o @ , 4 @ % @ @ % > @ $ @ @ - > 2 > 0 h v 2 2 7 6 2 4 2 7 0 h z h h u i > 2 % > > 4 > 2 2 , , 2 > > > > > 7 7 x ~ ) ( 6.:.,.4.Y O.1.:.E C  .W +.O.&.R #.+.#.I =.O.T R X...t.f.o.#.q.6.t.0.4.W 2 > 7 u 7 7 7 i h u 7 5 i 2 x h t 9 A x 0 7 h T ! Q  .R A z A B B Z h x B D E Y [ ! [ Y N *.VXuX;XsX<XT.L.H.L.!.Q.J.l.L.T.J.J.S.k.j.m.l.n.l.I.J.`.).)._.L.S.S.S.J.T.).OX.Xj.n.P.{.'.L.S.J.K.j.K.T.)..X].K.U.+X1X&Xz.n.H.).Q.z.k.l.n.`.J.J.U.oX+XE.H.T.J.T.@XE.'.K.T.L.2XE.J.oX6XjXcX;XxXMXV.*._ O.0.W D ] 7.( ..! C 9.( ] $.' Z @.#.E $.R $.o.!  .q. .9.O.*.4.! ZXvXvXpXdX5X#Xz..XOXR.m.F.qX@XS.U.4X@XJ.'.'._.T.[.D.'.Q.T.W.n.T.{.F.x.A.T.J.l.T.U.'.T.I.n.L.T.l.S.'.F.m.U.`.J.H.L.W._.m.'.wXP.m.m.A.M.A.L._.S.S.'.).H.m.H.b.`.J.M.K.J.,X`.).L.1XJ.,X3X=XsXuXfX;XZ [ Q Q E z Y D z B S 0 x A z 0 u n S 0 L l 2 b 7 u j 7 2 t 0 0 7 ; q j 2 7 2 7 j 7 u 7 6 Q t.<.w 2 5 > t 2 2 > 0 0 2 > 7 7 0 0 2 5 @ @ 2 z ..~ B j - - 7 t 2 - % > 4 a 5 @ 4 7 - > w 2 2 2 > > - , 2 4 7 i - > - < > 2 - O @ 2 6 > > > @ > > - > > @ o @ @ o > , > @ @ @ $ > ",
"@ o o o > - - % O O > - @ O > 2 4 , 3 - ; h z 7 6 2 > > 2 6 t 6 0 h d , > - 2 7 % @ > 2 2 7 > @ @ > 2 @ 8 % 7 h V Y Q Y I ( ) ) Y C C W ) Y z N N I Y 0 0 C O.Y Z [ N N D z ( O.W D z D N I f 7 v 4 7 t 2 ; t h j 0 6 j > l x V 0 2 0 x z u t 6 0 7 h u 7 t t d z G B u 0 C ..C G B B Y ! Z O.wXcXaX=X6X`.J._.J.A.!.F.A.K.S.K.P.R.l.l.k.l.}.R.m.`.,XH.H.K.K.'.n.}.<X`.S.J.&XJ.H.J.b.K.J.L.'.$XS.z.3XS.l.m.L.`.oXT.$Xz.D.&XS.J.K.k.J.H.T.T.T.).T.-X@Xm.S.9XoX4X X1XA.T.S.m..XU.T.*X:XtXtXZXMX8.Q ) O.9.Y %.q.Q W [ E D =.@.D A E A 3. .z R W  .] 9. .W #.9. .@.] ! gXZXbXcXpX*X*X). XU..XK.A..XU.].U.T..XU.T.`.J..X'.OXJ.'.m.n.T.L.b.R.m.}.U.'.OXS. X,XS.m.).T.K.m..XU.K._.T.L.m.wX].m.n.K.L.`.J.R.Q.A.I.K.L.J.J.`.[.H.S.W.I.l.].).R.b.T.OXT.T.L.].S. XsX;X^.gXdX*XB Q ] Q E Z D D D E x 0 u h x h h h u 0 h 0 0 u z V d 0 h z c z l 7 h x 0 j 0 q 0 0 0 6 4 6 ( r.$.h 2 @ 2 8 2 4 0 u 5 < t 0 7 7 5 @ < > 8 6 f Q z x 0 2 u 6 7 4 < @ 2 > 7 2 @ 7 2 > 2 @ 4 4 6 2 2 > > 2 ; 2 - > > 4 2 < % $ @ q 7 > @ > < > 2 @ > , O O O O > @ O > - @ @ @ > ",
"O - , , - 2 y 2 > % @ > < > 2 < @ O - > - - 7 7 2 > < @ > 2 > 4 - > > > 8 > 2 2 - - 5 @ , 2 t @ @ @ @ y 2 2 V f / z 7 7 7 h z 6 6 6 2 - ; ; 0 2 2 2 7 0 6 : 0 6 7 6 0 6 2 2 h 0 6 u 6 0 0 ; 7 u t @ - 7 6 > 7 7 0 2 - 6 ^ Y %.E h c k t 6 7 7 i t 5 u l l 8 0 x N h S A B z ! z [ ! W ! [ Z @.>XuXXX=X;X4X+X'._.n.l.Q.L.T.H.P.m.F.M.l.n.n.M.I.m.b.OXOXU.Q.j.I.S.{.'.A.L.j.j.m.P.J.l.j.J.L.n.m.$X_.J.L.A.S.T.`.'.H.T._.Q.H.b.`.{.x.2XS.P._.$X'.J.U.W.T..X#XT.m.T.A.R.J.U.OXT.L. XhX;X;XpXZX:X>. .:.+. .*.{ [ ] [ R Y D Y Q Y D E W ! Q .. .{ W %.Y ] #.#.Q *.4.*.D V.MXyXnXpXcX5XE.9X`.S.T.K.T.S.A.J.wX4XL.S.H.J.J.`.OXOXJ.l.F.&XL.P.R.m.J.H.J.l.J.`.oXT.T.H.U.F.M.'.m.m.OX$Xl.m.A.b.).m.K.F.j.J.`.&Xm.R.S.J.T.).1XJ.b.S.S.n.S.'.).OX+XOXH.l.H.[.oX X,X`.sXgXpXmXiXT W ! R Y G E x H x S V z B B V N v x u 9 c S j h u 0 h 6 h 0 0 0 0 2 0 c 2 7 0 6 0 6 j t 2 d W t.( z 0 - 2 u 2 0 2 2 4 2 2 2 2 5 8 7 4 2 w - 7 R ~ D v @ @ 2 2 , > 2 4 @ 2 7 0 u > @ % 4 > > 4 4 - 7 4 > @ % , % > , o % > > 4 @ > @ > > - , > 4 > @ & @ - > > o @ % O @ @ > ",
"@ > 2 - - 2 7 ; > 4 > O @ 7 7 - @ O % < % o < , > $ @ > - 4 > > @ . , @ - @ @ 4 7 7 > o @ 4 2 > 2 > > 4 u N Y B F 2 & 1 @ , s & e 4 r O O 1 3 > , * & - M s = = * , 3 O s & , , < 4 u r , < 4 h ; 8 7 7 7 6 7 - > , s V 6.:.O.F h A h 7 , 2 2 l k h h h x u u h C i A A E z B L ] #.] D D N 5.VXdX+X8X3X<X`.[.S.b.M.H.).7XS.n.R.n.Q.l.n.R.d.l.F.j.I.).n.eXF.b.L.E.l.}.P.~.Q.b.m.b.M.A.D.S.m.b.J.oXD.&XU.OXJ.T.,XH.H.1XR.j.S.{.T.F.T.H.K.H.T.T.W.J.n.U.qX X[.J.H.}.F.n.E.,XL.H.Y.iXgXMXlXMX-X>.1.1.] 4.X.X.[ W +.] ..%.$.R [ o...{ A W 4.#.! =.@.W #. . .4.@.@.0.N g.PXpXnXdXxX-XH.T.L.J.oXT.H.U.OX XoX`.J.W.'.U.$X).A.oX`.n.!.L.J.T.J.M.j.A.}.I.'.OX`.E.U.S.l.K.M.M.n.]..XT.S.K.b.F._.A.F.x.l.{.J.m.L.P.d.F.J.H.'.A.!.2Xn.J.L.T.S.oX`.OXI.F.P.L.oX`.OX#X*XcXpXcX5Xv R ~ R R H T z A B R C F x u v N z c 7 u k > 2 2 u 2 w i 4 4 8 0 h q 7 y 5 < 3 e - 8 u 0 t 4 q ;.f.>.S 4 2 7 2 7 2 7 2 i , i u 2 7 7 7 2 % 1 $ z ) I A 8 O < - , 2 > 3 $ @ t 0 ; 2 > % > > $ > > > 2 2 , $ % > @ , , > > @ 4 % @ , @ > 2 > $ 2 > > O O - 4 > - $ O     o O $ ",
"@ O % O $ @ @ @ , , > 2 7 @ O < , @ @ > > - % O @ 2 7 > % @ 4 6 2 O < - - % @ 2 > 2 > 2 > 2 @ > > < % 2 z W W z 7 > > > @ > 7 6 7 k t - 6 t 2 2 4 > > 2 j j 7 i 7 d h 2 7 6 7 < 4 j j 2 3 , > 7 h u h q 2 t 2 8 4 7 F [ ] D l q i h u 0 6 0 h h 0 0 i , 3 b v x B 0 h x x D H D N D ] Q } P Y %XfXaXsXaXXX XP.M.H.K.D.].L.J.J.J.N._.l.m.M.I.n.U.J.L.m.H.'.n.K.W.H.l.&X)..X).S.K.S.l.b.j.l.OX`.b.|.P.A.`.oXL.OXK.'.[.,X_.n.H.`.S.$X).M.H.).OXL.L.4X$Xz.!.P.T.A.K.'.J.U.T.n.m.,XXXaXdXlXvXgXG.Q #.=.! o.>.>.Q ] W ! Q ! $.D Q q.Y W Q ..Y o.Q ,.@.@. .[  .W X.o.o.+.u.KXbXpXpX;XsX9XS.oX@XA.`.9XJ.<XT.L.[.L.W.OXoX_.H.U.H.T.W.D.U.].P.b.$X[.E.%XF.S.L.9XK.b.OX,XA.S.U.[.`.S.$XW.A.,Xm.T._.m.W.OX].I.M.S.k.S.OX[.L.l.H.H.P.{._.K.S.m.x.z.W.K.J.`.S. X).`.3XXX*XdXcX3Xz C W W &.E Y { B h F D D c h j h h z 0 v K u h 0 h 0 ; 0 n u u 7 2 i j u 7 7 7 > < 3 4 4 > O O 1 ..w.:.0 3 2 i y 4 7 7 0 2 7 2 2 u t @ , y w > @ < N ( :.N 2 q 2 > t 2 5 O , 8 - 2 3 $ * O , % - 4 , > 7 0 2 > @ > 2 - > O > 7 @ % @ @ @ < < O % $ O , @ 1 @ @ @ @ O O O   @ ",
"@ O @ O % @ $ @ > - 2 4 2 % @ > @ % % O @ > >   > - > > @ , 2 2 7 > > , , @ < > > 2 2 r @ 2 4 > > , ; 0 / F 0 4 > > < @ - - 7 2 5 - 6 0 7 4 8 - 4 8 2 2 u q - 4 > 7 w 2 > 7 t 2 2 0 2 4 > 4 2 7 7 2 7 2 2 7 - i n B W Y Y h 2 7 7 0 7 2 j q t u 0 h u u 6 0 h B / B x F D D A h R ! Y Y A z O.>XiX3X3X3X8XoX).j.~.OX[.T.S.L.1XT.m.F.m.m.k.F.S.A.L.m.I.m.'.XXL.S.`.&XH.b.`.T.T.b.n.J.l.S._.n.P.].L.T.J.T.U.W.J.J.oX`.H.D.OX_.n.J.I.J.T.L.S.OXT.T.`.U.A.H.H.J.OXS.J.wXJ.).`.,XXX6XjXdXtXdXBXg.>.7.*.~ W O.4.R Y o.X.Y A Y R ~ D ! ..Y  .Q ! o.4.4.3.Q o.$.*.#.#.9.O. .kXZXcXxXfX6X`.U.`..X`.L.T.wXXXeXU.[.}.A.L.].S.[.,XT.m.S.L.'.H.b.J.U.J.J.F.m.S.`.K.b.S.W.L.W.U.$X2X].J.).J.D.wX).T.m.T.oXT.H.H.n.b.F.m.'.m.H.'._.].n.J.$XS._.{.I.K.m.J.@XOXP.L._.`.+X7XsXuXdXdX^ N o.[ A Y 9.} x z J x B h x z z 0 h c d c c t 7 l j 0 h h 7 2 l 7 2 2 0 0 7 h 0 2 4 2 y 7 2 i 2 0 +.t.Y d 7 5 2 2 7 6 7 7 0 7 y 2 2 i > @ 2 4 > > 0 A Q ! d > > w 4 2 < - 2 2 < > 2 - > > % > < > < 4 2 > > 7 > - > 4 2 - @ 7 @ @ , > , @ > o @ @ > O o > @ @ % @ O @ , O O ",
"% O @ > @ O O O @ 7 0 @ @ > O @ O % @ @ @ % @ % > O o , 2 4 @ @ 2 2 > 1 @ @ > - 4 7 - o O 5 > @ O 7 h F z 4 @ - , O 2 > 2 7 4 2 % 4 0 v 7 2 4 7 4 2 7 7 0 7 7 4 - - p y > 4 7 u 2 6 j > 8 7 2 0 i > i 7 7 > 2 6 F W +.Q d 7 7 7 - c h l u 2 v h 0 j 9 A Y A B F Y h z A B B T F [ ! D I $.! >.>XoX=XfX7XJ.OX`.l.!.].[.H.m.U.L.'.'.}.K.J.P.K.U.R.n.M.I.J.`.[.L.H.oXm.J.OXT.`.OXj.I.S.m.W.'.l.I.I.j._.L.J.wX_.z.oXOX}.S.@X4XS.m.Q.M.J.H.`.L.J.m.}.l.J.4X'.A.J.wXOXJ.$Xm.J.E.<XG.=X-X;X;XxXMX@.+.0.] =.+.Q Q ' Q ] ] A } 9.W A E %.[ @.#.Q ] %.Q #.0.] ] o.=. .W 4.+.W >XZXlXlXfX6XjX+X].J.L.W.A.R.#X X+XE.S.n.A.2XU.J.OXJ.F.T.U.L.S.L.).L.`.F.j.S.J.S.j.H.J.D.M.%XOXA.n.H._.T.].P.M.W.J.J.U.oX X,X).n._._.l.n.l.I.].T.`.T.OXJ.K.J.J.U.).b.].J.J.P.J.D.4X+X X6XuXdXgX! D } Y Q ! R z z D A K x z ^ z F x 7 v h x 7 u u 2 j 0 0 d L 0 0 u i 6 i u u j 6 7 p 2 7 6 u 7 - - > D t.;.h @ > 2 h q > 2 2 0 8 < 8 0 7 7 7 8 > > @ - N ! ^ 7 @ - - 8 2 2 0 4 @ @ 7 h 7 2 @ - @ O 2 t 4 @ O > > > O @ - , @ @ @ , 4 > 2 > O @ 8 2 2 > % @ % @ % > > @ @ & @ ",
"@ @ @ @ > @ O @ @ 2 > % % @ > % > > @ - > O O 4 < $ O > @ - > > 2 @ - - O @ 2 2 > 4 , > > 2 2 o 8 F B z 2 , 5 > @ > > > 2 < > > 2 8 7 u 6 2 4 j 7 > 7 7 2 2 7 7 7 t 7 6 > > 2 q 7 7 i - > i 7 2 2 4 w 2 7 > 4 h  .Q W ! h 0 i t < k 0 h h 0 M h 0 7 2 z $.G B x B H Z D B x E ! E T A Y E E @./.3X5X6X3XE.H.oXOXA.J.m.S._.I.L.J.H.].J._.`.m.J.J.2X_.b.T.`.OXJ.T.L.OX9XOXn.$XJ.l.b.l.&XT.H.m.m.b.m.J.J.H.W.J.L.1XU.S.A.oX`.z.K.P.n.}.m.T.OX].L.`.K.$X`.`.9XT.J.OXoXD.J.OX,X9X,X^.6XVXcXtX>X8.~ ,.@.X.+.Q o.W Y o.%.[ B Q W Y $.R Q o.Y ..{ Q Q W  .{ ] Y  .#.] 0.4.Y ~.ZXAXcX;X;X:XU.).J.U.J._.S.U.oX3X&XJ.{.m.W.U.OX$Xz..X].J.b.m.m.T.,X<Xn.M.W.).F.m._.'.U.Q.W.`.K.H.T.`.S.H.m.l.T.[.wXoX[.$XT.`.L.J.L.W.F.I.A.T.].T.T.'.`.2XI.T.J.U.U.1Xm.m.S.J.oX`.oX3X=XfXiXiXT W Y ..! Y A x E R f h x x A d x x u u h h 7 0 x 0 7 2 h z x 0 j 2 7 0 u u 6 0 u l h 7 2 4 7 7 i a @ 6 W r.W x 7 , i 7 - 4 y > - @ 4 6 2 t 2 > 7 2 O & 0 z z 0 7 2 2 2 > i 0 4 3 > - 4 2 < 5 > @ 3 2 8 4 > > @ % > @ 1 < < 4 2 > > > - 7 4 O < > @ @ > , % > @ @ - @ @ O o @ ",
"@ @ % @ O @ @ > @   $ > @ @ % O > @ % > 2 @ % @ @ @ @ > - > 2 , - O > > 4 O 4 7 > @ > > 2 2 > 0 N W E 2 @ > 2 : 2 2 2 4 y > 2 2 6 2 2 > 2 2 7 7 7 7 4 > < > > 2 2 0 0 2 2 4 - ; i 8 - j 7 2 u > > 0 7 t 2 2 B ( t.) h 0 x h 7 7 > 7 0 h u 0 j h x 7 > 2 f z N h x S z E B x N E B N A R ..z Y VXfX;X^.7XqX)._.`.L.N.l.n.J.l._.U.n.J.oXm.`.L.oX,XJ.,XU.`.[.U.S.oXm.W.L.I.m.m.H.A.b.J.'.l.P.}.H.m.m.n.Q.K.U.<X`.J.J.J.`.J.S.`.U.$XJ.H.T.`.E._.`.T.$XH.A.U.oXn.S.[.<XT. X<XL.oXXX7X;XcXiXmXXX>.2.9.X.( ,.] 9.Q o.o.D Q #...$.X.D Y ] Y A { ( W [ { Q W #.i.@.*.[  .9.W u.bXCXpXdXgXuXD._.9X^.Y.K.L.S.T.oXU._.J.j.S.2XT.J.`.`.1X'.m.].J.W.T.n.H.`.m.S.S.S.l.m.n.{.J.n.M.OX`..XJ.{.Q.L.1X`.J.'.l.b.S.I.].S.m.T.Q.H.S.D.A.J.F.W.L.T.'.I.$XS.l.}.).'.T.F.oXJ.E.XX X5XuXuXf F ! Q R C J G Y D x B x h h u h z x 0 v h 7 7 x S 0 7 V z z d 0 0 2 6 u 7 - t 4 2 t h 7 t , 7 y < 2 u i C t.u.z @ , 4 7 u 7 > > 7 > 4 2 7 4 7 7 7 y 4 4 2 0 z h 6 u u 2 4 > 7 8 4 > - O - 8 7 3 4 7 2 7 2 4 @ @ % > t - 4 7 0 > 2 7 2 > 2 2 - @ > 4 > @ , @ @ > - O @ O @ > ",
"> @ @ > @ % > > O   O - @ > @ @ @ > @ % @ O % > O > 4 2 - 4 2 > > % @ @ 2 4 > 0 2 o @ 2 2 6 9 N B C d - @ 4 8 2 7 8 7 > > - 7 u 0 % , @ 4 7 2 7 2 - 4 > > 7 2 2 u 2 t 7 2 7 7 2 > @ 4 2 7 t > 5 , 0 2 7 > 0 +.1.O.7 > 7 0 x h 7 8 6 u j 0 0 7 h h 0 u l 0 c h h c F B z A F B E A B ' D E F C ^.fX5X=XsXU.T.).H.].A.l.S.P._.S.W.J.[.oXH._.T.oX+Xb.L.'.m.T..X].R.H.j.P.T._.L.&XJ.Q.T.J.J.I.d.J.b.m.j.!.A.m.T.oX`.@X).T.OXJ.].OX`.`.m.`.4XD.J.S.`.W.l.Q.'.E.J.L.'.[.1XU.J.L.`. X5XpX5XpXcXz.O.#.#.@.+.] ] ]  .Q Y [ @.] Y W 4.#.{ ] q.R W  .@.#.%.! Q 4.7.Q W o. .e.~ 5.ZXlXpXpXdXcX[.m.U.+X X'.U.R.m.U.E.J.l.~.m.$XL.L.oX<XoXJ.J.oXW.S.%XoXL.OXJ.j.W.$XL.R.S.W.W.F.m.S.OX`.n.R.&XOX`.T.b.!.'.T.Q.M.L.L.L.U.S.J.J._.W.m.W.J.m._.F.l.J.l.K.l.`.[.l.b.S.oX+X3XsXsXmX;Xv E } Q Y B B Y B F S H h S V h x k S u j u 7 0 0 B u u K B z S > 0 c t 4 4 j 2 > 4 i 0 0 0 @ 7 > 2 u 8 , 2 W r.+.z o @ u 0 2 - 2 4 @ i 7 2 2 7 j 6 q - - > > S F 9 0 h 0 6 t q 6 0 7 > 2 4 6 6 7 > 2 2 7 0 u 7 2 2 6 u 2 0 h d 7 2 u u 7 2 2 2 > 7 i 2 - > 3 > @ @ @ % O @ 2 ",
"@ % O @ O @ @ @ O @ % @ - > > , o - > O > @ , > @ 2 > @ > < > > > % 2 - t j 6 7 - 3 O O @ B Y Y 0 0 2 - 2 > @ 2 > > 7 - @ 4 2 i 2 O 4 2 7 , > 7 7 y 2 2 7 4 2 7 7 5 - 2 7 2 2 t 4 - i 6 t 4 2 3 2 7 > i 6 Y :.Y h - - 2 0 d c k h u 7 2 i h u q 0 h V z k h S h c Y Z Z S D D x } T C Y [ F 6.U.aX5X*X6X`.n._.).T.J.k.].H.OX,XJ.W.J.m.U.).L.`.`.`.j.~.k.k.[.T.k.H.I.K.S.n.T.K.j.E.T.J.T.J.H.S.J.n.k.n.J.OXL.L.,X`.T.L.`.H.S.'.H.J.P.A.).OX'.m.H.z.H.&X.X'.J.'.A.H.[.OX'..X@X-XuXxXxXZXkX5.e.7.4.>...@.*.4.o.~ &.R ..Q  . .+.9.9.o.>. .*. .4.0.W ..0.3.@.#.*.@.i.e.&.O.kXZXtXmXcX;XE.S.Q.U.D.OXW.n.[.T.OXqXJ.S.m.K.].2XOXE.J.A.J.L..XH.L.'.T.H._.m.m.n.J.oXm.m.W.S.K.j.}.H.T.J.A.].J.J.K.A.[.`.H.b.b.m.S.R.n.j.S.S.&Xm.`.J.J.m.H.2XU.!.2Xj.L.J.b.).T.+X6XqX8XXXfXtXz ! R ! ! D D N N F h h B B x N z h 0 k 0 t 2 h c h k 0 0 c h 7 - l l ; 5 6 ^ 7 7 4 p 6 8 2 7 0 4 2 7 4 4 7 - ~ <.O.B 2 8 7 2 7 4 > - 7 7 > 2 2 7 2 4 2 4 8 2 h f h 0 h x A F z 0 z J x h 0 h 9 t 2 2 7 7 6 q x x h 2 u h z 6 0 4 7 4 4 2 6 2 6 - 7 2 @ > 2 O , @ @ o O @ % @ ",
"@ > % % @ @ @ $ @ @ > @ @ @ 5 > . - > @ > O @ > @ @ @ > > @ , > @ 2 > 2 u 0 4 2 > > @ @ z R C Z - 4 4 > > > @ > - 7 7 > @ 4 7 2 2 2 2 2 2 > > - 7 i 2 2 7 2 4 8 > > > 7 0 8 4 0 8 2 7 w > 4 7 2 w 7 2 l I O.,.h > 4 i 7 7 0 7 0 0 h 0 2 2 0 h 0 j c d h x 0 h x h z B A f B F Z G Z ! Q Y Z  .Y.dX3XaXXXE._.L.).P.$XQ.m.R.D.W.T.T.U.K.1X[.b._.'.OXP.a.~.H.OXU.b._.n.J.W.`.'.l.b.J.].J.S._.$Xn.m.l.}.J.`.U.M.S.`.T.J.T.`.L.H.D.R.F.m.].`.L.H.R.'.T.L.U.S.U.T.4XOXL.S.'.U.T.E./.mXcXAXvX>X>.1.i.@.5.#. .W X.o.{ o.Y ..+.4.#.W Q X.D ( =.{ Q 4.Y Y q.O.@.Q X.q. .5.*.y.( (.DXtXmXbXMX7X`.oXoXT.@XJ.n..XE.S.W.J.T.n.J.T.l.J.W.].T.9X[.T..XS.H.&Xl.z.n.m.!.U.T.H.W.R.z._.S.m.H.$Xm.j.J.1XL.$Xn.`.`.S.].!.b.OXR.}.n.m.K.P.U.U.$XT.I.L._.T.S.b._.!.I.J.2X].A.oX+X X6XaXhXN T C Y  .Y ..T D A z h c x V V h z 0 u n S 0 k n 0 0 h k 2 t j 4 2 0 7 > 0 E 0 u i - 2 7 7 7 0 2 7 4 7 u 2 @ 2 W +.:.Z > - 4 j 4 2 > > 4 2 2 8 2 7 > > 4 2 4 i 7 7 h 6 0 x N B z N h x h 6 u 0 4 2 2 2 < 2 6 h z h 2 > 0 h 2 2 % % @ @ - - 7 t 0 7 - @ > @ O > @ @ O o % %   ",
"% @ o - > $ , @ % @ % O @ > , % o @ > % , O @ @ 3 2 > > % % > > O 7 7 2 > 2 2 2 7 @ 4 F I C 0 > % $ > 2 8 @ > 2 4 2 7 > @ 4 7 7 < 4 @ > 2 8 2 2 t 7 2 > 7 2 i 4 2 0 4 5 2 6 2 , > 7 t 6 @ y 7 0 0 2 7 Y +.D 0 c 6 7 4 4 2 0 u 0 2 A D z 0 7 k u l 0 l j k x h h u S h E F B S B E D D Q R B @.&X8X+XfX5X3XoX'.K.l.F._.n._.S.b.Q.$XD.b.m.A._.n.d.!.2XS.J.'.H.L.H.].z.K.L.H.l.S..XK.m.}.l.H.%XJ.L.L.I.{.S.m.}.z.W.m.m.OXH.P.K.b.j.M.`.[.H.b.T.J.U..XK.A.H.J.`.[.E.L.T.).J. X#XXX;XdXlXMXQ.( e.6.t.0.(  .o.]  .+.Q #.+.Q q.0. .#.+.+.O. .] @.0.( Q Q ( 4.@.( 3.3.( { 2. .V.MXvXmXfX6XY.`.[.oXoXU.S.T.@XJ.J.b.m.&XI.'.`.J.J.m.I._.OXJ.J.T.U.'.A.F.M.n.j.I.P.b.S.&XU.J.n.b.'.U.S.{.J.T.J.'.$X[._.P.H.S.S.L.{.L.m.m._.W.J.).[.T.J.T.I.P.oXS.H.H.z.I.U.J.J.oXE.sXdXuXBX*Xg E E W ..G H Z B ' N S V 6 S u l h [ z 0 q z B z S 0 h t 4 v 0 q 7 6 4 0 n x h 0 0 h h 0 y i 2 2 > 2 7 0 6 2 @ @ L ;.) N 7 > 5 0 2 8 > @ , 2 4 < o > 2 2 > @ 7 4 % 8 7 V d 7 0 z x ; > > - > 2 @ 4 6 > > 2 8 ; 2 2 - , > @ @ O - O , @ > @ > 8 2 @ @ 2 > @ @ @ , @ @ @ - @ o ",
"> , o > > @ @ < @ @ % O % @ @ @ o > < % @ @ % % - 2 2 % O @ > o % 0 6 2 % O 4 0 2 2 B Y D h 2 $ @ O 4 6 > > % 2 7 7 - > > - 2 7 - > 8 @ 4 7 > 2 7 7 7 4 7 2 > 2 2 7 6 7 - 4 i 2 7 t 7 t 2 > 4 0 6 q N ( ,.z 2 2 0 7 2 i 7 h k 7 w ] W [ x h x h 6 7 7 7 7 v ^ c 7 h c J x h Z N C Y ( 2...F Y Y.8X+X3X6X7XH.L.S.R.J.n.P.P.n.l.A.m.S.I.S.L.W.l.j.K.H.'.L.'.].J.n.L.'.U.J.$XI.n.T.m.l.K.S.b.<XOXm._.j.m.R.H.R.b.J.l.b.J.J.J.J.W.k.b.@X].n.Q.W.z.&XT.S.'.].'.OXL.J.[.+XH.S.+X0XfXuXuXtXMXx. .6.p.@.%.>.] @.] o.#.+.o.X.o.Q X. .D ] @.@.#.*.O.5. .4.X.1.( t.7.O.6.@.*.2.I u.BXcX*X*X5X3XoX XOXS._.T.].W.n.I.}.n._.H.j.A.eXeXl.m.A.J.H.T.OX,X[.S.}.J.K.!.j.j.n.U._.S.P.W.j.m.L.OXoXOX1X1XT.D.J.,Xz.Q.l.J.K.S.J.J.W.A.T.H.`.wXn.S.A.J.S.T.M.m.{.Q.l.l.n.E.4XoX<XfX*XfXuXg ! { Y D ! N A A B B Z x u h u u 0 N J j 2 S ^ B A d c y - 0 c 2 i 7 7 4 0 x m 2 7 k 0 7 2 7 8 u t 4 2 i 7 h > @ + ~ f.Q B 6 & u 2 > 2 4 4 7 7 2 4 4 > 2 2 > @ > > - > v j - - 6 u 8 < , < , < 3 2 7 7 4 7 7 4 @ % % @ > @ % o > > > > > % $ 2 > @ @ @ @ @ , > O O % @ - @ @ ",
"@ @ > @ O O > > % O @ % O @ @ @ @ < @ @ @ , @ @ 2 > @ @ @ > @ 2 2 7 @ 4 4 , > 2 7 x C h 0 @ - @ 2 , @ a - - > > > 5 > @ 2 < > 2 2 7 t > > - 7 0 2 > 2 > < > 2 4 > - 7 h h 4 4 - 2 2 2 4 7 O y 2 7 z ] W x 0 4 2 t 4 7 L v 0 c h f ..%.C B H A h u i > l x 0 c c 0 S N x h A A / B E ~ C E B X.eX5X5X*X+XoXb.I.R.H.oXOXJ.l.l.OX$XS.b.m.m.K.b.H.S.m.l.b.F.F.S.).L.).+XL.I.m.S.U.H.H.&XK.L.S.J.W.n.Q.l.m.'.W.m.}.L.P.l.l.$X[.).].I.I.Y.m.L.oXOX.XF.A.9X`.l.m.].`.S.H.`.`.L.[.=X;X;XcXvXBXr...0.@. .Y =.O.4.@.4.4.4.Q Q *.@.@.o.Q q.@.@. .4.] 4.i.+.Q @.4. .( 3.3.O.@.q.6.3.VXbXuX*XfX XU.+XU.m.Q.A.E.!.n.L.!.l._.T.S.j.A.$XJ.[.`.z.R.OX`.[.E.<X`.A.T..Xl.S.Q.S.j.!.I.W.S.M.!.`.).I.A.3X3X).S.[.oXOXT.K.l.D.J.OXOXm.J.<XT.L.n.l.m.J.l.H.D.K.l.].<XT.[.OXY.,XY.5XuXdX;XZ ! o.+.W { D D D H G B h h B B x x S h 0 u j x x 0 q 2 7 7 0 b 6 6 a u - 2 0 u 2 4 4 7 h l 0 2 2 0 7 > 7 i 0 t 2 , 4 S W ,.! : 4 4 4 2 2 6 4 - 6 7 4 5 > 6 b 4 2 2 2 t > @ @ 4 > @ - 2 < @ - @ > 2 > > - > - , @ < > > > @ @ @ < > > > @ % $ % O $ , @ o o @ < . O $ @ @ @ @ ",
"@ @ > @ @ > > , @ @ @ @ @ @ , > > @ O @ > > @ - 7 > > @ , 4 4 > , > o > 7 @ 2 V f B h - @ < < > > > > 4 @ - 2 @ @ @ 2 > 2 > > > 2 t 7 2 4 2 7 6 > 7 7 2 2 w 7 7 6 ; h A h > o 2 > i 4 - 4 y 7 f A W ! h 7 - 7 j 6 7 0 0 h 2 2 B C B z Y ! Y [ 0 7 7 h 0 S 0 0 0 B z A B x z B B G C R R E C Y >X5XsXmXjXoXH.$X].H.L.+XJ.I.S.).`.m.n.b.S.I.S.U.'.L.Q.I.n.m.J.S.T.oXT.S.l.l.,XOXS.K.J.D.`.'.S.S.F.L.!.n.b.S.m.J.`.b._.L.J.J.T.OXW.m.S.T.<XJ.J.E.K.J.XX@XJ.W.[.J.T.S..XL.T.E.5XdX;XuXvXgX5.2.q.X.X.t.%.C 4.p.@.#.4.o.9. .@.o.] o.[  .@...W 4. . .6.4. .] +.0.>.@.0.@.0.7.( VXbXaXxXfX=X9X4XU.m.S.Q.J.z.R.J.j.n.K.m.&XS.P.n.D.OXD.n.F.W.E.U.9X`.J.$XU.W.m.n.n._.W.S.n.J.P.b.S.J.K.M.d.9XoXJ._.T.[.L.4XH.n.T.$Xm.&XJ.T.oXJ.J.{.F.K._.N.L.'._.F.m.OX<X,XT.`.,X+XaXcXmXiXF D ! ( Y E Y Y F D D E B S N B h v q 7 h c h 0 0 7 8 2 j S c 7 t 7 j i 2 u B Y h ; 2 6 u 0 u < 2 u 7 2 2 7 7 h u 7 @ o D :.W D i @ 2 8 0 h 7 8 7 0 > > 2 7 2 7 2 7 u 2 > @ 3 4 3 > 7 7 2 < > , 4 8 - @ % > 2 > > > 4 4 @ , > < , @ 5 > @ @ % @ % @ @ O @ % - > & o o O @ - @ ",
"% o @ 2 @ $ @ O @ @ @ @ > @ % % @ @ 5 @ @ - > , @ , , , @ > 2 @ % > @ 5 > > 6 Z C d - % 2 4 + @ @ 2 > > 2 - > 4 > 2 7 t 8 @ > > 2 > > 2 2 7 q 2 2 4 > > 7 > > i 7 D N x h 2 > e - 2 7 y > u h ~ +.T z u > 4 q u u 2 7 u u t 7 B Z h C Y Y W f c 6 h S d 7 k h x A m z B H N A D [ D B [ ..C ( >XpXaX*X5X3XOX].J.m.H.P.S.'.J.S.W.k.k.l.j.l.R._.{.T.H.T.S.H.2XT.m.m.T.l.m.Q.2Xn.S.n.l.R.OX2Xm.K.R.m.F.m.l.T.,XL.[.`. XT.m.A.F.m.P.|.L.).T.J.A.J.9XU.#XT.XX0XH.H.}.J.L.J.oX+XsXiX;XuXxX:X@.&.%.7.6.i.O.+.Y W *.4.X.9.O.3.Q #.4.Q @.O.*.0.0.4.4.O.:.0.+. .O.9.O.,.#.*.>.@.>.&XpX;XxX5X=XXX<XU.T.T.Q.J.J.2Xn.m.H.L.H.F.S.@XJ.U.].U.'.U.l.K.9X,XT.S.W.A.S.l.L.].L.K.A.J.S.R.J.).).m.l.}.T.T.`.`.T.j.OXwXE.H.b.R.A.m.F.m.U.E.P.S.U.j.m.P.J.P.J.E.'.S.H.L.S.].+XjXdXuXmX:XU Y Y Y E x A Z A x x V z V x h A x 7 u 7 d x z h b i 2 u 0 0 7 k u 6 2 2 ! c.c.:.D h 2 7 < 2 < 2 7 > t 2 7 2 7 6 7 y % 2 T Y O.S > - > 2 2 - - 2 7 > > > 4 > < > 5 2 % 3 < @ 2 % > 4 > @ 2 y @ - > 2 @ % > > > 2 @ 2 2 > 2 - > & > , @ > @ @ @ > O O % > @ > @ @ @ @ % O 1 > ",
"> O o 2 4 O O % O @ > @ @ > @ @ % > - @ O % > > O @ @ @ > > - > . 2 2 2 - 7 l f z 2 5 4 > 4 % > 3 > > t > % @ @ 2 7 7 > > 5 - @ 7 @ @ 4 2 2 7 - > 7 2 7 7 > > 2 v O.W N z F S 2 7 h d 7 2 x W ) ) 0 7 7 7 t 2 t 7 > 6 4 2 t 0 j 7 x } Q  .! z l i S z h u h h N D x h z N F B N R D C D ~ ~ 3.>XfX8X6XXX`.H.T.`.I.M.b.OXL.m.T.}.L.M.b.x.F.z.n.j.H.S.P._.j.m.$XL.k.2XJ.A.z.R.H.H.H.P.S.D.S.d.W.OXL.!.n.n.n.T.T.J.4X8X4XH.~.l.d.S._.n.T.T.H._.[.H.m.U.T.sX+XS.m.P.I.k.T.+X=X;X;X;XuXKXG.( 2.,.3.6. .@.4. .=.#.@.Q @.,.>.3.0.+.4.7.8.@.@.7.O.O.0.,. .+.0.4.@.O.O.O.4.6.4. .F.DXuXaXaX6X XOXK.E.U.l.'.Y.S.k.z.).wXS.d.!.`.U.$XJ.W.T.'.%XT.).n.P.Q.l.m.n.S.Q.U.n.l.K.L.%XOXU._.P.K.W.oXj.I.,XU.T.F.m.P.T.E.R.S.F.m.I.k.l.S.j.H.2XR.A.J..XU.}.A.S.n.F.I.S.T.oX+XuX;XmX*Xv C ! Q E z z A D B z S h x x 0 k h 2 l h h F h 0 l 6 u c 0 2 i A z 7 > 6 i.M.a.5.,.T h 2 5 2 4 7 2 @ 3 4 2 7 7 2 t 7 7 2 - h #.~ z 6 2 2 8 4 2 - > @ @ @ @ , O % > 1 > o > > , > w , - - > > @ > 2 2 > > , > @ , > 2 > > > % @ O @ , + > > 4 2 % > @ O w - o @ @ @ @ > @ @ O ",
"@ o % > % O @ - @ O 1 > - > @ @ @ O @ > @ - 3 > @ @ @ 2 4 > % > O @ > 2 2 v x 0 2 @ @ @ - > < % 2 > > > - - 5 2 2 2 2 @ @ - 2 > w < 4 2 7 2 4 y y 8 2 > 4 7 8 - j z ] I ..Y B z E } E G Y W ~ / f 4 7 u i 7 4 j 2 7 7 7 7 u t c 2 t f D &.H z 6 0 0 7 u u h j h z u x B D N Z E W E Y o...Z W wXaX*XqXsX<X].`._.T.OX$XL.m.A.H.j.l.K.A.Q.T.b.S.j.l.'.T.b.b.l.I.}.m.J.).J.P.n.K.m.L.P.m.m.'.J.S._.S.W.l.$X$XJ.OXL.J.,X1Xb.m.{.m.K.S.J.L.T.T.].[.Q.H.J.1XoXn.S.Q.k.l.I._.oX-X5XuXaX=XmXg.( ,.+.O.W W 3.( 8.t.O.4.O.O.Q Q :.>.O.Y ,.5.W O.5.>. .(  .5.O.O.@.O.5.3.@.>.O.1.N C.KXxXuXfXgX4X[.l.S.A.m.J.L.S.n.m.E.'.S.P.l.j._.T.H.`.H.l.[.J.Q._.L._.F.m.}.!.m.z.Q.J.S.H.OXI.l.j.j.J.}.J.m.U.OXL.J.wXH.I.T.T.T.T.U.H.I.n.j.I.].2XD.F.F.n.U.).).J.j.}.OXS.S.OX3X X;X5XfXiXY Y Y W C Z ^ E A z h A F x h F h x 0 h v 0 h j h x 0 u t 2 u h 6 2 a 7 D v.W 0 D t.5.O.d y 3 4 6 7 8 2 4 2 j 7 > 4 2 2 u > ; j +.Y F q t 4 , 8 y 4 4 2 8 7 4 > 2 2 2 7 0 2 8 - - > @ < 7 2 + 2 7 > O @ y > @ % > @ > @ > @ @ @ > > 2 @ > 4 4 > 2 2 @ > 8 > @ @ @ @ @ @ @ @ O ",
"@ @ , o O < 2 , O O O - 5 > @ > 4 O . @ % @ > > o > > 2 2 2 2 > , &   > h E f 4 8 3 > @ $ > 2 > 2 > < O , - 6 6 > , , O & 4 l i + 0 0 7 7 @ > 7 2 2 2 4 - 2 0 7 2 > ' w.f...z R W (  .Y O.) W x , 1 2 2 0 i - 7 i y 0 0 h h 2 2 y 0 u f B z h l h 7 2 0 h 7 q L A 0 S B E D R A ! Y ~ [ } D W >XdXXX:XaXoXA.I.m.S.oX).b.M.}.H.k.d.].`.J.I.M.b.!.z.J.L.M.d.~.j.j.T.l.R.K.}.b.j.M.H.I.K.'.+X1XS.b.n.W.J.J.`.).L.J.W.A.M.J.T.).).J.l.J.H.`.).U.`.W._.H.oX1XH.K.S.l.I.'._.J.+XiXuXgXdXmX(.<.y.2.q.y.2.2.,.t.<.) ,.=.! ! &.,.1.2.%...) $.q.,.i.6.9.q.,.! ! 9.+.e.6.O.>.:.y.! d.bXvXyXpX*X8XoXn.x.~.!.J.b.H.1XT.m.F.S.m.J.F.I.S.qX).Q.}.T.j.n.$XoXT.W.m.T.S.S.!.J.j.d.S.H._.!.P.m.I.T.Q.U.'.J.).T.J.S.OXW.l.m.<XoX].m.D.&XI.S.l.l.M.J.S.T.[.m.I.j.J.1XH.S.4X7XoX8XfX:XXXZ ! %.~ T B T B R x h A D B B N k z c x u c 4 0 h h 7 t 3 4 c 9 < 1 & f W #., . 7 C a.r.W ; @ 5 4 4 6 2 4 7 t 0 - 2 y 4 7 7 - O I ( W B 7 - % 2 0 0 i @ 4 - > 7 0 7 7 l 6 7 i 7 8 1 > 2 > 2 > 7 4 , O @ 4 , % - > , @ O , @ % - 2 7 2 > > 7 7 @ - > 4 4 > 2 2 - > , O @ @ > $ ",
"O @ $ @ @ O @ 7 % @ $ o o > > @ 2 @ @ 2 7 - 6 6 2 > @ O O - 7 6 h h 9 h B 2 O . 1 2 @ > @ > > - @ 0 2 > > 5 @ > % @ @ < > , - - 5 h > % @ 7 7 < 2 y - 2 7 @ > i > g a.b.b.%.- , 5 @ h ) 1.A - 5 1 4 > 7 > > u z 0 2 i 8 7 u u 2 u 7 2 E ~ h h h i i h h h 2 b L h x B V z S G E W R D ..Y Z >.kX6XiX X^.].H.P.n.I.J.J.H.}.M.d.F.z.L.L.I.j.m.m.b.S._.E.J.n.b._.].`.m.S.m.S.H.b.`.L.T.S.H.H._.I.L.n.J.K._.n.'.P.F.`.oX XOXS.l.R.].l.R.L.`.`.n.b.P.{.F.F.T.oX`.T.)._.A.T.`.hXfX8X5X5XaXaXdXdXdXdXdX5XdXdXaX5XuXuXdX=XdXvXxXZXxXzXxXbXdXdXvXlXvXlXdXxXpXvXZXxXvXvXZXyXvXZXdXlXpXdX5XuXaX*XU.H.m.{.I.M._.2X).J.[.W.F.l.T.).F.k.S.qXT.|..XT.).oX[.m.}.I.K.m.R.J.l.Q.'.`.z.I.U.,X_.I.M.l.m.P.m.T.7X+XM.].).K.m.J.}.A..X].H.}.).b.m._.J.T._.W.n.].OXJ.#XT.A.'.).oXaXgXiX6XV N E _ W Z Y W ! V x A S x B 0 C z 6 u z ^ z h i 8 0 h 0 7 l a h 4 , t f T v % # 0 I w.6.P w = f 0 2 7 h 0 5 2 2 2 2 4 4 , < 2 O u T I z u @ > 2 7 4 2 ; x 7 ; 4 0 4 4 @ > > > > y > > , > 4 @ O 2 2 7 2 2 3 > $ > 4 - - , > > O @ @ > @ > y 2 > > @ % O O O 2 & @ $ @ @ @ @ ",
"@ @ > @ @ O O 2 @ @ , > 4 > > > 2 4 @ - 4 < > h b - , @ 4 z E z l z x 0 h @ > O % > - @ @ < 4 - $ 7 2 > 2 > > > h Y Y z 6 > > 2 i 0 7 % - 8 7 > 2 2 2 > i > @ i > N f.i.O.6 4 > 7 h E Q B 6 7 2 4 h - 2 0 2 l v 7 6 0 7 6 2 4 7 u u 6 C  .Z 7 0 7 k 7 d c x 0 9 k A F h f x F B Y Y D ] ! z O.>X^.8X3X4X XU._.H.S.'.J.l.M.b.F.n.b.L.L.b.l.S.I.P.M.n.H._.L.H.'.J.L.T.].n.n.).L.J.T.L.R._.b.S.H.}.'.S.n.J.R.J.U.m.H.wX1XH.{.m.m.OXW..XD.'.'.T.'.J.S.F.j.J.3XT.S.n.H.'.[.).7XaX=XsX8X+X*XiXjX:XsXfXaX3XuXfX5XfXaXfX*XmXpXnXcXbX;XaXdXiXcXgXZXMXtXxXdXaXmXpXcXdXDXbXbXcXxXiX6XuX:X;XXXtXmXoXm.'.A.d.d.S.m.'.`.J.T.!.H.n.%XeXn.T.T.L.OX9XK.T.oXS.].J.l.T.D.m.m.W.$X{.J.F.F.J.[.J.S.J.F.A.K.K.n..XoXT.$XJ.l.M.}.J.n.OXJ.n.S.l.K.2XJ.J._.J.b.n.J.T.'.H.'.H.J.`.E.6XpXjXY.N ~ $.C Y R } D Z h z B z z A x 9.! z h h z h i 2 2 h L 0 7 6 q 0 2 w 0 F E x 6 B C R ..:.t.Z @ 0 7 4 8 p 2 2 7 7 t 7 2 > - @ 7 > 2 i Z T V t > > > - i i 2 7 > , > > 2 6 > > > > 2 2 4 > > 4 @ - 2 4 > % % @ @ @ > 4 8 > > @ , < @ 2 y @ 2 2 @ > > @ O % @ o - , @ @ @ O O @ ",
"% o @ > , @ O O % O > 4 2 @ @ 4 > 2 - 7 2 2 ; 0 v - > > 0 ~ ) d 2 ( R 4 - - > > > @ 2 4 > @ - @ O @ @ q 7 O , 2 Y 6.)  .D ; > < - 2 q 7 4 > > > 4 2 u 2 4 2 - i 7 0 D 0 7 7 h y 0 z E u > , > 4 6 0 4 4 i 2 u > 4 2 q 7 4 4 7 M 7 6 h C #.G c j h h h h c h q h c z Z z h x A N E ! Q #.R d e.VXaX3X3XhXY.H.m.S.m._.T.I.l.j.j._.L.J.!.N.n.m.S.I.n.F.m.L.S.].J.m.E.}.j.P.L.L.Q.S.&XP.n.L.m.m.J.I.S.H.OX].OXU.`.).E.`.L.m.S.J.J.L.,X>XJ.J.J.H.D.<XT.F.b.,XoXJ.W.W.OXJ.L.H.L.oX5XaX5X5X5XaX8X4X=XXX3X XfXaX5X8X*X4X5XdX6X5XuX5X=XuXaXuX3X=X5XfX=X5XiX;XsX5XdXfXsX5XcXgX5XuXaX5XaXcX5XcX-XJ.P.n.n.m.l.n.K.W.U.m.oXP.$XE.'.U.OXW.n.J.S.H.H.k.P.T.OX,XQ.T.'.I.!.F.j.b.U.l.F.M.l.A.J.&XJ.m.m.m.M.m.J.OXS.j.}.S.J.!.l.H.`.'.z.j.m.J.J.m.H.J.T.2X}.b.K.n.J.T. XsXjXXXgX:X3XY ! ..! A [ ' H m A B h x N C Y D Y T S V h c 7 4 t u u 0 c 0 d i 7 0 7 c 0 N 1.a.5.J 7 O.a.:.g O 8 7 > 7 > 2 ; 0 x 2 8 8 7 6 u 0 2 O h E Z h 6 > 5 > 7 < + > % O - 2 > > - @ 4 > 2 7 7 4 > > 3 7 6 7 > o > - 5 2 2 @ > > > > O @ > > 2 > > > > @ @ > , O o @ > % @ o @ O . @ ",
"@ > @ , , O @ @ O O @ > - @ @ > > > > ; @ % > 0 0 2 > > h E Y z c W N O % > > 2 > > 5 2 > > - > @ , 2 2 4 & - z q.Y B C Y E 6 @ , 2 - 6 i 4 > 2 2 7 q 2 2 q 7 7 u > - @ - l 4 8 4 7 k 2 1 @ 4 0 k i 2 > u 0 7 2 7 t 2 u u 6 - 7 4 y 7 D q.z h 4 v h 7 u h 6 u d d B F A F B B | B D Q C F Z O.>XfX;X<X3X,X).J._.R.J.J.H.F.!.j.L.S.m.K.n.b.F.H.I.n.m.b.P.L.R.l.T.<XQ.l.J.H.j.H.L.U.L.I.,X1X1X'.S.m.H.b.L.J.`.J.).@XS.H.'.K.K.l.T.oXK.n.L.S.m.A.Y.wXJ.m.9X`.H.S.T.J.T.OX).[.<XoX*X-X=X3X=X^.+X3XXX5X XoX-X+X3X8X8X8X5X3X*XiXuX+X5XdXdXaX=X5X5X=XaXpX5XdXuXdX;X=XXX5X;XfXsX+X5XsXtXXX8XE.E.J.J.K.J.P.R.J.&XJ.J.&XS.S.`.`.L.R.S.W.W.n.H.$X{.H.J.m.L.K.L.).m.l.n.M._.D.n.}.n.k.'.%Xm.l.A.!.l.j.W.&XS.m.$XT.L.n.J.T.`.`.S.I.K.A.J.W.I.I.I.H.J.J.S.F.!.&Xm.[.XX5X=XjX8X4XF C C ! D D z x B z H S u x [  .N F z Z z 0 u 0 0 l > 2 u h 0 q > 0 7 7 7 0 B O.6.I - > x 6.f.w.2 , 2 2 4 7 t 7 4 0 > > 7 u 7 7 7 2 @ > 0 C G f 2 > @ 4 7 2 @ % > > @ < 2 > , 7 @ 8 - > @ 4 - @ 4 2 - > @ < > - 2 - O @ 4 2 @ @ % @ > - 2 > > > O $ > @ o @ @ > o O > % % O O ",
"$ @ , @ O @ > @ O O , @ @ @ 5 @ @ 4 4 > @   > t ; - > > @ 4 ; B ! D h < O @ - - @ % @ @ > > - > - - 2 @ % % 0 ) ! 6 & > W 2.z < % - 4 7 2 - > 2 2 2 4 > 8 2 6 q 6 > 4 2 2 y 4 - > 4 > - 2 7 u ; 4 3 5 4 > 0 c t 7 7 > u x h x 6 , 7 2 f H z 7 0 u 0 u h x h 0 0 h 0 S F x B x x A ! W C ! V  .>X=X;X+X XJ.J.H.J.).m.Q.l.S.H.l.j.x.H.J.H.I.m.m.L.I.n.}.P.n.j.F.m.b.n.).J.!.S._.J.[.H.H.2XA.I.I.m.H.$XR.m.n.1XJ.T.wX).J.1XOXl.l.kX`.k.m.T.'.).J.D.U.<X+XJ.S.L.E.oXL.[.).H.$X_.'.+XsX8X+X5XsX5X3X7X8XoXH.`.oXoX<XjX3X+X8XaX+X7X6X8XaX5X*X=XmXfXdXdXxXaXfX=X3XaXfXfX5XgXaX3X*X5X6X3X`.+XqXE.z.S.J.H.K.H.l.J.OX'.T.S.l.J.[.[.n.S.I.F.Q.T.S.'.`.].H.m.n.I.{.H.n.F.k.A.R.H.H.A.}.J.b.m.Q.b.].OX).'.R.j.k.S.J.2XT.oXOXK.I.K.).H.J.'.J.m.j.m.P.b.l.P.n.b.a.b.T.oX3X5X5X+X3XS F B B [ ! } Y z A B B x 0 x ..C B G z h x 0 z d u , 8 j 0 2 3 4 u l 2 6 7 7 u 2 6 0 7 - v i.a.D @ 2 i 7 2 0 7 > @ 7 q 7 2 - - 7 7 2 2 4 h D Y z x 7 2 7 8 > 2 2 8 o % 4 > - > 2 2 > > > > 7 @ @ % > < > - < 4 > @ 2 > @ @ > 2 $ @ @ 2 > 2 > - - % O % > , > @ O @ @ @ > @ @ ",
"@ O @ o o , % > @ @ > @ @ % @ @ > & O - % @ % > 7 > > > o @ > 0 z 0 2 @ @ , > - @ O @ , > % % > - > > @ @ 6 L ..z > - 6 ! ( x 2 > u 7 4 4 > 2 2 8 4 - > t 4 2 2 2 7 7 4 6 2 2 4 - 4 7 4 0 6 6 7 > - < 7 2 6 j 2 7 2 2 2 0 V z 0 > 8 7 D &.d t i 7 2 u u h v k n j u 0 0 x A N A D B T ..W f  .VXaX+X8X+XOX[.).).).T.J.R.}.H.L.K.k.m.j.).L.`.J.n.L.J.l.A.j.S.'.n.n.wXT.j.A.].H.m.L.W.L.m.b.l.j.J.m.D.J.A.J.OXE.J.E.T.H.`.E.`.oX,Xm.m.R.'.J.S.J.L.J.`.,X1XA.L.).T.J.).T.L.L.A.L.oX[.J.+X9X-X`.#X`.U.).H.T.3X,XU.XX`. X+XqX X`.XXE.@X+XoXoXXX^.5X+X+X3X6X4X+XE.5X3X+X*X-X6X X^.3X+XoXU.oX1X.XD.W.{.].S.m.H.R.S.n.~.H.A.OX_.A.T.S.H.n.m.J.J.J.S.L._._.I.n.].&Xm.A.F.S.A.P.n.D.R.S.F.l.m.}.A.U.S.n.I.m.A.).T.H.,XT.j.j.P.).H.T.2XJ.m.A.K.b.M.m.m.W.S.M.T.4X4X*X8XaX8X3XF Z / G Y ! C x F } N z S 0 0 A ..W E ' x x Z A z V 0 0 h u > % 7 u 7 6 7 8 3 < , > 7 0 4 > Y <.5.+.2 , > 2 0 2 > % 2 0 2 8 , - 7 7 u 4 w 2 0 Y Y A 0 @ 2 7 2 2 2 2 @ % @ @ > > 4 2 - > < 2 4 4 O @ - > < > - - @ > > 3 , O @ > % % > < 2 > 2 8 4 @ @ % > > > % @ @ O > > - @ ",
"% O @ O % @ o @ > % @ > < @ @ > 2 @ O @ % < < > 4 % @ > - 4 7 2 6 % % $ - - > @ 8 @ % % > > @ > > > 4 o 2 B C 6 h S z Q q.x 2 2 > d l @ 2 7 7 4 3 @ > i > 4 > 4 ; 2 6 6 i 2 4 4 2 0 0 7 l 2 7 i 2 5 2 2 7 > > 7 2 7 h V 6 0 h 0 6 4 0 W ,.z 7 y < > 2 l 0 z h 0 z h h h x B z B E z T Q R Z ( eX5XXX4XoX,XT.].P.T.U.S.H.K.S.Q.H.P.K.m.H.H.`.S.n.'.,XJ.n.M.I.).oXW.I.L.).`.T.m.Q.x.K.S.n.K.m.].OX).oXJ.J.OXJ.[.U.L.T.T.OXl.1XOXH.).L.R.'.H.m.1XS.S.n.U.OXoX'.T.J.L.'.T.H.].2Xn._.T.J.T.J._.H.T.U.S.T.S._.L.J.`.S.`.E.`.T. X+XoXH.D.[.`.J.A.`.U.L.E..XU.T.-X@XT.T.`.Y.<XE.T.A.].<X8XT.oXqXT.}.F.z.m.OXT.}.F.n.Q.T.J.n.Q.F.S..X+XE.`.U.).T.H.J.}.n.U.H.l.W.L.l.{.}.H.n.T._.M.m.J._.j.k.S.m.S.n.T.).[.$Xm.J.R.J.P.J.I.m.m.J.n.F.F.A.].A.Q.m.n.j.P.$XS.J.9X3XXX3X5X3X+XZ D D E Y B ^ z B H B F d h B K W D z D z x z v 2 Z ( 1.%.0 4 4 7 0 2 7 y 2 8 4 y 4 2 4 < > 6 Z d.s.z > i 0 2 4 > , w 6 2 - 6 a 0 @ > 4 > @ 2 4 B W z 2 2 t 2 O 4 < % > % < < @ 2 7 2 4 @ % , < , % 7 2 o % > > @ % % @ @ & % @ > > > , O < 4 - 2 2 o O < - @ % > > % @ % @ @ ",
"% @ > @ @ o O o > > > - > - > @ > @ > @ @ , > > - o > > - - 2 4 2 O > @ @ - 7 @ < > @ @ 2 > > % > @ @ b S Y x - 7 c z C z - 3 8 > 2 4 7 2 7 2 , 2 > @ 2 2 , > b % - p > 2 8 > - 7 2 0 2 8 < > 2 j > 4 6 i 4 i 7 2 7 q h z u 2 7 i 0 z 1.O.C 7 2 2 7 2 0 k h 0 h F v h h B B x A H z F [ C A Q >X5X^.sX3XL.m.b.m.T.J.H.l.l.m.S.b.H.b.b._.H.'.L.S.L.L.].H.J.H.L.).S.k.m.4XL.m.L.T.U.J.P._.n.J.,XU.J.[.L.E.-X#XL.}.[.4X@X{.H.OXD.`.1XE.U.m.).,XT.D.].S.n.T.`.S.J.).J.`.n.H.<XOXm.J.J.$XA.J.J.H.n.W.A._.U.H.l.@XOXH.OXT.Y.T.T.OXE.J.A.wX`.P._.L.`.L.`.].b.b.E.2Xb.m.).J.oXoX].m.T.9X4XE.qX`.m.H.M.!.A.OXT.S.m.T.T.T.S.S.K.J.S.OX`.`.T.K.S.S.$XH.P.T.F.H.T.J.A.K.l._.n.A.I.S.{.l.S.OX$Xb.K.}.l.F.T.`.,X`.].).).A.A.U.OXS.S.T.J.b.K.'.T.T.OXA.!.I.I.J.J.E.U.=XhX3XuXfXqXZ D Y R G N H x H B x ^ z S A 7 C E B B z J h 7 - S 6.<.+.z h u y 2 h t 2 @ 4 2 0 0 7 < 7 c 6 y <.<.r.D 7 2 > a > 7 @ < < 2 7 7 j ; > > 2 2 < > 2 V D z 2 > < & 2 > , @ > - > - > 2 2 4 o @ @ - > - 0 7 @ o > t > > 5 > > @ @ @ @ 2 > , o @ > O 4 4 o O > 2 @ @ $ @ @ % O o o ",
"% . O @ @ > , o %   O % @ > @ o > > > 2 2 o o @ > 2 8 , o > 2 - - @ > - - @ @ @ > > @ 2 4 - 2 2 > > O h x 0 q 2 6 7 2 2 - 2 2 > 5 2 > 4 7 2 - @ > 2 - > 4 > 2 > - 8 7 7 7 @ > 2 - 2 8 @ > 4 2 u 0 2 2 4 2 2 7 0 u 7 2 7 0 7 0 0 0 2 f +.O.C d 2 i u u 7 7 0 h z E h S J A V z x v A D ~ Y x Q >X5X=X7X XL._.m.H.H.R.S.P.H.{.S.d.M.[.J.b.m.K.T.J.J.m.m.H.[.P.A.m.J.!.J.`.T..X].S.`.<X`.J.K.J.).OX].J.qXoXoXL.H.H.H.oXJ.S.OXU.J.U.H.U.%XL.J.W.S.J.OX].T.H.}.S.OX$XP.U._.m.L.).n.).qXT.$XJ.m.J.OX`.U.T.l.L.m.$XT.J.U.H.VXH.F.D.+X+X@XoXOXT.].+XqX].OXJ.A.T.].H.m.T.'.I.H.).).L.L.m.z.T.Y.9XW.F.{.T.wXI.m.n.J.T._.Q.J.W.S.m.P.P.n.S.K.`.H.M._.W.J.T.n.S.H.L.S.m.Q.$X`.).F.M.N.S.T.T.}.J.J.b.l._.E.H.J.z.R.b.K.2XJ.J.wXL.m.H._.I.m.S.k.[.J.n.b.P.T.J.,XT.A.4X4XU.hXmX=XF Y A E V F Y B B x B B F F v 0 0 h z z 0 0 h u 7 u C W B E u 7 1 % 2 u 0 p y 2 > 7 2 > > i j 6 p ) d.r.h > , w 2 2 > 4 @ 2 i 6 > 7 2 2 2 7 @ , & - !  .B 2 @ 4 2 2 u 7 + < 0 7 > 2 6 2 2 @ - 0 @ 2 2 2 ; + 7 0 6 6 2 - 7 K 2 @ < > 4 2 @ O , 2 > - 2 @ > , % @ @ o o O @ % % ",
"@ o % % @ > > @ O @ O $ @ @ , > > @ @ 2 > @ % @ 2 2 > @ @ > > @ o > @ - % > 2 > > , 4 > - 2 2 2 - > 4 0 > 2 7 7 > > $ O % < 2 > % 2 3 @ > 4 > 4 4 > 6 q 2 4 , @ > > > 7 4 < - > 4 , 1 @ @ 7 4 7 > 2 0 4 - 4 - 7 0 2 7 7 7 7 u h 0 3 6 W O.x j i 0 7 i 7 7 0 c u F c A z G x V z z A Y ..O.C ( -X3X*X4X+X).H.b.&X].J.d.P.T.P.j.l.K.].L.L.P.H.H.J.2X!.j.H.'.m.H.S._.R.n.J.].T.H.8X3XT.m.T.U.W.H.L.`.OX,XS.[.J.m.T.H.J.`.'.J.).$Xl.I.oXE.].S.m.OXoXH. XD.n.$XS.S.T.L.S.b.T.S.'.'.H.J.A._.H._.`.J.].m.D.Q.Q.A.n.W.`.OX`.`.n.!.D.`.#XT.n.P.m.T.oX`. XJ..XT.qXL.b.m.$X`.S.b.P._.m.{.m.K.W.m.OXH.b.T.m.J._.n.!._.J.P.j.D.`.H.k.x.J.F.n.M.`.I.m.j.T.].H.2X%Xm.H.I.Q.S.b.b.T.}.x.d.Q.L.R.J.,XA.z.H._.,Xm.T.K.b.S.R.n.l.S.2Xn.n.L.b.m.S.j.n.S.2XF.j.m.m.z.,XwXT. X4X+X-XfX7XZ ....Y z D T B h B x x f f F L V d d L 0 l j j 0 7 L k z q.! d 4 0 > t u 2 7 i 7 y 7 4 > > t 7 O ; ) f.2.9 > 3 7 2 7 8 4 2 2 6 4 7 7 4 2 < @ > @ O 0 Y W z 7 S h z x K 0 u h L z z x V 0 u 0 B h l u v F x c h V A h d d ^ c - 7 - > 2 % < O @ 7 7 7 % $ @ @ @ % , % @ % @ @ ",
"@ O % O @ > , % > @ % @ @ @ > 2 > % @ O % @ , % - > > > @ % O > % > % @ - > 2 @ @ @ > % @ > - 2 2 2 7 5 - 4 7 0 2 2 3 @ % 4 i i 4 @ 4 2 > @ 2 7 7 7 2 6 0 7 - 7 6 < 2 t 7 w > 4 - > 2 i 2 > 8 2 7 4 4 2 u i > - 4 7 u u t t 4 7 t & 6 1. .6 8 i u t 7 2 u x h 7 0 9 B B G f z A E z E ~ ~ x O.>XaX7X+X<X].L.T.I._.T.H.n.l.j.l.n.I.l.).m.H.I.j.m.m.b.S._.m.H.H.U.H.T._.H.S.H.J.OX[.d.b.`.D.m.J.'.).T.[.n.T.OXJ.`.K.j.Q.wX$XL.K.L.W.qXU.m.S.U.,XoXA.J.L.J.`.J.U.qX,XOXS.,XU.)._.m.J.J.l.l.m.J.].F.j.Y.eXD.l.N.H.J.,XD.J.m.S.`. XU.L.'.$XP.J.U.L.T.A.T.A.H.S.].).H.'.@XK.j.m.E.,XwXJ.A.T.l.b.T.J.J.H.n.S.F.F.S.l.S.J.j.}.K.l.S.n.k.P.'.S.).).H._.F.K.T.J.m.m.$XOXl.d.S.~.d.~.K.S.J.D.L.T.W.H.'.J.L.J.P.m.{.'.l.K.K.A.A.!.l.d.m.K.l.R.F.n.n.I.F.K.T.F.S.`.4X5XaX5X=X+XV C ) ! ! R Y N S S 0 u h N x d d 0 l h u h k h c 4 3 7 W d.6.Q [ 0 2 7 4 - 6 j 7 7 7 2 6 2 7 0 @ % 0 #.>.Q Z - > > 7 6 2 t > > t 2 2 2 > > 4 2 2 8 2 2 x ~ ! z l d z B z B z Z E E z J h D x 0 x v F N W ! A H z B A F z l 0 7 h 6 < 5 @ % @ 7 2 2 > > 5 > @ @ O @ - @ o O , ",
"- , % % % @ O @ , - @ % > @ 2 - @ > @ o @ > - - % % > 2 > O O > > @ o @ , > > O @ 2 4 o % O @ > 7 2 - @ > 7 7 t - 7 2 2 > - 7 2 > > 4 7 2 @ 2 2 2 7 2 i 7 7 7 u j 4 > > > 4 7 7 7 > 2 u 7 2 2 4 4 t 2 j j 7 2 2 2 > 7 0 u 0 2 > 7 * d a.t.0 @ 7 u 7 u u h h k 0 7 h x x Z F B B B x G W Z F 3.6X5XsX X<XT.S.'.m.l.W.[.m.F.F.S.m.R.J.b.m.'.K.m.m.l.H.T.m.S.S.W.OXJ.Q.L.m.P.b.L.S.n.j.l.U.OXP.A..X,Xb.T.{.m.J.n.T.j.j.j.l.H.J.k.S.T.`.J.b.P.[.J.S.P.n.T.'.J.`.`.`.b.n.$X4X Xz.J._.`.Q.b.P.$Xn.Q.F.P.R.l.L._.m.m.J.`._.S.n.2X`.`.P.[.'.J.).j.K.$XJ.OXU.R.A.A..X`.m.z._.%XK.l.,XE.D.S.L.K.S.Q.].).Q.K.A.Q.j.l.l.S.D.W.A.{.T.k.m.K.F.J.l.Q.4X].m.j.d.S.H.b.b.J.L.n.H.I.l.~.b.n.l.P.J.P.j.}.OXb.R._.OXL.k.F.S._.J.n.Q.].n.d.j.F.P.j.b.m.M.n.F.n.b.}.F.H.T.@X3X+XsXuX5X4X! E C B Y D B D C S h n ^ A x 7 B F 0 0 c h h B z 7 @ > ..t.I ! W d t 7 > i 0 0 0 2 4 2 i 0 7 0 2 5 > d Q >.+.z 2 > 7 > > 4 2 7 > > > > > < 2 > 7 - > # 2 D Y 6 7 7 0 d 0 z h f 7 0 0 7 6 0 k 6 0 h x 0 f h z 0 6 h 0 h 6 7 7 6 h 2 @ - > 2 2 > 7 > O @ 4 - @ @ & @ @ % O @ O ",
"@ % @ , O @ @ O % @ @ > > @ > > - @ @ 3 > @ - O O @ - - - % @ @ > 2 @ 7 4 , , @ , y > > > @ , 2 > @ - r 7 6 4 4 @ 4 2 2 2 > - 2 2 > 2 7 i , - @ 4 - > 2 @ 2 7 ; j u 2 2 u 8 2 - 7 6 j 2 - 8 4 - > 2 - u 2 2 7 t 7 @ > u d 7 4 2 i 3 z <.<.G h q 7 7 h h v 6 j u 0 x A z z S h z A B D Y D z  .kXaXsX4X4X4XE.).J.b.P.J.b.l.L.{.L.T.W.n.A.I.S._.I.I.&XS.L.2Xb.R.m.<Xl.l.oX,Xn.P.S.R.Q.l.M.K.$X`.,X).H.S.H.}.L.H.j.J.!.F.J.2XwX`.L.oXL.k.A.H.l.F.K.H.I.m.S.E.+X9XK.m.L.{.'.n.`.@X_.n.n.eXOX`.l.}.Q.M.F.l.`.T.S.~.A.R.H.A.U.OXT.[.H.).J.J.eXJ.R.m.T.T.L.2X,X'.S.n.J.2XT.l.W.J.n.D._.A.b.S.`.`.L.P.{.m.T.A.F.M.M.K.n.P.Q.S._.'.l.M.&Xm.l.D.).[.J.S.m._.m.T.P.m.S.n.R.}.l.M.].n.L.$XT.L.J.z.].1Xl.n.P.I.l.m.j.L.D.H.F.].W.J.eXF.l.k.I.m.z.I.].`.T.S.l.'.T.3XoXY.=XsXsX3XF T T C B G A Z B H z z 0 z n 0 n h h F v z x c t 7 h d z h f M 0 7 0 7 2 0 7 0 u t 0 q 7 > 7 7 u i - - z ! :.6.D ; - > 2 > i 2 > 7 7 4 > @ @ > 0 2 > , @ 2 2 > 2 > 2 - - 7 > 2 @ @ % @ - 4 > - @ 2 7 2 - > @ > 7 0 @ - - u 7 @ 2 4 2 - > 2 4 8 4 > 2 @ > > > - % @ > O % @ O ",
"@ % $ @ O o @ @ o O > % @ @ O - > @ > > > > $ O % > > - > > @ , > < @ 2 > o   % > > > > 4 2 - 2 - > 4 7 6 4 > 2 3 % @ 2 2 4 > 2 b 4 - 2 7 7 2 > 4 7 - % % > 7 0 > 2 2 i t 2 > 5 > 6 l 2 @ 7 i 2 4 4 4 > > 2 8 j 6 > 4 i 6 t 2 y t l z  .0.Z 6 l h u 0 0 h h 2 0 x z h u x S z x A F D ] [ f @.kXaX+X<XXXE.[.L.A.m.H.m.S.L.H.S.T.J.A.'.P.b.).H.m.m.n.'.`.`.j.L.m._.j.H.OXoX$XT.H.n.T.E.l.l.J.4X Xb.oXOXb.b.J.R.M.m.H.J.T.T.L.`.J.oXI.F.P.T.M.k.n.m.I.l.1X XJ.J.J.F.J.P.I.2X).L.K.!.n.T.L.@XJ.R.n.M.Q.T.L.T.H.m.K.T.A.oX X1XOXJ.[.Q.Y.'.T.D.S.J.OXJ.m.J.H.T.T.J.m.+XL.k.U.R.l._._.d.l.W.J.).oXb.R.'.L.).Q.j.b.J.I.n.P.b.U.'.n.m.S.b.).[.W.L.H.W.I.J.R.H.$XS.I._.b.m.F.S.Q.U.E.U.J.T.$Xl.m.oXK.j.k.n.K.!.M.A.].J.l.)._.m.J.S.d.M.J.OXM.n.T.9XS.H.K.L.J.4X+X@X*XaXhXT.B C G G F B A B B D A z S z n 0 4 u ^ B h u u u 2 6 x v 3 , 7 w < y 8 6 0 j 7 0 i u 2 4 2 2 p > 0 7 6 q 2 2 Y s.( E k 2 8 7 > 0 3 - 2 7 > > 4 2 t 7 2 y @ , O , u 2 i 2 @ > @ 3 O @ @ , > @ @ 5 > @ > < & & O % 4 i 1 O > 7 j - O > 2 > 2 > 2 > O > 2 - , @ - > @ O @ O @ @ @ ",
"@ @ @ @ , O % o @ @ % o % > > > @ > > @ > , @ @ - - > > - @ , > @ - > @ $ > > , > @ , - 2 6 ; 4 2 , - @ , > @ @ , 4 > 4 > 2 4 - - 4 7 8 @ > 4 5 > y 5 > @ 2 i 2 - 2 7 > 2 2 > 4 7 2 2 > y 2 - i 8 2 2 - 2 7 i 0 t h 7 7 6 7 i 7 2 w z ~ Y A 7 7 d 6 7 t 6 c x z z S h 0 h h z E A V B W Q Z Y >X*X6X8X6X<XD.L.H.I.P.'.[.J.H.P._.'.m.{.oX%X`._.).m.S.'.L.S.&XW.L.T.W.].oXA.m.S.Q.'.OXT.S.D.`.T.l._.J.OX$XH.K.m.}.j.n.b.W.J.l.n.m.P.H.E.].H.M.S.S._.U.D.].).m.n.}.b.A.S.L.H.H.).qXL.'.H.b.OX].T.n.M.J.W.A.S.S.U.1X,X'.`.`.T.J.$XJ.E.7XoXm.T.<XU.R.z.).J.l.F.J.R.F.OXU.W.Q.L.H.J.b.P.T.OXJ.L.W.H.J.+XW.R.Q.m.R.b.l.J.&Xm.T.b.}.P.m.H.H.P.R.J.P.L.L.T.F.l.J.L.S.W._.T.J.m.m.m.'.$XA.H.K.T.@XL.`.P.A.n.P.J.2XK.&Xj.b.l.A.J.J.OXz.K.F.m.n.}.l.P.m.b.~.m.L.,XoX:X6X5X8X7XV C Y F E z H z A Z 0 x x B h h h h c B x x 6 0 h z 0 2 % < u h 4 < 4 6 0 u 2 - 2 4 2 4 2 4 7 2 7 7 7 p 4 > 6 Z Y 6.( V 7 2 4 q 4 - 2 4 2 2 7 2 @ 3 > > 4 > $ , 2 2 2 > > > > > 4 1 % > , > @ 4 2 3 , o O > @ 3 - > r % O @ i t 2 4 7 2 @ @ > > , @ > > @ @ > O % @ O @ < , % ",
"@ @ % 2 2 O @ @ > 7 > @ , - 5 @ o > @ O $ , @ 2 8 2 - , @ @ o @ > 2 % O , > 2 > < O # > 7 h q 7 6 7 > @ $ O O @ 2 2 2 @ @ 2 t 2 , 2 2 < , < > @ 2 2 7 8 4 2 6 2 4 < > @ , > % @ > , 4 7 2 w 7 4 0 0 4 5 > 7 u 2 l z 9 u j j 2 2 5 7 z ! C F k 6 z 7 < 4 0 S z z h c k t u z E Y D x N [ ! ^ Y &XxX6X=X=XqXH.L.P.m.H.OXT.).m.k.j.n.k.S.`.3XS.m.`.J.m.b.I.j.oXJ.l.L.+XT.E._.K.}.`.Y.m.[.9XoX,X'.n.J.J.m.m.n.l.J._.K.}.l.J.K.P.}.F.d.oX[.`.J.b.T.U.].`.4XU.j.b.P.S.K.Q.m.m.H.H.'.XXS.L.wXT.P.J.`.A.P.`.K.D.Q.'.J.L.Y.J.E.T.J.T.I.L.>X5XoX'.).[.`.K.S.@X9X2XQ.S.`.oX4XOXA.l.F.oXL.j.OX+XD.OX_.S.,X+XE.D.Q.m.F.{.D.b.$X$Xj.P.K.H.l.P.m.l.Q.I.l.S.F.[.T.H.N.S._.H.l.W.}.m.H.~.m.n.P.K.b.H. XqX X<XOXL.{.oXL.m.J.]._.wXm.m._.H.'.`.OX$XP.j.j.x.j.M.F.z.b.1X3X+XiXsX*X5XoXL B F E D A h F D z u J N x h L h 0 4 h N Z h x A f 8 3 6 7 B z h t 8 q 0 6 4 7 8 > p 2 6 u 7 > 7 2 , > > 2 , o B <.W T 2 O y 2 4 5 @ @ < 2 2 2 > , % , 7 6 2 > + 2 2 7 0 0 0 2 7 7 > > > 2 ; 4 - 4 @ % - 4 2 > > > : - % O 2 u z u 2 < > @ > 6 7 O % > > - % @ > > o @ @ - @ ",
"@ @ , % o o > 2 O @ @ @ % @ @ @ @ > > > 7 4 2 @ @ O O , @ % 5 @ @ > % @ > @ > > > > > 0 h 7 7 @ > - @ O > 7 2 - > , , - > > > 7 7 6 0 1 O > 5 O . O % @ > % & > X X . * 2 9 W W h @ , 8 2 0 7 - 2 7 7 2 y 2 @ 8 7 2 4 y 2 i > 7 > > 2 Y T L 4 3 a v x z 6 2 2 u 7 h c 4 u E N 0 B H R Y E V Y Y.8X,X9X4X`.z.oX[.L.I.A.S.).n.L.H.H._.b.I.m.).T.m.'.m.n.I.d.S._.H.I.z._.m.L.OXU.N.j.n.Q.R.l.d.j.~.b.n.l._.J.S.H.S.J.A.m.I.P.H.U._.m.].L.m.S.L.l.l.m.S.W.T.A.M.l.F.T.J.1X}.m.b.P.W.$Xm.S.J.).oXU.L.L.F.m.oXT.S.W.L.L.T.[.`.OXL.m.T.1X<X`.S.U.$XJ.F.`.A.l.$XJ.b.&XOXQ.T.J.L.OX).`.S.J.).`.).b.)._.n.Q.].L.L.J.x.x.K.{.P.M.T.H.H.n.L.P.l.T.m.S.L.l.I.m.J.m.l.].E.oXS.S.`.T.H.k.F.F.N._.P.l.N.P.m.m.T.H.F.K.T.m.n.A.2X_.j.x.k.n.R.Q.H.[.j.S.).L.K.l.d.}.OX+X5XsX;X5X8X<X! | E C ! | 0 h m x E z 6 0 E x j j 6 2 j 7 6 2 7 8 t u u h > e j 2 0 0 0 0 4 5 b 4 2 4 7 7 > 7 2 b 2 4 6 q > > @ 5 z :.O.9 O = < > u 0 > @ 3 7 7 > > - > > > > 7 0 4 , $ % > 4 @ 2 2 2 @ , % % 4 - > > 7 > > > @ < O w 2 > O @ 5 - 4 - 6 7 2 > 2 % o O > , @ - @ O @ $ O $ O ",
"@ $ @ @ $ @ > - @ % @ % > @ O $ % @ @ > > 2 - @ o > @ > @ @ 3 , @ @ 2 - @ O @ 4 2 7 7 2 2 7 7 7 @ 4 5 @ > 7 - 2 > - > 8 2 > > 4 7 @ > y 2 6 u 2 t 7 d d 0 0 d h 0 6 u 2 2 R q...+.f 2 > 8 7 u 2 c 7 q 2 - s > 7 0 2 7 2 2 7 2 i i - u  .Y h 7 - 2 x h h h j 0 0 c z A h x F B B V V E D C B 3.BX8X@XXX X,X1X'.L.}._.m.S._.J.H.J.J.L.W.l.d.2X&Xb.R.P.m.N.F.'.H.L.E.`.b.H.'.2XU.m.S.P.l.l._.P.l.n.K.M.n.L.m.}.J.2X'.'.L.k.n.P.l.T.`.Q.m.J.'.2Xl.m._.S.b.J.W.S.l.J.Q.L.K.U.J.S.J.m.H.J.L.'.L.H.].R.A.F.m._.oXm.S.P.{.J.b.D.S.L..XJ.S.`.oXT.W.P.b.U.`.%XS.R.J.S.Q.l.P.E.].H.T.[.'.W._.U.T._.H.L.[.T._.S.n.L.2XN.j.L.l.S.n.2XA.l.P.J.F.m.}.H.eXE.l.j.P.eXS.m.L.2X1Xm.A.T.'._.S.j.b.}.S.n.S.n.j.I._.'.L.A.S.{.F.}.M.j.m.R.j.J.].m.n.l.K.&Xj.H.J.F.m.m.&XT.`.=XsX7X3XjX[.z N B Y C E S S z B J h J S A 0 h 0 0 i h L 0 l t 7 u 6 h l 7 4 6 > d h 0 q 4 > 4 7 2 7 0 u 2 7 @ > > 7 7 2 2 4 O 7 d N @.[ j % 7 > 7 6 3 , 2 - 4 8 4 > 4 2 2 2 8 2 2 - @ > 8 - > 2 7 7 2 > > 3 2 > 5 2 > 4 @ - - , @ @ > 2 > @ 2 2 > @ 8 p - - - > O @ > @ @ O % @ @ $ % o O ",
"O O @ % > % o @ @ @ o @ @ @ @ @ > @ @ , O > > @ @ > > @ % % > - O O 2 2 > % O 2 0 u 2 > > 0 6 i - % - > < @ > 2 7 4 4 8 2 - > > @ & & 6 x h f f z z Y W ~ N C ( ( W Y Y Y q.o.N :.+.N 0 4 > 7 6 7 2 7 7 , > 7 0 0 h 6 2 i p 4 2 0 h h W  .^ 0 t 7 0 7 u 0 K 0 c T k z z B z x N Z A z C D V 8.hXaX#XoX@X@XH.m.H.D.H.K.l.S.$X]._.b.b._.A.I.A.n.$XS.d.l.m.D.K.A.L.$XL.d.wXL.K.L.).).S.x.j.}.{.Q.l.K.T.T.J.P.J.b.m.S.].L.S.L.$XJ.oX`.n.L.L.T.].].`.P.{.J.m.R.P.H.J.x.H.n.S.).oX8X X<Xn.'.wXJ.J.Q.A.{.eXm.m.L.T.T.J.`.T.J.I.T.'.T.J.L.'.T.1Xm.S.].oX'.).].$Xn.l.Q.S.H.H.P.P.m.T.].m.m.T.H.A.2XoXU.].L.b.T.S.n.I.A.[.A.W.J.H.R.j._.S.n.H.b.l.K.b.M.F.P.H.J.OX$XQ.L.}.m.j.m.K.F.l.b.L.m.J.H.!.Q.L.J.H.R.S.m.H.M.N.Q.b.P.!.m.H.m.j.b.l.j.N.A.l.F.M.S.%Xm.S.4XXX3X8XdXjX`.v h [ o.B T D Z F z 6 h G B d z { S 0 7 k S h h u u u 2 - 0 v 7 7 4 L h u 7 2 4 > > 7 7 i 7 7 2 , 7 7 2 2 4 7 > 2 0 6 2 S I  .B > 8 7 - 4 7 2 > 3 2 2 7 7 7 2 2 @ 7 0 4 > @ 4 @ > , % > 2 - > 2 @ 4 @ , > 2 w > @ 3 @ @ > > 2 2 2 y @ $ @ - 7 7 > > , , @ @ @ > o @ @ O @ % @ ",
"O @ > @ @ O o @ O O O O % O O @ 2 % @ 4 > @ > @ @ 2 > > @ > > > @ @ - > 4 2 2 6 0 2 @ > > - 7 2 - 2 > > , $ % - 2 > > 2 2 > % < 7 @ 2 z F x A Z V x N C ! z z ! U ! ~ Q 1.( 9 h  .6.B 7 , @ 7 t 7 2 7 0 t @ 6 7 u h 6 7 7 2 > 7 u b 6 W %.0 0 b h 0 h 2 0 h 0 k z u u h J h x D B z A Y ! z W .XaXhX4X=X4XS.L._.A.b.L.{.A.A.L.b.T.S.S.m.F.H.L.m.n.S.I.m.n.A.m.P.H.[.'.L.b.).H.[.H.K.l.I.j.j.P.n.j._.J.J.'.J.J.n.m.b.T.&Xm.m.K.L.`.J._.T.J.H.]._.j.D.T.b.I.S.n.M.d.&XQ.).].OXU.'.).H..X).`.n.S.m.m._.n.J.$XJ.T.S.$XL.'.U.).T.T.oXH.L.S.J.$X9XL.`.J.b.Q.A.l.W.J.J.I.l.n.{.E.Q.A.n.F.Q.T.J.J.oXoXA.m._.].L.n._.m.].W. X,XL.J.U.S.l.m.m.m.m.n.M.K.b.m.W.'.`.H.m.J.S.F.b.F.S.T.T.W.I.m.}.n.l.I.S.).].U.H.K.n.m.j.j.OX_.n.S.H._.l.M.b.I.a.L.S.m.K.l.J.K.z.@X6X5X5XaXhXJ.v H Z W / z z F E B h K x 0 0 K u M 0 h h 0 0 0 v 0 6 i 8 6 h k 7 2 6 0 u t - y > 2 2 7 7 7 7 0 4 7 2 i 4 - 4 > 6 2 4 4 6 F +.:.d 5 , > 2 7 2 2 > - 4 7 @ > y 4 > 2 7 7 4 > 8 2 > O 1 O - 4 > 2 % @ @ @ @ 4 > @ & > 2 2 > > 7 2 7 2 @ o > - 2 t y - @ > > , @ @ o @ % o O @ $ ",
"$ @ > o O > 2 > @ @ > $ % % @ @ > < > @ > > @ , > % 2 @ @ % > 3 @ > % , 2 f Z x 6 2 2 2 @ - > 2 2 - 2 > @ @ , 5 > > > 2 6 > @ > 0 C D h 0 h u 0 0 7 7 v A 6 q j 0 2 6 N Q +.z B ! W d 2 , < 7 2 2 4 7 7 0 > > 7 2 0 7 4 2 > u j u @ 0 Q ..u @ t 7 0 0 h h 0 0 d 6 x j 0 h h h v H S ! ! R x B Q.aX3X<XoXoXoXOX_.J.L.H.`.H.n._.b.OX`.}.I.m.].1XA.S.Q.m.b.H.}.S.K.m.T._.l.H.,XS.I.m.R._.S.K.H.j.j.D.H.P.I.l.L.&XS.L.S.n.P.m.A.T.P.P.J.).].T.).L.T.I.Q.n._.,Xm.j.F.S._.'.H.).).J.R.n.T.J.H.)._.U.D.M.I.U.oXT.l.K.).T.n.OXE.<X[.`.`.T.{.E.b.J.D.S.,XJ.l.N.S.M.W.J.J.|.J.P.S.T.J.H.L.b.P.`.,X).`.U.P.A.l.b.H.).!.N.l.S.U.J.H._.OXL.S.P.k.n.~.j.l.!.M.l.J.n.<XoXT.wXn.M.L.m.j.&X!.d.j.S.n.K.S.A.wXJ.H.n.M.T.OX[.T.j.k.S._.S.S._.l.k.S.R.m.K.R.L.I.H.b.T.oX=X-X-X=X5XjXJ.e A x d ^ z D D h h B E h 7 h 7 2 - u x 6 j u 7 0 7 6 b 0 u 0 u d 0 7 6 h d 2 4 2 t 2 4 7 7 7 2 7 6 7 2 > 2 a 4 > 2 8 < @ 2 d C +.0 > 8 7 2 4 7 8 - > - > , @ 1 7 2 , @ > 4 2 > > $ > > 2 , O 2 4 > 3 < > w > @ & @ 7 u - > @ @ > 2 @ @ > 2 @ 8 7 @ - 7 > > % > O % - > % O O ",
"% @ @ O o > @ O @ > > O o , > % @ @ @ @ > @ > > @ @ @ @ > O % , @ 2 3 @ 2 E W B h 2 4 > @ @ @ > 7 > > % @ @ @ > > @ > 2 w 4 > 6 h ~ Z 7 7 > > @ 2 O > 2 7 - 4 @ > * @ > x D C z h j 0 4 ; 2 2 > 2 2 2 - y > 4 7 7 > 2 2 7 2 y i - & V ) Q v 2 p 0 h h j 7 u t l q B H h z A T 0 z S A Y G Z C &XaX-XoX`.<X`.`.J.L.T.H.L.I.I.T.}.J.L.S.b.b.T.n.K.F.W.b.S.}.P.m.b.m.b.m.P.W.T.J.b.R.S.S.m.L.m.I._.H.M.R.P.b.J.'.j.F.J.'.L.m.T.J.S.A.n.OX_.L.L.T.J.S.!.b.T.`.m.I.Q.K.m._.T.).L.l.I.n.$X].OXQ.$XS.L.m.H.OX$XJ.n.{.S.J.T.[.,XoXoX[.E.J.z.'.&XS.P.].J.].&Xn.d.K.'.T.J.I.W.S.J.J.E.T.T.S.S.J.L.U.J.S.H.K.d.b.m.T.d.j.K.J.W.D.I.m.H.S.P.b.F.J.!.P.A.n.K.H.F.S.'.`.).'.I.M.b.b.b.F.J.K.b.T.L.1X$Xm.T.J.H.b.m.`.D.].2XF.l.j.m.H.S.P.S.m.J.J._.z.l.&XJ.K._.1XOX X=X=X=X3XkXA.q x B F Y F | A 0 x D N h u l h 7 6 u 0 6 0 t 8 4 2 0 0 7 0 7 q S A L h 0 0 u 4 6 u > > 7 2 4 2 i 2 i 2 > 4 7 7 8 > 2 2 @ @ 2 j Q ! 0 > 3 > > 7 - w 5 > y > @ @ 7 7 > @ > > > y > > 4 7 - % % , - @ @ 4 - 2 i @ @ - 7 v 7 , % @ @ > 5 - o > % @ > < 2 2 > @ > , @ @ % > O @ O ",
"> % @ @ @ > @ O O O $ % @ @ > @ @ o O , @ @ @ @ @ @ @ 5 2 O @ @ @ @ - 0 d c 0 z F d 6 , > > @ @ - @ 4 @ > 2 - > > 2 @ @ @ 2 0 B C 0 6 j 2 2 > 3 2 - > > 7 7 u 4 4 , 4 % - f Z z h 2 ; 6 7 7 2 4 7 < 4 7 2 4 7 4 i > < 7 6 i 2 4 7 % 0 O.,.z 4 0 7 S h 0 0 2 i u h Z S 0 h u z B N G D B F D W .X8X9X3XXX4X[.[.J.H.L.2Xm.l._.H.I.l.H.L.$XF.Q.I.j.M.M.l.n.P.J.L.z.H.H.S.I.P.j.J.m.m.S.L.H.m.m.{.T.U.I.k.L.2X`.S.m.S.A.W.L.).H.U.T.D.H.).m.L._.J.).'.F.K._.L.).L.l.j.'.Q.A.W._.L.).L.K.U.oXT.j.l.).T.J.P.b.U.S.l.).oXW.J.`.U.x.W.W.J.L.J.b.P.S.m.].OXS.OXT.b.R.).L.H.A.J.L.n.L.OXL.A._.J.n.J.J.{.T.J.J.P.m.'.].W.m.Q.b.K.).D.l.F.~.a.z.K.l.m.T.S.m.R.R.A.j.R.S.R._.b.n.Q.!.A.S.).I.K.).).l.j.K.}._.P.m.I.A.l.l.l.P.I.P.S.m.S.M.H.J.m.F.l.b.F.j.K._.T.U.oXsX5XXX4XwXr.Z V E F f ^ n 0 h F z h J x V h Y ^ h 7 6 l 7 i t h 6 u 7 7 i f c x R Q d u > 7 7 2 2 7 0 7 a 8 - > 6 2 2 2 > < i 2 2 < 4 4 @ % l W W h > , 2 2 - 2 > - 4 2 7 2 2 2 > 2 2 - - 2 2 4 0 8 > @ 2 2 @ > > 2 > 6 0 2 > 2 - 2 > > , - O 2 > , @ o , O o @ , @ 2 2 o o $ , o o > @ - ",
"> % % @ > > , O @ O O % @ @ > @ @ O o @ > $ , O O % 4 - - % O @ O O @ x v @ > 7 z v 2 % @ @ - @ > > @ @ 4 > > 5 2 > % % - d ^ Z N > - 2 > > > - , 7 0 4 2 6 7 7 7 2 6 4 - 6 z 9 0 - 8 4 7 > > t 2 % 5 w - 6 0 > 2 4 y 2 7 8 - 4 0 * 6 :.7.Z ; 7 u h 0 0 n j 2 7 u z z f S n 0 F E A C A E F Y Y.aX-X8X+X3X`.<X1X'.L.U._.W.H.m.l.I.[.H.L.K.j.F.P.b.b.m.m.m.J.S.n.Q.S.S.J.J.n._.{.N.l.J.W.n.H.).S.T.S.k.I.J.).'.P.P.m.m.).T.m.S.}.U.m.T.L._.L.L.wXU.k.j.K.H.H.T.m.b.OXU.J.'.b.S.OX`._.`.E.%XP.l.@XoXH.'.P._.H.W.-XT.T.T.`.OX}.J.'.[.).L.E.L.b.b.H.[.L.L.m.j.'.OXH._.n.K.'.b.m.S.).H.`.'.m.}.A.S.).OX`.J._.H.J.L.b.S.n.n.A.&Xk.F.l.j.J.J.n.J.L.R.b.z.A.J.m.I.m.H.J.A.R.S.H.J.n.T.P.l.`.1XT.!.b.n.b.[.H.n.I.j.m._.l.k.!.M.m.l.j.H.P.m.K.K.J.m.a.N.S.n.oX3X8XaX5X6XeX) A [ x V A B h z h T z 0 ^ h h n I ! h 0 h h 0 6 0 c 7 t 7 2 7 6 > z <.#.{ 7 < - 2 7 i 7 4 7 - 6 2 > 7 7 7 y 2 @ 4 4 2 2 t 2 > > @ h +.~ h 2 > 4 8 2 2 > 7 2 2 j 4 > > 7 4 , - @ 7 0 - 2 , > > - 2 2 > 7 2 4 7 7 2 4 3 @ @ @ @ - @ > @ @ $ % 4 @ o @ O > @ 5 % @ % @ O @ > > < ",
"@ @ @ O @ @ % % o @ @ O O % @ @ o @ @ > > @ @ , @ > > O > @ @ O @ > @ @ 2 @ y < @ > > - 2 @ , 5 > @ < @ 2 - > @ 2 > > - c D N 0 - 2 4 > - 7 7 @ 2 7 7 2 > 2 2 4 > 2 2 2 2 > 7 0 A 0 7 7 2 , > > 3 u 8 5 > 2 7 7 > 7 7 2 0 7 2 2 i & 7 U ( J 5 7 4 4 2 u S u v c h 2 0 x n j 0 d x A ! B G L z d.wX3X4X<X,X+XE.H.U.J.m.).L.Q.j.m.F.U.T.L.`.T.L.S.m.j.l.}.n.b.M.S.l.A.$XJ.1X`.m.m.k.b._.T.W.m.n.b.J.H.F.H.J.H.Q.M.k.l.m._.`.J.K.H.W.L.T.).J.H.T.T._.`.m.m.b.k.b.S.].`.1XJ.H.b.H.I.m.`.oXm.P.$XT.].).J.m.L.}.n.F.'.U.@X`.).).].z.I.H.J.T.$XU.K.I.m.'.'.L.n.T._.S.J.T.J.J.}.eXK.S.@XOXn.S.k.H.`.OX_.b.J.T.S.J.P.K.L.T.m.m.M.m.T.L.n.N.L.'.l.H.I.n.m.b.L.T.L.J.K.H.T.L.T.'.l.b.'.n.S.I.U.U.K.S.W.J.m.m.).S.m.K.).`.m.l.K.l.b.I.S.x.F.A.L.J.J.M.b.P.J.J.+XsX<X3X3X5XVXY z H x z N D A C E A S 0 h z h 2 N A A z x 0 j v h t 2 6 0 v 7 > @ ! c.r.C 6 2 > 4 2 4 - y t 2 - 7 i 7 2 2 4 7 2 2 > 2 2 7 7 > > & % z O.+.d > 1 @ @ 2 > ; > - 2 @ > @ - ; 7 2 4 2 - 4 > - > > @ > % @ % % @ > @ 4 2 @ @ > > 2 2 @ 5 4 @ O 2 3 @ > 2 O O > 2 @ > > @ @ @ O o @ ",
"@ @ , . @ - @ o O @ % @ % O > % O > 5 - @ O O < O @ @ O O < , % > - % o > , , 2 O @ @ > > @ @ 4 - > 2 - - 2 @ @ > 1 2 z I N 0 7 , 4 4 t 8 2 2 2 % @ 4 8 @ - , > @ 5 7 2 < O @ q x 6 7 - > @ , 8 4 7 - @ 4 2 y 7 2 0 t 7 8 7 2 2 5 , h 1. .c - 0 l 7 b u 0 6 0 x 0 i 0 h V k 0 f A z R ..A x z @.{.8X3X+XXX,X<XT.H.J.b.H.L.b.{.I.j.n.L.m.H.].J.H._.m.k.S.W.F.P.m.P.{.K.S.`.T.$X'.l.m.I._.z.S.K.J.'.I.J.J.W.H.m.I.K.b.m.}.S.A.]._.U.m.L.H.J.2XJ.H.T.`._.!.l.F.F.J.].`.`.OXR.A.H.J.P.OXOXL.H.z.T.U.J.W.H.L.L.K.U.U.T. XT.[.).].J.l.n.'.`.S.K.L.z.T.H.j.j.U._.H.m.A.R.9X).l.b.S.).H.J.H.P.K.H.+X,Xb.j.T.).H.P.m.L.T.L.Q.M.l._.].H.j.l.m.P.m.m.b.T.!.K.H._.L.L.T._.R.L.J.'.}.b.).H.m.S.S.'.m.m.K.J.K.T.OXJ.T.'.H.OXJ.M.n.b.j.I.k.j.b.m.K.L.m.Q.!.S.m.+XXX4X<X+X=XjXd.f [ B Z J h B A E N d h v u 0 u 9 u 7 m A C c 2 u h 0 j q S h 6 4 8 ; I 6.! Z S 2 7 7 b > - , 2 > 7 j 6 2 2 4 2 2 > 4 2 > 6 7 2 2 @ o 7 v Y ! d 2 > % > 4 , > < 4 $ > , > 5 - 4 % O > 4 > < - < > > @ @ O O > 7 @ @ > - @ > > > > > 2 7 > @ , 2 2 @ , % o % > @ @ , % % O O @ O ",
"@ @ , $ % % > O O O > @ $ @ @ @ % > @ @ @ @ @ % @ @ % o & @ @ > - > % % < - @ > % > > % @ @ - 7 > $ > 5 - > > @ , O 0 T Y h > 5 > < @ > 8 + , r % @ > w 2 7 , , > 2 7 7 - @ < i 0 > 2 4 2 6 8 8 2 5 @ 2 l 2 > 0 2 7 h 7 2 y 2 0 a 2 0 O.2.h 7 u h 6 h 2 2 0 j 7 6 0 h 0 u F J x S z x G x x D z Z.hXoXaX8X`.8X[.U.K.m.I.H.H._.R.S.H.j.l.P.J.U.OXL.}.J.n.L.m.m.].L.l.d.T.S.m.'.$XT.H.I.m.b.W.[.}.T.K.l.'._.F.k.H.U.A.Q.S.J.U.J.P.F.m.H._.S.).oXE.S.m.S._.J.~.A.S.n.OXoXD.A.$X`.J.T.b.l.&X&Xn.n.K.L.`.T.T.H.L.OXT.#XT.T.T.).S._.T.T.m.m.}.S.S.K._.S.}.m.P.K.L.R.K.P.L.L.S.D.J.OX].OX!.n.I.S.m.].J.W.P.J.T.].R.l.H.M.Q.m.R.`.m.n.}.l.[.!.b.k.&XT.b.P.l.P.P.H.I.A.m.m.m.J.$XT.m.m.I.A._.L.J.K.l.Q.W.A.L.oX).).m.S.I.b.m.b.F.n.a.I.l.I.l.M.m.L.m.I.S.+X3X X3XhXaX#XR b ] B D J z F B x 0 0 d n h 0 h z k h 6 E z 4 4 2 u h h h t 2 2 7 i + - Z ,.( Y u < @ - 2 < % < 4 2 0 0 7 4 > > > > 7 4 > 2 2 > 7 @ 7 5 @ c Q I B 4 @ % @ > @ @ 2 O , @ o < % O & 1 - > 2 > @ 4 > @ @ 5 > , 4 > > > > > > @ @ > @ @ 2 2 4 @ O > 2 @ @ @ , o O @ , > > % > @     ",
"- @ O @ o - > @ O @ @ @ % o % - > @ @ > 2 2 4 > O O > @ o @ @ > @ O @ @ > > > @ > > > , > , 4 2 2 - % @ > @ , , 2 6 x C h > > > 6 , < > > > , @ > 2 @ 7 2 2 > 2 < 7 4 2 2 w 2 6 , 4 > 7 2 7 7 2 8 > > u u 2 > 2 2 7 6 2 i > 4 2 8 2 x Q C A 2 7 2 0 v j b h u p u h l 0 0 z B B z B Z x V D F D 2.7X=XaXsX+X[.[.oXQ.l.b.m._.m.L.b.W.m.A.J.H.H.U.[.S.L.I.m.OX].U.K.}.!.k.b.F.m.J.m.b.J.K.E.T.`.R.J.m.M.b.L.T.m.H.T.L.m.m.K.J.U.l.k.L.`.R.).J.OXT.n.K.).Q.l.j.b.K.l.L.z.j.L.A.T.oX.XM.j.S.J.A.n.}.L.T.1XE.).'.H.`.).`.T.S.].A.J.OX1XK.b.H.H.K.P.m.J.}.H.m.T.%X`.A.Q.m.m..XwXT.z.m.T.m.l.l.H.P.m.OXA.l.b.H.I.R.l.m.j.z.T.<XT.b.I.H.A.F.b.j.S.K.m.R.F.n.n.m.m.P.m.A.l.A.m.[.`.J.I.N.j.`.OXJ.n.K.H.b.S.j.J.L.'.S.I.M.F.K.l.I.K.~.l.j.l.d.l.A._.S.OX[. X8X8XaX8XkXx.D K B Y B z z B B h u u h h u h x A S A A h u t 7 q l t 2 u u - - 7 7 , 1 6 A O.Y z 6 > 4 7 3 @ > 7 < > q c 7 7 7 4 > , 8 2 4 2 2 > j 0 > o - V ! Y z 2 7 2 7 2 7 h 6 j h i 2 t 7 2 2 7 > 4 > > 4 > O @ > 2 2 - > > @ > - 2 2 @ 3 @ % @ @ 4 , @ - w , @ > > % . O o + @ @ @ % % @ ",
"> @ @ , + % @ > % O o 2 2 % @ > > > > > @ , 7 4 - % @ 4 2 - > > , @ > > - 2 2 - > @ % 4 4 - o > @ @ , 2 - , O + z ! T u % % @ - 4 @ < 2 < > > > 2 6 2 4 > 7 4 2 % 7 2 2 > 2 0 t , w 2 2 8 2 < 2 @ 2 i 2 2 0 4 7 4 > , 7 7 4 4 2 7 - z W D x 4 4 0 h 6 6 0 h 6 > i h h u 0 S h B z F H x F T B E ~ U.4X3X8X+X+X,X'.J.l.n.I.b.b.).L.T.).A.H.).S.L.OXS.'.].m.H.).P.b.OX}.k.S.W.n.S.'.K.n.l.T.,XS.S.F.m.L.H.J.L.H.n.'.T.K.{.m.A.F.wXJ.m.}.`.).`.`.m.F.{.K.Q.D.R.Q.|.n.!.m.S.P.J.L.H.T.$XR.'.m.P.J.L.A.L.J.oX`.J.J.U.J.).T.U.{.I.j._.L.b.b.T.S.l.b.S.J.m.P.OXm.T.2XJ.S.L.J.).S.H.}.T.n.H.OX$XT.b.l.J.n.I.{.L.J.J.l.H.K.H.).L.A.T.J.l.H.j.j.!.m.n._.n.k.m.K.P.L.}.H.J.z.n.S.m.b.L.J.I.l.L.`.K.j.F.J.l.).H.T.$XS.S.n.z.l.a.b.n.l.l.j.~.j.l.K.m.'.m.oX7X.X`.3XaXdX&XY D A B D N F A z V z v c S x h u h N f z t.R 7 j u 2 ; t 7 2 j 0 u i 7 7 % 4 l z W N d u 4 2 > 2 7 0 > 2 7 h c x L 0 @ @ , 4 4 , @ % 0 6 > > $ - d D G ! E ! W D E T D Y Y D Z N W W I h @ @ , 4 > > $ @ 2 - > , > @ < > @ 2 5 - o @ % > O % @ @ o > % @ @ - 1 @ O @ @ @ , > > % o ",
"- @ @ @ @ < @ @ @ O % , - @ < - @ > > @ o @ @ 2 i 5 > 7 7 > % o $ 2 , - > 2 > @ @ > > 2 7 2 @ % @ < @ 2 < 1 @ 6 Z Y f o & 4 > > > 4 2 - > > > 2 2 i 7 - 4 > > 2 , 2 6 7 i 2 7 4 2 2 7 2 , - > 5 % 0 n 2 - 7 u 7 > @ @ 2 6 2 4 > 7 u S A ! V 2 2 i 7 7 2 i h x h 7 6 x h 0 c h A D N z Z G F Z A I @.&X7XoX`.,X<XJ.L.m.l.J.P.L.).,X`.T.b.K.P.`.L.A.b.J.'.n.m.P.S.A.L.J.k._.K.m.L.U.K.n.W.`.Q.n.m.H.).A.S.J.'.J.m.b.l.'.m.b.I.l.1XT.l.$XE.oXH.J.S.b.L.n.j.S.K.H.).z.L.K.H.P.j.I.L.`.S.S.U.K.m.H._.OXS.j.'.`.D.Q.U.m.m.T.H.J.A.b.J.H.m.P.T.U.A.n._.R.F.d.,X4X).H.K.OXL.].].H.).U.`.H.S.L.`.J.A.A.'.].m.l.I.L.I.S.W.).L.]._.S.].J.b.b.j.!.R.).H.S.j.N.b.m._.J.H._.J.M.m.I.N.F.m.L.I.A.D.H.m.F.A.I.l.}.U.`.$Xm.2XF.l.M.n.I.n.l.l.x.j.l.!.j.j.H.Y.+X8XoXoXoXaX.X>.v ..{ h N D G A x x x B 9 x 0 0 j k z K Y Q +.N S 6 7 i 6 4 7 7 0 h 7 q 2 7 4 5 2 E ! T h 2 7 4 7 0 7 > - 2 7 x f z x i > > - 2 - @ 2 - 0 2 > @ O 4 h F Y W C C W N E W R Z C ~ Y Z O...A > - - 2 1 > > @ , > @ % $ O 5 - @ @ > 2 > % - > @ % @ > , - @ > - @ @ @ > 2 > > > O @ @ + ",
"> % % @ o o % > O @ % @ 2 > @ @ , % - - - , @ 2 2 6 t 2 - 2 > % @ 2 3 @ @ > < @ , @ , > - 4 2 @ > > 2 @ 2 @ 6 F H q > < 4 - @ > % 2 7 > 7 7 2 - 2 - 2 7 7 @ @ > , > 2 7 V h i - 2 v 0 O > < 4 > y 7 0 j 4 4 > 6 4 < > 2 7 0 0 7 u L F D E x 2 i t 6 2 u h 0 K h u 0 0 z S h k d B x F A x D A H ~ C d.>X6X3X3X3X+XL.L.I.d.R.L.n.D.H.L.S.'.J.J.l.W.{.J.).H.m.m.H.F.L.n.b.m.l.{.L.L.L.S.2XS.j.H.L.].OXT.$XS.@X`.S.l.m.H.J.OX_.l.L.T.S._.J.S.H.m.H.n.U.U.l.I.S.n.m.M.H.m.J.Q.I.H.,X[.m.n.2XJ.A.T.oXJ.M.'.A.l.'.'.A.L.OX`.S.S.R.}.m.P.,XJ.l.P._.J.K.J.`.T.J.oXJ.T.T.H.T.+XT.S.l.I.,X].I.n.A.T.P.m.F.L.m.H.2XH.S.'.b.L.m.H.S.J.l.m.H.H.P.}.j.m.K.S.b.I.P.k.H.J.l.I.m.m.j.k.M.S.b.L.n.S.F.m.k.I.l.n.k.m.A.D.l.l.'.T.m.d.l.M.b.I.F.M.a.~.H.k.U.wX4X#X*XsXoX7XVX5.! T ! Q h A x x B A v h A 0 h M i 7 l x h h w Y <.q.6 2 u 0 > y t 0 6 i 0 7 0 8 @ > 0 E Z 2 v c 2 > 4 2 4 7 5 2 2 h x A Z 0 @ > 4 2 8 7 - > 6 2 % , > 2 - h V 6 7 h 7 7 h h 2 ; z d u 0 6 z H L 0 @ > > q w @ > > > - > , @ > > @ > % > , @ , , $ O - 4 7 4 > @ @ @ % % - @ O @ % @ O ",
"> > @ o $ O @ , @ o   @ 5 4 o @ - @ - 7 i > > 4 0 0 x 6 , > @ > , 4 @ o , > > @ > % @ O , 2 u - > 2 @ % O q ! I 0 . & 4 2 @ @ > @ 7 7 > > > > 4 > % > j v 2 % , - > 7 x Z f q > 4 h 0 @ 3 8 6 > 2 @ 5 0 7 > 3 i 2 > i 0 d h 2 7 h N f N G 0 7 l 0 7 l 0 0 0 h h v j u z d h B f E D Z L z z Z A Y Z B l.jXcX+X+X+XoX,X2Xm.L.).K.d.b.~.b.I.W.J.b.A.J.H.H.<X[.).H.I.|.S.P.k.m._.H.L.|.L.l.d.P.H.m.T.`.T.K.A. X,X_.n.I.L.oX9Xl.m.W.OXT.'.P.m.T.1XJ.S.&XK.l.M.}._.m.F.!.j.].'.R.m.[.T.b.x.K.oX].'.U.XXJ.W.!.P.Q.n.S.,XoXJ.'.'.J.[..XA.<XW.n.{.J.S.Q.H.T.2Xk.{.R._.J.m.[.J.J.~.I.R.H.K.&Xn.K.&Xm.K.b.m.[.OXT.S.J.P.H.&XL.P.l.I.M.I.P.H.`.T.b.F.A.b.b.).].S.F.b.F.!.n.R.c.j.M.l.P._.P.A.L.F.J.b.M.}.M.M.T.!.l.N.K.b.k.l.k.j.k.l.n.l.j.d.'.@X8X7XU.`.3XuXdXmXx.D A Y T Y m H z B A z u 7 k n 0 0 0 u 6 0 d 5 e C k.a.x O 7 h u 4 5 > 2 6 0 7 6 < , 4 0 z x h B 0 7 3 > > > 2 7 > % j J z &.B ; < 5 2 - 2 $ @ 5 - @ 7 > % % , O $ O   @ 1 O   & @ > @ X # 1 h B I z 8 O , ; 2 2 @ - 4 < > % % 2 2 > @ > 2 # o 2 > @ @ 2 > 0 7 - - O O % $ @ O $ @ o @ % ",
"o O > > @ @ o @ , O @ > @ @ , % - > > 2 < o $ > 7 0 h 0 7 4 t t @ @ @ @ 5 > , > > , , > > , > @ 2 2 - 6 N W B , O > - > @ 2 4 7 7 4 O 4 2 4 > , 2 0 6 p 0 h z 0 2 d v 4 @ 7 u 0 q 2 7 0 6 , > 7 2 h 2 @ < 7 u 7 i i > 7 u 2 7 7 j % 2 W Q h > 4 7 N H 5 & 3 7 h x 7 0 h 7 j i 0 u k u h Y R Y R >.^ h P x.BXaX+X4X,X4X8X3XoX<X`.m.U.4X).[.T.).L.H.|.,X[.).OXL._.H.[.T.m.m.).).oX'.H.OX).m.oX).L.H.4X[.b.K.<XoX`.oXL.).).OXL.J.<X_.H.|.<X|.L.,X,X`.T.[.].m.L.T.[.).OXT.^.XXoXH.H.L.S.A.n.].,X,X[.1X).m.L.L.'.[.T.[.).m.[.[.J.J.qXU.`.<XL.|.OX[.<X<X[.`.J.7XOXJ.T.).`.L.oX+X).T.E.L.U.<X[.m.).`.[.%XS.].T.<X`.D.L.b.m.S.OX X.Xm.H.F.@X[.H.].oXL.S.m.m.1X).m.L.S.[.L._.m.|.).L.J.L.1X[.[.L.L.S.L.|.H.m.}.OX).].H.L.OXl.j.H.1XH.S.U.m.3X3X<X,X-X@X3XdXhXc.N x ! Y Y F B A z 0 z C W N 4 2 B W z d h 6 z B F z 9.W E D 0 7 7 c 0 7 u 0 8 0 7 i 4 i 0 7 c T h d 4 2 4 > 2 7 6 > @ > j z x 0 4 3 , @ 8 > 0 2 2 , , 2 2 h 8 > - 4 2 > > 4 > > 2 q 6 u w 2 - $ . @ d C B 7 o , - > 2 > > > @ o @ > @ @ > @ 2 < @ O @ @ @ , O @ @ > @ O > % @ @ @ o O . O ",
"%   @ , @ @ o > , @ % $ @ > @ , @ @ > - @ @ @ > 2 0 u ; 4 8 > > > % > @ > @ > > > > % @ @ > > > > ; 2 x Y V 2 - , 4 2 > 5 - > 4 4 , > 7 - > 2 2 > 0 j 0 0 6 j t 0 7 2 8 7 6 u 2 4 2 2 0 2 @ , 4 7 q 7 6 - 2 > 2 h 0 2 7 2 0 0 7 7 4 7 9.Q h u c t h 0 2 @ 7 u 6 2 v 0 c 0 7 u u h h x Z z D B B  .S D C Y z.kX7X<X3XXX#XoX@X@X1XU.+X4X].J.3X6XOX[.L.oX.X[. XE.J.L.J.oX[.[. X3X<XoX`.[.$XH.<X8X`.8XoX[.<X,X`.oX+X,X3XoX`.`.`.T.<XXX`.<X<X`.4XoX7X4X X<XoXU.kX`.,X+X+X`.4X=X8XoX,X`.oXoX,XoX`.3XoX+X3X`.OX`.`.,X4X,XY.U.4XXX,XoX`.`.#XqXoXT.3X3X3XoX`. XoX4X XoX`.oX).L.3X3XT.oXOXoX@XU.`.`.oX,X,XY.`.`.OXOXJ.U.[.L.oXXXE.E.qXU.`.oXE.U.J.<X<XT.+X`.`.[.).oX XU.+XE.<XoXJ.@XoX`.).'.<X).T._._.T.).oX).E.oXL.oX[.T.oX$X{.T.).`.OXS.'.fX<X@X*X3X5XfXBXx.Z Y } G D &.V ..A A S x z T x z h k d c j l v 7 h | N C [ D z 2 2 6 0 7 k 7 0 > 2 i 7 2 7 i - 0 x x h 7 u 4 @ % > 6 y < 2 6 K x 6 2 > 8 @ 4 > u 7 2 4 > > 6 7 2 4 > 8 4 2 > 8 7 - 7 4 4 6 > > > @ < @ - x V d 7 - @ < > > > 5 > O @ > @ @ 5 > @ % > , < @ , @ . $ % > > > @ , % O @ % @ O O ",
"- @ o % % > @ $ o O O @ @ % o > @ % @ @ - 2 > > 2 6 2 2 > > @ @ , , o @ > @ % % > > % > , > 2 3 O 0 x B V t o > - > 2 - > 2 - , % > > 6 2 < < - > 5 0 h f j 7 7 0 2 @ 2 0 7 2 2 > > 2 2 7 < 2 2 8 - 7 7 > > > 0 A d u 7 - 6 h j 2 > 7 ..B x 0 x u 8 > z Y x j c ; z S S x A z z z z z z x J A B C m E ! A Z x.qXfX3X X9XoX+X.XqX+XqX4XL.`.qXoXE.+X3X XE.`.oXXX+XE.3X X,X5XoX8X3XoX+X`.`.].<X<X,X).T.3X8XoX3X+X^.XX7XXXY.=X3X+X=X5X7XXX^.8X3X+XXX+XoXE.3X6X X X+XE.6XXX3X<X X3XsXE.+X`.XXsX3XoXY.^.*X4X+XY.<XT.[.`.+X5X4X3XXXoX`.T.OX=X3X5X=X^.iX3X3X*X+X,X[.E.+X3X XE.oXaX5XXX XXXoXS.XX7XXXoXXXwX+X X`.oX).E.oX3X+X=X-X X4X3XU. X X4X+XXXT.,XaX+X+X X`.XX6XE.Y.Y.3X-XY.XX X`.<X).`.3X+XE.oX+XJ.U.=X8X`.oXT.,X<XL.3XoXoXT.oX+X<XoXsX4X<X+X3XfX0Xr.Z C Y R B D G n R x z L u 0 l 7 F H 0 > t h 6 0 2 0 S N Y ..A 2 t t 7 2 0 k 7 v > 7 4 - i 2 7 2 - u t 2 t 7 > @ 4 > 2 7 7 2 - 7 l 6 7 2 2 7 8 > < 2 4 7 > > 2 < @ 8 2 2 4 > 2 > u 7 y O > 7 4 > 2 > @ % @ > q B Y d - 3 O > - - > @ > > @ @ @ 2 @ O < > O O , > , o o , @ @ @ & > @ O > > > o ",
"> % @ @ @ @ o , @ $ @ @ , @ , % > % O @ % 2 > > % > > > > > 5 @ O > @ > > @ @ - @ > > @ @ > @ 2 - h B h 6 > < y 7 @ , - - > 4 - > > > 7 4 - > 2 - - 2 h 0 2 0 2 8 4 2 4 7 2 2 y @ 2 < > - 6 2 2 2 2 4 5 4 0 0 z h 0 t 2 8 2 2 u 7 7 u C B F 7 h 0 @ 6 x Z 0 7 c h v 7 0 K h u x x B L x B x A E ! A F E x Z C d.#XqX9X3X[.<X+X5X+X3XsX7X-X XiX5X3XsX=X7XXX,X8XsX6XuXsXY.6XhX5XsXaXsXqX+X+X8X3X*X3X8X#X;X5XpXcX6X5XhXXX=XMXsX5X6X4X7X3X6XsXoX<X6X8X;XjXaX5XoX4X7XfXaX+X3XsX-X*X3X3X=XhX3X-XhXXX5XhXXX4X4X,X6X4XU.oXaX6XXXXX3XsXhX<X#X4X5XiXjX;XiX+X8XaX5X5XoX8X8X8X=X4X6XiX5X5X3X8X+XqX=X7X;XXX6X-X7XjX+XqX7X3X<X4X3X3XiXXX-X7X+XfXfX8X7X^.3XqX8X+X3XsX4X X6X5XhXoX X8X6X6X5XsX7X<X XsXaX;XoXXX;X[.+XjX*XsX4XXX+X+X3X3X3XhX3X+XhX5XoX3X<X6XVXY.8.N C $.N D B C D z A J d F 0 2 0 0 x z u q 7 h 7 0 j 0 7 f W ..F - 0 h 7 > i 7 - q 4 7 2 2 y 7 2 7 t > @ 2 u u 7 2 4 7 > 2 7 4 @ 5 0 2 7 2 u 7 7 - @ 2 2 2 2 2 - @ 2 7 2 2 7 @ - 2 2 2 - > @ 4 4 > 2 4 - @ & O ; v Y z 7 > @ @ > @ @ > , @ > 2 @ , > - + , $ O > , @ @ % O % @ @ O @ , > @ @ > % ",
"> > @ O @ % O > @ % > O @ @ % @ @ @ @ O O @ @ $ @ % O > @ O % @ o > , @ O > > > @ > > > > 2 2 2 6 B z 6 - @ > < 7 > - 3 - 2 2 2 2 4 4 < % - 2 2 2 u 7 > @ 7 j 2 @ 6 7 > > 8 2 2 2 4 , 2 i u 0 u > 0 w @ 6 F G x 7 - 2 i t > @ > q 7 h E H x 7 7 u x u 6 - 7 0 h x h 0 t 6 7 0 V A 0 h h z x A A E N B Q ..' ' N ( C.0XfXfX5X3X5XsXuX*X5XoX3XaXaX=X3X+X7X8X8X3X*XsXY.aX+XXXsX+X;X+X5X5X8X=X5X5X*X+X5XXX5X3X;XdXdXsX+X3X+XfXuXdX=X6X5X*X X3X3X-X5X5X*XjX*X5X^.+XsX8XaX5X5XuXaX5X*X=XsXiXaX+X X6X6XsX+XjXaX7XXX5X6X8X5X5XjX=X5XuXfX+X X5X6X3X8X5X*X+X=XaXaX5X5X5X5XaXfX8X+X5X;X5XXX7X3X6X8X5X8X5X3X+X^.5X5X+X+X8X8X=X+X6X5XXX=X5X5X5X8X3XXX+X5XaX+XoX7X8X=X8X3X3X5X7XXXsXhXXXXXaXaXsX5XuXaXXX5XaX3X7XoX^.=XaXaX-X XaX5X3XfX7X3X X3X+X5XxXhX>Xd.W h N R R ' Q ~ &.B D z h F G h k 0 c l 0 h h 0 u 6 6 z j > h ! Q G 2 6 0 0 7 - 7 u > > i u 7 2 i i 7 t 4 2 7 6 u 6 h > , y 4 > > > > > > > > 2 6 7 : 2 7 3 @ > 2 8 - 4 2 4 2 @ > > 4 @ > 7 7 > > > 2 6 2 2 2 > 4 @ @ h A B h @ @ 4 2 > > , @ > > 2 O < 5 @ - > % o @ 3 2 @ @ $ @ % O % % @ O O @ % ",
"- $ @ % > @ % > > > @ % @ > @ @ > > @ @ @ , O O > > o @ % > @ , @ > 5 @ @ , - + > > > > O > 7 z z 0 - @ 4 - > @ - 8 > > < > - 4 2 > 2 @ O 2 6 2 2 7 7 > @ 7 2 - > 7 4 2 @ 2 > 2 > @ > > 2 2 2 2 @ 0 7 @ u D N 7 - 2 4 7 2 > > 4 ; 2 6 f D D 0 7 2 h u 4 , y u u c 0 h l 0 v u u h h h k x A F A C F A R W R N L Z W  .V.VXkXhXjXiX;X3XhX+XsXfX8X=X3X7X5X5X8X;X5X;X*X7X8X4XXXsX5XsXXX3XiXaXaXaXsXhXuX*XsXaX;X;XaX5XoX5X+X3XuXcX5X5XjX5X^.sXgXuXuX;XaXuXuXsX5XfX5XXXgXjX;X*XpXxXaXaX5XXX6X;XaXaX*XXX5XaX*X;X*X5XmX3X3X5XfXuX;XXXaXsX8X=XiX=X=X8X;XmX=X*X5XaXxXuX5XdX5XXX*XaX5XiXfX+XaX*X=X+X7X5X5XsXaXsX5X3XoXaX5X5X=X3X6XsX5XdXiX3X<X3X8X7X=XaX3X+X=X*X*X3X X+XgX5X5X5X*XuX5X5X=X5XmXXX5X8X3XdX=XXX`.6XaX3X=XmX*X7X3X5XfX3XjXsXjX7XkX#Xr.( B Z S =.E Y ..R D F B ..-.h F z x z x V 0 7 0 k 7 u j b F h 2 u Q  .D 7 b t 7 7 > 2 u t - 7 7 0 2 0 7 2 2 2 2 4 2 2 t 0 y > - 4 7 2 i 4 > % @ 2 2 4 2 2 4 @ > > 2 > 4 @ > 2 > > , > 2 7 @ 2 2 7 > % > 4 7 2 7 - @ 4 <   > 0 N A 7 @ @ > & @ % > @ @ > > o > > - 2 > O @ , > @ > O O > @ O O @ @ @ o O ",
"> $ o @ @ O O , @ @ @ @ % % @ O > % @ > > @ @ 2 > @ > @ @ > > @ 2 @ % > > @ 5 > $ @ < @ O > 0 0 d 7 % @ 4 2 > % > > 2 2 > 2 @ @ 7 6 7 7 @ > 6 7 2 > 2 u u > , > 7 > @ 7 4 5 > > 2 2 > 7 4 - > 8 , @ 0 Z B z 7 > 2 0 u i 6 7 0 u 2 5 2 ) #.E 9 u 0 7 2 2 7 4 6 7 0 7 u h h l 7 2 h h J z H h x H B x G Z B F S A Q ) C C Q >.r.!.VXmXjXVXwXVXBX4XMXBXVX7XkXBXsX0XkXVX0XkXkXVXkXVXVXkXBXVXkXkXkX0XVXBX>X4XBXMXBXkXjXMXBXkXkXmXKXBXfXMXDXMXmXbXbXMXMXcXmXcXMXMXmXjXMXMXmXjXMXMXfXmXBXfXMXmXMXBXfXmXKXxXfXMXMXMXBXsXjXBXjXjXBXBXmXjXjXBXkXMXMXbXmXMXfXgXKXMXhXMXMXMXMXVXkXDXMXKXBXjXkXBXgXBXkXBXmXmXgXkXBXiXBXjXiXBXVXjXMXBXkXBXBXmXBXBXsXkXMXhX0XMXsXkXBXBX6XkXjXBXBXjXhXmXMXMXmXmXkXVXVXBXwX-XBXmXKXjXMXMXkX6XmXMXMXhXkXkX0XBXhX#X!.5.Q N A R D E D B C Y ~ D F Z A Z x h u u N T f d u i i 7 0 i 2 0 c j J ( ! N 2 4 2 7 > 0 6 2 0 2 7 7 2 2 l 7 a 6 7 0 7 5 - 4 4 > 2 u 6 0 0 8 7 7 t - 2 4 - @ 4 4 > - y i > - 5 @ 2 > > > > 7 > > 7 > > 5 @ , - > 2 > > 4 - @ & @ 2 z Z B 0 > @ $ O @ 2 > o % 2 O @ @ > @ > % 2 @ @ @ > > - & O O O O O % $ o ",
"% % O o @ % . o @ > , @ @ O @ @ @ o o > > O > > % @ 5 , @ @ > 4 0 O @ > 2 @ 2 @ O > @ @ 4 q h 6 7 > 8 @ > 7 > > > > > - > 5 > - 7 6 j i 2 8 7 u 7 @ , l 0 > @ > 7 % @ 2 2 > > > 4 y 2 2 > @ > 7 7 2 d ~ C 6 @ < u q 6 - y 2 2 7 7 O 2 W ) N z v 7 2 > u l 2 4 0 0 6 0 h 0 0 u 0 l h h z z z h A { ' F C z z G Q O.Y D / v v C W @.u.u.8.r.3.u.u.d.d.d.u.x.x.u.8.j.u.8.d.d.g.8.u.8.d.V.x.u.u.d.8.8.g.p.u.C.d.j.r.u.d.g.u.g.j.d.g.z.x.V.A.x.j.l.V.F.A.G.z.z.G.V.V.F.g.u.d.V.g.u.g.V.V.z.V.d.x.~.C.G.g.z.A.z.z.z.F.z.j.z.x.g.C.g.d.d.g.x.V.A.z.V.x.j.d.g.x.u.x.g.V.g.d.j.j.d.z.z.d.j.x.u.g.u.u.u.u.u.d.8.5.u.u.r.u.u.8.u.u.3.u.g.d.r.u.u.u.u.8.u.j.j.r.g.x.d.d.d.g.g.j.g.j.d.u.g.x.d.u.x.g.u.d.j.z.V.V.V.x.u.d.d.A.V.d.r.8.5.d.5.( W V E / E ' D G T Z | D D z x B u f z x z x z N B F x 7 i j l 2 7 u 7 2 f ! W x > 4 0 K 0 7 4 0 7 2 y 2 > 2 7 4 2 2 v 7 2 4 t 4 @ > 7 j 6 7 7 - 2 2 u u 2 2 2 2 > < > 2 2 - 2 5 2 > 3 > > - > 2 5 2 @ % % > 2 > 3 , @ - > 4 2 @ @ @ , 2 h N Z v @ O % > < , % > - , > @ @ @ > - 8 @ & O @ 4 % O , @ % o @ @ @ O ",
"@ O % o % > @   @ , @ > > O O @ @ > > @ @ , > @ %   @ 2 7 > @ - @ @ , @ - i 4 > > @ , 6 d h u 2 @ @ > 2 - @ > > , > > 2 - > 7 h h > 6 2 @ O @ > 2 > - > - > @ O o q 7 6 7 > > 4 4 , % 2 7 7 4 4 c D B K M 2 > < , > > 2 7 : 5 q 2 2 2 B +.! 0 7 4 7 0 0 0 2 7 t 7 u u u u 7 u z V 0 h 0 z B h z G x B ' z A E R D W ! C &...%.E B Y B A D Y C z B z C C Y D C D N N z Y W Y Y B ] I I Y Y N C W Y C Y D R D C C C Q Y B B O.( W ( I R C D Y C Y D C C W W W C Y Y Q  .W W C Y W Y W Q W W Y C Q Y W W  .W Y W W Y C Y @.Y D @.C W @.O.O.Y C I Y >.Q C Q O. .Y Q W W Y Y W Y Q Y Q I Y Y Y Y Y ] C Q Q C N X.@.Y Y D W C Y W Y C C Q Y C Q Y B D Q I D C Y B N Y I N N D A D N N D C N C C z N N z C C N W N f C B B N Q C C C A z F D Y E d A E D d S G D x x E V 4 j Y D z c v h 7 h 0 h 6 j i 6 c c 2 A o...Z 7 u u h h - > 4 7 > w 2 > 5 2 7 u 0 7 t 7 2 i 2 2 > 2 2 2 7 > - - j 7 > > j c 2 > 2 2 7 7 > 8 - > 7 > % , 8 2 @ 2 > @ - , % 2 > > > @ , > > 7 > @ % O @ @ h C x j > % > - @ @ O O % - > > o @ % > @ , @ - @ > O @ > @ > > o @ O ",
"@ o @ @ O O o o @ - @ @ @ @ , O O - @ @ @ > @ $ @ % @ > 2 > @ % > @ 2 < - 7 2 4 - 2 7 j 0 0 l > O > > > @ > 5 > @ , - < > > 7 c B & @ c v % , > < > > > 4 4 > > > y - 2 w > < 2 8 @ > 2 6 2 > : Z Y T 6 @ 4 2 2 - 4 7 2 4 4 2 2 y 7 0 B Y W F j 2 7 j 0 c 7 4 0 t h 0 u 2 u 0 J x d 0 k L Z A F B h Z E G D H A B D ! D Y R Y D E ! | E E } | S L ^ A T T B V E ^ } ..T G } [ H ' F E E } | } $.$.E [ G E | F | %.[ &.^ ! *.9.[ E Z L F ^ | ^ H L H $.[ E $.[ E } =.&.[ R ' } F } [ [ $.F } D %.&.F F $.$.| / =.} o.A F } ' =.^ E =.[ &.=.H ^ $.$.$.R Q [ o.' [ E o.$.| E R | H D | $.=.| F E $.S E } &.$.[ E D [ [ ' $.[ ' ' =.&.' } / D E S H | | L F $.| &.S F -.S V S H ^ S | F L ^ z J -.} J c V G } x V | L L V L F V c L F Z B W $.F N R x K j H D A x E N 4 9 / [ A m d h S S z u 7 7 0 7 0 0 x } B B ^ 0 0 u u l 7 2 4 2 2 7 2 > > > 2 h 0 7 7 6 7 0 > 7 4 7 2 4 2 > > 2 u 7 > 4 h h - 5 2 4 4 2 > 4 2 7 2 < > > > - > > 3 2 4 > - > , - @ < O , @ > 7 2 @ % $ @ 4 u h z 0 ; > @ @ @ % o o < > > % @ > > O O , @ @ % O @ % O % @ @ % @ ",
"@ @ > $ o O % , @ @ % > @ % @ @ O % @ > > @ O @ @ , < o % @ @ % < @ @ > 2 0 7 6 2 h f A 0 - 7 4 2 o % @ @ 2 8 > O , > 4 > > - 0 6 o ; T ! T 2 > > > 4 2 8 4 2 7 4 > @ 2 8 > 4 2 2 2 < 6 u 2 - 0 B B d 7 @ 2 2 i 6 t 7 7 > 2 > 2 4 % 2 Z f C / j 7 0 h 2 6 7 - u h h 0 0 2 j 7 7 h z 0 u k A A d h h D B x z z G B A E x R [ ! B ' B N E [ G E F Y ..R ' { #...~ R $.! Q ] D ! W B ! ..o.[ $.! Y R E C ..! ..0.#.{ R ! #.9.W Q ! =...! ..o.o.=.[ %.o.&.] ] *...Q [ =. .] Q ..o.9.[ D #.9.Q ] o.~ [  . .] [ E F &.#.%.] E 9.=.o.E D .. .! .. .+.#.W  .4.( ] ..o.#... .o.$.D o.o.' [ ! R $.D } } R [ [ (  .%.E R [ D W ..! ..[ .... .R W G %.! R ! E Z } [ G Y ^ ! E Y E $.E T [ D Y [ E o.$.' H F Y A B ..D G %.o.[ D L x F B G &.Y z Z B ! ! E N N B E h h F D C B T x 0 6 d x h k x K h h u k h 4 u j b 2 E %.F h - 4 2 2 j 0 2 i 2 7 k i > 4 > 7 2 i > > 6 t 7 w 2 2 2 2 > 4 4 i 7 u 7 7 ; 6 2 2 2 i 7 > 7 2 @ 2 < 2 7 7 > @ > - 5 4 < O > a 2 @ - y > - > < > 5 > > , $ @ @ 7 0 x 0 - O % > @ > @ @ > > > @ @ @ @ O O > @ % % > O @ @ > > @ O ",
"@ > @ o O & O @ @ @ @ > > @ @ % @ % @ > @ @ > % > @ @ o $ o O > 2 @ @ @ 2 0 7 - 6 V z 9 l i - 4 2 @ O > > 2 > > > @ > 2 2 @ 2 c z b h g Y W 7 2 2 @ 7 ; 7 - > 2 2 3 2 @ 4 > - 2 4 4 < 2 2 6 d F C 2 2 0 8 4 2 i 0 0 2 > 8 7 2 7 4 O 2 ! Q x x 7 0 h i - 2 i 7 7 z h j h h 0 0 7 v c k h 7 B B k h E D d h x N B Y A B A D Q R Z D ..A C D o.W Y @.W W [ Y 7.O.Y W  .W  .o.W X.q.Y #.3.@. .Y Q D B O... .Q O.O.(  .Q Y Q O.*.=.D Q O. .O.O.O. .Q >.( ( O.@.>. .>. .C Q >.O.Q O.t.Q >.7.6.W O.3.#. .@.O.6. .Y W Q 6.( O.@.W ( 4.@.X.Q @.O.Q 3.3. .W >.t.W ] 6.W ,.( O.+.+.( O.Q Y  . . .Y  .Q Y #.( Q O.>.Y D ] #.] @.Q Q O.{ Q  .:.>. .Q  .>.4.W Q  .] { Q ( W #.Y Y .. .Y +.W ( 4.@.C  .3.Q C Q W O.Y Y { Q Q  .Q Y ] N ! D Q W C Z S z D D R A z D G Z v B D A D 1...0 i j h m z h 0 v 6 u V j 0 h u > 6 C ( B 0 2 5 y 7 7 u 7 8 x 7 A V 4 4 4 8 > 7 4 y 2 2 4 4 % 7 M 7 4 < 2 i 7 2 0 u 0 l i 2 2 2 > - q 2 > 2 4 - > 7 i 2 4 2 > @ , - % 2 - 4 2 2 2 2 > @ 2 @ < > @ , @ % > 7 x h h 2 + , @ 4 ,   > 5 - @ @ > @ @ @ @ @ % % - O , @ > @ @ O ",
"O @ @ @ @ % % @ @ @ O O > > > > > @ @ @ @ > > @ 5 > @ , > % @ @ 2 < @ % 7 > < @ 2 S x 9 z V d 4 - > - 4 2 O > 4 > > > @ 8 2 2 h R H z 9 d 2 - % 5 7 2 2 0 2 2 i - 0 b > > 7 7 - > > , @ > N W F v 4 > - - 2 4 4 2 7 7 2 u > 2 4 - x D ) W 0 - 2 7 0 0 2 7 0 k 6 2 0 7 u 6 0 l t c u 7 h h h n v h F x x V B H D R E A A Y E D [ N R G D D Y  .%.Y Q D R C W @...! Q D o.D D Q ] o.Q Y D ..Q *.[ Y ..! D W ..C ..W W Y #. .D Y ] ] Y Q #.O.6.Q W W  . ... .Q Q #.O.*.X...W #.O.W O.( Q Q O.@.W ] #. .Y ( @.O.W +. .W 9.O.Q  . .X...] 4. .( #.@.+.Q +.Q ] Q @.@.@.+. .O.( W ,.4.W W W ] Q Y Y Y Q  .( o.Q Q E Y +.(  .R R ..Q ] Q W ] { R B D +. . .o.C B Q o.W D D [ D Q R C D ! C %.Y Y D R ..o.N ] W D o.Q D Y Y ! A R W z E C ! z A | A 0 x B Y G x [ E h h z S z C Y z t u 6 c h 7 0 z c 7 h 0 7 S i V W ~ N t 7 7 2 7 7 7 7 2 f z Z 0 0 6 8 4 2 4 > > 2 2 7 7 @ 7 h 0 @ @ 8 7 2 < @ 4 l u 2 6 2 - - 4 4 > 2 2 i - @ 4 h h 6 6 > > 7 2 , @ , 2 2 7 2 2 - > 7 > 2 > - - @ - > - u h x h - - @ - @ @ @ @ @ > < > > > @ O @ @ @ @ @ @ @ @ O O @ ",
"O o @ > @ O % - @ @ @ O o @ > @ @ 1 @ > , % @ > @ % @ > - - < > @ % > > 2 2 @ 2 < 7 0 0 v F u 2 O > 2 2 4 1 % 2 > 2 2 @ > 7 7 h d h F h 2 < & 1 - 7 6 6 2 0 2 > > ; 2 , 2 6 0 - 5 > < @ 0 W W d 7 7 - > > 2 4 4 > 4 7 7 u 4 4 2 4 ,.O.,.z 2 8 2 7 u 7 0 6 7 7 6 a t 2 u u 0 6 7 c 2 7 h z h h h 0 z u x B z z E T Y R D F N A G S B G B x x D R z A x H Y E A G T S D Z R ! [ x Q E E Z T { o.Y F D R | F A E E B =.[ [ E F R ..E H F E D ..R E } ] R E C [ ' R R ] [ B =.] x A =.o.R E ..[ D Z x H ' R Q ! ..[ ! B D Z ! &.D E Q E R ! ! D %.o.E $.D } E Y #.~ Y Y ] ' D ! Q ..' ! %.#.~ ' ! R } ! C ! E F B E ( { A F ' R R A F G A B ^ F E R ..N x S | B | V J S x F A F A J H A G A B ' Y F ^ B x z D C J x ^ x B $.D x c v B k D D R A V B $.A h A z h j j M E [ +.N > 7 u 0 i h u z v 7 u b h v 2 7 D Y Z 6 7 2 q 7 7 2 2 u C &.=.A z u 2 - 7 4 5 , 7 u 7 7 y 2 7 i - 2 4 2 2 > 1 - 6 0 7 u 8 4 4 i > > 7 2 0 - @ 2 d E n 0 8 2 7 6 > $ , 2 @ > @ % , > > > @ > , > 2 4 > > @ 9 x A h 2 O $ > < @ o o @ - - > > @ > $ o @ > O @ % O O O > ",
"O % > @ @ @ % @ @ @ @ % @ % > O > @ @ @ @ @ @ 2 @ $ @ - 2 > O % > @ o O > > 2 2 > 4 4 7 6 2 6 - 2 > > > 2 @ @ 2 2 4 @ > 2 2 2 7 9 4 0 0 q 4 @ 4 - - , - 8 y - @ 5 0 2 8 > > , - 2 - 2 z D B 0 2 2 7 2 8 4 > 2 t < 2 - 2 > - 2 9 h <.) V 6 7 2 > 7 6 0 j 7 4 7 7 8 - 0 7 h l 0 u 7 6 j 7 d z V h V c u h x z B d B x D A B G R A z E F B S c | D F D E [ T B N G } D A F } D E F Y R D F G F o.D D H } B A D ..R T R W D E [ ..Y D ' Z z D } R $.E G G H A A ' ' ! B ..D [ R D ! E ' ' G A ' } [ E ! ' o.N T ] R D R [ A G E E R O.[ D R E D $.! E T W [ W [ #.o.D D E } A D G E G D E Q W Y x G A A D E A $.R [ W B A A D B D J [ H | %.B D W E ! T F F F x | A x m A S A &.S S ^ z J B G $.D x L H A h F E Z x x A A A F E Z 0 S m F A G A z h B J x h x S S 0 c Y / f j i 0 n h n u 0 u h h 7 0 7 7 2 7 / C T 0 7 7 0 h 0 7 2 j :. .V z x J 0 7 7 7 2 > 2 6 4 & d u > > 5 2 < @ 7 p 4 @ > 2 t x u 7 7 i j u 7 0 7 7 j u 0 x 6 7 l h h h > > % > % @ > y @ @ 7 4 > > % > % O 2 < > @ 2 h V z ; @ , 2 @ % @ O @ - @ , % @ @ @ - > @ > O O O > % ",
"O - > @ O @ > > @ @ @ @ > > % @ , % @ > % O @ > > @ o @ - 1 @ @ @ $   O 2 2 0 7 2 4 7 2 5 @ @ 2 7 o @ 2 4 @ - > % @ @ > , o @ > 2 & 7 C B 9 - 2 8 - , @ % @ < > 2 t ; 2 2 5 @ 2 y > 7 +.O.z @ 5 3 > 2 2 7 @ 4 7 2 > 2 4 1 O > $.&.w.D o o 7 6 4 i 4 2 7 4 < 4 2 j q u u z i ; 7 h k 0 i 0 F z 0 c B l h l h c c Z S h h H } D E B R C E ..B C E R  .Y B B D Y ] Y Q R A B  . .W D A D Y E D x D ( N z R ..*.( Q Q W Q D o.D Q ..G ) ( } G N D W Y D Y Y &.{ Q ] W ! +.( C Y o.W N z R Q ] W Y D ] W C Y { #.! G Y @.#.Q D G Y  .3.3.) B O. .Y ..Q C  . . .W Y O...C Y Y Y O.#.D ! ! ] ,.@.Y E ' W D [ ] D ' ! Y ] B E Q ..Y E ' Y G Y Q #.W Y W D Y ~ Y R F A D G Y D B W Y W B B C $.W Y Y B z C #.o.N ' B Y N N ..Y 9 A W  .z h B z x h ' B z x B N u 7 V Y z Y >.N 5 5 c h 7 d N x 0 0 0 x z z u w 2 7 H W B u 7 > 7 S B 0 2 V <.Y h V h B c 0 w 2 > 4 t 2 > > 6 i @ - 7 6 7 7 6 7 2 r , @ 2 h d 7 > 2 x d 7 l 6 6 x C h 7 @ - 0 6 h h 4 > 4 @ , O - > , & @ 0 2 > > % & O > 2 O & @ 0 Y C h q o @ > , O O @ 3 . O % @ O O @ @ @ O @ O @ , , ",
"@ @ > @ O O o % > @ % @ > , o @ @ % @ > @ @ $ , @ > > @ @ , > > 7 q 2 , > 2 2 t % % % > > 6 0 6 @ > 2 2 > > 4 7 2 - 2 7 7 > 4 6 2 O 1 - > % > 2 5 2 7 @ % 2 4 > > 2 > > > > 2 > > C C S , 2 0 2 7 # - 4 6 8 2 4 2 4 2 > 7 0 z ( r.K ; 8 t t 7 > 6 2 2 6 x 0 7 8 7 u 8 , > 0 h 0 u 7 t 0 6 i u z d t u v h S 0 J F v k T B B x z x W E D F N B B m x z B Q ! B x x T D D Y O. .~ Y R R A J B E D C x z ' Y A F ! E Z D ] D x S D G ! Q ( ! | N W #.Y Y &.E B Y [ [  .[ N B B R ~ Z R Y Q Y E [ o.D ! Y z ! q.Y Q ! } D  . ...R ..R I q. .o.R A z [ Y E H ^ D ! R D A A ~ ..Y B N A E R Y $.H h H D Q | F Z Y R Z N  .Y V S B R J v B o.] Q D J u A Y Y W G F z h V A A Y D L L h N S h ^ B C ..C x A H u c h E H k z ' z S A x z c h z B h S u k u z h C F k k L 0 u 7 m j 0 > 7 i h u 0 q h h 6 7 4 0 Y ,.( +.F 0 z Z ) C B z d S >.I ( ! n 0 d h S u , 4 u h 7 j 7 2 > @ < , % 2 8 > % > > 8 @ - % > @ r > - l 0 0 0 7 V x u >   > h / A t > 4 2 @ O @ 2 0 7 > @ > , @ @ > < - , 4 2 2 > 7 k x S N 0 O o > - 2 @ @ , < - @ O , - O @ % @ O   o ",
"@ $ > @ @ % O @ > o % O O @ @ @ > > > @ O @ @ @ @ , % % @ @ @ - 7 4 7 2 - > > - - @ % > @ 4 i 2 @ , - o @ > - 2 > 2 2 - 4 > 2 i 2 > O > 2 % 4 2 < 7 2 @ > > 7 2 2 , 4 2 3 1 5 7 9 N E 6 @ 6 0 - 7 > - 7 2 > 4 2 2 2 2 @ 4 W Q +.( , > 2 7 2 4 y i 6 7 0 i 7 > 2 u 2 t y > 7 j u j 6 0 M 0 7 0 V x 0 0 z h A h A x 0 h G F d x ^ F D B B B h | B F h V G G D A Z G x J [ W Q %.} C R G x B x A G R V F ! D D G B } N N E R D Q o.D N D [ N D ' o.D R $.Y D Y ' Y C ] o.A R o.] ! z R Y Y } N B B A Y R ! A x D ..Y D D E E z G W D D $.W D B $.E D Y E C B ] ! B R E A %.C D H D B G B C E G A z A o.z D Z Z F A F [ N z z G N z E D R ' Y D B H N A ' F x z h u v N B V F x h J B B B S x A E Z x h B B Z h u h A x E z B A A x h S F h n x h 0 h x z B x 2 h x v v 0 l 2 7 u t 7 l h 0 j q 7 c 7 7 S F f  .! A h B E G x 9 F K z z E [ z 6 0 j 0 0 2 2 - 0 0 2 5 7 2 2 6 2 4 4 > - t 6 - 2 > 7 0 h u 2 t > > 2 2 y 2 > 2 2 t 2 % 2 2 0 7 2 0 0 j - - 2 > - > - > @ > , % @ @ > % @ 4 2 7 % > f N z z 6 o < 2 @ > O O > > > O @ - O O % @ o $ @ ",
"@ o O > > O   @ > @ O O   > 2 @ > , - o @ % @ > > $ o O @ > @ > - o > 0 t @ % @ > > @ > % > @ @ 2 @ o > > > @ @ @ 2 2 - , > @ > 4 6 > @ 2 > - 2 > > > 2 > > 2 2 7 > 2 ; - & o z _ 0 h t 6 2 > > > 8 2 4 2 2 2 > 2 7 2 , h <.e.Y z & @ 4 t ; - 7 > 2 0 7 > > 4 7 7 > > 8 y 4 0 2 0 c 2 2 u h x 6 h z H B x z E A h x h x h h z N F h A h z z A N E N x z z H E N ..x z z B D R A A z B A E Z B $.J A E E Y [ D E ' ] R B S .. .W R R E x A ! D R ..Y Y D A D E D ! Z B $.Y D D F G A Z S A ( Y B ^ A R Y N x A ! ..B A h x E A D D A F z [ } B Z R V G ] C G H B ^ ^ C G x x A x A H A E N B R L z R A A A B A T T S A [ G h S ' C x B D C R ! G x h l x S z H x K x h 0 x Z N z A B G N x x A h x N E [ F j l S z F f x h d D h x d c u 0 0 J h d x h h 0 c h 7 6 h x 2 7 l h c 0 0 2 7 b i 2 i 6 0 q h z ! W x 7 L h 0 l h S 8 > - 0 u 9 6 v j 7 @ 2 l 0 7 2 > @ > 7 t 7 2 7 8 4 4 2 7 7 , 2 z z N d 6 8 @ > > > , O > @ > > 7 7 4 @ o o > 0 0 q 7 2 2 @ % o % 4 @ @ , > , @ , - O > 2 4   > D Z 0 h S 0 O @ o @ @ % @ % > @ o @ O . @ @ O % @ ",
"@ . o % O % O @ @ O O $ @ > @ > @ o @ $ % @ @ @ @ O O O @ @ @ > t > > 7 2 @ % @ @ 2 < % @ > > > @ < > > > @ > , @ 2 - , @ > > > , 7 4 % @ > > > > @ < 2 4 > > 2 0 < 2 w 2 - 0 N ! t @ 7 d 2 > , 5 7 4 2 4 2 > 5 > i 0 0 Y O.+.9 6 , > - i 7 2 7 @ > i 0 2 7 4 t > 8 7 - 7 0 t 7 7 h 0 > i u z l 6 z x 0 N N T c 0 S x B u v S 0 S k z x ^ H z E R D z J A C G N ! h D ^ H x R A N E ' A Z D | N x A z E z z E D Y B $.x d [ ..z B D ' E A D Y A D D E A A A z E [ c x R R R D N B Z A A N #.] B N z Y E F A A D [ R x f x H z A F G R d h | z Q B z x ! W C H h V A B x S H B A A N h } N G A z B B x B x A N A x h h x [ B A B N S z 0 S E B B x z x h z V B z 0 x B x x S E J x B H x x B z B 0 z E N x 0 z c 0 V Z L z z x h z d x 0 u 0 k S 0 L d u i u h l t 0 k h 6 7 7 7 0 k t 2 2 2 7 u S 2 4 7 | Y Y / 2 d z 6 u V 2 2 2 @ 0 t i j x h 0 t 2 7 6 7 > - 3 > @ 2 - 4 2 2 > 2 > 4 , O 4 z T D 0 - - 6 7 2 - > > 8 > @ @ 2 - 2 2 , O - 7 2 2 7 6 7 > @ @ @ y > @ - > > O w - @ 2 7 2 2 0 ! ( , > z 0 @ o @ @ @ , % @ @ > @ , O > @ o % O > ",
"@ @ % , O $ % @ @ @ o % @ @ @ % % @ % @ o > > O @ < , @ @ - 2 2 > 4 2 @ > > @ @ > > @ > 2 2 7 - O > > 2 - 7 < % 4 > 2 4 @ @ > > > 7 , > O 2 > > 4 - > 2 4 > @ > 4 > @ > 2 h T Z 6 2 - > 2 4 4 > 2 > 4 2 7 7 - > > 2 N <.:.W h > 4 2 t 4 4 > 2 4 7 t 7 2 u t 2 7 6 0 7 2 h 0 7 7 2 7 j t 7 h u 7 q x x u h &.A 7 6 0 v h x u v u h F A 0 h F B B D x 0 z F D N z F E E Z B D R ! C N x A F N B B Z A N A x A B x G z A x E z h h h N F E C z n B [ ..D J F F Y G d J F h x D ^ S h x L A E R R J B ' B z E A D z D Y [ E A F B N ' #.+.A z B x ' D x B L z E } B J D A x A G B A E W D F 0 A A S V F S z h A G N x 0 F A z A S c f x c z F B z A x G D B 0 h x h f u n D D z 0 x x h x h x N ! ^ k B x 7 z W C z u v h h S v 7 0 S S h h z 0 7 j b S x z h 6 0 0 x 2 ; H c 7 7 t 0 x x 2 7 t 6 z z w 4 - B +.6.} 2 2 c h z h u > t u h 2 6 7 h C d h y % > > 4 4 2 0 2 > 8 O 5 7 q 2 @ > 4 6 v z f h 5 > - q 7 2 4 2 7 q - > 5 , 2 u 6 > y 3 @ $ @ > 2 2 4 @ > @ - 2 4 > - @ > @ > @ > 2 @ l h B Z & @ 0 h > % < , > O @ , @ % $ O @ , , O @ O @ ",
"@ O @ O o o @ @ @ @ % - - @ % O , % @ % @ o O O o @ 2 > - > - > @ 7 > O O > 7 > - - 2 - - 0 6 > > , 2 > < > > - 2 > 2 > - > @ > > 2 > > > 4 - 2 - , 4 - 2 - > > , 4 > > 0 B V 9 2 @ - - 4 2 2 - 2 < 2 2 > > 8 > 2 d O.t.O.6 < 5 8 t i 4 2 ; 7 7 6 2 2 2 t 7 4 ; 2 0 d c 0 7 7 i 7 2 7 0 0 h h 9 0 0 h v h x h 0 l 7 k k 0 x h h H x h z F A H B S z x x h A H x h G G z N Q W R Z Z B B h x x H A A B B } H B z z z A x E L V A J A x G H S h x D W Y f z B D B x B N | x N N F B A B z B A F B F R A V h D A B B B D B B x R A h 3.q.h z E W C E R F J h C D h h B x A z S G B B Y E H h x A z x h x z B A A &.F h h x Z A A z h h B A z A A z h E ! J h S A J J 2 c E A A B T N x S K d A F f x F x t L | B h 0 S h 6 h S m u h 0 h V z c 0 2 0 2 h z u n 7 0 H | h L u 6 2 4 6 u 0 l 7 7 l u 0 u 7 % f ) O.d 2 > 7 7 h 7 t 2 7 u 0 i 2 7 7 h E N h % $ > 2 i > 0 0 2 > @ - 7 7 - % $ 6 f &.x 2 @ @ @ > 0 7 7 u 6 2 5 > 8 4 - q 7 2 2 4 @ @ o % , 4 > > 4 7 % > - 2 > > % % @ > > @ , > 0 0 v 0 < 4 z 2 @ @ @ @ > % @ > o @ O @ @ @ @ $ O O O ",
"@ @ @ @ O O O @ - @ @ @ @ @ @ % @ @ - @ % O @ > @ > - 2 4 > @ > 2 7 2 @ @ - 6 - , - > > @ 2 2 > - @ @ @ > @ > 2 2 > @ > 5 4 - - 2 2 > @ 2 > - > > @ > 7 6 2 , , % 4 6 N h 9 7 2 3 4 2 7 2 7 ; 4 2 2 - 2 > , @ ; z >.r.+.2 - 7 > - 4 2 2 2 0 7 2 2 2 7 2 3 8 p 7 V i 0 z 7 @ 7 0 i 2 t 0 h z B B B E z S V 0 0 c n 0 7 6 S H z B H h d H E d z c 7 h x S h v 0 k B B z L B Y ' D z z d H H 0 c K x x x S B x S J h S Z 0 A z V x A D B x F Z x F ' W 4.Y S | h B B B T F h F x h B A H x 0 Z N Y R z L A x h S J B x L x x E B x z O.[ z N H A z z h G S f &.E z x V S | x k h D ] F z A x x z 7 h J h E R | Y G D V d V A h h h F Z d B R A u z B x 0 h 0 0 u h z H A h z R #.R h h 0 x h x h h S d h h S 0 6 j h x h u 0 S x x 7 0 7 2 7 z z d j 0 u j 6 7 u W t.=.x 6 l h 6 7 j u 0 u j 6 t - 4 0 w 0 Y W ..f - % 2 7 7 2 t t h 7 ; 0 7 7 4 7 z F 9 0 4 5 @ > 7 2 4 6 7 y - > 7 > - 2 f ) I 9 > > 7 2 > % % @ 2 2 - @ > 2 2 > > > - 2 @ > 2 @ > > > 7 2 > > @ @ > 5 O , % @ % > @ > @ @ @ 2 4 > u c c 2 % % @ @ o @ @ @ @ - > > , - O o @ % O ",
"@ O @ @ % @   @ > > % % @ @ @ % @ @ > , @ @ @ @ > , @ 2 7 > @ 3 > 4 > - , 2 - > > - @ @ @ 5 4 O > @ % > @ > 2 > > > % @ - > > > 7 - 2 > > 4 2 > > @ 4 2 4 > % > > 0 x D h - & > - 2 2 4 @ > > - 2 < > > 2 < 6 D ) r.W 0 , 7 2 7 2 2 y i t 7 2 > 0 7 7 , 2 2 d Z D 8 2 7 4 > 7 k 2 2 j 6 h 7 h A k z =.D h 0 n h 7 h j 0 h z ^ h h V z B B G x u u n z u 7 7 0 h x Z x B Z R B h A h v d S x x u u N H c h h h h c B B Z S z x F z N E z z B E 9 D  .#.] z x h V F z J d F z S V z B A k u B D D N h z z z S V z B x h 0 h | F B E Q B x H A S V S F A Z J x h S S h h B z 0 d } G u t x z x c n h H x D D ] N G A x h h x 7 l z F A A B G H x h h j 0 h h 0 l 0 h G u i B Q >.( x l 7 0 c j 0 x F c u c 0 h c j u h u u 2 0 V B h 7 , 5 7 H V 9 7 7 h h u 2 h O.r.W N x x l 6 u j 2 4 0 7 u < > y 7 t d %.~ Y K p 2 4 y 2 2 b 0 2 u 0 t 7 2 5 > 2 h A Z d 2 > > 2 % 5 4 - > > % > 4 u 0 N Y B h > 0 7 2 > % O $ , % > , o 5 8 2 % @ 2 , > - > < 2 < > 4 7 2 - , @ @ > @ % > @ O % > % > % % @ $ $ 2 ; 2 - @ @ @ > % % > > 2 > @ @ @ @ O O % @ @ ",
"% O O O @ > @ , O O @ @ @ @ $ % O O @ - > O O @ > @ @ > > - - > @ > 2 > > > > > @ > > > > @ 2 O O 4 2 6 4 - > > > > % > > - 2 4 > - 2 @ > 4 2 - 7 > > > > > - > 0 h Z N 2 @ % , , 5 8 2 7 > > u 0 > @ 2 > - f :.1. .u > @ 2 0 > 7 > 7 4 7 > > 4 - 7 2 4 2 q T ! ! h 2 2 2 4 2 > 2 h u i 0 u 7 7 2 d } ..D 2 i 7 h h 0 x S u 0 0 7 N h h S ^ z m z d n h u l 0 z B z V h h A C W F F x h x D &.x h A J v x f S L J 7 | A z B x h x k x h A z S 0 N 7.( N M S ' x x m S F E N B B V z h x V H } A z 0 h z z c S x A J A S h z E f x z D Y N h V 6 x E N Z S 0 h z B F x z Z S h B F z h B x x l h S D h 0 F ..Y Y A d h V z S l h h l c v h f B h 0 u k x S 0 v d l x 6 0 x 2.O.O.E K u c 0 q t h u x h 0 | ..D h 0 u 0 z K b 0 H x S u 0 h c z 0 h u u z 0 > - 0.a.O.] F z 7 4 7 4 7 2 7 t > > 7 M 7 i 8 f Y Q 0 > 2 7 - > 2 7 6 7 2 7 7 4 2 2 7 7 7 u F z 2 4 @ o > % < > 2 - @ % 6 v f x 7 - B B 6 2 O 4 7 2 $ % , , % @ > > < 2 > > - y 1 @ 2 2 @ @ > > 4 2 2 4 @ @ 2 2 o O > > > 1 @ . > > @ < @ @ 2 2 > @ O , > @ o O % , o O $ O @ > , O $ ",
"@ o @ O @ O > > @ @ > @ @ @ $ @ @ @ @ @ @ @ @ > > % - - > 2 > 4 > @ > @ @ % % & % 4 2 - - @ @ 3 % > 6 u 2 @ 1 - > > < > > - 2 - 2 2 @ > 2 7 - - 7 8 - % % y 2 7 x 7 q i > @ - 7 > > @ > 4 - 2 0 7 > , 2 2 N ,.) W h @ % 2 0 6 , - > 2 7 i > 2 7 7 j 7 v h 6 Y ! T z u 2 > > 6 7 2 u 0 i 2 u t 2 @ > B Q D 4 < 0 M u 0 z S 7 u h b j 0 H z 0 x h A h h h c 0 h D S Z J J h J [ ~ D A A h z F D D D h h S h F S h B h J h V H z 0 x 7 u v V S z x &.O...f u n z z h h A z z F S f S x S h F z h z h S S z x x d x F h h S h h S A ' O.t.' x h 0 ^ B h H A z z S x x 0 x J N c u h x z u z L z 0 x B S V 0 E Q  .R h 0 l ^ f 7 t l 0 7 0 c S z S h l 0 j 0 h 0 k v 9 V h y d Y 1.Y f 6 q z j 7 7 0 0 f c u x  .D z j 0 h x d 0 7 h h z x c h 7 0 6 7 j 7 h t , 2 Y i.( 4.! V 0 2 7 y 7 u u 2 2 < 7 z 7 2 2 V W ! z 4 4 0 4 2 8 7 2 t , u 0 7 > 2 6 2 > , h F D h 0 0 7 @ 0 2 7 7 4 6 j N f h < 7 S T 7 4 > 2 7 > @ @ @ % > > 4 - % > 5 @ - 2 > - > 7 > > % % - 4 2 5 8 - 2 > O % > O $ % @ & > % > > @ , > - > > @ - - > $ @ @ @ o O o @ % O @ @ O ",
"@ @ @ O % @ @ @ @ O @ O O > @ @ $ > > > > 0 6 2 > > @ 4 2 @ % > - @ @ @ @ % $ @ % > > 7 - > 4 8 4 - > 2 - 2 @ > 2 > > 2 2 7 @ % > @ > y 8 > % , 2 @ O $ @ ; 4 2 7 7 2 @ > > > 2 4 > , 5 > 4 7 2 7 2 @ @ z O.>.T h > , > 7 4 4 > > 4 @ @ 4 2 7 4 7 2 2 c f d F v 0 f 0 7 2 2 h 0 h 8 4 7 2 0 7 j 5 t B W x 7 4 7 j u 0 6 c u k u 0 4 7 z A x d B u 7 h d z h h z q N h u k 0 N R B 7 h x c 0 7 S h h h J x v h v B T z 0 h 0 J h F z J h h z B A $.[ Q A k z z 0 K d f D L h 0 z z V B B z L k h x S B B A B x z L S h A A x 0 G 7.d.6.d 0 B F Z L h x h 0 h H h u p h Z h h k S h x h 0 v h h J d 7 6 6 %.6.Q F 7 i q j 0 7 0 h 0 c 6 0 S t u x S v h h v S z x z d h M d ( >.N 2 l S 0 l q t h d C n i d :.6.f ; z x 0 0 h z 2 c 0 6 u 0 7 t q l 0 6 c 0 8 2 0 [ C +.9.9 ; i M 7 - 7 n h 7 4 - u 7 4 4 h ! B u @ 2 0 0 j 2 - 4 2 % 2 7 - 4 2 2 7 @ % 2 h N ~ W Y / N B E Z z x Z z x x h x A x B i > v 6 , @ 7 h 2 2 > 2 8 > @ > @ , 7 > 2 2 @ @ - 2 - O % > @ 4 h > O @ , , @ @ % @ > < @ O % > , > @ @ o 1 , > O % @ % @ - > > @ O @ o o O @ ",
"@ % 2 @ O   @ > > @ $ @ @ @ @ > > % O @ 7 0 2 6 2 > @ 4 7 2 > @ @ @ > < 2 @ @ o O @ 2 y 6 > 2 2 ; 2 2 @ > 4 2 4 > 2 2 7 2 2 @ - > % 7 ; @ - @ 2 > @ O @ < 2 4 2 - 2 2 @ % > > 2 2 2 > > - b 2 > 4 4 > 6 ) <...4 - > 4 6 2 < 8 2 > q < 7 i 2 - 2 2 % @ 7 h x ^ x A } h - > 8 6 0 h 7 > 4 7 0 0 0 7 0 z ) B 6 t 0 2 6 b u 7 h z x z 2 6 2 x Z F V 7 u h z z J h l 7 x z u x 0 A $.S k h c 0 7 i v c S h h x 7 q K A R B F K u L z d c z d x z n z B W W A z z S x c J z z D S h x z 6 D %.z x 7 h x h x $.N h x z z h z x A k h x <.5.6.h v E F 0 6 n 6 q c 0 J z 0 i u E D h J z h u V S 0 h J h 7 a i h Y O.D h 7 0 h 2 l c x c h c x V 0 u 0 u f x 0 7 l 0 6 h z k j 2 h ,.t.B 8 v h x h 0 0 V 0 N 7 2 z Q 6.E l J S u j L B 6 i j l 0 q 4 k 7 7 u u 2 0 M 6 6 z C t.y.d : b l h i 7 0 d 7 2 0 u 7 7 - x  .Y 0 2 7 2 h q > 2 2 2 @ @ w 6 i 2 > - 3 > - 0 B B I W ! I N T A N z z 7 p 2 h N Y h 6 i 0 Z 7 O O 0 0 u j > @ > 2 @ , @ > > 2 4 i > O 2 7 , @ , @ @ 2 q 2 % @ > @ O $ 1 < > > @ @ % - > - O O O - 2 > O @ @ - @ O 4 4 > @ @ @ o o @ ",
"% o % O @ O O % O @ > > 2 > % O o % > > @ @ 2 u 4 2 > > 2 > % @ & > > , O - 2 > > > > 2 - > 7 7 4 2 < 3 o 2 2 2 - 4 t 2 > O O - > $ > > - > % > > , , @ > 7 7 7 6 4 7 2 - > > 2 > 7 7 7 2 4 > 2 > @ c ,.t.N @ < 5 4 2 > > 8 7 2 < 6 > 2 2 4 2 - > 0 7 - 2 l H %.,.v 4 8 @ @ 2 q 7 2 2 y 7 7 7 0 u 0 N ..C 0 u 7 0 c h 0 7 h h 0 V h 0 z H C Y h u 0 u 0 0 h x 0 z 7 0 h V x F z 0 h h x D S 0 x S c 0 x z z l 0 f +.5. .c 2 j z v n 0 x A 0 7 u J o.( C z h 0 x h x L 0 B x h c c h o.4.W h u l h u f Y N u h x B z z h h h m Y d.W 7.| f h x 0 c B z B S x z v l x z N ..T B B Y z h n 0 0 M 0 6 u d 0 F Y D V c Z F z 0 u h c u t h x x x 0 l h h k l u u c 0 h 7 j 8 d +.9.z 6 h S 0 j z E c 8 0 4 6 G 0.Q H 4 d z u 4 7 0 B f h h u u 7 h q u 0 u h 7 7 u x B E ! F 7 4 6 0 h 7 2 2 > 7 i 0 h 7 8 O h !  .D 0 6 4 7 7 2 y 8 2 @ 3 w - 2 > > > 4 4 > > u h 6 2 0 z 6 7 u 2 0 u 4 > > 7 : c V 0 2 u u 0 2 > 2 0 h u 4 > O > 2 > , - - 8 @ > 2 4 > > > - 4 > > - - - 7 6 4 % o @ @ @ O @ @ @ 2 @ - @ @ o $ @ - @ @ @ > @ @ % @ @ 4 @ @ O o @ @ ",
"@ O % @ o O $ > > > @ @ @ @ $   @ % % @ @ , 7 0 7 7 2 @ - @ % @ O - @ @ @ > 7 4 > 4 > > @ % > 2 @ 7 2 > @ > 2 2 > - 2 > % 4 4 4 2 @ @ > 2 > > , > @ 2 2 2 7 q u q 2 @ - 2 O > > > 2 7 2 2 4 2 2 2 4 Z w.I > O w 4 0 2 > @ 2 7 > @ 0 2 > 7 7 2 2 2 2 0 4 2 4 9 C I 6 > 2 > 4 q > < 6 t 2 7 7 4 4 2 0 N ( ~ h 7 j h 7 2 0 7 q 0 ; 0 Z 0 7 [ 0.Q h k 7 7 2 7 6 c h h 5 2 0 S z F V x c 7 7 N 2.( B h u 0 k h h h 7 x 7.w.Y 0 2 n K j u u x d k n > x ( ( R M c 7 S u d h u 0 x z u 7 S ] O.>.F t h k c z } F z k S x H x 0 v 0 0 Y d.o.O.z h u 0 h h h H h h h h h k h x C %...W ..D 0 u M 0 0 l q u k x z ! [ N 0 h Z z ^ S h 0 7 7 7 2 A x h h 2 u u 0 0 0 7 7 2 h 0 0 k 6 O.O.F 0 H z > i x B 0 4 7 t b z +. .h 7 c 0 z q > t D Y A h 7 c M 9 j 0 6 j 0 7 q 0 d f z h 7 7 3 < 7 t u 2 , , 2 0 7 6 7 > , - B N Y h 7 i 2 7 2 2 7 4 7 2 2 2 > 4 > - > 4 7 4 - < %   8 7 - & % > 2 - % 4 i - o > h z q - 4 0 q u 5 > 2 6 4 @ @ @ , 2 , > 4 - % @ 7 2 $ O > 2 - 2 4 > % > 0 7 7 % @ > % O O O @ > > > > @ o % @ % < > < @ O @ $ @ $   > > @ @ o o O ",
"> O @ @ @ O < - @ > @ @ @ % @ % @ o @ 2 > i 7 0 0 0 7 4 2 @ @ @ O > > % @ @ > @ 2 2 2 > > 2 2 @ O > 2 4 > > @ 2 2 > > O > 6 7 6 2 % - 2 w > > 2 > > @ > h z v 0 > @ 2 > 4 2 w 8 > @ 2 > 2 > 2 0 l O.R z 7 > > > 7 4 - 7 4 @ 2 2 , > 2 - y 7 2 2 7 > 2 2 7 - 2 z d 4 4 2 2 b 7 t 4 0 0 2 7 7 4 i 2 l V C z 2 2 a 0 0 0 0 0 7 7 7 h h q h A  .0.h 2 u u u l 0 6 l u z h 0 z 0 z c k u v u f e.t.N t h 0 u n z u 0 z 5.<.C l k z 6 c k h L z z L 7 | 1.Q u 2 l x z u f x V u 0 0 u 7 0 ] <.U E 7 t u u u h 0 x h 6 0 7 h J J j 6 Q w.:.i.T t i l V h h k z x x u B S 0 u } Y W ,.G 0 h u z h h k 7 h h x A %.#.~ x K z h 6 u 0 h l K c 7 c u 0 j 7 l u t l 0 0 2 j u x 7 j h  .2.B 0 0 7 7 l h h c j 6 6 7 z  .! z 2 h h 0 h j 7 d ..B 0 0 l i 2 h c h u 2 > h 0 2 7 0 0 2 t 7 7 8 6 x h 7 7 > > 0 h 2 4 2 - h F ~ B 2 > , 4 7 0 2 > 0 7 > > 2 8 2 - > 4 6 7 - O , @ > > > > , i < < 4 2 > > % t - 8 l : 2 2 u u 7 - 2 7 2 2 i > > - % - > > < > - 2 2 > @ - > 4 > @ O @ - > 4 > > > @ - 5 4 @ > @ @ > @ % % @ % , O % @ @ < % O O @ o % O o O O @ ",
"> O $ @ % O @ % > O $ @ O > O $ @ o @ > 2 0 0 6 h 7 - > 2 @ % @ O 4 - , @ O O @ @ @ 2 > - 2 - > > - 4 4 @ @ O > 2 @ # O 2 h x q 2 , > 0 7 > @ > - @ @ 6 z z d > % , 2 - 2 7 6 6 t $ O y > o : x ! :. .> - 6 0 , 5 2 2 6 7 % 3 > > @ 8 2 7 7 7 6 7 5 > 2 7 @ & s > 4 b 5 2 2 7 6 2 4 6 0 8 > 2 j 2 u x B u @ > 7 2 0 h 0 0 2 y t c 6 0 l z ,.q.0 4 u h h k h j t 2 d S 7 0 0 m k 7 0 u j h w.r.I 4 h h 6 h c u q z :.t.E w h B x F z d B Z h 0 0 Y 5.( 7 > M D h v x S B c u l j k h D i.1.z 2 4 j h 0 j h h c t a i 0 N z h S 6.b.a.5.B 4 i h k u w 4 h G F 0 D Z y u L D ,.#.! u m x h d z B x z 0 d C O.) +.B h 7 0 7 2 0 F d 7 z u 2 4 > t x V h 0 7 2 0 t l 0 u y 7 B Y ! A 7 4 u 0 0 j l l 0 h u > z ,.) ^ > h z z q V c 0 V ^ 0 6 4 > 7 h h d t > p k 7 i y h h 7 u v 7 2 0 S C N u 7 2 7 6 , i 6 j 0 d D &.q @ @ 2 h 7 @ & 7 t 7 2 7 2 8 2 , < 2 5 - , 4 0 8 @ - 2 2 u 2 0 6 2 5 > o 7 5 $ 2 0 2 7 @ u V 6 > t 0 v 7 - > 3 7 - @ 2 2 2 > 4 0 2 @ O > > @ > @ @ % & > 6 2 > @ @ 0 6 2 > O O @ > , @ > - @ @ % > - % @ % @ > O O @ O % @ > ",
"@ O o > - > @ > @ @ > @ O $ @ @ O - @ % @ 2 i > 2 9 9 - O @ > - 2 > @ > @ - > 2 @ 7 7 2 - @ $ > 2 2 % $ @ O % % O @ > 0 9 u 6 z I Z x y 2 7 - 6 > @ % 7 0 0 ; @ > 2 > > > - > , 2 0 > * o z 1.w.2.u > O % < 2 2 i > @ - > 2 7 l 6 0 z Z 6 4 O 5 > @ > h S h 7 - 0 7 7 @ 2 0 ; > > , , 7 4 7 8 2 3 0 V ^ d q i 6 0 0 j h 7 7 i 0 h u a 8 f r.O.h 0 0 V z l 7 0 z u 7 7 V d d j 6 0 x 0 0 x ,.w.W i x K 7 0 B h 4 z O.<.B i j f S d 0 4 u u u x h D 7.( W c 2 7 z S u 0 q j c l 7 8 2 ..c.:.0 % p x k u B z v h l h n t u u 4 5 l 4.t.Q u t 4 2 i 7 u 7 5 - 0 0 4 0 u 4 & 0 7.:.o.7 7 h v d k 0 i 7 u h x H B S n b 0 d h d 0 7 j u h p j 7 h t r 4 2 2 2 0 k l 7 h u j 5 z #.2.A 7 2 t 6 q u h d 2 i 7 0 W :.) H 4 4 7 0 u u b 4 0 z h 7 6 F B - i u 7 h c 2 > u V x h 7 > y 2 7 u 2 4 v 7 % @ 8 7 4 7 7 i y < u W ) O.h > & - 9 0 5 > 4 2 4 > 7 h u 2 @ 2 7 2 - 6 , > > > @ , > @ O & 2 4 2 4 @ $ > > @ > 7 2 7 - @ @ - t l 0 @ . @ > 2 % O > - @ O , @ @ @ @ @ O 2 > 2 @   , @ @ > O o O % > > > O   o > , @ > 4 % O @ > 2 4 , @ @ @ @ o o . . ",
"@ O @ > > @ @ , O @ > O @ , @ O % - @ O @ - 4 > o 0 b @ @ o - > 7 > O > > , > > @ 2 2 - > > - @ > w o O % > > @ @ o > h S j 6 z E x v 8 , @ 3 2 > @ < 7 6 7 2 7 7 > > > > @ @ > > > % > 0 W 1.! d + 2 > > > - 7 2 > t > 7 0 0 6 7 p 0 x 7 2 2 , > - 7 i 2 7 - 2 7 7 2 2 4 > 3 4 7 2 @ 2 2 7 6 > > z E x 0 4 > 4 0 7 0 2 7 6 2 c 0 j 6 6 E ,.! 0 7 0 v 0 2 7 j h h 2 2 0 S S 0 h x h n i 0 ,.>.~ h A u 0 u h l i z e.1.d i l z h c h 9 l u u j c N ,.4.z u j 0 x 0 h J j h 7 6 0 u 6 o.<.( h y 7 h u 7 h h h u 0 0 6 h h 0 0 c Z W ,.B 7 0 h h 0 x h 0 0 0 l j 2 t d t 4 h 6.<.B 0 h h j u L x h 2 u l x Y W N 0 i c h 0 l c 0 2 j u 0 7 c v 6 6 0 j u h v 7 u u 0 t 7 2 z ) ( x j k x d 7 7 h c 3 u 4 7 [ 5.:.F 0 h u 0 6 2 7 u u d h v 0 0 7 2 0 u h 0 q 7 7 0 F 0 0 0 7 8 ; 9 0 2 t l 0 7 2 7 - > i > - 0 6 - V 2.( D 0 o 7 M j 2 @ 2 7 7 > - 2 7 2 7 i w @ 2 i @ > 2 > > @ a > @ @ > 2 7 4 2 , > > 2 2 2 2 4 - > > > 2 7 7 - > @ @ - @ > > % , > @ , % @ > , 2 % > 2 > - > < - , , @ @ @ % @ @ % - > 2 > % @ @ > @ O o > > @ @ o @ % O @ O   ",
"% @ @ O @ @ @ % o @ % @ @ > @ O % % @ O > @ @ @ @ > > O @ > - @ - 2 @ @ @ 8 2 @ - % @ > - 2 2 2 2 > 2 @ 2 2 > 2 5 @ O 2 v z 0 0 V 7 7 - < O @ > , - > 4 7 - - 7 2 4 6 > 4 > @ 2 - > @ x ) 5.Q 4 @ < 2 2 7 < - 7 6 > > 7 6 6 0 2 7 4 > 7 0 2 , - c j u @ @ , > 2 2 , 4 u 7 , @ 7 0 u 7 2 i ; 2 y 4 C R h 2 2 4 - 7 0 0 h h i 0 7 q > 0 J C ..B u 7 0 2 7 i 0 6 h d > 8 0 u t 0 F 0 7 i 8 6 +.>.! 7 u t c u k 7 7 h >.r.A 4 t 0 h j h v c 7 y 2 z C ,.W 6 0 k h 0 j z 0 l u 0 v 0 i 0  .<.6.c > 6 j 0 h l 7 0 h h h x Z z z S D ..+.A 0 7 k S x h B 7 6 x S 0 0 v 0 0 0 6 h ( ) D j 0 d c 0 0 h z 7 7 0 D +.r.2.h 7 7 z 7 7 j j u 7 u 0 6 c j 6 S h 7 u d k 0 0 j 2 2 l j R :.@.z 4 c v 7 7 i h h - d 0 5 h d.c.W 7 k S 7 7 c 7 0 h u B Y T h 7 0 8 0 6 u 2 0 2 0 E @ 7 u u 4 7 0 6 > 4 4 0 2 7 2 t t 7 @ > h h @ > h  .+.C D d 2 & 0 q 2 4 2 7 4 @ 4 7 6 2 2 > 8 7 4 > 4 @ > > > < - > & % 4 - @ > ; 7 > 2 @ > @ > 4 > > > 6 0 7 f > @ , @ 4 > - > 4 > 4 > $ @ > 2 O @ > 2 7 - > 3 < % > > o @ % o @ 4 2 > @ @ > @ > < %   O , > > & o @ @ @ O O ",
"@ @ % @ @ @ O @ , @ @ > > > > @ > O @ > @ @ O > > @ o @ @ % > @ > 4 > @ % - @ , 4 @ @ > > > > - > - 4 w - > > 2 > O @ @ 6 v x 0 ; O 4 u - o > < > @ - - 2 < > 2 2 2 4 4 > 2 5 > @ @ h O.<. .h O @ 4 ; 0 0 2 2 0 7 > > 2 0 2 4 y - > - 2 6 > @ > h 9 2 5 @ > 2 i 7 @ 2 0 7 @ - u 0 l 0 7 i 7 7 0 u B H V 9 0 i 7 t 0 0 t 6 u 7 4 7 r l E ( W C t 2 j u 0 7 7 7 d z 8 4 h 7 t 0 N j 7 2 7 0 ( O.B q 2 w c 0 6 7 j z :.t.B 4 i h 0 7 u 0 0 0 i 2 f 9.6.I V K u 0 6 h v 0 i 0 h v 0 2 h o.w.5.u , 2 6 h x h 7 q h n u h S h x 0 6 B +.T x 6 4 h u x h 7 p x h h 0 K 0 u i 7 S 2.t.Y 0 6 7 0 0 u S l u i > F %.( [ h 0 0 0 h 0 7 7 0 0 7 j x 0 2 0 l 7 6 u t 2 0 u v c 6 u 6 C O.q.A > 6 2 l h 6 0 u 2 f M s 9 <.f.Q 4 h z n 6 7 0 u 0 R B z F E 0 2 7 7 u 7 2 i 0 0 h 3 2 2 7 4 7 7 i 7 7 0 7 2 7 7 2 7 2 7 u 0 i > @ O z ..U W v : @ 6 7 7 2 > > i > 4 2 2 4 4 4 ; t 2 - 5 > 4 > @ @ < @ @ > a 2 @ @ 2 y @ 3 , 2 % > > 2 > @ 7 7 0 N 7 , > @ 4 2 4 - 8 > 2 > @ O @ 2 % @ > 2 - % @ @ > > % > @ o > o > 4 > > > @ @ o @ > @ O @ O @ O @ @ > % O O @ ",
"@ O O @ > > @ @ @ 5 @ @ @ O @ > > O @ > @ > @ 3 @ > % @ , @ @ @ % @ @ < > @ , 3 2 2 > , @ > @ - > @ > < - 2 > - @ > > - 4 2 u l d , > l 0 - - > > > > < @ 2 8 @ % @ @ > 2 2 4 1 @ d ) ,.Y 6 @ @ 5 > 2 > 2 2 7 2 2 7 4 % a > + < 2 5 q 4 > > < j 0 6 4 8 2 7 0 u 2 7 7 > 2 7 0 2 2 2 2 7 4 > 4 L 0 h h B d 2 2 7 7 2 7 2 2 > 7 i 0 7 4 h ..( ~ 7 l 0 6 j 7 u c 0 6 t 7 i 7 v Z h j i 2 i B ( 1.E 0 0 6 7 v j 0 u A 5.6.0 i M 6 k u 0 u 2 u h 7 z ..6.( d 0 7 u h x 0 7 t 0 7 0 v c x W d.w.z y 7 u h 0 u 6 6 7 0 7 t c 0 l 8 > 7 B ~ f ; w 7 6 u 7 > a K h 0 7 0 h i - 5 E ,.W z 6 7 7 0 B h K 0 6 i 7 0 z C R d c 0 u h h u 2 t 0 7 7 d 0 0 i @ 2 u 6 7 y 2 ; 0 Z 0 q h N ..%.Z 7 3 > M k h 2 0 u Z u w D 5.>.N O i h z 0 4 2 u N ( [ v x ! A h 7 7 7 2 t 2 0 4 h b 2 6 j 2 @ 7 u 7 2 0 2 2 - q 7 - 8 u 0 2 > 4 t > % x ! C N c 2 - > > - y 2 2 7 > % 4 2 7 2 2 0 @ > 2 2 @ , 2 2 @ > 2 2 , @ 2 @ 2 - O @ > > @ > > 8 > @ > - j 9 v 6 - o @ > 7 2 2 2 @ 4 > - > @ % @ > @ o $ % 6 6 > - - 2 7 4 > 2 , @ @ > > @ @   $ % 2 @ O @ o @ @ O O @ $ O ",
"@ O @ O @ , @ o o % @ > @ o O 2 > O @ @ @ @ % O o $ % > > @ > > O - @ @ > > @ - - 2 2 > @ % > 2 , > > > @ 2 > > > > > > > > > 2 q > - t u 2 2 > 2 > - > > > 2 4 > < > < 4 2 - - 0 ! ,.W 2 @ - @ 7 > , - > 7 2 > 2 > > @ @ > 4 2 2 > ; 2 2 2 0 0 0 > 5 > 2 0 h 2 - h 4 > > j 0 - > 7 7 4 2 2 4 l 2 2 x F 0 6 w 2 > 0 l 7 y 4 2 0 v 0 - 0 / <.( 0 b 0 u 7 7 u h 0 0 0 2 7 h d h 6 0 7 t 7 9 +.( B v 7 p 2 2 l 7 0 N <.>.z 7 i h x l u h l 7 u 0 h Y ( W 6 2 i 0 0 0 7 7 d u 0 t u v 6 Y s.t.d 5 i 0 0 c v x h c c u 0 0 7 0 y 7 u F C S 7 4 j u 6 u 6 7 0 7 u 0 0 q > ; x Y (  .f i t 2 c z 2 7 2 4 u h 0 B Y ! x 7 0 0 u h 0 7 7 7 k 7 4 0 0 0 0 M 7 7 7 q 0 i 7 V c 0 t f W  .z 2 7 2 0 6 j u 2 4 z h > A h.f.B @ 4 0 0 7 0 2 0 h N N x z Y V h d u > 4 t 2 2 4 q u 6 0 7 3 % : 6 7 7 2 7 4 4 i w @ 7 h > 4 @ t 2 5 > 7 z ( W ! 6 2 4 - 4 > 2 7 2 > % > - 7 2 2 2 @ y - 2 > % > 7 - 8 2 4 > > , , 4 5 , - > > @ < > @ @ , % > 2 7 h h l 4 2 > > ; 2 > @ > - 2 2 < > @ % o > @ + 4 i 2 - > t 7 - 7 @ @ O @ @ > > @ O @ > > @ O @ @ % @ O O O O   ",
"@ > , O O @ % > $ o O > @ % @ @ > @ > - @ @ O @ @ > > @ o > > @ @ > > 2 2 @ O - > 2 4 @ O > 7 > O 2 @ > < @ @ % - > 2 > > 4 > > 3 0 0 6 2 , - > y % @ @ 8 2 2 2 4 4 2 @ , 4 ; 9 Q  .Y 7 > 8 2 5 2 > 2 > 7 2 4 > 2 2 , > > 5 2 2 2 2 > O 0 N Z 0 > , @ 2 7 7 2 - 2 w - 2 > 4 2 2 4 7 > > 7 c 7 2 - d F z h 2 4 2 2 6 4 2 2 8 0 u 7 6 q 0 B +.! 0 8 0 0 2 2 7 ; 0 u t i u v u k 0 n 7 i i 0 @.6.T Z S j q 6 i 2 7 Y t.5.h 7 7 7 l 6 7 7 h u 2 4 z ! W ! 7 > l x 7 0 n c z k i 8 7 l x ,.<.( 0 4 0 u t 7 6 x K 6 h h h 7 0 0 0 4 z E F h i 6 S x 2 v v 0 2 p 8 7 i w h A Q 1.@.D L 7 q h l 0 6 c h 6 6 q h $.6.! 6 ; 0 l 4 2 q 0 0 u 0 t i 0 h N ! 0 7 p h h h 7 6 4 7 j < z O.e.h w k 0 u 7 7 0 u p 0 4 % 0 5.a.' 2 u h u t 0 0 6 2 t x B [ G ; 7 d i 7 t 7 6 h 6 2 7 0 d > 2 4 2 7 4 > 8 > > 8 8 > u 7 7 > > 2 l w - 2 > o N ..W z 9 4 2 4 - - 7 > > > > > > 2 > @ 4 7 > > 4 2 - > 2 t , > > 4 @ - > > 2 - 2 2 3 , @ > > < , @ @ > 2 l j 6 2 > O @ 3 > @ > 2 7 2 > % @ , > @ 4 @ , 5 > 2 7 2 ; 4 8 O $ @ - - > % @ % O o @ , > > O > > @ @ % $ O ",
"@ O O @ O O @ @ O @ @ @ @ @ % @ @ @ , - @ O > , > @ > @ @ 2 > > > > - > > @ , > @ @ > > % > 2 > > > > 4 @ @ @ < - > - > 2 - > @ O 0 7 7 - - w > > @ 5 - 2 4 > - 4 2 2 @ - u R ( ) W u @ , 2 4 4 , > 4 2 > > > , > 2 > 2 < > - 2 2 6 7 > x Z h 2 > 4 4 7 w 4 > > > > 6 7 > > 2 2 @ y 4 7 0 h 6 0 2 N F h 6 2 4 4 > 7 0 7 7 4 4 0 6 h u 6 B Q D u 6 i 7 4 8 i 2 7 0 ; q h u 0 6 0 z l 4 5 0 Y O.D C u 2 u j i 4 2 ~ <.5.C 0 M 0 7 2 7 u 0 j > 2 z D ,.C 6 4 u F v q u 0 h h 7 t 4 c F ( r.,.0 > i u u h u 0 7 q u u u 0 7 t t 7 0 ' D 6 7 c S h 0 t z x 6 w i 7 > 2 Y 6.e.o.x 7 0 0 h v 2 > t 0 u 6 7 7 9 W O.Q S 0 7 u - , j v h 0 u t 0 4 6 &.q.f u 7 0 x u 2 2 4 7 l > z 5.f.h 2 h c 7 i j k u d 6 , , z <.s.B 2 h u 2 2 u j j 4 2 u A x L u k l 7 2 2 2 i q 2 4 > 6 c u 2 t i 7 2 - 2 2 4 - 2 2 7 7 2 2 i 7 2 5 4 i 4 5 8 6 D ! z 9 7 7 y 4 < % 4 2 , @ 8 7 7 5 7 2 < 2 - 2 < % 2 2 % @ 2 7 > 2 % - < 2 4 2 @ @ > > 2 > - % < > @ > 6 h t > O @ @ > @ > w - 2 > % % @ O , > > @ O @ 7 0 6 7 2 ; @ @ - - , > @ > - > $ O @ > @ O @ , @ @ $ O o ",
"% , @ O @ @ O o @ , @ o @ > @ @ @ @ % @ o @ > , > , % - 2 o O @ @ @ , @ + 2 4 o @ @ @ > @   @ 2 0 , > 2 2 , O > > > > @ > , % O > 5 7 v 6 @ > 4 3 2 @ ; 4 4 > > > 7 > # : ( w.+.R 6 > - % 7 2 > < - > 2 2 2 - 5 > 7 2 > > - @ > > 6 6 Z Z u @ @ > 2 2 7 8 4 > 7 6 4 y 2 @ 0 2 2 > - < > 2 2 0 u , D Z h 0 7 2 7 8 4 2 2 7 7 2 7 0 t t 2 B #.Z 6 7 7 u 2 7 q 0 u l k 0 0 t 4 i t t 0 @ , 6 +.5.Y z 4 4 4 u h u j N :.:.z y 4 u h 2 k u 4 < 7 S Y Q  .! z 6 2 7 u i 7 2 6 i 0 0 7 7 6 2.s.) ; 5 i 2 z 7 l u 7 2 0 0 j 7 7 b j k z D %.0 4 u j 6 h 8 5 h ( Y 2 @ 2 Z :.f.( 9 > 4 0 0 j 2 2 6 0 2 0 > 7 l h o.( C 2 4 u 0 d j 2 > u 2 6 7 u 0 2 h q.x @ > 7 0 2 2 6 l 0 c 6 h 6.4.0 w t 6 7 7 6 v h b h 7 1 0 1.w.z - 7 u 2 u 7 4 2 u > 0 h h u > 4 7 t 7 6 j y > 4 & 0 4 - u 6 6 7 4 > @ 7 6 > , i 7 - @ c v 7 7 @ 4 2 - @ < 4 > S E ~ h 2 - 4 2 2 - > 2 @ , 4 7 4 > - @ y 2 > 2 - > @ , - 7 i 7 > 4 O > 2 - > > @ @ - 4 % < 2 > 2 > > % 2 6 h 6 > @ o % > 2 % @ - > O O , @ & @ > % @ % 7 2 7 i @ @ 2 > @ % O @ > - - - @ @ o @ O % o O o   $ @ O ",
"@ @ O @ , @ % O @ o o @ % @ O @ $ O , @ @ @ > - o @ > 2 - O $ % @ O @ % > 2 > @ @ @ @ @ $ @ > 7 7 2 > @ > % @ % > > % @ - - @ @ @ @ 2 h c 2 > > @ > > 8 4 2 > > > 2 > 4 N w.r.) 0 @ @ 2 > > @ - > > 4 - 4 2 4 2 2 7 - @ > < < O - z z F 0 @ , % 8 7 2 2 > - > 7 7 4 4 4 4 t 7 - 4 > 4 > 2 0 l u 6 Y V 6 2 < t u 0 7 4 7 0 u 7 4 j w 2 - T :...0 2 7 7 6 7 7 7 2 0 h v 0 q 2 2 7 0 6 4 y 6 @.6.Q d 2 4 t q h t 6 S O.t.z 2 4 c z 7 7 7 7 0 7 d ! Q Y B z u y 4 t i h 2 7 0 7 6 u > 2 $.a.,.7 3 7 7 v 0 0 u 7 l l h 6 u 0 6 2 7 V ! Q z h 6 0 7 h y 1 2 i.f.h 7 R ,.O.+.0 @ > 2 k 7 2 7 v 0 u u 4 , z 0 B Y O.E 4 4 7 k v j y 8 7 u p 7 u t 5 7 x z S 2 2 4 4 t v 7 h 0 y Z <.@.v 2 2 b y 7 h z h ; z t $ h r.e.E - 2 0 k K t 2 u x 7 8 u 7 2 8 2 u 7 7 2 6 4 4 2 ; z N u - 0 7 0 4 4 > t 7 4 > 7 7 % 7 j 0 2 2 , > 8 > 2 > 4 4 ; k W Z u - > 8 2 @ 2 7 2 @ 2 > 2 > > % > 7 7 > > > 5 , > 8 2 @ > > < > > 2 < @ < > 4 2 % , 4 4 2 4 % @ % - h h h 7 @ , > > % > > @ @ > o > > % @ $ @ o @ 2 2 4 > > 4 2 - , o O @ o @ @ O O O O @ o O   O o o @ @ ",
"$   o O % o o o O O @ @ > O % , @ % @ > @ > o > > @ @ @ % @ @ , , @ O , > > - , @ % o o O 7 0 - O - > > - > 3 % > @ o O , % > > @ @ > 2 0 2 @ > > @ % 2 6 2 - > % - h T W 6. .0 @ @ @ 5 2 - 5 2 2 - > - @ % 4 4 > , 2 7 y @ @ > j C d 0 2 2 2 - > > O 4 > 2 8 4 7 5 % , y - 2 0 2 > < 2 > t > z I V u 7 > % > i u > 2 t 0 2 7 7 r 2 6 w W Q ..u > 7 2 7 2 > 0 7 > 7 0 2 t 2 2 7 6 0 l b 0 W >.A h 2 i 0 u u 7 4 H >.w.Y 6 @ 0 c v 2 7 l 2 u h z C 2.[ 6 4 4 t 7 > h u j 0 h 0 y 4 x 1.s.O.0 < t 2 7 u h x 7 j i 2 < u 0 6 7 0 d F ] W +.E L 0 h u > 2 %.<.C E O.>.I R 2 8 0 u j > 4 x x h 7 t 7 S N T N D ..D ; 7 7 2 2 > 2 t h c 2 6 7 2 y 0 z C 9.h @ 1 i h l 7 7 , , d s.<.h 0 0 7 > 2 k 0 u - z 2 > F <.r.R 8 t 0 2 - 7 k h u 6 6 5 > j u h 0 7 7 c t - h Y >.t.>. .k , 4 4 0 7 4 2 7 i > 4 0 , 7 0 2 , % 4 i 7 2 4 > 7 - - 7 B C F x - > > > 4 > 7 4 @ % 8 4 O @ 2 - 4 - @ 2 2 - - @ < @ 2 2 < > + @ < 2 7 2 2 2 , % @ > > @ > > - > 2 7 d 0 2 2 $ O > - @ - 7 7 @ > > < @ @ O > @ O @ - 2 > O - > > < $ o @ > > @ @ @ O % @ % @ O o O o @ ",
"@ . @ @ O o o O O @ > > % O , @ - @ @ - > O O 4 > @ @ @ O > > - O < > @ @ O @ > @ < > @ 2 u 0 7 O > O , - > - o , 1 @ , > > > > - % > > 7 u 0 - - > @ > 8 > @ @ > 2 B #.W T 0 - > - > > > 2 2 > 2 2 2 , > > > 2 > > > 7 7 @ @ h z T 0 @ 2 7 2 2 , O @ 2 8 7 > > 2 > > > > 3 > 7 7 - , 2 > > 2 Y O.j 2 2 > 5 > 2 6 7 7 7 2 j 7 7 , 2 0 0 C :.( z 4 , > p i 7 t u 8 6 i 7 0 u t 4 u k 7 0 0 O.>.N 7 7 u 2 h 0 0 < N O.5.Q K p 2 h 6 7 b h n j 6 k Y W W 4 % > 0 0 7 h l t h h q 8 4 d :.r.) 0 5 4 6 8 7 z v h x 0 l 2 u v j t 7 u v ' [ 6.Y h u u 7 7 h f U I ~ D W h k 7 ; u x 2 > t z 0 h t 0 z T ( [ z A D R x 7 8 8 y 6 0 0 0 7 7 j w 2 7 ; z  .4.D @ % 0 6 0 u 2 > @ z s.:.F 7 h 7 > 8 u u 2 a 0 4 3 x <.w.C : q u 7 4 7 z h 6 d 0 > @ j h 7 h 0 2 u 2 7 z :.F.6.W ) &.@ , 7 q 0 6 2 > p 7 4 2 4 > > 3 2 @ 2 2 7 2 2 - > 8 t - 6 A D N z i @ 4 8 - 2 y 2 O 4 8 $ > 2 5 4 > 4 - - 2 7 5 O @ 7 > > > @ > @ > 7 2 > @ - - > % @ @ O > 4 > > @ 0 0 0 4 @ O - > @ 6 7 2 , @ @ > - % - @ @ o @ > 2 @ - 1 @ @ > @ @ - > - @ % @ @ @ @ > @ $ o O o @ ",
"@ > % O @ @ @ @ @ O @ % O @ % o o O @ @ > - > > > @ % , @ @ @ O @ @ > @ @ % $ O > @ 2 u 7 ; 2 > 7 7 2 O @ > > @ @ @ % > - > > > 4 % @ O > 0 V 7 2 @ % @ @ % > - , 2 q x S 2 > 5 @ 4 7 - > 4 2 2 > - , @ > 4 > > 2 - 2 2 > - 4 h z : 2 2 4 2 2 2 > 8 7 - 2 4 2 - < , > 7 0 4 2 @ > - 2 , > 0 H D f u > 4 u 7 6 6 6 2 8 4 2 t t i 2 0 c i ! #.( d - 4 7 2 t l 2 2 - l i 2 2 7 h t 0 7 6 4 z Q W E u ; 7 6 h 7 7 > x ( 1.z 2 j u 0 6 a 2 7 k y - 7 ~ W N 0 y 0 7 0 c u 6 7 q 7 7 2 t d W d.t.7 < 2 h t 7 j 0 7 j h l j h 0 7 8 t u 0 0 h H z 0 0 7 > q B ( w.( A x h u j i 2 h 0 2 7 7 d 0 t : d 9.W G B f B E E z 7 i 2 2 t c h 0 h 0 u q 0 0 d T C &.z 6 2 2 7 0 z h 7 < h <.6.v > 6 u 7 t 0 l 7 t 0 6 < h 6.f.:.d i i 7 7 2 2 u c z 0 4 8 4 2 2 0 7 0 7 - 7 Z <.d.f Y a.1.> # 7 6 0 7 > 4 7 @ 8 > 7 4 > 2 7 7 0 - > , 2 6 2 3 2 2 w 0 A C Y V > - @ @ O @ , 2 @ > & - - 2 O > > @ > - > 8 @ @ - - - @ > 2 % @ > - @ @ 4 2 > > $ % > > 4 @ O @ > 7 6 7 w @ > > , > - - - @ @ @ + > 5 @ @ > > @ - > - > @ O O % > @ % % O @ > O @ @ @ @ O o % @ O ",
"@ @ > O O > > @ @ @ $ @ @ > % @ % $ % @ > 2 > @ < @ @ > > @ @ & @ > @ > @ @ @ @ > - > 0 2 @ , > 6 6 t @ 2 2 7 4 @ O @ 2 - - @ > < @ @ - > h 9 0 8 @ > > @ , @ 2 , ; - 2 - 2 > 2 - @ 4 4 > 2 - 4 4 - > > 2 > - > > 7 t - @ 0 0 d h $ 4 4 2 2 @ 2 2 6 2 7 @ 2 7 2 2 > > u 0 > > > > 4 - - 6 Z N A u 7 > 7 2 7 c h 0 2 4 2 > 7 4 2 w u t @ D O.W Z 7 i 7 2 2 u 7 i @ h u 4 4 6 6 0 7 2 i i 7 Y 2.~ 0 2 0 0 0 0 7 - L ..+.J @ 0 h 0 q 8 4 0 0 t 7 7 R +.R 0 2 l j 6 6 7 7 0 i y 2 0 k h #.a.) m > 2 q 0 0 7 2 > 7 u ; h z 2 4 7 > t 7 > @ - 0 j 7 5 3 u ..r.1.B 7 0 d 6 ; 9 t k 2 0 j 0 7 2 u J R ~ z > 0 0 ! B C 6 - q 6 t l h d 2 u u 6 7 2 x E F f v h z u t > 6 l f h 3 6 5.6.u < 0 c 0 > 2 t l 2 u u 5 7 9 t.6.E > > 0 0 0 2 - h B 0 0 j 7 > < 7 u u 4 4 > h ..r.a C d.r.q > > j u 7 > > w > 2 - 2 2 7 2 2 > 7 7 @ , 2 7 2 % , > > > j z C z v q 4 5 > @ > 7 - - @ ; h 2 o - 6 @ j 2 - l L 2 7 2 t 0 2 i 7 2 2 c 3 > > 2 4 @ @ @ 2 7 % O % $ @ @ 7 7 q - > @ > % , @ > - @ O % > > @ < @ > > @ @ 2 > O   O O > > > @ O O @ @ % $ $ @ O O > @ O ",
"@ O O % O O > % @ @ % , @ @ > - - > > @ @ 2 2 % > % @ @ - @ % % O % % @ > > @ @ > @ 4 2 2 2 2 > @ - 2 2 7 @ > > , @ > > - - O @ @ @ 4 t 7 7 7 2 4 @ @ > 2 > @ > , > < < > 4 2 w > > > 4 7 > @ 2 7 - @ 2 8 @ @ @ 4 4 > @ - ^ B ; 2 @ > > - 4 > > 7 > 2 y 7 6 2 w @ > 2 > 2 2 > > > @ - j E Y z j - 7 7 > 4 7 > 2 4 2 2 5 4 7 2 2 8 2 4 7 Z Y ! z h l 0 h 2 2 2 p > h 0 4 i 4 7 7 i 6 i 2 2 W O.~ d l i 5 ; 7 l 2 x O.1.J 2 0 0 0 t 7 0 u i i 2 z ....C h 6 6 0 7 - 7 y 7 2 > 0 0 u 6 9.r.O.9 > 5 v 2 u 8 2 7 k 7 u 0 7 7 4 l 7 i ; % < u c 6 > 4 u S E z 0 7 0 u V 0 u 7 - 2 7 k 2 u y - x 2.W N 2 - 7 H 4.6.D 2 4 7 2 > 0 j l 2 4 i 7 t 0 h S R Y Y E z 0 8 7 7 i 6 7 : z >.9.h 7 7 6 7 2 t 7 7 2 7 t 7 , > ! ,.e.W 9 7 7 7 2 8 6 2 h t 2 c l 2 2 7 6 6 t l h B i.c.h.7.,.D f 2 > 2 0 2 8 0 7 8 - > 4 7 4 @ > 2 2 > t 7 i 3 @ 7 7 > @ > - h Y C E x h S z z z h h u x x S x h z S v j 0 x B z h h x A z S h z H F h - @ > 2 > , % @ $ O , , , > @ > 2 w 2 8 2 O $ - > % @ @ % > o O > 5 o @ @ @ @ > @ o , % @ @ , @ > > % o o @ @ . o o % o O o ",
"O @ O   O @ O @ @ O @ - > @ @ 2 6 % @ - > > - 2 @ O o @ % , @ @ @ @ % @ - 4 % @ @ 2 4 > 2 6 7 %   , 7 d 2 O o 5 % @ < - > @ % @ % % 2 9 0 - @ 4 4 > , > 6 6 > @ 2 > - 7 7 2 2 4 2 % < - > - @ > 2 , @ 2 8 % @ 8 7 @ @ 5 7 C C ; > > @ 3 @ > > < 2 4 > - q 7 4 4 4 > 5 ,   & @ 7 r O 7 C W ! h 2 > 0 7 2 < < @ > 7 2 > > 2 7 7 2 2 2 6 h T C Y h 0 0 q 0 0 4 4 2 > l 6 u 6 2 l 4 0 u 2 7 0 9.) [ N 7 4 % 7 u l 2 B e.;.N 7 7 h h 4 u t 2 7 7 t z R  .f h a 2 6 4 < 3 - 7 l 0 q 2 2 0 ( <.( h i 4 4 t w - i u x z l 2 7 b 7 0 S j 6 b u h h 7 > 7 h x 4 # O 7 0 c D ; t > @ 7 6 V t 7 7 0 ! ( ) V 8 2 7 B >.w.Y > 2 7 y 5 @ 2 0 2 , > 2 i 0 0 h ..W 6.+.h 6 0 0 2 3 2 y , N e.:.0 6 7 t 2 4 7 7 > 7 2 4 ; y 2 0 ( r.f.C w > 2 0 4 7 > y i 2 h f 6 u 4 2 0 v 0 h N >.k.b. .I 6.+.b @ 4 0 0 7 6 0 7 2 < > 2 < O 1 , > 7 0 6 2 - > t > > , & O 4 B Y ( Y Z I W C C C Y D N B Z +.( Z I z d h x z G h C f Y ) D f z ~ Y z 6 % @ @ < 3 2 % O O > 2 4 @ @ - > @ 6 h 6 , , + 2 $ @ @ - % @ < < @ O . O @ , O & % - > 2 O @ % - - >     % 2 O o o , o O $ ",
"@ @ @ @ @ @ O @ @ > @ > < @ o % > $ @ - @ O O o . > 4 + o > @ @ @ > > - , &   @ % @ @ O @ > 6 h z f L v 2 , - h h > @ - 2 - > @ @ , > 7 j u 7 7 % @ @ > 2 o @ , - 2 > @ > > > & % O @ 4 > 2 % % , 0 - > , o , 7 > , 7 W Y 0 O @ 2 @ > @ - 2 4 2 > , - ; 0 8 @ < w 2 > O O > 7 < 4 d C ) C 0 > 5 > 4 > > 4 2 6 q 7 i 2 > 8 > 2 0 7 4 7 w z ( O.C l u 7 0 u j 7 7 h h 6 0 x t 4 > 7 7 4 5 6 D t.( u h u j 0 u j 7 S ( <.Y 4 s 7 u & u h 4 > 2 0 B L T h 0 7 l u 6 7 0 7 2 0 7 h 0 2 0 ,.w.,.7 > y l 0 i 7 0 > > 4 u 7 h h 7 @ 4 i 7 y < 0 0 6 v h 2 > 7 2 7 2 i u 2 5 2 7 0 q i 7 i > j N W Y 0 7 j 0 @ 0 i.a.O.2 @ i 2 4 8 6 n u 2 2 > 8 5 6 0 Y W F 2 3 7 u u 8 y 0 4 3 0 +.O.B > u v u y 2 0 u 7 n 4 8 7 4 , . 6 5.d. .6 4 0 6 @ < 2 6 l 4 4 6 l 0 7 7 2 7 7 j D 3 5 @ , z f.a.~ @ # q 6 h w 6 0 0 - > > 5 4 ; 0 6 > - 7 2 4 > > 2 2 0 > % & * % o @ u 2 , o > h 7 4 u 7 , > 5 7 - 2 2 , 2 4 5 % @ @ 0 F V 6 > O 4 > 2 2 2 2 > , - , - > > 7 @ O   @ - 7 2 7 7 2 O O @ % > > 4 o O < @ - > @ @ O > 2 , o @ $ @ @ @ O @ O @ @ > % O o O O O O O ",
"@ @ @ 1 @ o % @ , O @ > > @ @ @ % o @ @ > 2 > O O @ > @ > > @ O @ > > @ O o % > @ > @ O @ - 7 6 h 7 6 7 2 t 2 7 0 @ @ > > > , @ > > - 2 0 0 6 2 > % @ > 2 @ @ > > - > > < 2 4 @ 2 > - y > @ > 2 - 7 4 @ > > > @ % u d V v @ > @ , - 2 @ 2 - , , > @ 7 i 2 2 > - 7 7 5 @ , 7 2 O @ h T C z u - - 5 0 2 > > 2 4 2 7 > 7 > @ 2 4 u u 7 u > B Y +.B 7 7 6 t 6 q 2 7 f h h u 0 0 6 4 7 6 2 > 6 C :.o.6 2 8 t M 7 7 4 h :.w.D 4 > 7 k @ 0 7 2 i 7 2 h } Y z 0 i 7 7 6 w y 2 7 i 0 c u 2 k ..:.O.V 7 - 7 > 7 j 6 7 u 6 0 u 0 0 c 0 7 4 2 7 - h c u j i 7 0 u 4 i 4 7 7 7 4 2 7 l 0 2 % a 7 B W &.F 0 2 7 q 6 0 +.<.+.0 4 < 6 t 6 2 0 i 2 h 0 - % 8 Z O.#.0 > 2 7 u 6 4 7 6 7 4 0 ..Q B o 7 M 2 ; 7 0 0 7 h 6 7 i 2 > 3 6 z t.t.O.0 4 5 , 2 u 7 7 2 0 h 7 7 7 7 2 2 0 6 2 2 - 2 7 : C f.:.N 2 4 7 d 0 2 - 4 8 2 2 > @ 8 8 7 > > > - 4 2 t 4 7 7 2 2 @ @ > > 2 : 2 4 2 7 0 @ - 2 @ - 2 > < 4 - : - @ > > > 2 2 > 2 h 0 @ > 2 > 2 8 2 @ @ , @ - % , > 2 - > @ @ e @ 2 2 2 2 : , > , @ > 2 > @ O O > > > @ O > > > @ O O O , @ O O O $ @ % @ % @ $ O O O O ",
"@ @ @ @ @ o @ @ O O O % @ > @ @ % @ o % 2 > 2 @ > @ @ > 4 > % O @ @ @ O @ @ > > @ @ $ @ > u 7 - @ ; - 7 0 h c u @ @ > > > @ < , @ > > @ 7 0 q > - > 2 > - 4 > > @ % 4 @ 4 < 2 , > 2 > - > > 7 > 2 + 3 4 2 - > @ 2 N C 2 @ > > > , > 2 > 2 > < > > 4 2 > > > > 2 2 2 4 - - - > @ 7 h h l 7 2 4 2 % z i O 1 2 w - - 2 7 @ < 7 2 - u 0 t , h Y ! 0 @ 7 7 j 0 4 2 u f F h i 7 0 7 2 6 0 t 4 7 ! :.&.q 2 2 2 - 6 t 8 h :.<.9 b K 7 h 7 a 2 6 j , > 0 D #.Q 7 y 4 0 6 2 > 4 7 l u 0 7 7 0 C 6.( 9 2 a u 7 7 0 u 0 t h 7 7 > 6 x 0 u 4 4 z z 0 0 j 4 2 7 u 7 7 4 7 0 > 5 7 7 u 7 0 0 > O D I Y z ; 2 u 5 t q z #.:.W 2 q 2 7 0 j 7 > u 2 h v h 8 : h 1.,.0 > 2 0 7 - j 2 6 i i 0 Q o.D 7 - 7 2 7 u u q 7 7 h i 2 4 4 2 2 : z i.f.Y z 2 y 0 0 4 7 0 h h 4 7 2 4 7 7 2 4 4 y 2 4 2 , @ ! r.<.C ; 2 w 2 > > 2 7 7 j 2 - @ O 2 7 > > 2 7 7 2 > < 4 @ 2 2 7 2 2 t 2 > 2 7 7 7 - 4 8 @ > 2 > , - > 7 2 @ > - @ 0 7 @ O @ u j h 2 @ 4 2 - 2 @ < < - O O % > 2 4 % @ o O @ > > @ 0 q O O o o , 8 @ @ > @ o % , > $ O > > @ O @ @ 2 > o O O O % @ O , o o $ o O ",
"@ @ O o @ O O @ @ O @ $ @ @ @ > % , o > > 2 4 > 2 > @ % @ @ O @ % > $ @ > @ @ % O @ > - 2 2 2 @ o - 2 7 7 6 0 2 > @ > > > > 5 @ & 4 @ - 4 2 7 y - 2 2 @ > > > 2 o @ > % - @ 2 - > > 2 @ % @ 5 > t , - - < @ y c h Z x 4 < > 2 - @ , > 2 8 > @ 2 - 2 4 @ % 2 2 4 7 @ 2 7 4 $ > h z 0 6 - - q 2 > > 7 2 - 4 > 2 2 - > 2 4 - 7 0 u 2 v 7 > S ~ Y d @ 5 4 2 7 4 2 7 B c 6 7 7 7 4 7 7 0 t < 6 Y 6.C 6 i 6 2 2 7 4 > x Y 6.Z > h l 7 0 8 0 u 0 > 7 h ! :.Y 2 @ 8 7 0 h 4 2 0 u 7 4 7 7 2 [ f.( 7 % y 0 7 7 7 l 4 > i 7 > 4 7 j 0 4 7 i z h 7 7 7 > > 4 4 - 7 2 2 7 4 < 2 0 7 0 6 7 > 7 &. .! 2 , 7 0 4 2 4 0 >.O.Q 7 2 4 7 q 2 8 7 u 0 h u h t ; z +.( x 2 y 2 7 l h 0 2 y y 0 Y W z u t 7 7 7 2 i 7 2 u t t 2 7 j u 2 2 ; f :.e.,.0 3 0 8 6 7 7 j 6 2 y 2 6 l 4 < 7 4 2 7 2 4 7 @ 2 Y r.:.N > % 4 2 2 > 2 2 7 - 8 > @ 4 7 4 7 2 - 2 2 5 @ @ 5 < 7 i > - > 2 - @ > 2 > 2 > 7 2 - > > > - 2 > > @ @ - 4 4 - > > O 2 j h u 7 > @ > 4 > > @ 2 - < , @ 2 2 @ @ @ O @ > > @ > > O O @ @ @ @ @ , @ % O O @ 4 o o > > > @ O @ @ O @ @ o @ , > @ o o O @ o @ ",
"@ o O @ $ @ @ @ > @ % % & @ % O @ > % % @ o @ , > > > > O @ @ < @ @ > - 2 @ O o @ 2 0 2 - , @ % O > @ - 2 7 2 2 > @ , > > - @ @ O > > > , > > 2 > 2 4 O @ @ > , % , , > > @ > > 2 > > 2 > O % < > - 2 > @ o 6 B C d - @ < 5 > > 6 , @ > 5 > > 6 0 7 4 > - i 2 @ 2 @ 2 4 2 % 7 N Y z 4 o > 7 2 - 4 2 2 7 7 2 6 7 u 8 4 7 2 2 t j i 7 4 2 N ( #.z 4 , > 2 7 @ < b 7 > 2 0 u 4 2 t 7 i < @ u C :.o.0 4 2 h h 7 2 7 z W ! m 8 7 0 u h i 2 6 0 u t 2 Y +.C 7 y y u 0 0 7 6 V 7 2 2 6 8 ; ! t.O.0 , @ < ; 7 0 i 2 - 7 7 2 7 6 2 7 7 0 u 7 0 0 2 2 > 4 2 7 y y t > > 8 > 7 u 4 2 4 4 N Q D C h 7 4 4 7 i 4 > d 1.f.( 2 2 0 7 i > 2 t @ 6 6 2 7 2 > F W +.x 2 , > 7 i 0 0 i 4 - h +.Q R d 6 > > 8 > 2 0 2 > 7 2 4 0 7 0 a u 7 - d t.a.( z > w 7 0 7 6 w 7 2 2 u u @ 4 4 7 w 7 2 7 7 2 - 0 ~ 6.t.C > 5 2 4 2 7 7 2 > 4 7 > 2 2 6 2 > 2 > > 2 > > 8 , , > 2 4 2 @ 2 % & > > 2 2 2 > - > - > - 2 O > > @ > , > @ 7 i @ , - 0 h 0 2 @ > > @ % @ - > , % > @ @ @ 2 < > O % , O   o - - < % @ @ > O @ > % > @ > - @ % O O 2 > @ o o % , @ o @ @ O $ & O @ @ o ",
"@ o O & % O @ o @ , o @ @ O O @ @ o % @ @ @ > @ @ > > @ O @ > - @ > > > > O > 4 4 7 2 2 @ @ O $ @ $ > > 5 % @ > > > > > > O , , @ , 8 2 - > 4 - 2 - > @ > > 2 > @ > - > 2 > 2 4 @ > 2 4 > > @ , > O , o % 4 z N z 2 2 > @ > 2 4 7 > > @ % 4 0 7 7 > 2 2 2 2 w 5 > > @ 7 0 7 h z h 6 2 < , 4 > - > , 2 0 6 7 8 2 q 7 @ i u 2 5 - 7 > 7 7 x O.9.d 2 , 4 7 5 2 2 t - y > 6 7 > 2 l 7 6 8 s 7 W ( Q u 5 2 7 0 i 4 < x ) :.h , 7 7 2 6 4 t p 7 h u 7 F ..C u > 2 7 h 0 2 h c j > y i 0 2 B ) 5.N - 4 5 7 - 6 7 0 7 4 2 7 2 7 7 2 - 6 k 7 i y 7 7 7 2 7 - 2 2 2 % 4 2 4 i 2 > a - h :.) B 0 2 2 6 0 7 4 4 > 0 4.r.( - w i 7 2 2 4 7 7 , i 7 0 i % 0 :.1.0 - 2 7 4 > 2 u > > i - z O.+.f 2 4 > 2 0 u l 7 @ 7 i 6 2 2 2 2 ; y , @ z e.f.5.v 6 7 q 5 7 q 7 2 2 7 2 2 2 7 2 6 - 4 4 0 2 > @ - D <.1.Z > , 7 4 > 7 7 @ 4 7 @ 4 y 2 i - > 4 > 7 - 4 - - 2 @ , - 2 > 2 @ 2 > @ > 7 5 > @ > 2 2 - < @ @ 8 7 o O > > > 7 4 2 > 4 h 0 i 2 @ @ o , 7 > @ > @ > > @ > 2 @ > @ > > > $ @ > > > @ @ @ % @ > > > > > O 4 @ O @ > 4 > @ o O % @ @ % @ O   $ o o @ @ 1 ",
"O O % @ O @ , O @ @ o O @ @ @ % @ O @ $ @ > > @ @ % @ O , % @ @ @ 2 % @ O > 7 h z 0 2 4 > > % @ - % $ @ > @ @ @ $ > > > , , > @ % > - 2 6 2 2 > 4 > < > > 4 > @ % @ - - 2 > > - < , > 2 > 2 > 2 > > @ o 7 N [ 0 7 > @ > 2 > 5 @ $ 7 2 > - y 2 > > 4 ; 7 0 - 2 , > O > 0 v z u u 2 @ > , 4 > 2 > > , 2 2 7 > - 2 6 > @ 2 2 2 > - 6 h > t Z W ) 6 > 7 t > 3 i 2 ; h 6 8 > 2 u h 6 0 6 2 8 2 C 6.C 7 - 2 i 0 0 7 % 0 <.e.0 , , 2 c 2 2 7 u 2 j 6 u V C ! u > 0 0 h 6 4 i 0 u u 7 y 2 0 V O.<.W z 8 3 7 2 7 0 u j 0 2 > 7 7 2 c h ; i t 7 2 7 0 6 2 7 2 2 u 7 - 2 7 0 6 7 > @ h +.+.I 0 i t 6 h 0 4 > 4 8 7 ..t.W d 4 2 7 y t 7 7 y % 2 7 ; 8 , z :.+.d 7 7 q 4 2 > i 2 4 u - 6 Q w.O.z 8 7 h k u 6 u > 4 > 4 4 @ y 0 4 > @ 3 @ f 6.d.1.C 0 w 4 u 0 7 t > > 2 v h 7 7 - 7 2 > 2 - 2 > @ h / ( 1.N 2 7 , > - 2 7 > > @ > 7 @ > , 2 > 2 > 2 5 6 6 i 4 - 2 2 2 % > 7 2 2 < > - @ , 2 4 2 , @ < > 7 > - o 2 > @ 2 7 2 O > 2 t j 7 4 > @ @ 7 < @ , 2 - 4 > > 4 - < - @ @ @ 4 2 @ @ @ o @ > @ @ % % @ @ O o @ % o @ , O @ $ O @ O o . @ @ - o O O % o o $ ",
"@ % @ O O % @ O @ @ @ $ @ @ @ @ @ O @ @ > > 2 , % % @ @ > @ % @ @ % O O > 7 6 x h 2 > @ @ % @ > @ @ @ O % > % @ O 2 > @ @ @ > - O - > 4 7 4 > 5 @ > 2 - 4 y > @ > @ , > @ > 4 2 > > @ > > < 2 > % % - h T C x > 4 @ @ , < 2 2 > O ; q 2 > > - > @ 2 4 7 > 2 2 2 > 1 6 7 Z z u 2 , > > 2 > 4 4 @ 7 , > - > @ > i 2 4 > > > 2 0 4 4 6 < > h B ! 6 4 j 7 - % i 0 u v 2 2 & > 0 0 7 7 7 > > 7 +.1.R u @ a 7 6 0 8 , A <.w.D 3 4 2 0 7 4 @ 2 0 l 7 2 z Q ! 2 $ i 7 j 2 2 4 2 0 z 0 2 7 2 t ! W ,. .0 - 7 y 7 t 7 7 4 0 2 7 8 2 h K 6 4 6 2 > 2 0 u 7 4 4 7 2 7 t 7 4 2 u 2 @ 6 9.,.Z 0 2 2 7 h j @ t u 2 > 7 ! O.Y 7 8 4 2 7 0 - 4 @ > 2 4 6 < @ h O.6.d y > i 7 2 2 7 8 7 2 4 2 h q.i.B ; 7 h 7 7 2 v 2 7 8 > > 2 4 7 w 2 2 @ w 8 d +.s.:.9 6 2 2 7 7 7 2 > 7 j 2 2 i 4 7 3 - 1 > 2 2 2 $ 2 Z e.6.d 6 @ > 3 @ 7 2 > > @ > , @ 4 2 4 2 > @ 2 2 8 2 - 7 7 - @ - < 2 > 0 > , O o > - 2 > 2 - t 8 - > 8 - ; 3 & $ 4 7 % > > 2 2 6 v 7 ; > 2 o O , > - > 2 2 2 @ 2 - @ % O 6 2 > $ $ @ > 2 o O > @ o O % % @ % @ @ > @ % @ 5 > o O O @ o > O @ $ O O $ o ",
"@ @ % $ O @ % O @ > > o . @ @ O , @ , - - > O - , > @ > > O o O O O @ > 7 0 2 0 z 7 2 - % @ % % > > > @ @ @ > > > > > @ @ 5 7 - > 7 7 @ % > 2 % O % 2 7 2 - > 2 @ < > > > > , @ O % $ @ @ > % > > 6 h N z 7 2 @ 5 > @ 4 > @ < 2 2 % @ 2 2 4 > @ , % < - 2 4 > > w h u f B h 7 2 w 4 > > @ @ > 7 0 > > > < > 7 > - 4 > - l 6 2 j 6 7 4 , 7 C Q z 3 < 8 t 7 8 5 w 2 4 > 6 j > - q d 4 1 , 6 I Q $.K 4 7 t 7 7 7 > 2 [ +.B 6 7 7 7 7 0 7 @ 0 0 7 2 z ] C 6 , 4 2 2 u 8 > > v x S 2 < - d | f S R Y C # - 6 ; 0 6 > i 7 0 7 2 2 0 y 0 < > 4 2 ; i i 4 2 7 t h 0 7 2 u 4 7 F ( 2.N 0 2 7 2 - 2 > 2 7 i 7 5 7 Q <.W 2 4 7 t 2 y 4 2 7 7 8 2 8 4 > f O.6.h > , 6 h 7 2 > > t 6 2 y u x O.:.Y 0 2 - 0 7 2 0 0 2 7 7 h 0 7 2 7 6 2 7 2 4 > x.a.W V ; < 7 2 4 7 6 i 2 - 2 0 2 2 2 - 2 2 > 7 2 @ @ 2 B 2.,.Y @ @ 6 7 2 2 2 2 > % - 7 2 2 > 4 6 > > @ < 2 @ @ 0 u 2 > 4 2 2 > 0 4 - 2 4 2 - > 2 2 7 2 4 > 2 > 2 4 @ O 4 2 @ > @ O o 2 c h 7 i O o > - @ @ @ % @ > - < > @ @ @ > - @ > > @ @ > o , 2 @ @ O @ % O O @ - > % O > < @ @ @ @ % O @ . o @ O o o O ",
"@ O 3 > O @ > O O > > o O @ > > @ > > @ @ @ @ , - @ @ - > @ @ O @ @ @ > 7 6 h 0 0 0 2 - , > @ @ > > - % % > > 2 > > @ > @ > 2 2 4 6 6 O O O > > , > > 2 4 > > 7 2 2 > @ , > > @ @ @ > 4 > > > - 7 f D H 0 > @ , > 4 2 @ 4 - 4 7 4 @ - 2 2 7 2 @ < - @ > 4 > % - 6 9 f d 0 7 2 2 > 4 - > > , 2 7 i - > @ > > > - 2 > 2 6 h 7 7 j - ; 7 4 v C ~ Z 2 - - 7 t 2 @ 7 7 @ 8 0 7 7 7 l 6 u - < 0 ( ( C 9 t > t 2 2 4 , 2 Y ( z 2 w 2 7 2 0 j - u 0 t 7 v R Y u y > 2 2 7 0 - 2 0 V h 7 y 2 2 h - 6 S G ~ 9 ; > > 0 h 7 l 7 7 7 > 7 7 7 2 - 7 6 7 t > 4 6 7 7 7 2 7 7 7 - p h ~ W Y 0 2 @ 4 u 8 > 4 7 7 4 7 2 6 ! 6.+.> 8 0 6 2 8 j 0 y 2 i 7 - > i h O.) d 4 > 0 0 0 7 t 3 2 u u , @ > 0 <.t.W 6 4 t 0 > 7 7 7 0 u j 0 0 7 i 0 7 - > 5 O B >.w.+.z > > 2 7 7 0 < @ 4 0 t 7 - 7 y 4 4 4 2 2 2 1 O 2 z 6.<.F ; 7 2 2 7 0 4 < > - i 7 > > 4 0 @ , , @ > % 2 l 6 - 3 > > > 4 > - 7 7 7 2 4 2 2 2 2 @ 2 > 2 7 2 2 @ > < - @ 3 p % @ @ ; h h - > - > > @ > > @ @ @ % @ > > % % 2 > % > > > @ > > > > @ % O @ 4 @ O > 2 @ @ @ @ @ @ > > % @ O O O O @ o O o @ ",
"@ O O @ O % @ % @ O @ % $ > > @ > % @ % @ o @ , @ - < > @ < > > 1 7 @ O - 0 S h 0 2 4 @ & 2 > @ @ @ @ 4 2 > @ 2 > @ > 4 2 2 > > % 6 2 % % O , 7 > 2 - @ @ < 4 - - > > @ @ > > 4 4 > 4 7 - > > 7 z D h 6 - @ > % 2 > 4 2 2 > @ - - 2 7 > 2 2 4 @ - - @ < @ , 7 2 0 d 6 4 2 7 2 - > > % , > > 4 2 > - 4 2 > , > 7 2 2 t y - @ > @ w 7 7 4 h N ! z 2 2 i 7 y 2 6 7 2 4 7 4 > 8 7 2 4 7 2 y 6 ] >.Y 6 7 > 8 7 x u > 0 I  .x 7 i 6 7 4 7 7 k 2 > > > B Y E 0 4 i l i > 4 t 0 6 - 6 c 2 7 2 2 2 > - 0 } +.N 7 , 2 7 0 2 4 2 y 7 4 7 u 0 0 h t 7 > - l t 2 7 - > 7 0 6 2 K d N C H 7 > 7 6 0 0 4 7 t 2 7 7 6 0 W @.! 2 4 - 2 y - 7 7 - 4 8 2 0 t l z Q  .2 8 7 u 6 7 u 0 > 2 4 > > , , ; Y s.:.D 7 @ 2 4 > 2 2 2 > y 2 7 6 7 2 t 7 8 7 8 % d a.k.q.d - 5 0 u 2 @ > 4 2 > 7 7 > > 4 7 2 2 7 2 2 < O > N ,.5.! 4 @ 2 2 7 0 7 2 2 8 > 2 2 2 2 2 4 4 % > @ @ 4 - > > , > - > 4 7 > 2 i 4 2 > 4 2 7 % > @ > - 0 u 2 < 5 > @ o % 7 % @ - > 6 7 t 2 , O @ 2 - % > @ % 2 , @ @ - @ @ $ > @ 2 > 2 @ @ O @ > > @ > @ @ , - 2 > > O @ > > @ > @ @ O % , % @ @ O @ ",
"@ O O > @ @ O - @ O O % @ O % % > % > @ O % > > > > > @ @ < - > @ > @ o @ 7 h 0 0 - 2 O o 2 2 - > > > > @ 2 2 > @ @ > 2 7 7 > < @ 4 - - 4 @ > 6 6 2 @ > O O 2 > - % > 2 2 @ 2 7 2 2 7 > 2 > 6 h D x t > O , 2 @ - > > - - 4 > > - 2 - 4 7 > @ > > t 0 @ O > 6 h h h 2 @ > t 6 2 7 @ @ @ 2 7 t @ @ y 7 4 > > > y 4 2 7 - > < > > w 2 @ @ u Y W h 2 - i 2 - 4 0 2 7 7 2 7 2 2 2 > 7 2 < 8 d O.5.R 2 7 4 4 0 h 0 i B Y 9.z 7 7 u h 7 - 7 c 7 4 y 2 x Y z 6 7 u 0 0 2 7 6 0 i , 4 v 0 2 2 4 8 > 2 2 u 6.W f 2 > 4 7 > 7 4 7 2 0 0 h > 7 u 7 2 > y 0 - > i 5 @ q 7 7 7 2 7 F } V 6 2 t 7 2 4 2 > u 0 2 7 0 d Q O.B 6 < > 4 y @ 2 c 2 @ 8 6 v 2 2 d ,.O.9 i 7 0 7 t t q 2 3 - > 2 > < ; - I <.:.Y 6 - y 7 > 2 7 > @ > 7 > i i 2 2 > 2 6 & > C 6.s.O.B 2 4 7 8 - 7 2 2 3 2 > 4 2 > 2 4 @ 2 2 6 8 > > 2 f w.1.N 2 - > 2 7 7 2 2 > > 2 4 i 2 4 7 2 > 4 @ > < > @ > @ @ 2 > > - > @ 4 > @ 2 > > 4 2 > > > - u 7 @ > 4 @ > > % @ > > > , @ 7 d 7 > @ @ > > > > @ @ > > @ @ 7 @ O % @ @ @ @ @ @ @ > , @ % O @ @ > O O 2 2 - @ @ % O o @ > @ o @ @ O @ O @ @ ",
"O o $ @ @ @ @ @ o o O @ O @ @ @ @ > @ O o - 7 > @ - % O O - > @ @ @ > @ > 2 @ 2 @ > > @ @ @ @ @ @ @ 5 > @ > , @ % > @ 2 7 2 , @ @ @ @ - @ < 4 7 2 > @ , @ - > 2 2 @ > 2 2 @ > 2 - 2 - % 5 6 h Z Z 2 @ @ 2 @ - > > > % > 7 4 7 > > @ @ 2 > > o 2 2 0 u @ @ 7 0 h 0 t @ @ % > q t > - > < 4 > @ 2 7 , @ > 4 2 2 - - > < 2 > > 4 > 2 2 2 X 0 ! W h - 4 2 7 8 7 2 - 7 - 2 c h 2 2 > 7 5 > u C w.6.z - 8 j % - 2 i 7 h Q ..0 @ t > h 4 2 i 8 2 > 2 - z &.Z 6 2 > 2 0 u p @ - j 0 7 4 0 t > > 2 4 u 7 o ~ ,.( B > 1 4 7 j 7 i 2 7 u u 7 7 > 2 2 0 0 2 2 2 i 4 7 2 6 2 4 q 6 z D z h 2 7 7 > 5 2 7 u - 2 < t 6 ..e. .2 4 4 2 y 7 0 h > % 2 0 0 - @ - Y ) d 2 @ - u t 4 6 8 7 7 7 u 6 7 < > ; C t.e.I 6 * 0 7 > y 8 4 7 > - 2 i 6 2 y 4 6 6 > @ f t.c.( h > 3 7 2 7 7 6 7 i i 7 7 2 > - 4 > > 4 2 2 @ % O C ) 6.Y - @ 3 - - 2 > @ 2 2 2 > @ > @ 2 2 4 2 < > > % , 2 6 y 2 > @ > > @ 2 2 > > < > 2 > > , @ > 7 > > > - > > 2 @ > > % O % 2 d u 6 2 @ o > > 2 > % @ - , @ , @ - & @ @ @ @ O @ @ > @ @ @ % o o O @ O @ , @ % % , @ @ @ $ O $ O @ @ % @   o ",
"o $ @ O @ O @ O @ , O O $ @ % @ @ > @ o > - - @ @ 2 > @ O > $ O % @ > 2 2 > o   @ > > 2 > @ O @ > > > % @ > 2 > > > - > @ @ > @ > > 3 @ > , @ > @ @ > 2 > > % > q @ > 4 > , > > > @ @ > > k Y h f , @ > 7 , , @ @ , O , 7 2 2 2 > > @ 4 > @ , 4 2 6 t > > z F j 6 @ > > 5 > 4 2 > 2 2 > @ 2 > 2 0 @ , > 4 7 6 7 < > 2 8 8 @ t i q 7 > o h  .~ 6 @ 5 @ 7 2 4 2 2 2 > 2 9 0 2 4 j 7 4 - A 1.t.C ; M 6 - > 2 4 7 6 7 Q U 0 - t 7 7 7 u 7 , @ u i 4 0 N C q 2 y 2 i 7 0 5 > 7 6 7 > 2 7 j 2 4 u 7 0 > 6 N e.+.q @ 2 6 M 7 7 < 2 7 0 7 4 > 8 2 7 7 8 t 2 4 > 0 2 y 3 - t ; 6 F [ z 0 7 7 > @ 4 j 6 7 4 < w 7 C :.+.9 > 4 2 7 0 h v 0 7 @ 0 7 % 1 ; R 6.h > $ 2 6 7 > 8 2 - 7 2 j 7 2 > < 4 2 Z w.t.N : z 0 > 2 2 h 7 , > > 7 6 > 2 8 5 d > & o N w.>.@.6 - 5 2 6 0 2 - 2 0 2 2 8 > @ 5 < O < > 2 < $ # > z w.1.B 4 > 3 8 2 > > 4 2 4 o 7 7 - , > > > 2 7 7 @ > 0 6 2 2 2 < @ @ > 2 4 @ - @ @ 5 2 @ > > @ 2 7 > @ < 7 - < > - > % > 2 2 2 0 7 0 - O % > @ @ > - 4 > @ @ > , @ @ > @ o O 5 - @ @ , > O @ @ O $ @ > @ , O @ @ % @ % @ @ $ % @ O @ O O O ",
"@ @ @ @ @ O @ % % % > o @ - @ > > > @ % % > @ o @ @ @ , > O , O @ % > > 2 O @ O O > 2 > > % @ > > - @ > 1 > @ , @ 4 2 @ > 2 2 > O > - > 2 % O > @ 1 > > , > 2 @ > @ > 2 > @ , % @ $ $ > h Y T 2 - 1 5 > > 5 < @ > > 4 % 2 2 6 2 % t 2 - 6 > 2 7 i - % 6 z V h 7 5 @ @ > 2 @ > 5 4 2 > > > 7 2 @ 4 > > @ 2 7 8 7 - < 2 7 2 - 2 2 2 7 2 2 z O.Y 2 > > 2 t > - 7 8 i i 2 4 - > b 0 > 2 N s.f.E : 7 > 4 @ 7 2 i 7 2 u ( ..0 @ 7 0 7 4 7 0 i 7 7 4 > 7 T N h 4 2 4 7 7 7 7 7 u u 2 8 i 6 7 7 2 7 2 7 8 8 2 ~ #.( B - @ > 2 7 2 > 2 0 0 4 < 4 > 6 h h 6 2 4 2 t 7 7 8 q > : z E N 6 7 8 7 7 7 7 7 2 7 2 > ; 2 C t.D 6 > > 7 2 > 6 ; q y > 2 7 2 y 7 9.) 2 & 2 0 2 > - 8 4 7 2 2 7 - 7 4 > 2 , 2 B ) 6.I 2 > 2 7 2 2 2 > 2 4 7 2 i > > 5 > 2 2 > @ 0 #.t.6.f 2 @ 6 u > > 7 2 - 2 @ @ i % 7 4 4 7 @ 2 > > % @ N ,.#.N - @ 8 > > < > 2 > > t 7 > 5 2 2 - 2 7 i > > 4 > - > @ > 2 2 > - 5 > 4 2 2 2 > - - > > > > < > > @ @ @ > , @ @ > > @ > 2 2 0 u 0 7 @ o > , - @ , - > @ > > @ > @ @ @ % @ > > o @ O > > O @ @ @ > $ @ % - - - O @ @ @ @ @ o O   O % ",
"@ @ @ @ % @ > > @ o % @ O % @ @ % @ @ - O @ % $ > O @ 2 > o O @ @ > > 4 @ @ @ @ @ > > @ @   , > > 4 4 O > @ o > > @ 2 - 4 0 7 > @ 2 > 2 @ @ @ > 7 @ O o @ > > @ O > > @ 2 2 @ O @ o @ h C Z d > % - @ > % > 2 > > 2 - > > > w @ @ 7 6 6 7 2 2 h 2 , % 6 Z z 0 2 @ @ > > 7 4 2 % > @ O O > 0 l 2 > > 7 > < > > 2 > > 2 6 5 ,   1 7 8 7 h N Q z > , 7 7 7 3 2 2 4 0 6 i , r 7 7 2 * 7 <.N.w.2 O p 4 2 a l 6 9 l O 0 Q Q 7 2 7 0 0 2 4 7 9 7 - < 8 l } B h > @ > 2 7 @ 7 0 4 @ < 7 2 7 , - 8 2 > 2 b 2 2 u W s.#.y 1 % 2 2 2 8 7 0 h > 7 < > < 0 l 6 0 4 > 4 q 2 2 7 1 > f S V l 7 0 0 h h 2 > 7 7 6 3 - j ! W C 7 , 5 2 y 8 3 - 4 > - > 8 @ w z W Y > 3 u 0 2 & 2 - 4 y 4 - < @ 4 8 7 t 7 % @ z r.a.s @ - 4 4 % 5 7 7 7 7 0 - > > 8 & > d t =   N r.a.+.; O 7 0 > > 7 2 5 @ % 7 7 2 - 4 - 2 % > > 7 , , @ T w.6.^ @ > > 6 > 2 < > 8 7 4 2 - 2 4 > > - 7 7 3 > @ @ 2 O - 8 7 > 5 @ @ 2 7 > @ > > > > 4 > @ @ - > @ , @ > % @ @ > % > $ O 2 0 z h 2 > O % @ > O @ > 4 @ @ > - @ > @ @ > @ @ > % o o O - @ o o @ > @ @ @ @ @ @ O O @ @ @ @ o & O   $ ",
"% O O @ O @ > @ O O $ o O O   @ % 2 2 > @ O @ @ > 2 @ @ % @ @ > 4 O   - 2 > o O @ $ O - @ - 2 > >   O O , % O , @ O @ - 2 - % > 2 @ O % > @ > @ < @ , o @ < - 2 - > @ > 4 4 2 2 - 2 z I B 7 O o 3 2 > > @ - 2 @ @ < > > @ O @ 2 7 , @ 2 7 7 8 > @ @ 0 f Y q o > 2 2 8 $ @ < 2 > 4 7 > @ @ 2 7 7 , O > 7 6 2 2 7 @ 6 i $ - Y W A > - z <.1.6 > , 2 l 0 7 7 < @ 4 7 2 > q w - > 4 z r.d.! > y 2 7 8 2 @ > 4 t 4 @ x Y +.h 2 l 7 2 4 7 8 4 7 1 @ 7 N A x 0 0 0 7 0 2 0 u 8 2 u q i @ i ; 0 7 5 2 2 7 7 4 = > :.a.w.B > & > 9 h i O $ D z 2 j i - 1 5 7 7 4 , 7 h 7 @ 7 4 ; 0 B N 0 2 4 % 2 2 2 0 - 2 0 u u N W z 2 1 2 6 0 0 0 7 y < 2 > 6 2 , w ( :.z @ > 6 0 j 4 & , 7 z 6 2 > 2 y , , 5 > O @ F t.a. .> @ 5 > 4 0 , > i q @ 8 u 2 5 - 7 0 0 4 O 7 <.d.) f 2 > 2 0 % > 8 2 @ 4 7 7 - 4 > 2 7 2 > 2 @ > O O 7  .w.z @ O @ 7 2 O @ $ > @ 6 > % O > 2 - @ > > - 6 6 6 2 @ > 2 - > > @ , % O @ > < > > O < 2 @   @ , 2 2 & o % 5 2 - 2 @ $ O @ 0 B 0 2 @ O > - O , > 2 $ @ - 2 , > $ - @ % % 2 u 7 0 2 $ @ O O % @ @ O @ % o % @ o O @ . O o 3 2 @ @ ",
"@ O @ > > % O O , o o @ @ O @ O O > > > @ O @ O % @ O > % O @ @ > o O > > @ % > > O @ , % > @ > - @ % @ @ < > @ @ % O > > > o % % > , O > O @ > @ > % % , @ > > , , > > - @ > 3 7 0 h V 2 2 > @ % - > > < < 4 @ O > 4 , @ , > @ 2 % - 2 7 - - 2 < , 2 d ^ 2 @ 4 4 4 > @ 7 2 @ > < 2 2 y 2 @ > < w - > @ 2 5 @ 2 > 2 y , : T ! h ; Y +.+.d @ , 4 2 7 2 - 2 2 > @ 3 2 6 t 4 # @ f w.f.6.9 2 4 6 0 > 7 i 2 2 h 2 > x Q ) x % 7 0 2 > 0 2 0 2 > > i x C N 0 q u 7 2 0 u 2 , > t u 2 - 7 u 4 8 4 2 4 > 2 7 2 - 6 ..,.6.z ; > 7 0 2 8 7 x 0 6 u - 4 - @ 4 7 4 2 2 7 i a 0 - > u J 0 j 2 2 - 2 4 4 > t 2 u 7 : B t.! 2 2 7 7 2 7 t 7 2 4 2 4 6 > , 2 )  .x @ 8 6 6 2 2 @ > 7 l 2 , 7 i 2 2 2 2 2 4 6 6 z :.t.N 0 , $ 7 2 4 2 4 - 7 2 i 2 @ 7 q 7 7 2 , - d :.e.W 7 5 > 4 2 2 > 2 r > 2 w > - > > 4 2 7 7 O 4 > > - 0 ) ( f 7 @ , 6 2 > 5 8 @ > 5 2 w > < , - 5 > @ 2 5 > @ > 1 @ @ - > , @ @ > @ @ @ % > o % 7 > @ @ > @ - @ - @ , % % - > > % @ 2 q 0 0 2 > % > @ @ - > @ > > > @ O @ @ 2 4 > > 0 h i 2 O > @ @ > - @ @ o % O O @ > O @ @ @ O o 5 , O ",
"@ O @ @ @ o   @ - > @ O @ > > > @ > o O @ @ @ $ @ O O > @ @ % O @ @ > - > % > > - @ < @ @ > O @ @ 7 2   O > > @ @ , % $ o $ O @ o 2 7 2 > % @ - , < O > > > % 3 @ O > O @ - @ 2 j z h 4 @ < @ 2 @ - > @ 4 3 > > > 2 < @ % 4 8 - O > > > > > @ - 8 1 2 x x @ $ > > > 2 > 2 2 > > @ @ 4 0 > @ O , 4 6 2 % % < % 2 < - < - ; v V h h <.6.h @ , < - 2 > 8 , - 4 7 7 8 2 4 6 , # 6 w.j.1.0 q u 7 7 t 2 7 7 7 i q 6 h d ..C z y y 0 7 > 6 2 4 2 > 4 2 0 [ Y 0 @ 4 7 6 0 2 > 2 2 > y 2 l u 8 < @ q 0 2 i < 2 u 7 @ > A 6.:.O.u 1 @ 2 2 d z 0 2 2 2 4 4 4 3 < 6 0 7 > 4 t 7 7 - c z x k - j u 4 7 5 2 0 z 2 2 6 ( w.( 6 y a - @ > > 0 0 i 2 8 7 > > h W ) ; 2 7 7 7 > 2 t 6 2 t > > 7 6 - 6 0 2 @ 2 t 2 + z 6.<.Y % # 4 7 0 2 4 - b u @ > 4 q - > < - > @ @ z 6.e.D 2 > $ 0 7 0 t > > @ 4 8 > - , @ > 7 2 $ > 4 2 > - d ..>.A % @ - 6 0 > < > O 2 7 7 > @ > > 4 , % @ > > , > @ O @ < > , > 2 @ , O & > , - @ > > - 2 2 @ O - 2 2 @ % @ @ 4 > @ > O @ 6 h h 7 @ % , > > - > % @ @ @ > @ - j u 4 3 6 0 > @ 2 2 > @ % % @ & O o o @ % @ O @ O o @ @ @ O   ",
"$ O @ @ O   O > > @ O o @ > - > $ > @ O % @ @ @ @ @ % O % @ > @ @ 2 > > @ O @ > > @ O @ - > > < @ 6 0 - @ @ @ @ O @ $ @ @ @ @ @ % > > > - O @ , % @ @ < 2 - @ - - > > @ 2 5 2 7 0 f 6 - O - - > @ > 4 - 2 > o > @ 2 > > O @ > 4 @ > > @ @ < 4 ; > > - z f 7 @ % > , - 2 2 > 5 4 2 2 2 2 > 4 > - @ 4 4 > , - > , > - > , @ h z D Q Y f 2 y o @ 6 0 > @ < > 7 0 7 4 6 7 4 @ 0 2.r.r.z 2 2 2 - , > 6 t @ - 2 @ 0 z Y E h 2 0 > > y 7 4 4 2 2 t 2 - u D Y h @ > 7 7 3 > 7 6 t < > 7 0 > @ < 4 2 7 i 7 7 2 7 7 > @ ; N t.1.D u > > 7 z h h t u 4 > 8 2 @ - 6 7 8 > 2 2 0 0 u v h A 2 > i 7 > 7 2 ; h h 1 2 j B ! x 7 > - 4 7 > > 2 j 4 2 @ 7 4 , 9 W ..0 5 2 0 i > > t j 2 > - 2 i > 2 t l > @ 2 t 4 > > z 1.1.C 2 > , 4 7 7 7 0 u 2 7 7 7 2 - @ 7 t 2 5 2 z  .,.Y 7 - 8 0 7 7 2 4 7 2 7 2 - @ @ > > q > - > > % , @ z ,.+.z > @ > 7 @ 7 > > > 0 4 @ % @ 2 4 > > > 4 2 > @ % o > 4 > 2 4 4 - > > @ @ @ 4 > O > > 7 > % @ 5 > > @ @ , O - 4 2 > $ O 2 6 d h > o @ @ , > < > @ O O % > > 2 7 > o 7 7 @ O > > , , > @ @ $ O , % % @ o @ > $ o @ @ o O o ",
"@ @ @ O O @ > O > O O , O @ @ @ o @ , @ > > @ O > > , @ @ @ > @ @ @ @ O @ 4 > o % , > 2 @ @ @ 2 u < 6 0 7 > @ - > @ @ > > > > - > > @ @ - - @ > @ - > 2 2 % < @ 2 4 @ 2 4 2 0 x h 6 4 2 > - > - > @ > > - - @ , > > > 2 4 > @ 8 > > > @ > - > 2 @ 2 0 N Z t @ @ - < > @ @ 2 7 t 6 4 > @ 2 7 2 h h O > 4 > - - > > 6 2 # > Y <.Y I 0 > > - 7 2 u i 7 2 2 2 7 2 2 < 6 8 @ 7 ( f.:.d > @ - 2 > % 2 4 7 2 2 > 2 z ( [ 7 , 7 0 4 > > 7 < 6 4 i 7 7 w v F z 7 4 7 7 2 @ > 0 0 6 > 2 b 2 - 4 u 0 7 2 7 2 @ 5 - 2 i 0 2 6 f ( :.C - , 2 6 7 l t 7 - 2 4 4 7 4 > 2 7 2 7 ; 7 6 4 l z x 0 % 4 > 7 6 7 2 7 0 > - 4 2 2 @ > @ 4 6 k 0 4 @ - , > 7 7 4 & 0 ( ) q - 2 6 > 8 8 2 > 4 0 6 6 q - - 2 @ O @ 7 0 2 8 2 , 0 2.<.( 2 $ 2 6 6 2 2 7 > , 5 @ 2 6 2 4 t 0 2 5 @ 7 1.r.) 6 % 2 > ; 2 7 l 7 0 7 4 > > > @ 4 @ 7 - > - > @ - V ,.:.R @ X @ > 2 4 6 7 5 % @ 4 @ > 2 > < > > > > 2 , - > 4 > - 2 @ @ - 4 4 > > 7 2 % > > @ > @ - , @ @ 4 @ @ % > @ % 2 > % > 2 4 0 6 2 @ @ $ @ @ o % @ > > > 4 @ > O @ 4 > @ % @ @ @ @ , > @ $ @ @ - > % @ @ O O @ O O $ O @ ",
"@ > % O O % @ O @ @ $ > @ O & @ - O @ > @ @ % , - > O @ > % @ @ o % > o @ 4 2 @ @ @ @ @ > , O - 7 - - 0 u > % > > , @ > > @ < 2 @ % - @ % > @ @ > > 2 @ @ @ > > 7 @ > 7 2 0 9 h 0 - 2 2 7 2 > > 7 < @ 2 4 O @ - @ 2 7 2 < > > > 8 8 @ @ 7 2 - > @ > 0 z Y h 2 @ > > - > @ > 7 2 - 2 % - i 0 0 G Q 4 2 6 2 > 4 2 2 7 > O 0 Q +.Y f 4 i - - l - @ 2 2 4 2 y 2 8 y - 7 - 6  .t.( 6 & > 2 i 8 > y u 2 > 8 > 2 0 D W h > @ 7 t 7 > > 7 4 2 > 2 2 4 ; u S z 7 7 7 2 2 2 4 7 0 u 2 > i 7 > 2 0 7 2 < 2 7 @ 2 > 2 7 q 7 @ > N 6.) 6 2 2 < u h 6 7 7 2 > 2 6 4 2 @ i i u 2 4 > - u V z 7 - 3 7 i 2 y 4 2 2 y 6 6 - , 1 @ 2 7 7 6 j 2 > 5 % @ 0 0 5 @ 7 ( ! 6 4 7 2 - w 2 @ % - q u 2 @ 2 > 5 , < 2 2 > ; j 7 $ O x 1.:.C ; 2 4 4 0 8 2 > @ > 8 7 t 7 > 2 7 0 4 O O z 6.s.) > @ @ y 7 2 7 6 6 2 4 > - > > @ @ 2 4 @ @ > @ > @ 0 1.O.z @ @ 8 6 7 2 > > @ > - > , > > @ > > < 2 > > 4 - > @ @ O % 5 % @ @ > 2 > @ > @ @ O > > > > O O > > O @ 2 > @ > - > @ - @ 2 h h 7 > O @ @ % - > @ - @ @ % > @ > > - , - O @ @ @ @ % @ @ % @ @ @ > @ % O @ , o @ O O % ",
"@ O @ @ @ o o O O O % @ % o O O , $ > , @ @ > > - > @ O > , o o @ , , @ @ > > > > O @ % - O O @ > 2 7 0 q 7 > @ @ @ @ @ @ $ @ - > > @ @ > @ @ > @ > > 2 4 > @ @ @ @ > 7 d h 7 - % 2 2 @ , % @ 4 > @ - > 5 @ @ 7 7 2 < > @ 2 4 @ - 4 2 < @ 2 , @ > @ 2 z B 0 7 2 4 > > 7 7 6 7 > - @ % 2 i 6 6 F C h h 0 @ @ @ 8 y , @ d ! F h 0 q 4 4 @ 4 7 > q > @ - 2 0 2 , , 2 y 6 Q i...; O > y 4 > 4 4 7 t 7 0 7 7 d D Y 6 4 7 4 @ 4 4 - i 0 7 7 > > > 2 @ h A H u 3 4 2 2 u > > > 4 2 - > i 0 6 2 7 7 0 2 > 2 6 h j @ 2 2 8 % 2 Y :.z 4 2 2 7 7 i 7 @ < 7 4 > 7 i 7 5 7 7 6 5 0 > 0 L d - 7 7 - - > @ > i 6 2 7 0 0 p % 7 j > 2 2 2 7 > 7 7 > i t o 3 2 I ) 0 4 7 u j 2 - > , 2 6 t > + j u > % i q - < 4 4 @ 2 4 > q ~ w.W 0 4 2 j 2 2 , 8 4 2 > > > 4 > @ 7 4 4 4 O 9 W r.Y u > % - - > 2 4 - - t j 2 4 > > @ 4 7 > > < - @ + N ,.1.Y - 2 > - , - @ > - - 2 2 > @ O - @ > 4 @ - > @ O , O O @ < ,   O % > % @ , > < @ @ < - > > < @ @ , > > > > @ % - < @ @ > 6 0 0 u @ @ @ > @ 4 - > > % @ > 2 4 @ @ > 2 o o - > @ o O @ % @ o o o o > O O O % &     O ",
"@ O > > O   $ , O O @ @ & @ o O @ o @ @ > @ > @ @ > > > @ @ @ O $ - > % > @ @ - , @ @ > @ @ - @ @ 2 7 2 q h 7 2 y 7 2 2 > > - t 2 @ 2 @ @ > @ > - > @ 2 2 > % - a x 0 0 h j - O % > > @ % o O > > , 4 - O @ > 7 4 2 - > > 2 4 @ > @ @ % , > -   % O 2 ^ B 0 @ > 2 @ 2 6 7 t > > > > > 2 6 0 x H N f x 7 - O @ @ > @ 7 W ) d o > 2 > 2 t 2 2 > > 4 , @ y > > y > - d I >. .2 $ % > 2 4 4 > 2 7 2 i w 2 h x E h , 1 2 7 7 - > 4 7 ; 2 4 4 2 4 8 > 7 F h 6 @ 2 7 2 7 4 4 2 > 4 b 4 4 0 q q 5 i 0 2 , 5 2 0 7 @ 8 2 5 1 > ..6.B @ 7 h - 7 2 ; 2 > y > 2 > 7 7 - > 7 2 , 2 2 c z 6 i 2 i 6 2 4 y @ 7 2 0 i 6 - 0 - 7 7 6 > - > 7 6 2 ; 5 > > 2 1 0 I ) Y 7 @ 2 2 2 4 2 @ 7 7 4 @ , t 7 2 @ 2 2 > 5 > > 2 t 6 2 O 7 ,.<.N 7 O - 4 4 > 2 2 4 2 > 2 7 2 2 > 7 u 2 &   7  .1.~ - O > < > % > 2 7 2 4 2 2 > @ > 2 8 > > 4 @ , > - d ( 2.N 9 7 u 0 q h h 0 d d h 0 7 v h 2 7 h 6 d 6 0 7 2 @ - 2 7 2 > @ > % - > @ - 4 > @ % - 2 - - % o @ 2 % - @ O @ O > @ % - > 7 0 7 > - @ @ @ - > > > O o < 7 2 @ o % 2 > @ % @ @ % $ @ @ @ @ O o @ @ @ > O @ @ o O o ",
"@ @ > O @ O o O % O @ o O @ > % @ @ @ , @ - w @ @ > @ @ > 2 4 @ 2 O > 2 2 @ @ , > - @ > > O % @ % > 2 2 2 h q - > 7 l z z 9 7 7 5 0 0 2 > 8 < @ $ o % 2 2 @ O > 7 7 x h 6 2 > % , @ @ > > - > @ @ > > 7 2 2 - > - 2 4 4 2 > 7 - - > > O @ > 2 > $ O > N ~ 0 % > 2 @ 5 0 2 7 - > > % > 2 7 2 x v 2 0 t 4 2 > - 2 4 7 z &.0 - O 1 , > < > 2 - 4 > - > 4 3 @ 7 2 4 7 O.,.N 6 - > & > 2 - 2 u 7 - 2 @ 0 x B f x 7 , 3 - > i 2 , < - 0 > 7 > 4 q ; > 9 K 0 0 i 2 t 4 % 4 2 - 7 2 2 2 4 4 7 7 2 2 7 i 7 % > 2 7 2 t t , % 4 ) 6.S O > 7 0 7 % 7 2 l 7 u > < 2 u 2 , > 2 - 2 h A Y T 6 @ v j > 1 2 0 h 7 6 2 - 4 > - 4 > 4 0 4 - - 2 0 0 , - 2 5 % 2 N W N 2 O O 0 7 2 y 2 > 7 2 2 4 > @ 7 i 2 @ @ - 7 2 4 7 7 7 % @ 6 T / 0 ; 2 2 7 > 2 7 4 > 4 4 > 6 7 2 2 , > 4 8 @ > 1.<.Z 2 % > 2 - 4 i 4 > > @ % 5 4 > > 2 > > 4 4 % > 7 : ; h C Y 0 h h F B N Z A Z / D N R F B B z V S D h S A z h c z z B z h 4 O @ 2 > O % @ > , > > 2 > O @ 2 > 2 > @ > @ @ > 2 @ @ > 2 4 4 w O @ > @ % O @ @ O @ 2 2 > O @ @ @ O O O % @ < @ $ % @ % O O o - % O o O o > % ",
"@   @ % @ O O O @ @ @ O $ O > @ $ @ > @ @ > > > % o @ @ > 2 4 @ 2 @ 2 > % $ $ > @ % @ % @ > < $ > - 4 2 > 0 2 2 - 2 2 v d 6 u - > z 6 0 6 2 7 2 > 2 : h 0 0 7 2 7 0 j 2 % @ > - @ > , % % 2 2 , @ @ @ @ 4 2 > > 4 2 2 2 2 > - < 2 > , $ % 4 4 @ > , 2 9 N h @ % < > - > 4 4 2 4 > 4 , > 7 t 7 2 @ 6 > > 5 > 2 2 0 x F S 2 $ O % > , < 4 4 2 2 > > 2 7 > > > @ z ~ :.I - @ , > > % % > 0 7 4 7 > 4 0 B | z 6 > @ > > > i 6 > - 4 7 > 8 > 2 2 > 2 0 v 0 6 u 2 2 2 @ 4 4 2 u 4 - 2 i > 2 2 > 2 2 7 7 < 7 2 y 2 2 4 4 , - C ( 0 @ 4 7 i > - 4 7 2 7 2 2 2 @ 2 4 > > 7 8 - 6 z T f 4 4 7 6 - > @ 7 2 4 4 2 6 l y > 2 4 2 0 6 > < > b q $ y 7 > @ - F E B S i @ 2 2 6 7 4 - 2 u t > % @ > 0 2 5 8 > 2 0 2 0 ; 2 4 , # 2 0 x A h - 2 < 2 > - 2 2 2 7 2 7 + , @ 2 2 4 , @ f 1.6.! 6 % 4 5 > - - 2 5 o < , 2 4 7 > @ > - @ > 2 2 , O @ x E x z N Z Z x S z 9 N B D N d z C h z z S h d Z x h z B f x Z v u 4 - > < $ o > $ @ - > > @ 4 @ - @ @ @ , , % @ - > 2 > , > > 7 2 , > $ @ > @ % @   o 4 q 2 O < > @ @ @ @ o % 2 O @ O O @ @ O O @ @ @   O @ @ % ",
"@ o @ % O @ @ O % > > > % O O o @ > @ o @ > > - < @ @ > 2 > > @ > > @ @ > > @ @ @ % > @ @ 2 2 > @ 7 7 @ @ > - < 2 2 - 0 2 2 4 @ 2 0 2 2 > 2 0 d 0 h d 7 6 h V 6 0 7 > o < % > @ > > > o @ > > 2 7 , + > 2 > @ > > @ > 5 @ @ > 5 < > @ > @ % 4 2 > @ 2 z F 6 @ > > @ > @ 4 2 4 > , > > @ , 2 2 0 7 P 2 > @ $ - 0 T h 2 2 0 4 < , , > 2 2 - , > > 2 7 7 2 2 , 7 I q.Y 9 4 < , @ 2 4 4 2 4 - > 2 i 0 z h 2 2 t 4 > 4 4 - 4 2 2 > 2 4 % @ 7 7 - 4 2 4 J B h h 7 2 7 2 > 2 6 7 2 2 4 0 7 2 4 7 6 0 2 - 7 8 O , 7 2 6 2 < 2 ! %.h < 2 7 i 0 2 2 < @ 2 > 6 t , @ 7 0 6 h p 7 6 v j 2 4 < , 2 2 0 2 @ > - 7 - h c t 4 7 4 < - c u , & 2 2 4 2 7 > , > l 6 z z x 7 @ $ > 2 > - @ > 8 7 2 > 7 i > < 8 > 4 7 7 i @ - 0 7 3 > @ x D z 0 - w > 2 7 7 8 7 2 2 2 > y 7 4 @ > < 4 - 0 2.) C 0 @ 4 > > > t u 2 < @ 4 < 8 > > > 2 , 5 4 @ @ > > 2 - - 2 7 - o > 0 2 2 ; 6 7 6 - 2 2 @ 2 > 4 7 2 - > 2 2 ; > 4 2 2 7 S 6 > > , > @ O > @ > > % < @ > % > , @ O , , @ > > 2 - @ < 2 7 2 % @ O @ @ > 2 @ @ @ - > @ & O @ @ % > @ , @ % @ O @ O @ O o o O O O O % o o ",
"@ % $ o o % % O O @ > > > @ O O @ , - @ , 2 - > > @ > 2 > % o $ % @ o % @ > > @ , > @ > > > % - > h 7 @ % - @ @ > > - @ % @ > < 2 > @ @ @ - 2 6 0 0 h 8 6 9 x 6 t > @ , - > > @ @ > > @ % 2 2 - 7 @ > > O , > - > @ @ - - , , @ @ > > > > > @ > > < u 9 f 6 > , > > 8 - 4 2 2 - @ 5 > > > > 2 7 0 d h 7 > > 2 T g 2 O > 0 ; 4 2 4 y 2 > 2 4 @ 2 2 > 2 4 - u B ! Z 3 @ - > > 2 2 > 8 2 2 5 @ > 0 0 Z v @ @ q 7 > 7 7 2 4 2 2 y 8 > @ @ 6 2 4 < - 0 x C z 7 8 2 7 u 4 7 6 6 > 2 7 7 7 7 > > 7 u > 4 2 2 4 > > 7 > , , 2 B Q d - 4 2 < 6 0 6 > @ i > 6 7 > , 7 0 h 6 % 2 0 i % O 2 > , 2 > 6 4 4 , > 4 > c 6 6 - 7 2 2 7 0 u 2 > > > 0 4 2 2 > 7 2 2 h z C S 2 O > 5 2 4 @ , > 2 4 4 2 4 4 > 4 > - 4 t > O % - 2 8 @ 2 i h z N 0 ; 2 - > @ 2 6 7 4 > 2 2 7 2 , @ 4 2 > o d W :.Y u 6 4 @ - ; 7 7 2 > % @ 2 2 - > 4 2 7 4 % > 2 4 - 3 - @ a O   & 5 , o O O % % & @ @ O 1 > @ O @ @ & % > % O O @ < 8 z 7 4 @ 2 > O o % @ @ > @ @ > 4 > @ @ % @ > 2 @ % % @ @ O > > 2 0 2 - @ O @ + 4 4 > O o @ > @ o $ % O @ > O o @ O % @   O @ @ O @ o @ o o O O ",
"@ @ O o @ O O $ O o @ O % $ @ O @ @ % 2 2 - - % > > > < O % % @ > @ % > O > > @ @ > - > 2 > 2 7 4 2 - @ @ > , @ @ > > - @ O @ @ - o O @ > > @   @ - @ 2 2 - 4 @ - < - > 7 2 > @ @ , 2 4 % > > > > O > - > > 2 4 > > > - @ > @ > @ > 3 > @ 2 > o > @ t h g 0 , o @ 6 6 > 4 > > 2 2 @ @ 2 > @ < i 7 6 h h h h z E d 2 > @ 4 2 @ 8 - 4 2 > > - 2 2 7 - O 4 v N ! Z 2 - 2 7 > > 4 : y - < > , @ 2 6 d j 2 8 - 7 7 2 - 4 2 7 - 2 - 7 7 2 i i 2 > 2 ; A B f 2 @ , > 4 4 2 q 7 2 > > i 2 2 7 > 2 i 2 7 7 > 2 t 6 2 7 - < , 2 D  .d 4 i 6 > @ 7 0 : l j 4 2 2 2 7 2 2 0 l > - 0 L c 0 2 - w > @ y 2 0 2 > 6 0 t 7 2 2 2 > 4 7 - 0 B 0 4 % 0 M 4 - 4 4 > @ i 0 f z x 0 2 1 , 2 4 2 @ @ > 2 > @ > - > 2 > < > % > 5 - > 4 @ - > 2 c D ~ N 6 > > > 7 4 < , , 2 6 > - , 2 > @ < 1 - d ) ) I 0 - 3 7 - > 5 > 2 > @ 2 2 @ , 5 - 2 > @ > 2 - - 8 , @ > @ O , , > @ > - > @ , @ > > < 4 - O $ > , , > @ @ , < < > 7 7 0 2 4 > > @ , @ @ @ @ , > > 2 > @ @ @ < @ O @ @ @ - @ , > @ 0 0 3 @ > > @ @ - @ O , @ @ o @ > @ o O > @ O O @ @ O O $ @ O % % o % O O O o ",
"@ o O o o o o @ @ O @ O o @ > @ @   % > > 2 > @ > > > @ O > @ , @ O % @ @ O > > > > @ - w > @ 0 2 % @ @ > > @ O o , @ @ > $ % % @ O > @ > @ O O O o @ > 2 % @ % > O 2 ; 2 2 @ o @ > - > > > > @ > > > - 5 > > 2 @ > 2 > 2 @ > - > - 2 - 2 > > > < % > B Q c @ @ < 2 - > , O < t i > > 2 2 > @ 2 2 - 4 k d C E h 7 4 2 - , , > > - < - > 5 4 4 > 3 2 @ 7 F Y R 2 > > - 7 - - 8 < 4 , > 8 > 2 h k 0 7 - 4 0 > > i @ > 4 7 8 @ > 2 0 2 w > < 8 4 6 Y | j > , < - > @ 2 7 t 7 @ > 4 - 2 4 0 2 7 4 4 ; , 8 u 2 2 4 - > 8 7 D W z 8 7 2 , 4 > 7 6 7 2 i 2 0 0 7 , 2 7 2 < 4 h B C h > 7 0 - > 2 2 u u 3 u 6 @ 7 3 - > > 7 2 7 v ! D 7 @ : 2 0 7 - 4 2 < > 2 u F D z 2 2 @ > 2 7 > @ % 2 y 4 > 2 > 4 - @ > 4 - 2 4 @ % , @ 4 , 2 z ! Z 9 < 2 > 2 7 @ @ > 2 , @ - 5 7 > , 6 7 , - z W ( Z 7 > > 2 > % < 2 > > 7 4 @ - > 2 4 2 - < , - 7 7 - > 2 2 > 2 @ - 2 4 4 2 > - > 4 - - 7 q % > @ - 6 > > 2 2 2 @ O @ 2 9 u @ % > @ @ % % @ @ > @ @ @ 2 @ @ > 4 > > @ @ @ > , @ > 2 0 6 2 - 2 2 @ o > , @ , O > < @ % , % O % @ @ @ O @ o % % @ % @ O O @ % $ $ @ ",
"@ o @ @ @ @ @ @ > @ @ @ @ @ @ @ % @ > @ > % O @ > % @ O % > > > - % @ > @ o @ @ , < @ 2 6 i > > > @ % > @ % O O % @ > @ - @ @ $ O O > % @ O @ , > O % > > , o , 2 - > 2 > - , > 2 2 @ @ > > , @ < > @ > - > - > , @ @ - 4 , O > - > > @ @ % @ > % @ 2 z ~ d @ % > > 4 > , % > > 2 2 > > 7 4 @ > < h 2 7 h Z Z 2 7 - > 4 > @ > , > 2 % > - 7 y @ o , 0 N E Z 0 > & 2 8 7 > > > @ @ 2 5 > h z E c 2 > 7 2 > @ @ 7 8 > 4 4 @ - t 2 4 - > 3 @ > q B B q 2 @ > 4 > > 8 4 2 2 7 y > 2 4 7 2 h c 2 4 - w 7 4 > 2 4 2 i 2 > 4 d N x 4 2 2 2 4 < - 8 - 2 > 0 7 2 > 5 2 > > O 2 0 B z 0 - 2 7 2 > 4 4 - 2 4 2 - 4 , > 2 > 4 > @ > 0 Z N 7 8 > 2 7 2 > > 4 > > o 7 v Z z u 0 > > 4 4 > e 5 2 2 > > 4 5 > 2 5 2 4 - 7 7 2 @ > - > 7 - 2 h h Y 0 > @ 2 2 2 > > - > 2 < > > 4 % 2 2 % > > h Y ) Y 7 % < > @ 5 2 2 > - @ % , > 2 - > @ , @ @ > - @ 2 6 4 > , @ 2 7 2 4 2 - > 2 @ - 2 2 > > > 2 2 2 > > - > - , @ @ @ u 6 2 > > , % @ @ , > - @ @ O % , > @ > $ @ > > $ O @ % > - @ - 7 7 - O 2 > @ > @ @ @ @ % @ @ % > % @ @ @ @ @ % > > o o @ @ o @ O o @ O $ ",
"% O O O % , @ % @ O O % > , o O @ > > O % @ O - > @ O @ @ O % @ % - @ , @ O O @ > > 2 - 2 0 2 % O @ @ > @ O o , > @ O @ $ , @ @ O O @ @ @ O @ > 2 > @ @ @ > @ - @ > , O O & O O 2 4 > % O O @ > @ 4 2 > @ & > > 4 @ @ > @ < - 5 > 5 2 > , , , - > $ 2 B C 0 @ % > > 4 > @ , > % @ $ @ % > 2 - 2 - z h 2 6 9 q > h @ $ < 2 6 2 > 4 < - 4 0 7 2 > 1 > h W Y 6 @ @ % 4 7 2 4 < % + , 2 2 2 v ~ Y z 2 > 7 > , 1 @ > u 2 - 8 u 7 4 > > > & $ O 7 z F 0 - > 7 u 2 > 4 0 > % 5 - 7 2 < 4 6 0 z d 0 > , > 7 i @ , 7 6 0 u i 2 z E h @ > % - 2 4 4 % < 8 > 7 4 % % 8 - < > $ > 7 V v 2 i 7 - 8 q 2 < @ - 4 2 - y 2 2 i 7 2 @ 1 > x f c h 4 h 7 2 2 2 j 4 @ 1 @ - 7 0 q x 6 > , > % > 2 6 2 6 q 2 2 7 2 4 2 > 5 . @ u l - 5 5 > 9 0 & @ h W Y l @ @ i h > @ @ > 4 2 2 > - 2 , 4 4 2 < - f ( ( Z 4 O > 7 > > 4 > 5 > % @ > t - < < @ > > > @ , @ ; > @ O 1 > > 4 , @ % 3 O o O , 1 o $ O , @ > $ O O & & @ > @ @ @ 0 h 7 @ $ , @ @ @ > @ @ @ $ O O @ @ > @ o > 2 @   $ > @ > o > 6 2 > > 7 > - O % > O % @ o . O $ @ o @ @ % O O @ @ o . o @ o @ @ O @ @ @ ",
"> . O O O $ % > @ @ @ @ @ @ @ @ O $ @ - - % @ @ @ @ . $ - 2 > @ @ > $ o $ @ O @ o % 2 ; 7 2 % $ O $ 2 0 6 > @ 2 > % @ > 2 - > , 2 > > o O o @ O > @ @ $ @ > 2 2 $ > - > - 4 2 > > @ < @ @ 2 > @ > @ 1 > O - 7 > % @ O @ > > > , > 7 2 O O O > 2 7 - , 7 h v 2 2 4 , > > > 2 4 > % 2 5 @ o 7 0 2 @ 7 7 z h 7 3 o $ % 2 7 - - 5 @ , , > 7 2 - O , > W w.C - @ 7 > > > u 8 2 7 > O & O 7 f z i 3 2 2 6 @ , - t 7 O $ > - S [ B N / @ $ O 7 h D N z 7 h 0 0 h 7 > - @ 2 6 5 @ $ % 1 2 6 N C N - O % X % y - 2 < @ 5 > 0 0 x h 2 > 2 7 7 2 h 0 @ , > 4 7 4 , @ 8 2 @ 4 2 > f N v - @ O 4 u h 2 > 4 2 q > 6 > 7 7 > 4 & y 2 7 6 0 h % s u 2 > 7 ; 8 2 7 7 - % - 0 B x N 2 2 2 - > % > 2 2 u x 9 2 3 @ , 7 u 0 B N h 2 > > 4 4 2 4 2 @ q <.( z o @ > 2 2 4 @ O $ 3 @ @ > > y 2 2 2 > % i T W Z d @ 1 2 : - > 5 - @ 2 - @ > - 6 7 2 > > < @ @ % 4 7 > - , @ , @ @ @ > - @ 2 5 > @ > 8 > @ > 3 > > 4 2 > > @ % $ 3 - 7 2 ; - @ - > @ o - 2 O @ > > > @ o O O % > - $ O % 4 ; O   2 h q > % , o O @ % o O O - > @ @ O O > - 2 @ @ o O $ $ o > > o O O o o ",
"@ @ > % @ o @ % @ @ @ o O @ @ 3 @ o > @ % @ > > > o @ @ % % , @ % O O @ @ o @ @ @ @ 2 i 2 O @ @ @ @ @ 2 2 , @ % @ > @ > - % % > > @ > @ > < % @ < 1 @ O @ > > @ O @ @ > > > - 2 - @ , @ % $ , > > > @ @ < @ > , @ @ > > 4 2 > > @ 7 8 O o @ , - 2 - 7 0 d v > > > - > < @ - , @ > - 3 , @ y 7 + - - > u 2 2 8 > @ > 4 - - 2 - - , > @ 2 > > > 2 f I +.v > > 4 7 @ > 7 > > 8 - > 7 2 u 0 7 - - 2 5 4 3 > 4 4 2 @ O y u z z 9 L =.d q 6 N ~ F x 0 2 u 4 4 2 7 i > > 2 7 O @ 2 2 - 2 i x Y F 7 @ , % 2 > - 2 8 - > , 8 7 h N 7 > > y > > 0 2 @ > 4 4 2 7 - > 2 7 4 5 % 2 0 z K - , 2 7 6 2 7 4 2 2 2 @ q 2 > @ - 4 @ 4 7 l j m 0 h B 6 + @ 4 6 8 > > 7 7 2 > 7 h 9 S N v 2 2 4 > > 2 < 4 6 7 > - > > > 2 t S h 2 , @ 7 7 @ - 2 2 - 2 I ! G 7 o O @ > 4 > @ @ > > > 2 2 < 7 > - 2 < ; 2 F #.&.; > 5 > 2 4 < < > 2 2 > 4 8 2 q 2 > - 7 @ 2 4 2 4 2 2 2 > > > 5 @ % < @ > @ @ > 2 2 > @ @ > @ O > 2 2 > @ % @ @ - 2 7 7 i 4 2 > O @ < > @ % > > > > @ , % @ 2 2 @ @ @ - % @ @ 7 h 7 - @ @ > @ @ % @ @ > > > @ @ o % % > > o @ o O @ O o - > o O @ O O ",
"@ O o $ $ @ O O @ O O o @ @ @ @ @ @ - @ > > @ @ % @ @ @ @ O @ @ % @ O @ - - @ O & 2 7 7 @ . o - > @ & o @ @ % $ > < 2 % @ % O @ @ O > @ > > - 2 , @ > 8 4 @ > > > $ @ > o @ > > 7 % o , , @ O $ % @ - 2 4 > % , % 1 t 7 2 2 > 4 7 2 2 % - 2 2 @ - 2 6 7 h t 7 $ O 2 - > , % > @ > @ O > > @ - @ 2 @ @ O > 2 > 7 2 2 2 > @ < - 5 > 7 2 - % @ 6 I ) Y 6 @ 2 2 4 4 > 6 2 > - - > u 6 f 0 2 1 4 2 > % 7 > > > > > < 4 t u 0 z 6 6 T w.Y W <.@.V 2 7 - @ % , @ 7 w @ > 2 8 % > 7 7 6 7 @ 0 A d 2 O 2 < 7 > - 2 4 - 2 > % - z &.V 2 4 > @ 2 2 @ > - 8 - > y 7 2 2 2 > 2 O 2 z h j @ 2 j 2 > @ > 8 4 4 7 > 2 5 @ > > - > 8 2 0 8 8 x ..O.0 2 % > 4 > @ , 4 2 2 - @ > 2 u Y F 2 > j 2 @ > @ % @ > @ u j 0 & 4 7 7 > , > > 4 > < @ - t - > 6 d C D u @ @ , 8 2 > 8 > > - @ 2 - @ @ > 2 2 4 5 0 Y W C 0 O @ 2 7 % , , 2 - 2 > @ @ 2 - 4 8 6 @ > 2 2 , > 0 6 > @ > 4 - @ > 4 @ O @ > > 2 > - , 2 < @ % @ - % % - - 4 , , 2 7 7 7 > @ % > @ > > > > @ @ @ > 4 2 @ o @ < > @ o $ > h 0 2 7 7 6 - > @ @ @ @ @ > @ O @ - > @ % @ % , @ @ $ O O @ O o @ @ @ @ % ",
"@ O O @ > > @ O o @ @ @ @ % > O @ O O - @ > > > > % > > @ O O @ O > - @ % @ @ - 4 7 2 @ O % > , > @ > O @ > @ @ > 2 2 > o % @ @ 4 @ @ @ % 2 - > 7 2 2 > - > 2 > > $ O > , > @ @ 4 > @ > @ % > @ @ % 4 2 2 - > @ 2 @ @ > @ > > 2 u > + 3 2 7 > @ @ < 0 z z 2 - > 3 4 - > > % - > - > @ , @ % , @ % < , @ > > 2 > 2 > > , > - > > o 7 y , @ 6 S ) #.0 o 4 4 > 4 - < - - 2 5 , > l u 0 u > - 7 > 4 @ 4 4 > - < 2 2 7 2 6 u L ! 9 N s.' C :.C ; % > 4 1 % , > o % 2 > - , % @ 7 q 7 4 6 v v 7 > > 2 2 > 4 y > 2 4 7 > @ 4 C f 0 4 - 2 4 > < < y 2 7 > > - 7 2 > > 4 - & 2 V d 6 - > 2 4 y > % 2 7 2 4 4 4 > O > 2 6 j 6 2 2 2 - 9 ..O.4 7 0 2 @ > < < 2 7 7 > > > 2 7 d d u 6 6 7 @ & > - @ > - 0 S h 4 - 2 2 @ - > > 2 > > - > 7 @ - < ; 0 Y Y h > O 4 7 > 2 < 2 2 - - 4 3 @ , - 4 @ > @ 0 N ( #.6 - $ - 4 4 2 - - > @ > , < > 7 t 6 5 @ > , - @ 6 2 > @ , 2 @ % > 2 @ O @ @ 4 > > > 2 2 @ > , - > @ > - 2 4 O O @ 4 7 6 4 > @ , @ @ @ > > @ O @ > @ - > @ O @ 2 > o > 7 q 7 > 7 0 0 7 2 @ @ % > > @ O @ @ @ > - O $ @ @ @ % O O @ , O   $ %   O @ ",
"@ @ % O @ > @ @ @ > @ O @ @ @ @ $ O $ > > @ @ , @ @ o @ > @ @ O % - @ O O @ @ 7 9 2 > % @ 2 4 @ O - @ O @ - > 2 2 - 2 , @ > 2 @ 2 @ @ , % % > - > 7 - O @ > > > - > > @ @ 4 @ - @ - < 4 - , , > - > @ @ - 2 @ @ > - @ @ > 5 2 > - > - % > @ < > O @ 0 D | 6 - 4 2 % > 7 2 % > 7 @ > < > @ > 2 > > > 2 > % @ O @ @ > > @ 2 < , @ < - , 4 2 d ~ B 6 @ > 2 > > @ 4 4 4 2 2 < < - h u 7 > t ; @ @ > - 1 > > 7 > - 2 > - > @ 0 #.Y d W S 0 z 0 ; b > 5 > , > 2 5 @ 8 4 % @ - 4 7 M 4 6 N G 2 > 5 2 2 z 4 y 4 @ % 3 2 4 - 0 D D 0 @ 5 7 h 2 > 4 - 2 2 4 - > 2 2 8 > 2 7 < 2 h S d 0 2 - > > 4 > 2 2 - > ; 7 @ > u 0 9 v i - - 0 0 d D d @ 7 z 0 2 < 5 - 2 7 > > 7 7 @ > 6 7 h B h 0 @ % 4 2 4 > 2 7 6 0 0 8 > > u h > - > 4 4 > > > - 2 > 2 5 x :.Q 0 2 2 2 > > 5 2 > 2 , 2 , > > > @ @ < > > q C #.W d . o > 0 2 @ @ > > % > > - 2 2 ; > - @ , 2 4 4 @ 5 > @ > - > @ - > $ @ > 5 @ O , @ - @ O < > > 2 @ 3 > - o o > 2 6 7 0 7 2 % % @ @ > > > @ > , - - @ @ , @ @ 2 > 0 l > o 2 u ; 7 7 > % % @ > @ O O & o o > > @ @ - > O o O @ @ > @ o . O O O o ",
"@ @ @ @ @ > > @ O @ $ $ O @ @ O O O O @ @ % O % % o O % > @ > O % > % @ % > ; z 0 - & , @ 4 > @ @ @ @ O @ @ - 2 2 2 5 @ @ @ > > - @ > o @ @ @ - : - > o , > @ 2 - > > @ o > > , - > @ @ - @ @ @ > - @ @ > > > % > 2 5 @ @ < > @ - 4 2 , @ - > @ > t h d z - @ , - @ , 2 > % % 2 > > 4 2 4 - < > > , @ 2 < % % 4 > < > @ - < @ - 2 2 @ > 7 Y ! 6 , > > 4 - 2 % , > @ 2 4 > 2 j 0 6 > @ i 7 > % 4 ; % > 4 > > 4 2 < < , @ 6 E C N ~ > @ t t 2 0 - - @ - 2 2 5 @ 2 4 2 > > > - t 2 7 z z 6 o , 2 2 0 @ 4 > % @ @ , > > 7 E B 6 @ 7 7 2 0 @ < 0 i @ > 4 4 @ @ < - 2 4 > 6 z z h k 2 5 % > > 7 4 - > 2 7 i @ - h h d 0 7 > 2 K v u h 0 y 7 Z h 2 > - 2 2 > @ - q 2 7 > @ 2 0 B Z x 6 @ > 2 2 4 8 - > 7 0 7 % @ 0 c 7 @ > 2 2 - 2 6 - > - 2 5 : C Y A 2 @ < , > 2 4 > 2 $ @ 2 4 % - > % > > , - 0 C 1.:.4 @ @ < > , % - % % > > > 4 6 0 2 4 @ @ > 7 > o > , @ > @ @ % @ > @ @ @ @ @ O > % O , % 2 > > @ @ @ @ @ , O < 5 @ 2 0 7 2 @ , - % @ @ > > 2 > @ , @ O % o @ 2 > 0 8 @ @ 2 6 @ 2 8 @ O @ @ > % O @ > O O @ - > @ > > O   O O @ O @ % @   $ @ O ",
"@ O @ O O O @ @ O @ o @ % , O O > > % @ % @ @ O O O @ o @ @ % - @ @ o > - 2 7 0 ; @ @ - @ @ @ @ @ % @ @ o % @ @ > > @ @ > @ o , @ O > > > @ > @ - @ % @ 2 @ > @ @ > > @ @ @ @ < < > o > > @ O > % > @ % , @ > % @ 2 > > 2 4 2 > > @ @ @ > 4 > > d h u 2 2 @ @ % - % 5 @ - - @ @ , > 2 ; 2 < - @ < & @ 2 2 @ 2 6 > @ @ , > 2 > 2 > @ > 0 N T h @ 2 2 7 2 @ > > < % > > > 7 h F z 6 7 > 5 @ , 5 2 > > < 3 - 7 4 2 , , > 7 8 - 7 S h o @ 3 4 > 4 4 - 4 > 2 5 @ > 7 - @ 4 4 2 d h h k 2 2 4 2 < @ 7 6 > > 7 2 5 @ > > < 6 z z u - > 4 @ 4 8 > > 7 2 % > 2 - > > > 8 7 2 2 h x h ; > - 2 y > - 2 7 2 2 2 < 2 2 6 h u 0 2 2 7 4 7 2 > 7 h x u 0 h 6 2 > > 2 < @ i 7 7 - 4 > 4 q h T B 6 - % @ 2 5 > 2 - 2 - @ > t > > % > > > - 7 7 - @ , 5 2 2 - 0 T f - 5 - > 7 4 > > < 4 2 > > - @ 4 < > > @ > 7 z +.Q z @ O % > - - O @ - - 2 i 2 7 j 2 - > > > @ , > > > , @ % > , 2 - - > @ @ > , @ @ @ @ > > > @ O % @ , , @ @ > % @ 7 7 - @ > @ $ @ 2 < @ > @ @ @ > @ @ @ @ @ @ > > @ 0 0 0 @ @ @ @ @ @ @ @ @ > > @ O % O @ @ > > @ O o @ @ @ @ % @ O O $ @ @ ",
"@ $ @ O o O @ @ @ O O @ @ @ O O @ - - @ @ @ > $ o @ @ o O % @ > @ O @ 4 0 7 2 > @ O O , > @ O @ > $ $ @ @ @ @ O @ @ > > % @ O @ - @ > 4 > @ > - , O @ 2 2 > , , @ % > @ < , @ @ - > @ % O % % @ @ @ > @ @ % > , @ @ % 4 2 > > % @ % , - - - 2 6 h 0 2 @ > % % @ , > @ O > > > > > 4 > 4 2 2 - @ @ O @ - > > > 2 > O , - 2 @ $ 2 7 < 2 B V 2 > 2 > 7 7 - , > @ > > > > - 0 h 0 2 7 6 2 > @ > 2 2 > 2 < > 7 7 % > > > 2 u > + , > 2 - 4 2 - - @ > 2 2 @ > 2 > > i - 5 @ > h 0 v f i > O - 7 2 > b 2 > 4 7 > 4 > , > > u F ^ 6 > y @ > 5 @ @ > - 2 4 > - - , > 2 6 0 @ 7 z d V 7 > 4 7 2 , 3 2 6 6 2 > @ 7 q 0 0 > 0 u 7 > - < - 2 t h - O 7 h d 7 % > 4 > - - 4 7 > t > @ - 0 F F d 2 > > @ @ @ > 7 % > 7 j 2 @ $ > > @ @ > 2 ; 4 > > % > y 1 @ 0 V 0 2 % @ > 4 > @ 6 , 2 @ > > > 4 2 > > % @ % + j ) :.h - - @ 2 2 @ @ 7 2 - 2 2 2 - 2 7 2 O @ % > > @ 2 > - , @ @ > > 2 > > > @ > > > @ > @ O , 2 @ % @ > @ @ % @ % > - @ < 2 > O @ % 2 2 , , - > > @ @ > , O @ @ > > - 7 7 i > , > O O % % > @ - % > > @ O . > > @ % o O O o @ @ O o @ @ O O @ ",
"@ % @ o @ @ @ @ @ O O % @ @ O , @ > > $ @ > @ @ @ @ > > > O O @ @ @ @ 2 7 2 @ @ > @ O @ % @ o @ @ O O @ 2 @ % > @ > > @ @ O O @ @ @ @ > @ @ , @ , O @ % @ @ @ > O > @ o @ 7 2 @ % , @ > 2 @ @ > 2 2 > , > - @ % %   o @ 2 > @ > 2 ; o $ @ 6 d 0 7 2 > @ @ > 2 @ > - @ > @ > 2 @ 2 2 > @ O - > > @ > 4 2 5 @ @ > < % , > 2 @ @ @ > v h A d o > 4 2 @ @ > 4 4 > > 2 > - - 5 6 h i - > 1 > 2 0 2 > - 7 > - 7 > > 2 4 , @ 2 0 t % > @ 0 7 @ > 4 2 @ < > > 2 - @ @ 2 7 @ @ 6 x 0 6 7 2 y 3 5 8 2 2 2 4 @ w - - > u > % > t f z 0 - > < > ; > % 3 7 7 0 7 2 - > > 2 > > 0 0 h z h 6 @ > 4 - 2 2 2 4 8 4 < > > 7 2 2 2 7 7 > - @ > 6 0 6 0 7 % 4 z B h 2 @ % @ > , > > - 2 @ - > @ t u Z h 2 @ > , 7 b 7 , - u 2 > > , - , % > 2 > > 2 2 - 4 2 > < @ - 2 7 7 > @ @ , - - ; > % @ 2 2 > @ 2 % O % > - 4 8 N o.( d 2 @ - > 8 2 - 5 - > 2 > 2 4 7 - > 2 > @ - > 2 2 2 @ > 5 & O 4 2 - % - % 5 2 - 5 > @ @ > , @ > % > > , - @ , % > 2 2 - @ @ > O @ - 4 O @ @ @ @ > > , > > O @ - > @ @ 2 2 @ @ @ @ @ @ O - @ @ > > O o @ % O O % O O   @ , X O O O @ O O ",
"@ O @ @ % @ @ @ o o % % @ % @ @ O @ - @ @ > @ @ > @ < , @ O o O % - - > 7 > o @ 2 < @ O @ > % @ O > @ - - @ O > > > @ % @ % @ % 3 O   % > > @ @ - > > @ @ % , > % 2 @ @ @ > 7 > > , @ < 4 > O @ 4 2 - > @ > 2 > O @ O % @ - 3 > 2 > O $ > 0 j 0 - @ % , @ 2 @ , > % 4 > @ > > > 2 , % O > 4 > > > 2 - - - % @ @ > 2 y @ > , > > @ z z 0 > @ , 4 > 5 > > > 4 > @ > % 4 2 2 q 6 2 o 5 2 - < > 7 4 2 - , , @ > - 2 2 @ y h d 2 , , > 0 7 - > 4 > - @ 2 > 8 2 2 % > 7 - 7 h 0 7 @ > 2 - - - 6 > - > 2 > , 8 4 2 2 3 - - 2 h B 7 > 8 > @ 7 i > > 2 0 u 2 > > 2 2 > ; 0 7 0 z z h c 4 , @ < 8 2 0 7 > 2 7 2 4 2 2 7 2 4 0 2 @ % 4 7 2 7 4 > @ 6 B N h 2 > > 4 2 - < > O > 5 > 2 , % @ h A u > 5 4 ; 2 2 2 2 6 > , - 8 2 2 > > < > 2 > 4 - 8 - @ 3 > > > 2 - @ 3 @ @ < 4 7 2 O % 2 - > @ > < > , 4 > > 8 d N Y G h , O @ > 2 - 3 @ > - > > - 7 > > - @ , > 7 7 7 > @ 2 > O O 2 4 @ @ 2 - - > > 4 > > O , % > % @ > 4 @ O @ @ @ 4 > > 7 7 @ @ , @ @ @ O O , - % > o - % > O > - >   @ 4 - > @ - @ @ @ O @ % @ @ % % o O % > @ O O o o $ @ o O @ O @ % @ ",
"> @ o % , , O - O @ % O % % > O > o O @ @ % % @ % o O @ o @ > @ > 0 6 2 > > - 2 > % @ @ @ < @ o @ 2 2 2 @ @ @ > O > % > @ 1 - @ > > % @ @ 2 > o > > - > @ % @ , O @ > , > % > @ % > @ > - > @ O @ > 2 > - 2 > @ > 2 > O O > 7 @ 2 - > 7 7 2 + 4 2 O O < 2 < o @ , > > > > > > > > o O @ > > - < - < > @ > > > 2 2 2 7 @ $ @ > 8 - h 7 > > @ 2 - 2 , @ % < > > 2 O 4 0 f V j @ % 5 7 0 > > @ < t 4 - 4 > % 5 > 2 - 5 7 0 0 - @ 2 7 > 2 4 4 4 2 2 2 < 2 7 2 - 3 1 > 7 z v 6 > $ $ @ > > 7 7 4 , 2 5 @ < i > 4 4 - 8 3 2 z B 7 % < @ > 7 6 7 < - @ - > - 7 - > 2 6 0 > - 6 z h 9 2 2 5 @ 2 4 2 2 2 4 4 > > - 7 2 0 7 4 2 > 2 4 > @ - O - - > j 2 2 2 4 2 7 7 4 > 2 > > > 4 2 4 - $ > h z 0 - % % 2 > > 2 2 4 7 > 2 7 2 7 i > O @ > 0 @ 4 & @ 2 2 2 > @ 5 > @ , 2 > 4 - < > O @ > t , @ @ % > > @ @ 2 0 0 z A i 7 > - o O @ - 2 @ @ , 2 - 4 4 > > @ @ @ > 7 2 > @ > @ 7 2 @ , - - > @ > > @ @ % @ % @ @ , @ > > > @ @ > @ @ @ % % 2 i > > - > % o @ O @ > > O @ 2 > @ @ @ @ > @ @ % o @ > > O o O , $ @ % O o O O @ @ > > O o @ > O % O O O , @ o @ ",
"@ > O   @ @ @ 4 @ @ @ o @ @ O @ > O o > @ @ % % @ @ O O @ 4 2 - @ 0 7 w @ @ 2 4 > O o @ O @ % @ @ 2 > > @ o % > % @ @ O @ @ % o @ @ @ @ - > > > > > @ > > , o , @ % @ - @ O O - @ , , O O > > @ O > > - 4 - @ @ > 2 2 O o 4 6 - % 2 2 u 0 2 @ 2 2 @ O > > @ @ % - - - > @ @ 2 @ - @ @ , O @ - @ > > > > , > > 7 > 7 - O > < @ 6 7 v 2 $ > > > @ 5 > > % > > > 7 @ j 9 N 0 > % > 2 7 7 @ , > @ 2 2 , @ @ 4 @ > 2 , - - 2 4 @ , 8 > @ 4 > 2 > 4 7 - > - 7 0 l @ @ @ 6 h 0 7 @ @ @ > 7 4 2 2 2 @ > > : 7 2 7 > > - 2 2 - z z 6 O % , > 2 2 0 5 < > > @ > 2 2 > 2 i h 7 > 2 z B 7 @ y > @ 2 > > 4 7 2 7 - @ 2 t ; 2 2 2 > y 2 > 2 > @ , 2 7 7 2 @ > 2 7 - 7 0 7 u > 4 @ > 2 7 7 2 > @ 4 Z N u > @ 4 < > 2 > 2 > > 4 2 2 2 @ @ 1 @ 3 2 > > % @ > - > @ % > > > 2 > 2 > > 2 4 @ @ > 2 @ % > > @ @ < @ - 6 z x z 9 h h B 7 > > @ > - > o 2 > - > > > @ > @ % 3 > > 2 > , 4 - $ @ 5 < - @ @ > @ % @ > > > % @ @ - > o , @ @ > > @ o o - 2 - @ 2 - O @ > @ , @ % @ @ @ > , O @ @ @ @ @ % @ O @ , @ @ O @ $ O @ O $ o o O o > > O @ > @ o o @ @ O @ , O O ",
"O > , @ O % % @ % @ @ , @ $ @ % O o O @ O , % @ @ % @ @ - > - - 2 2 - @ > @ O @ O @ , > @ O o > - @ @ @ @ @ % O > O @ > @ - > @ % @ % > - % @ @ - @ @ > 2 @ @ @ @ @ O @ > > % , % @ @ % - @ - < , 5 @ % % > > > > 2 > O % 4 2 - o 2 7 - > 2 5 > > > 4 - O @ , > 2 > > @ O O - 6 B C 0 2 % @ > % , < 2 2 > < @ - @ 4 4 7 0 2 @ 2 7 c 7 2 2 @ 2 y 2 2 2 > > @ @ 2 - h u 0 - O , > - > , - 2 2 @ @ > 2 > 2 8 2 ; - > O 4 7 2 - 5 2 > 2 > > @ > < - > > 2 4 0 u 7 2 8 < 2 6 - 7 7 > - j 7 > 2 7 u > O h h 7 7 2 2 i - @ 4 c h 0 - , 2 2 2 7 2 % % < 8 % @ > 2 2 - - 2 0 u h z h 0 > 8 0 7 2 , > 2 - > 2 2 2 7 2 - 2 4 2 @ @ - 7 2 @ @ > > 4 2 2 , - 4 7 4 t 6 0 0 - > 2 > @ > > 2 4 > @ h E Z 0 2 < % @ 2 @ 2 2 2 2 - > 2 7 4 O @ > @ @ > @ > - - > - 4 - 2 2 > 2 2 4 , - @ - > 7 - @ > > @ - - > 4 0 - A ,.6.Q N Y 6.) J - % > - > $ 2 @ O > 4 > > > 7 2 > , > > @ O 2 > > > @ @ @ 5 > > % > @ % > > $ @ 4 > - O < > > % - > @ , - > 2 7 < - @ > > @ > > o @ , @ > > O O @ @ @ @ , @ > @ @ > @ @ O O @ > O O @ @ @ < - o O O $ @ O o O @ % O @ O . ",
"O - > @ o > - O O O @ > @ % O @ o @ @ @ @ @ @ , @ O @ O > @ @ 2 - > - @ @ @ . O $ @ @ @ @ O O % > @ $ @ @ > @ @ > @ @ % @ , @ o @ - O > < % , @ > > 4 @ 2 @ O @ o @ O @ > @ @ O @ O @ - < @ > @ - - @ @ @ @ > 4 > > @ 1 > 2 4 < @ 2 w @ @ - 2 @ @ 4 @ < % @ @ 4 2 > > > @ O - 9 U O.B - O > > > @ > - 2 > % o , , @ , 0 j 7 2 7 2 0 6 2 > % , 2 > @ 2 > < % @ 2 2 d v % @ @ , 4 @   , 4 2 4 2 2 3 7 - > - 4 7 > > , > 7 7 > > - 2 4 @ O , 2 - 2 , 2 2 2 2 2 7 0 2 O < i 2 6 7 2 2 0 2 < 8 2 2 4 , z z u 0 7 - 0 4 y 0 x 6 0 7 - 0 > - 0 > @ > 2 - @ @ , - 7 7 - @ 0 h z h 0 - @ o 7 6 > > 2 - > $ - 7 2 2 > > - 8 @ , 3 - 2 0 7 w > - 4 - 2 2 2 > > 4 2 2 > 4 5 2 2 4 , @ % @ 2 4 - 7 z d z 0 , > - 4 8 - 4 7 4 < @ > 0 7 @ @ > % + 2 4 - > > > 4 4 2 2 > > % , - @ < O % 7 > 2 < > 4 4 > 2 2 4 0 @ 6 U :.6.Y z ) ( T > % 4 - @ $ 7 2 > @ > 2 > 4 2 - @ > - @ > @ . 2 > > $ o > 2 @ > @ - , O > 2 > > 2 2 > > @ @ % % 2 2 2 2 7 , 2 7 @ > 2 2 > @ @ % @ @ > > , @ O @ O @ @ o > - < O @ @ > , O O @ @ @ @ @ - > - @ @ , @ o o o O O o @ @ O O . ",
"$ @ O % @ O > @ % @ O @ @ @ @ o O @ @ @ @ @ @ > @ @ @ > > > > < 4 @ @ @ @ O O 1 O @ O @ @ O O o % > $ O @ @ @ % - o @ > @ @ @ , @ 8 2 - 2 > > @ @ 7 2 > % @ @ @ , > - - @ o O 2 % > % @ > % $ O @ @ > @ > > @ @ > @ O @ @ - 2 2 2 > > @ > @ 2 > , @ - > < @ O > @ > - , @ % - 0 ~ C B t @ % - > O % @ - - $ @ 8 2 > @ @ 2 0 c u - 4 2 @ % , > > > > @ @ 4 , 7 j x 0 4 $ > 2 - 4 @ > > > 2 2 4 - 5 2 , > - > 4 % @ @ - 0 0 2 @ % 2 > @ @ 2 > > 3 > 4 7 7 2 - > y 2 $ - 7 7 > - > 4 4 @ 2 i 2 @ 2 y B h N h @ @ 2 2 > t c 0 6 6 2 u @ > 2 2 0 7 > > - > > > > 2 2 4 > 2 0 7 i - > 2 > 2 8 7 w 7 4 @ > 7 2 6 4 > - > @ > > > > > - 7 > - 2 > > @ 2 - 4 2 0 7 @ @ 2 > > 2 O @ 5 - @ 3 > 2 - 0 c 0 2 6 4 2 O > 2 - 2 @ 2 4 > 2 > > @ > 2 2 - > 4 > > @ @ > @ @ @ @ > > > 4 > 4 - > 5 @ O @ > 2 - @ , @ > > h ..~ 6 - 0 9 d > > , > > o i 2 , - > - - 4 > - 2 @ , > > 4 @ > > > > O 2 7 > > > 2 , % 5 2 2 > @ > 2 - O > % @ < 2 @ O 2 > > > @ , > % > @ @ @ > @ @ @ @ 2 O % % @ @ @ > - % O @ @ @ - %   - > @ @ @ O > q > @ , > > O @ @ O o @ O o @ o ",
"@ O o @ @ O % > > @   O @ @ @ @ @ > O o $ o $ O @ @ % , @ > 4 > 2 @ @ O O o @ 2 o O & O % % @ O X O O   O % > @ O O o O O @ > > @ 6 7 4 q 2 7 4 - 0 0 7 O @ < O > 2 2 2 @ X O , @ > > O % @ o % & > @ - > O % 1 > @ > , > - 4 > @ @ 7 2 @ > % @ > & 1 @ 2 @ O @ O 4 2 + > , 2 9 V 9 7 4 @ > > @ 1 $ O % % , > - 6 2 > & @ 0 z d > > O O & @ > 2 @ > @ 5 - > ; x N 4 4 @ > > > @ 4 0 2 > % O > > @ > > @ > > < > % @ 4 q 6 @ o < 2 @ $ > 2 6 2 @ > > > 2 4 4 , % w < 2 7 7 < % O > > < 2 6 > % > 0 z d x 0 o * @ 2 - 0 h 0 6 0 4 - 4 4 > 6 0 7 % , > - 5 > > % 8 0 $ o % 7 7 2 7 2 2 > 2 2 2 2 > 2 , < 6 7 0 7 < > 2 8 - > > % > 2 > @ 2 4 O % < > 7 6 u - % % , @ > @ $ 2 7 > , o % , @ > 0 0 h N 4 o O % @ > 5 @ 2 2 - @ < @ - i 7 > % @ > @ - > > < , - < > 2 > 0 0 4 @ % , 2 > & O 4 y O O & @ @ @ & q h y 3 & 1 % - > > - 5 , > @ > > 2 > % @ O $ > 2 @ @ - 2 @ @ @ @ % > > - @ @ @ > @ > > > ; - O O 2 2 > 2 4 @ + - @ > > > % @ > > > @ - > O O , @ o @ @ 2 @ @ @ , % @ - @ O O o $ @ % > O O @ @ > @ O 7 u 2 @ > - > @ % O % @ O o O % @ ",
"O O $ @ %   o % O o O @ O @ % O > @ @ @ @ @ @ @ $ O @ 7 > O o O o @ , % O @ > O @ > > @ o @ > 7 2 @ @ - > o @ @ 2 2 @ @ - 4 7 - 2 h 2 > % @ 7 7 4 @ - v z 0 7 u > 7 2 2 7 4 4 - > @ @ > 2 > @ % @ O > > 2 > - y > 2 2 2 h h 0 6 , - , > O , @ 2 > > @ @ > % @ 2 > 0 > @ > 7 h h 2 @ 4 h 9 > % @ > O @ , > > @ O , % - 0 q @ % @ O % $ @ > 4 7 , , 2 2 4 4 @ < u 6 > 1 - > % o > > O , 2 - , 1 2 @ O , 2 7 < @ 2 7 > > @ > < @ 3 & > 2 - 7 4 - 4 @ O > 6 0 2 @ , % 0 v > < 6 4 % > 7 7 @ @ 2 4 0 7 f A D 0 @ , $ , 2 0 Z B 0 7 2 % 0 7 6 q 0 2 @ 2 2 4 @ 5 @ 2 6 7 > 2 > 6 h 0 > @ 7 2 @ & , @ @ y 7 7 2 6 h 0 4 5 u 0 2 @ @ 7 i @ - 2 2 < > @ - > 2 w 2 < 2 2 2 < < O @ > @ % > @ , @ , % @ 2 x A t 2 2 7 7 @ > $ % % % 2 6 2 - - @ @ > % 1 , 4 2 4 O , y > % @ 6 @ a O @ 3 > @ - 4 4 O , < > 4 h @ 2 5 @ 2 d v 0 > > @ O , - 2 > o O @ > 3 > 2 2 O o @ @ @ O O & @ > > > > , @ % @ 2 > @ O O 1 > > 2 @ @ > @ O 2 2 > @ @ > - 2 @ @ 2 @ - 0 6 - @ , O @ , @ o @ O @ > - O o O O , O O @ @ @ o @ O - - O O > O   % < 4 > @   O O @ @ O . o O > @ ",
"O O @ @ @ o % % % O % , , @ @ O @ O @ > @ O % @ @ - - > % O @ O @ @ @ @ @ > @ O @ > - 4 > > > 0 t 2 > 2 5 > % > 4 2 > , @ - > - 2 u 6 6 4 - 2 7 > > - t 2 7 0 h d 7 0 6 z 0 , % % % @ @ @ - 2 > @ @ > > , @ @ 4 - - 2 0 7 6 4 2 % < > @ @ @ > 2 - > > 2 7 - > 7 2 3 + - > 2 9 K h ; 7 x 0 O % > 7 @ @ - > > > % , $ @ 7 h - @ 3 % @ @ > 7 2 - 2 O > > > , > 2 2 0 > > 2 2 , @ 5 2 > % - > @ - > , . % t 7 - > < 2 < 2 > > 4 2 @ @ - 2 > 4 % , , > @ > 7 u 2 > @ , 7 6 7 - - > > > 2 > 2 > > > 2 > 0 K z 6 2 % 1 > 7 x 0 0 t i > < 2 2 u 7 o 1 8 7 > 2 > @ 7 2 7 4 > , 7 q j 4 > > 2 2 @ @ > 2 > , - 4 h 6 2 2 > 2 6 2 > > % % 2 @ 2 > > > @ < > - i 7 - < 2 > > @ 2 - - 5 @ @ > > > > > > @ @ 0 u 7 7 2 4 4 @ $ > 2 > > 7 2 > > @ 7 7 2 @ @ - 2 > @ > @ > > > % 2 @ > % 2 > % > > 7 2 - > > - < 2 2 - > , @ - 7 2 - @ @ @ > @ < @ @ @ @ , > @ @ @ > > > @ @ > > @ @ % @ > @ > > @ @ @ > > % O - 4 O , > > > @ @ > > > > @ > % @ > @ , O , 4 4 2 > @ O @ O @ @ , @ @ , , @ @ @ > @ o % % @ , @ O % @ @ O > @ o @ @ + 4 2 o   @ @   O O O o @ O % ",
"O O @ @ o @ > @ @ @ @ % > > @ o o O @ % O O % @ - 7 7 - O % @ @ > @ o @ @ @ @ > @ @ 2 < > 2 2 7 4 d 7 @ > 2 + > @ > > % O > - - 2 6 2 0 h 2 2 0 > > > > - 7 6 h C 7 z f S 2 o % o > @ @ @ @ , < @ 2 2 % % < - @ @ o @ i 7 - > O O $ @ @ > @ > 4 @ @ 2 4 2 - 7 2 - o , 2 > + > V h 9 0 7 , @ O > 2 - 4 > @ > 2 @ O @ > 4 @ 3 @ > @ @ 4 < @ @ @ - > @ < % > - 2 7 p 2 - 7 7 > @ > , , O 2 w - 2 r > # @ y 4 > > % @ - > > > 2 2 > < > 4 2 > O o < @ 2 2 @ , > O - > 4 - 7 0 @ O @ > 2 4 4 - - 2 , % 2 2 0 v h 2 @ @ h z 6 8 2 > @ > @ > 0 @ $   7 > 2 @ @ 0 t - > > $ 2 h v 4 % > < > 7 > 2 7 4 @ @ 4 > h u @ - - 7 2 - > 7 4 O $ o > > > - > - > 7 u 0 0 - @ $ % > 7 - - < , @ > > > - > > 2 > 2 > h f l 4 @ @ > - 2 2 2 @ > 8 % @ 2 2 2 > - 4 2 , o @ > @ @ > - @ @ - < 4 % @ > > i 6 i - - > @ @ 4 2 @ - , o @ - > > > > > > < @ 2 > @ % @ @ > O - 4 > @ 2 - > > 2 @ % - > @ @ % > > , @ > > 2 0 . O @ 2 2 > 2 , @ @ > % % @ @ > @ % O @ % 4 2 > @ % > > O < > > > @ O O O > - @ @ % % o @ , > > o o @ > @ - , O @ @ % @ % O @ @ O @ $ o O   O ",
"O @ o o @ % @ @ @ @ o O o @ , @ % @ o @ O @ @ > 2 7 2 O @ % @ @ @ % O O @ % > O @ O @ @ > 7 t 2 7 h 7 > @ @ @ , o > % @ @ @ > , % 2 @ 7 0 7 > > > , - @ @ - 0 S C 6 7 d h 2 @ o % @ @ 5 > @ @ O > @ - > O @ @ @ > @ @ > > @ O , @ @ @ 4 2 @ > > @ > 2 2 7 2 6 2 - O > 2 2 4 @ 2 c v 7 - , O O - 2 5 > 4 4 > 4 4 @ - 2 @ @ - - > - > 2 4 O , > 2 > > > @ @ 4 7 2 > 5 4 t 2 > @ @ @ - , > - 7 4 - - 8 > % - - < > @ @ 4 u u > > , @ @ 2 > - , > - > > > % % > < 8 @ $ u u 6 % o @ < , @ 2 4 4 7 - > 2 > - 0 0 7 @ - x 0 2 2 - > > % > - 2 > > @ 2 > < - 2 6 > < 8 > > 2 0 0 > > > > > @ 2 q 2 2 - > u 0 u 2 4 - > 2 4 2 @ > > > @ , 4 @ 2 - 7 > - 6 7 6 c 0 - @ > - 4 > > 4 > > > > 2 > 2 - 2 > 2 , z z 6 > 7 0 0 7 2 @ > @ % @ > , > - > - > , > 2 > @ @ @ 2 - @ % , > 2 - - > 7 - 4 7 2 - 4 < @ $ - 2 7 > % @ > < < - @ > 2 @ @ @ 4 @ @ % > < @ @ > 2 @ @ 2 > > 4 > O 2 @ - 3 O @ > @ @ @ > > - 2 o > 8 2 @ @ > @ % > > , @ @ @ , $ @ @ @ @ 2 > 2 > % % @ > @ @ , @ O @ @ @ % > O > @ @ O o > @ O %   @ @ > > - % > @ @ > O o @ % O @ @ @ @ O O ",
"@ O $ $ @ O @ % @ @ @ $ @ @ @ o - @ @ @ , > @ @ o @ > @ @ @ > % O O @ @ O @ @ O @ @ % O @ 4 7 2 8 0 7 @ % @ % > @ % % > @ , @ @ @ O @ @ > , @ O o % @ @ > - 6 K 0 > - > - - 2 > > @ O 4 4 > * $ > O % > > o @ > @ , @ @ > O @ 8 > 3 @ > > @ > @ @ > > - - 2 2 > > @ @ 2 > > > @ 7 > O 2 y O @ > > $ O > > > - 2 - 2 > - @ @ , > 4 , @ % @ > % % > a + 2 u 2 2 4 7 < 2 6 2 > - 8 > @ @ , @ 2 - > - 2 2 - - < @ 2 2 2 2 S V 2 @ O > - > @ @ > > % 4 > 8 < > 4 2 > @ % 2 7 2 @ % , > > , @ > 2 @ 2 0 2 , 2 > 2 4 @ > 7 t > , 6 7 2 @ 8 2 - 4 4 7 > 2 @ , b ; @ > > 0 u 2 - 7 0 0 - > > @ > 2 - > @ 4 d 0 7 2 - 2 @ @ 2 y > o > 2 y @ > 2 4 - - < 4 > 2 2 - 8 b 7 > $ @ @ > 5 , @ 2 2 w @ > > 7 2 2 > 7 0 0 7 7 0 h 7 @ O 1 @ 7 > % $ > 2 2 - @   2 2 7 6 @ > 8 2 @ , 3 @ - < > - > @ > > - - 2 > @ @ - - > - @ O @ > > @ @ - > - 2 7 2 > @ @ @ > @ > > > - > O @ > O o > > % % % O @ @ @ < 2 > > > 2 2 j - @ O % > 2 @ @ @ @ 2 > % > @ > - - @ @ @ - , > O @ 2 @ @ @   O - % @ O @ O @ @ @ @ 2 @ O O > % O o % O o @ % O O @ % @ . O O O O @ $ O o ",
"% O O > O O O % O @ @ @ O @ @ & @ % @ O @ @ % @ O % % O o o @ @ @ o @ , O @ @ @ % @ @ > O % < @ > - 2 - @ @ @ @ > @ @ @ @ > @ O @ % @   O @ @ @ & , > 2 > % > > @ @ < , O - 2 - , > @ > > @ O @ > @ @ - @ @ > @ @ < @ @ @ % 4 2 @ - > @ @ , > % @ , 2 > % > > - - @ > > > > O $ > , o > - % @ @ 7 O > > > > @ - 4 7 7 2 , % @ 2 @ @ % @ < , @ @ @ > - 7 l 2 - 7 w % @ 7 4 @ @ - 2 > @ > > > % > , 2 7 % > @ @ 2 4 > > 6 7 2 O % > % > - @ > , @ 4 > @ 2 2 4 4 , - 2 7 6 - $ @ @ - @ 2 - O @ > i q > - % 1 > 2 4 @ > 2 > 2 2 7 2 - > 7 > 2 > 2 , > @ - 7 2 a @ - i 7 7 > u h h 2 > @ , % @ 3 > 2 7 F B t 2 6 7 4 > > > > % 2 - 7 2 2 2 4 2 @ 5 4 @ 2 > > @ 0 6 2 - % @ > @ % > 7 - @ > > 2 2 4 t 2 > 2 0 h 7 7 0 0 > @ @ - > > 2 @ > > 2 - , > @ 4 7 2 8 6 - 2 @ @ > O > 2 > > > > @ @ @ 3 % > > @ 4 4 , - 4 4 @ > > > 2 2 2 @ > 2 % @ 2 , > @ , > > 2 2 , O O > - O 2 > @ % @ @ > > - % @ @ > > 2 2 7 @ > , @ - 2 o , < > 4 > > > > > @ , , @ $ > > - > % @ % @ @ O > > o @ % > @ @ % O % > @ O O - , O $ @ o O > o O $ o O @ O o % $ o @ O O o ",
"O > O @ @ > @ o O @ @ @ o O % @   O @ > - , o O > % o O o O @ @ @ @ @ @   o @ > > O O 5 > o O o - 2 > O @ @ > > > @ @ @ > @ % > - > > O > > @ @ @ @ > o @ > @ @ @ % < @ 1 ,   @ @ % @ @ @ > > 2 > @ - 2 @ O % @ @ @ @ , O % % @ O % > o @ 2 - @ @ @ @ O @ @ > - > O % 2 @ % < @ @ @ O , @ @ @ @ > @ @ @ - > @ , > @ @ > > @ @ > @ > 2 > , > o , @ > > > 2 > 7 2 3 > - > > > 7 2 2 > > 2 - - < > - $ > > $ @ % > - - - @ 2 - > 4 @ > > 4 8 , > - @ , 2 0 7 @ @ > 0 7 > - > > 2 > 2 8 > 2 > , > @ 2 & @ - % @ > 7 2 @ @ > > > 2 > 7 @ > > > @ @ % - @ @ > 2 @ > > 7 > @ 2 2 0 6 4 4 2 5 @ > > - 6 6 7 0 q 2 - - 2 i > $ > 2 @ @ < 2 > @ , > > % > o @ @ 4 2 2 7 2 6 2 2 4 @ % @ > > > < > > > 2 7 7 @ 2 4 u 7 2 4 - > > 2 < @ @ 2 > @ > > > 7 7 - > > 2 0 u 7 > > 2 > @ , 2 2 2 % @ 4 4 > @ o > , % @ @ $ @ 2 7 @ % % > 7 2 - - O @ > @ < - > @ , O - > @ > > > @ 2 @ 4 % @ @ % > 2 2 > > o @ @ 4 2 > > O > > - % > O @ @ 2 > > O - 2 , o O % @ O @ @ % @ % @ % @ > % @ > @ O @ - > @ % $ @ o , > O % 2 @ @ O @ , > o @ % O O @ @ $ > O o @ O @ @ ",
"@ @ @ O o @ > @ o o O @ % O O o @ O @ @ @ O O % O O O % O   o @ @ @ @ % @ o O > @ @ @ > > @ O % @ - @ o + , > @ @ @ , > > - @ @ > > > @ > > % - 5 @ @ % % @ O @ % $ @ + @ O O % @ 3 , o $ @ < > > > @ @ > > % % % > , > @ @ O > O @ > % < 4 > - 3 > > % O @ , , > % O @ , @ @ > 5 2 O @ % > % O - , - > , > > % % > > @ @ O , , @ 6 8 % O > > - , > > > > 7 0 2 @ @ 2 > 7 > @ 2 2 > - - 2 > - > > % < % @ > 4 , , 2 4 > > @ > 7 2 4 @ 2 2 - > 2 > 2 2 6 2 @ @ 8 h u 2 7 - 2 > 4 > % @ 2 t > @ > , @ > 4 > - 2 2 > > > 2 7 0 @ O 8 5 2 < > - > 4 2 - 2 @ > - 4 5 - @ 4 4 ; 7 2 @ > 2 > @ % < 7 6 0 7 0 2 0 > - - 7 @ @ > 4 > o @ > O < - - , @ > 3 $ O 4 2 > > > 2 2 2 @ > > @ @ % > @ > @ 2 < 4 2 @ > > 2 4 2 @ - 4 7 > > @ > > < > , > 2 2 - % % @ - 2 7 7 > > > 2 > @ @ 2 2 O $ > 4 @ @ > 2 4 2 $ % % > 2 2 % O > > 2 2 > > , @ - @ - < @ @ > O < > O $ 2 2 @ > - 1 o % , @ , 2 4 2 > o @ > 2 - O > > @ @ > > O @ % @ > > @ % % > % O @ > @ % @ % > @ @ @ @ > 2 , @ > @ @ O @ > @ @ @ @ o @ > O @ > O @ % % @ - @ o o   O % % o @ @ o o @   @ ",
"O @ O % % O o > O @ % O > @ o @ > O o O , o @ > @ o O % @ % O % > O O @ o O O % @ O % > - O @ > o O O O @ @ @ @ % @ @ > @ @ , o % - @ % @ o > @ @ @ % @ O $ O O @ O O , O % 2 @ $ , < o % @ - > 2 > > , @ - @ @ % % O 2 < O O > % > > @ > @ o - o @ 4 2 @ > % @ > > @ O % % @ 2 4 - > O % 2 > < > o @ @ o - > o @ 2 2 - - > > @ @ 2 > @ , $ % - > % > 2 4 - @ > 7 @ @ > 2 > @ @ > 2 @ @ > - - 2 > > % 2 @ , > @ @ > > - 4 @ @ > @ > 2 @ > > > > , , @ 2 0 @ > 8 u y 2 7 0 @ @ > - @ > > - > 2 7 - 2 7 - > > @ > 4 > > > 7 2 7 % @ 2 > 2 2 2 0 9 u 2 @ > 2 2 2 > @ 7 4 - 7 u 7 > > > > > > , > > 0 4 > - 7 2 2 > % > % 2 2 4 > > % > > 2 > @ , @ > > > > > > > > w > > > > @ @ > > < % > 8 7 - @ - > 2 > 7 u 7 > < 2 > @ , 2 6 - 6 > > @ > < > > > > > 4 2 4 8 > - > > @ @ 2 @ > @ O @ 5 @ - 2 > > 4 7 2 2 > @ 2 @ > > 2 7 > 1 > > 2 % @ % 2 2 , O % @ @ @ @ > > , > > 2 > O O > - 4 > @ % @ @ 2 6 O @ @ > > > @ , @ O % @ @ O o > . O @ @ > % > 2 @ @ @ > > > @ @ o O % o @ > @ > @ > @ > w @ @ 2 , o O o @ @ , O O % @ o @ @ @ @ O % @ o @ O o ",
"O o @ @ % @ @ > @ @ @ > @ @ @ % > @ O @ @ $ @ @ % @ O @ @ @ O o @ > @ o @ o @ @ % o @ 4 2 % O @ O O O @ , % @ > > O @ $ O @ > @ , @ - @ @ O % , > @ O % @ O o % > O @ % @ > @ @ O > > @ % > @ > > 7 - @ > > % O @ @ > @ > % > 2 O O > 3 @ @ $ , O @ > - > > > @ - 2 > > % > > - > 2 > @ > > > 7 6 , 1 @ > 2 > O @ < 4 - % > @ > < > @ > % @ O % > @ > - 8 < @ % > 2 > @ @ @ 2 > % 4 > - > @ > 4 > @ % - - - % O @ > > - 4 > , O O @ > @ 4 > @ > @ @ - 2 2 2 > > 4 > - 2 7 2 < > < < - > o > 7 7 2 6 2 4 , & O > 3 % @ > 2 - 4 4 1 2 > 4 2 4 t 0 7 - > 2 7 2 > , > > 2 2 i 7 2 > % @ > 7 > % % > 7 @ @ , 7 7 2 , > > > 2 4 > > , % 2 - < @ @ @ 4 @ < > > > > > > @ , , 2 > 2 5 - > > @ % - > > > > 2 - 2 6 6 7 2 6 ; > @ > 6 7 2 7 < < > > > - > - 2 - @ 4 @ - 7 > @ @ > 2 > @ @ 2 2 , @ @ 8 - - > @ > 2 , 5 , > % @ > 2 > > > @ o 7 5 @ @ < 2 - % o $ @ > > > > @ - > 4 , o @ > > @ - 2 2 > @ > >   @ $ > - @ @ @ - > > O @ @ o > o @ @ % > > @ 4 @ % % O @ 2 > > o @ % @ O @ > % O O > > > @ % > @ O % o @ @ % % O @ O % > @ @ - % @ o O @ @ o ",
"@ O $ O @ O @ @ @ @ O @ $ O % $ - % O o @ > @ O O @ > @ @ O $ @ O @ > O @ @ > @ @ % @ @ 2 $ o @ > $ % - @ O @ > @ @ @ % @ @ > @ O . @ $ O $ @ - O > % > > O @ @ @ - , @ % > - o - > - @ O @ > O o @ 2 @ > @ % O o $ @ @ o @ 2 7 2 o o > 2 @ > @ < @ @ @ @ , @ , @ > @ @ O % > > @ @ @ > - > 2 2 7 @ @ > < > > % O @ 5 % @ @ > > > > > 2 > @ , , O @ @ @ > > @ % @ 7 2 @ @ > < 2 % - 7 - < > > > > O @ @ > > , $ % @ > - > < > > > > 2 2 7 > > 2 > 2 > > 7 7 4 - 2 @ > @ 2 2 > @ > 4 - @ > 7 2 @ > 2 > 2 2 @ @ > > > > , @ - @ @ @ , > > > 2 - 2 4 @ , < > @ > > > > > 2 i 2 2 > @ @ - 2 4 > @ 7 2 O > , @ - > @ > 7 7 @ > % @ @ > 2 @ $ @ i 7 > @ - > > O 2 2 > - 2 @ , 2 4 8 % @ > - > @ > 4 > @ @ 7 - - - > 2 - 6 7 2 > 6 6 > > > @ 3 > @ @ % @ > > @ 2 7 2 2 2 % @ 2 2 - @ % > @ % @ - 0 7 O @ @ @ @ @ 2 @ @ @ > @ O @ > 2 7 @ > > O % % @ - > @ @ > > > @ @ - 0 > @ @ @ , > @ , > 7 2 @ , @ @ @ - > > O @ > @ > > - @ @ @ O o 2 > @ % > @ @ @ % > @ @ > 4 2 2 > % @ , > @ @ > o % @ - > , @ % @ % @ @ % @ @ O @ % O % O O o O % @ @ @ @ @ O ",
"@ O @ o @ O O @ > & O     O @ O > @ @ O @ @ > @ % O @ O o O @ $ % o o @ > @ > > @ > @ @ O o % > > O O % % @ > @ @ @ @ % % O @ @ > O O O O > , @ O , @ > @ @ % , > > > @ % @ 2 > 7 7 5 @ @ @ @ @ @ o @ @ @ > > > @ > O @ O > 2 2 > O , @ > > @ O 2 2 > > - @ > @ O > , O @ @ > 4 5 @ > 2 > - 2 2 6 o @ > - @ 2 > @ > @ > @ @ O @ % @ > @ 4 > % @ O @ @ > < @ @ & @ > - > , > > > @ - > > > 2 > 2 > @ > 5 > @ > % @ @ > > 2 - > 4 2 2 2 6 2 - 2 7 4 > > 2 2 2 2 4 w O @ @ @ @ > > o @ 2 2 > 2 > @ 1 @ > 2 > 2 @ @ @ 7 2 @ @ 4 5 O > % - > - > @ , 4 > O > 4 @ - < @ < > ; 2 4 4 5 4 2 > 2 7 - 2 8 @ 2 @ @ @ > 2 @ % 2 - - % % > > 2 > > @ @ - 7 > @ > 5 @ , 2 @ > 2 - % % 2 2 2 - % > > > > > @ @ 2 2 > 2 , @ > 2 2 7 2 > @ 7 7 2 > - - % @ > % % > > > @ @ 7 0 7 2 4 @ > > 5 @ - 2 > 3 % - 2 7 @ @ @ @ @ > - > % % < < > > > @ 0 @ > 2 , @ > O > > > > - > > % > 2 0 > @ > 2 @ @ @ @ - @ > > % O % , > - O @ 3 > O > , @ % @ > > @ 2 > % @ @ > , @ @ @ > - > @ @ 2 4 @ @ o @ @ o @ o % > > - @ O + % @ @ > @ O @ @ $ % @ @ O O O @ o O $ @ @ % O ",
"@ @ @ > - @ % @ % O o O % @ > @ @ @ @ % @ o @ , @ @ @ % @ @ % @ > O O O @ @ o @ @ @ O O o @ < O $ % o O O % 1 @ > , @ @ @ @ @ - 2 @ o % @ , @ @ , > @ > @ @ . @ @ @ @ @ > @ @ % @ > > @ % @ , > > % @ @ @ > - @ > > o @ @ > , O - % @ @ @ > @ % @ > % @ @ > > + o > @ , @ - 2 > o < % @ @ + 4 2 > @ > 4 - % @ > @ > - > @ > @ > @ @ > > @ , @ , @ , % > > @ > @ < @ > 2 > @ > @ > > > > @ 4 > > > > 4 @ > 3 > - > > @ , > 4 > - @ > > , % @ 2 2 4 - > 2 2 - > > 2 > > > > > , , % > i ; - > @ > 4 , @ 7 > 2 2 > 4 2 2 7 7 6 i @ > 7 2 > O @ < > 4 , < - 2 4 2 > > > > 7 7 2 @ @ 2 ; 2 2 > 2 8 , > - 4 > 2 2 2 > > > 4 @ > 2 > > - > 7 , + O 2 > 4 % @ , > < @ > @ @ 5 > - - > @ - > > @ > , > > 2 < O > % > w - < 2 @ > @ , 2 @ - > > @ @ , @ > > @ > > @ 2 7 0 6 < > , @ @ > < > 2 4 > > > 2 > 2 @ > > > @ - @ @ @ @ % O O > 2 > , @ @ > 7 , @ @ > > 2 - @ @ 4 0 > > < > > @ O % o O @ > < @ - , o < < @ > , 2 - O O @ > > @ > 2 > @ o @ - $ > - > 2 > @ O @ @ > @ @ @ O % , O O @ @ O - @ O $ > O @ > o O @ % o o @ O O O o O & % O o O @ $ @ ",
"% O @ @ > @ O O   @ $ o @ @ > O o O O $ O O $ @ O @ @ @ O @ @ % @ O @ O o O o % > @ @ % O @ @ @ . O o O   o @ - @ @ @ $ O % @ @ @ % > > O o @ @ > % O % O @ % o @ O % @ > % @ @ @ O @ @ > @ > @ @ > @ O O o % @ - > % > > @ o O , 4 @ > > o @ > @ @ @ @ O , @ @ O % % > - > - % O % @ % @ < > > , > 2 > , , @ > > > - 2 2 > - , @ > > > O $ @ > > - > > % @ > 4 @ O % > @ > @ @ - - @ < @ > 2 @ - > 2 - % > @ 2 7 > o - @ > 2 > > $ o O O > > 2 % < - 8 6 2 - 5 - @ 3 > @ @ - @ @ > 7 2 , 3 % 2 2 > 2 7 2 > - 2 2 > 4 t 7 0 2 2 8 0 2 > < > > 7 4 > @ > 4 2 7 2 2 > 2 2 7 4 2 @ > 7 2 > > > @ @ > - 7 > > 8 - @ @ 2 2 @ > > 4 2 @ > 2 4 - , @ 2 2 > @ > @ @ , 5 O @ - > % < , 5 2 - > > > @ > % - 4 > % > > 2 - 2 > @ @ @ + 2 @ > > 2 > @ o O - 4 @ > , % @ > 7 0 > - < + O 2 4 - 7 > @ > % 2 - 2 > - 7 > @ @ - > - % @ O @ @ , - , @ o @ 7 2 o O 2 2 2 , , - 2 2 @ @ 2 - - < % - % O O @ > > > 4 > > @ 2 - - > @ o O O @ @ @ , > @ o @ O O @ @ > @ 2 2 > @ O O > @ @ > @ o O @ O O $ @ $ @ @ @ > @ @ % O O @ @ . o @ O O O $ O o > @ O o O o O ",
"@ o O O O O o @ O % @ O O @ O % @ O O @ @ @ & O @ , , o @ > @ @ . % @ @ @ % @ O @ @ % > @ @ O @ @ @ @ , @ @ > @ O O , > @ @ @ @ @ O @ , @ $ @ @ O @ , > O @ > > % @ @ > < @ % > O O O @ @ , @ @ > , % % @ > > @ w 2 2 O @ > @ @ - @ > % > @ > - , > O , > @ - > - @ @ , > @ - , > - > < % 3 - > > % , - , 1 @ w 2 > > > > @ > > > 3 @ 5 2 @ > > 2 O @ % @ % > , @ , > - > < @ > 2 > @ 2 > @ % 3 - @ > - , > > > @ - > > 4 @ % , > > % @ % > 2 @ O , > 2 7 7 2 > > > % @ > > 2 @ - @ > 4 2 5 @ - > 2 2 > > > - > @ > - u h 0 2 t 7 > - @ > @ > 2 - - 4 3 > - > > 2 4 2 > - 2 2 - 2 - > 4 4 > @ 4 2 2 4 @ @ 4 > @ - $ < % @ 7 7 4 @ > 2 @ > < > @ O > 4 > @ > @ % 4 7 @ @ , 5 - 4 @ > - 2 2 @ > > > > 2 > > > < @ < 4 4 , @ , > % 7 @ - 2 < - < > > , - 2 > @ @ @ 2 % > y > - > > > > % @ > @ , @ 4 4 > > > > - 4 2 @ @ , @ % % 3 2 O < % > - ; 4 > > > @ @ > @ - 6 % > 4 - @ o > @ @ > , @ - @ % @ > @ o > 7 > O % > 2 o @ % @ , @ O > % @ % % - , @ @ @ o > > @ > O O 2 > O O > @ @ % O O O % > O % @ O % O @ O   @ @ O > $ o @ o @ o O O O o o ",
"@ O O O   O % @ O > > @ % @ $ $ O O o > 4 @ O O > > @ O @ @ - @ o $ @ @ @ % @ @ $ O @ > > O $ @ 2 2 > @ > > > O o o @ - @ % % % . O O @ @ @ + % O @ > > > 2 2 > % > @ - @ > @ > > @ % , @ @ % > @ > - 2 2 , > @ 6 6 q % @ > 2 > 2 @ O @ > > - - @ @ O $ @ @ , > - O @ > > > 4 > > > @ > @ @ 2 > > @ % < > @ > 4 2 @ % - > @ > - 2 > - 6 2 2 % @ @ % % % O @ % > > > > > > > 4 2 2 4 > w - % O , @ > , > % > - , O , 2 > > O O - > 2 4 > - > > > % @ > 2 2 u 0 2 % 1 % > > - > 2 y > $ @ 2 6 % , @ % @ < > @ , , , 5 2 0 7 7 > 5 6 > % > @ O % , 4 > > @ @ 3 , > 2 > 2 @ @ 2 > 4 4 % @ 2 > 4 2 2 0 % @ 3 > @ , 4 > o % % O 2 - > > - @ $ % 2 > O O > 2 > @ , - @ 4 > $ > O - - @ > , > > 4 < > 4 > 7 7 2 > @ % @ - 2 6 2   > 2 - > O % 4 7 - 2 % O , 4 2 > - O O % > 4 2 2 7 4 - $ O $ % @ , > @ 2 2 > > > @ 2 q 4 % $ > > @ @ - 4 @ @ @ $ @ , 2 - @ O O @ > @ , w % , 2 > @ O < @ > > @ > O % @ O @ @ > > > -   @ 7 7 > @ O @ $ O > 2 > > % @ - % % o . $ - > 2 2 O @ - @ % $ @ @ @ @ O @ % O O O @ O   O O @ $ O % @ @ > % @ @ @ @ o @ @ @ O o ",
"@ @ % O o > O @ - % $ o o @ - @ O o o o @ @ , o O > @ O @ @ @ o @ - @ O @ @ @ O O @ > > > O @ > 2 $ o @ @ O O o O O O O > @ $ @ O @ % > , O O > % @   O @ @ @ @ O @ @ % O O O @ O @ @ @ > > % @ @ @ > > > O O % @ > > @ o o @ > % % 2 > - > @ @ > O % 1 @ $ @ O @ > > @ , 2 > > @ > < @ @ @ 3 @ o @ $ > 2 2 4 @ O < @ o % @ O @ % @ @ . o @ @ 4 % @ $ > @ , @ , % > , - 4 > % @ & @ O > 2 > > o @ > % @ O > , @ @ & O @ > > @ @ , > > O @ > @ @ 2 2 4 , o ; 7 4 @ 2 - > @ < > - 7 , o @ 4 @ O % 7 2 @ 5 > > > % @ r 7 2 i 2 O > @ O @ @ 2 > % 1 2 O @ 4 2 2 4 2 > @ @ @ - > O @ 8 > O @ 7 2 @ < @ > 4 8 @ > @ , % % < O % @ > 0 2 2 - > 2 2 > > 4 @ % % @ - > - < > > - 2 > , - 2 > 2 > O > > @ 2 . $ 4 - 2 7 7 7 - @ 2 > > < @ 2 @ % - > > > > @ 2 > @ , & . < > > @ @ - - , @ 7 7 2 > @ > 4 > , ; 7 > @ O O > > @ @ o O @ % 2 @ % 5 2 > < @ > - @ @ @ > % @ > < o O - > , O @ O $ % > > - > > O O @ 2 @ O % > @ @ @ > O O O %   O , O , > @ %   % O % , @ % @ O % @ O @ $ @ O $ > o @ O O @ @ @ $ @ @ @ O O % O     @ @ O   O @ % @ @ @ @ @ O ",
"@ O @ @ % > , O % O @ @ @ @ < % O O O @ @ @ > O O O O @ % @ O O @ % % O O @ % @ O @ @ O % @ > % O @ o % % @ @ @ @ @ @ @ @ O > @ @ @ @ @ % - @ @ % @ @ , O o , % @ @ @ @ > @ > - > @ @ @ > > @ @ O % @ , @ @ , O > - @ @ > @ > @ @ @ > > @ > > 2 > @ O $ @ > > > % > @ @ @ @ @ 2 @ - < @ , @ O @ @ > % @ @ 7 > 2 > > - > @ > > @ @ @ > % O @ > > @ O - > @ % > > - @ @ 2 4 @ @ > @ @ 4 8 @ > , > 2 , @ > > o @ < < @ @ > 2 4 > @ O - < O % > > @ - 2 @ @ @ w 2 2 @ 2 > 1 > @ 2 - @ 2 > < > @ > @ < 5 > > > > > % 2 - > - 2 2 - 4 5 % > 2 @ @ @ > 7 > > > < > > > @ @ @ > > , > > > O > % - > - > > > - 2 > 2 > % > > , O % > @ > > 3 @ % > > , > > - @ @ > > > > @ @ 4 > > > - 2 4 @ @ @ @ < > > 4 O > 2 > 2 2 > 2 @ @ , 2 - - - 4 O @ 4 @ % @ @ 5 4 - > @ o o > @ @ , - - > @ @ > 2 > > @ % > @ $ 2 4 > @ , @ @ 2 - > > @ @ @ > - @ > < 2 > @ @ > > - > > % @ - % @ @ > @ @ > @ % @ @ @ @ > % , - @ O > > % % , > O % % , @ @ > O @ @ o % % @ , o @ @ @ @ @ @ % @ > > @ O o @ @   o @ @ @ $ @ @ > O @ > @ > @ $ O O o @ @ O o o @ o @ @ % @ O O ",
"@ @ @ @ @ @ @ @ O o @ @ @ @ @ @ O @ @ O @ @ @ O @ o @ @ O @ O @ o @ @ @ o o @ % @ @ $ o o > % o o @ @ $ @ @ @ > > , > @ @ @ @ - @ @ % o O , @ @ @ > > @ @ @ > @ > O % > - @ , @ - > > % % @ 2 y @ % @ @ @ > > @ > > @ @ > % @ @ 2 > > > % % @ > - @ O % @ @ > > > @ > - % @ @ 2 - 2 > % , - @ > > , , > % @ @ > @ @ > @ , > > > > @ , 4 > @ > , @ > > > $ @ > @ @ @ > > % O @ > 2 > 2 > @ , @ @ > > @ > > , @ > @ > > 4 6 - 8 > & - > % @ % > @ > @ @ @ @ 2 > @ % > @ > - > @ - > > > % O 5 7 2 > % @ @ > > @ > 2 > 2 @ > 2 2 < - > > @ % , - - 2 2 i o O @ 2 , @ 4 > @ % @ < < @ O % @ > > > 4 7 % % > 7 2 > > 2 > , % @ 4 2 , @ % , % @ > @ @ @ % @ > > @ > > @ > > % > - , 4 @ > > > - % @ % > @ > > 2 2 @ > - > @ @ 2 4 - > @ > > 2 > @ @ , < @ - 2 4 > + > 4 % % 2 > @ > % % @ % @ , , - > > 2 - @ > - > > @ > @ , % @ @ O > 2 @ % > 4 - @ @ > > @ , @ @ @ O > > o @ - 4 % O @ @ @ % @ o % @ , % @ > @ % @ , O O > > @ , > @ @ @ - % O @ @ < , @ @ > @ O @ > @ > % o @ > O @ & @ @ @ O @ @ % O @ @ O > % O % @ @ @ & o . $ @ @ O O O % @ o ",
"@ O % O > @ @ O . @ % @ @ o O > o > @ O o @ @ O O @ O O O @ % % @ O @ 2 @ @ o @ > O O o > > @ @ @ > % o o O > 2 > O @ % @ @ @ > - @ > @ @ O - > @ @ % @ @ > @ > > O @ > @ @ , > % @ > - @ @ @ > @ @ @ - @ - @ , @ > > @ > > - > @ > @ O @ % @ @ @ < O @ @ < > @ % > > % > % @ 4 - > > > > @ @ 4 > % - @ > @ > < % > - @ @ % > > 2 > @ > > > > @ @ , > > > % > > , > 2 4 @ - < > 4 7 > @ % > < 2 @ 2 > > @ - < > % > 7 6 6 2 6 4 < @ , @ @ @ > - < > > % @ > < > 1 > @ > < > @ , > 2 > > @ - 2 7 > @ > > > > > > > @ , , % 2 > @ @ - 2 @ o % > 4 2 2 2 @ O > 4 @ , > > @ % > > 4 , @ @ @ @ > > > 4 > > > 2 2 > > - @ @ < - > @ @ - > @ @ @ > @ @ @ > @ > 2 @ > , > 2 - > > 2 y 7 @ > > 4 - > > > , > > - - 3 @ > @ > @ - 2 > - > @ y @ @ > @ % % @ < > > 4 > > > 7 @ > - , @ % @ @ - > o - > - > > > > > 2 @ 2 @ @ @ @ @ > @ > O > - 2 % O 5 > @ - - > @ @ O , % @ @ 2 > o @ > @ @ > < > @ @ , @ $ > @ @ > - @ @ @ @ % % @ @ > @ @ > @ @ @ % @ @ > @ @ % < @ O @ > O @ O % - > @ O @ @ % @ o @ > % % $ O O > % @ O > % O o O @ o o . O @ o O o . ",
"O @ o @ @ @ @ . O @ @ @ $ @ O @ > @ @ $ o o $ % > @ O o @ @ > > @ O O > @ @ $ @ - > > @ @ @ $ $ @ @ > % @ o % > @ O o > > O @ @ , O % @ @ O @ > O @ @ > @ > % @ @ % % o O @ , @ @ @ @ @ % @ @ @ @ % > @ 2 @ O @ - @ > , > 2 2 > O @ > @ - @ @ > o % o @ @ @ > @ > @ @ > % - 2 2 - @ > @ @ - % > - % > @ > > @ > @ - > @ < > @ O & > > O O > > > % @ @ @ , , > @ > @ o - 2 > - O @ > @ 3 > - < 2 % 7 @ > , > 2 < > @ 4 7 6 u 2 - > > % , @ > > - < < > % @ @ O > 2 @ > > > , , @ O @ > @ > , - 7 t > < , > @ > > % > @ @ > @ @ % , - @ > 8 , o , @ - > @ @ 2 < > @ > 2 > 2 > @ > 2 @ > < - , > - @ 2 > % > @ > > > % > @ 4 2 - 2 > > > @ @ @ @ @ O % % - > , > > - 2 > @ @ 2 > > > - 2 - > 2 > - > - 3 @ @ O @ > > > > < @ o > > @ 7 > > @ - > > 2 > @ > > @ > - - 2 4 o > 5 - @ > 2 > @ 5 > @ > 2 > > 4 4 @ @ > > @ , $ @ , - > @ - < @ @ @ O > @ @ @ , @ @ % > > @ % > - @ @ - > > > @ > , > @ o o % % @ , o @ @ @ @ 4 - @ @ @ O @ @ > @ O @ - @ - @ @ @ > , @ o   O o @ > @ @ O @ > @ o @ O O @ o @ $ @ o o % @ @ , O o @ @ % o O o O O o O O ",
"O O O o o . O O @ > $ o o @ O o @ @ . @ % @ @ o > > O O % > > @ @ . . - % O O o @ @ o @ @ @ o , @ @ > > > @ @ > @ @ O @ @ O @ O @ @ @ > @ % % < o @ % % @ @ @ % % > @ @ O > > @ o , @ O , < % @ , , @ @ , @ O % @ > 5 @ O 3 > 1 @ , > @ @ @ % < @ @ % - > O % > > % @ @ , > > > O @ 4 @ % > > @ @ @ O > > 2 > > @ @ @ @ > > > @ @ - @ O @ @ 2 > O O % > - @ > @ > O O > 4 - 4 > > > 2 > @ @ - 2 - > > @ > > % > < O > j 6 7 8 2 2 > - 8 2 > , > @ > > O @ , @ > - > 3 @ @ 2 > @ > > - , O @ , > 2 2 > > @ % @ 5 @ % > 2 2 @ @ @ @ % > > 2 @ % @ O @ < @ 2 > > > < > @ 4 2 > % > t 4 @ @ < - @ > % > > % > > 2 @ 4 % > > 2 % % > 4 - > - @ < @ > > @ 2 2 4 , @ % @ 2 > @ @ @ > - @ 2 4 2 3 > - % > > 2 % , @ , > - > > > 2 % % > > % 4 3 @ > , , > @ @ @ @ @ > > @ 2 5 @ % > 2 - > 7 4 @ > > 2 > 7 3 > - > @ % @ > - > > @ > @ > % @ @ @ @ @ @ < - @ 2 , > @ O @ : o @ 2 > @ @ > > @ % > > @ > O @ o , % O % @ @ % > O 2 - , O @ o @ @ O O O > @ > > @ O o @ - % @ , @ O $ O % @ O O > O @ % % @ @ $ O @ @ O O @ @ O o O @ o $ @ @ , O o > o O O ",
"O @ % @ o o o @ @ @ o o O O % o O O O O , @ @ + O O   @ @ O @ > > o o @ O @ @ O @ O @ @ < > O , @ > 4 , @ @ O @ @ @ > O O % @ O o @ @ > @ O @ O @ @ O O $ @ & O O @ @ 2 - > @ > % @ @ O > 4 2 @ O % @ > 2 > @ % @ O @ @ O @ O 1 O - @ O O % - > - > > , > @ O @ @ @ O @ @ @ @ @ > @ % @ @ @ % @ > 4 @ > > > 2 > > > % 4 2 o , > 2 , @ % O > @ @ , % > , O % > > @ @ % @ > 4 > > > > > 2 > @ > 2 2 > % > % % > > > - > j 2 2 4 7 > O @ 2 2 @ @ , O @ > > @ > 3 > @ > > , @ - 4 @ > @ - @ @ > , - 4 2 > 2 , O o 8 2 @ % 7 > > < < 2 @ > 4 @ 5 - 2 2 2 > @ 2 2 - , - @ - > > > > - i 2 - > - 2 4 > > 4 > > @ > @ > 2 > > < + @ > @ - - > @ % 5 > 4 4 2 2 4 > > @ , > 7 @ % > > 2 > @ @ > > > @ > @ > > 2 @ 2 < > % > - > O > 4 - @ O - > , $ @ @ @ @ 2 @ % @ O @ > O @ > % O o > 2 4 2 8 - @ , > > 2 , 2 % O @ 2 @ @ > > @ - @ % > > O O > 2 4 > @ @ % > @ > @ % > - @ o % @ > O o - > % > @ @ > O 1 % o @ @ > < > @ % $ O @ > > O O > @ @ @ % @ > 2 > @ & @ o @ @ O 5 @ % %   O > 3 o O @ > @ @ , @ o $ @ @ o @ % o @ $ % @ O @ O o @ @ @ @ @ o O "
};
