/* XPM */
static char *sprite_padlock_open[] = {
/* columns rows colors chars-per-pixel */
"64 64 16 1 ",
"  c None",
". c #0A0A12",
"+ c #00D1FF",
"@ c #0B2B33",
"# c #071920",
"$ c #19C3FF",
"% c #0FA5E8",
"& c #080808",
"* c #0B9ED6",
"= c #111111",
"- c #000000",
"; c #FEFEFE",
"> c #7F7F7F",
", c #CCCCCC",
"' c #999999",
") c #555555",
/* pixels */
"                                                                ",
"                                                                ",
"                                                                ",
"                                                                ",
"                                                                ",
"                                                                ",
"                                                                ",
"                                                                ",
"                                                                ",
"                                                                ",
"                                                                ",
"                                                                ",
"                                                                ",
"                                                                ",
"                                                                ",
"                                                                ",
"                                                                ",
"                                                                ",
"                                                                ",
"                                                                ",
"                                                                ",
"                                    +++++++++++                 ",
"                                   +         ++                 ",
"           ++++++++++++            +         ++                 ",
"           +               +       +         ++                 ",
"           +               +       +         ++                 ",
"           +               +       +         ++                 ",
"           +               +                                    ",
"           +               +                                    ",
"           +               +                                    ",
"           +               +                                    ",
"           +               +                                    ",
"           +               +                                    ",
"           ++++++++++++++++                                     ",
"         ++$$$$$$$$$$$$$$$$$$$++                                ",
"        +$@@@@@@@@@@@@@@@@@@@@@$+                               ",
"        $@@@@@@@@@@@@@@@@@@@@@@@$                               ",
"        $@@@@@@@@@@@@@@@@@@@@@@@$                               ",
"        $@@@@@@@################$                               ",
"        $@@@@@##################$                               ",
"        $@@@######################                              ",
"        $@@@######################                              ",
"        $@@@############%%#######$&                             ",
"        $@@@##########%%%%#######$&                             ",
"        $@@@##########%%%%#######$&                             ",
"        $@@@##########%###%######$&                             ",
"        $@@@##########%###%######$&                             ",
"        $@@@##########%###%######$&                             ",
"        $@@@##########%###%######$&                             ",
"        $@@@##########%%#%#######$&                             ",
"        $@@@##########%#%%#######$&                             ",
"        $@@@##########%%%%%######$&                             ",
"        $@@@##########%###%######$&                             ",
"        $@@@#####*%*###%*%#######$&                             ",
"        $@@@####***%*##*%**#####$&                              ",
"        $@@@###***%***##***#####$&                              ",
"        $@@@##*%*%*%*%*#*%*%*%*$&                               ",
"        $@@###################$&&                               ",
"        $##################$&&&                                 ",
"        +$$$$$$$$$$$$$$$$$$&&&                                  ",
"         +++++++++++++++++&&&                                   ",
"                         &&                                     ",
"                                                                ",
"                                                                ",
"                                                                "
};
