/* XPM */
static char *sprite_padlock_closed[] = {
/* columns rows colors chars-per-pixel */
"64 64 16 1 ",
"  c None",
". c #0A0A12",
"+ c #FF3A6E",
"@ c #330B1B",
"# c #1A0710",
"$ c #FF6FA0",
"% c #E04C7B",
"& c #080808",
"* c #D44B78",
"= c #111111",
"- c #000000",
"; c #FEFEFE",
"> c #7F7F7F",
", c #CCCCCC",
"' c #999999",
") c #555555",
/* pixels */
"                                                                ",
"                                                                ",
"                                                                ",
"                                                                ",
"                                                                ",
"                                                                ",
"                                                                ",
"                                                                ",
"                                                                ",
"                                                                ",
"                                                                ",
"                                                                ",
"                                                                ",
"                                                                ",
"                                                                ",
"                                                                ",
"                                                                ",
"                                                                ",
"                                                                ",
"                                                                ",
"                                                                ",
"                                                                ",
"           +++++++++++++++++++++                                ",
"           +               ++++                                 ",
"           +               +++                                  ",
"           +               +++                                  ",
"           +               +++                                  ",
"           +               +++                                  ",
"           +               +++                                  ",
"           +               +++                                  ",
"           +               +++                                  ",
"           +               +++                                  ",
"           +               +++                                  ",
"           +++++++++++++++++++                                  ",
"         ++$$$$$$$$$$$$$$$$$$$++                                ",
"        +$@@@@@@@@@@@@@@@@@@@@@$+                               ",
"        $@@@@@@@@@@@@@@@@@@@@@@@$                               ",
"        $@@@@@@@@@@@@@@@@@@@@@@@$                               ",
"        $@@@@@@@################$                               ",
"        $@@@@@##################$                               ",
"        $@@@######################                              ",
"        $@@@######################                              ",
"        $@@@############**#######$&                             ",
"        $@@@##########****#######$&                             ",
"        $@@@##########****#######$&                             ",
"        $@@@##########*###*######$&                             ",
"        $@@@##########*###*######$&                             ",
"        $@@@##########*###*######$&                             ",
"        $@@@##########*###*######$&                             ",
"        $@@@##########**#*#######$&                             ",
"        $@@@##########*#**#######$&                             ",
"        $@@@##########*****######$&                             ",
"        $@@@##########*###*######$&                             ",
"        $@@@#####===###*=*#######$&                             ",
"        $@@@####=====##====#####$&                              ",
"        $@@@###=======##===#####$&                              ",
"        $@@@##==========#=======$&                              ",
"        $@@###################$&&                               ",
"        $##################$&&&                                 ",
"        +$$$$$$$$$$$$$$$$$$&&&                                  ",
"         +++++++++++++++++&&&                                   ",
"                         &&                                     ",
"                                                                ",
"                                                                ",
"                                                                "
};
