/* XPM */
static char *_8d2c3677b3f4beae0b93ade7ebcbe834m0XE21iHK2VZXcN[] = {
/* columns rows colors chars-per-pixel */
"502 496 256 2 ",
"   c #000003",
".  c #00040C",
"X  c #01090F",
"o  c #000613",
"O  c #010A15",
"+  c #00071A",
"@  c #010D1C",
"#  c #080E19",
"$  c #02111E",
"%  c #06121A",
"&  c #150E1D",
"*  c #010E22",
"=  c #000E29",
"-  c #060C22",
";  c #021224",
":  c #091524",
">  c #051826",
",  c #02142B",
"<  c #09162A",
"1  c #04192D",
"2  c #091A2D",
"3  c #091926",
"4  c #011632",
"5  c #031B34",
"6  c #091D33",
"7  c #001639",
"8  c #021D3B",
"9  c #091E3A",
"0  c #091532",
"q  c #101B35",
"w  c #052136",
"e  c #0A2135",
"r  c #04213C",
"t  c #0A233C",
"y  c #0B293E",
"u  c #102439",
"i  c #011E42",
"p  c #021E48",
"a  c #071D4D",
"s  c #032343",
"d  c #092543",
"f  c #052946",
"g  c #0A2945",
"h  c #02254A",
"j  c #092649",
"k  c #032A4C",
"l  c #0A2C4B",
"z  c #112B47",
"x  c #0B314E",
"c  c #05314E",
"v  c #012652",
"b  c #022C53",
"n  c #0A2D52",
"m  c #012D5A",
"M  c #072B59",
"N  c #043155",
"B  c #0B3254",
"V  c #03335B",
"C  c #0A345B",
"Z  c #05395D",
"A  c #0B395D",
"S  c #0A3956",
"D  c #123A5C",
"F  c #123556",
"G  c #12304E",
"H  c #012E62",
"J  c #023562",
"K  c #0A3662",
"L  c #043A64",
"P  c #0B3B64",
"I  c #01356A",
"U  c #033C6B",
"Y  c #0A3D6A",
"T  c #0A366A",
"R  c #123C63",
"E  c #133C68",
"W  c #023D72",
"Q  c #073D75",
"!  c #123C72",
"~  c #0C4165",
"^  c #04426C",
"/  c #0B426C",
"(  c #084469",
")  c #12436C",
"_  c #144468",
"`  c #034373",
"'  c #0B4473",
"]  c #044975",
"[  c #0C4A74",
"{  c #02457A",
"}  c #0B457A",
"|  c #034B7C",
" . c #0C4B7B",
".. c #124573",
"X. c #134A74",
"o. c #124C7B",
"O. c #174978",
"+. c #09517D",
"@. c #15527C",
"#. c #1B4B6E",
"$. c #024C83",
"%. c #014C8B",
"&. c #074A84",
"*. c #035284",
"=. c #0C5383",
"-. c #02538B",
";. c #08588B",
":. c #135383",
">. c #165788",
",. c #004D93",
"<. c #014E99",
"1. c #015394",
"2. c #025B94",
"3. c #01549B",
"4. c #015A9D",
"5. c #0B5996",
"6. c #14548B",
"7. c #06649A",
"8. c #146496",
"9. c #0156A2",
"0. c #015CA4",
"q. c #015DAA",
"w. c #095DA6",
"e. c #015DAF",
"r. c #0262A5",
"t. c #0163AC",
"y. c #026AAD",
"u. c #0967A9",
"i. c #0873AC",
"p. c #0165B2",
"a. c #026BB4",
"s. c #0A6CB4",
"d. c #026DBB",
"f. c #0A6DBA",
"g. c #0466B7",
"h. c #0272B5",
"j. c #0273BC",
"k. c #0A73BC",
"l. c #027ABD",
"z. c #0A77B8",
"x. c #1377B9",
"c. c #146DAA",
"v. c #236192",
"b. c #026EC1",
"n. c #086FC2",
"m. c #0274C3",
"M. c #0A75C2",
"N. c #037AC4",
"B. c #0B7BC4",
"V. c #0276CA",
"C. c #027CCB",
"Z. c #0B7DCB",
"A. c #0B76CA",
"S. c #127CC6",
"D. c #037ED1",
"F. c #0A7ED1",
"G. c #127ED1",
"H. c #003F80",
"J. c #0E83BC",
"K. c #2186BC",
"L. c #0282C5",
"P. c #0282CC",
"I. c #0B83CC",
"U. c #028ACD",
"Y. c #0B87C8",
"T. c #1383CD",
"R. c #1687C8",
"E. c #0384D3",
"W. c #0B85D3",
"Q. c #028BD4",
"!. c #0B8AD4",
"~. c #0386D9",
"^. c #038CDA",
"/. c #0B8CDA",
"(. c #0B86D9",
"). c #1285D2",
"_. c #138BD4",
"`. c #138CDA",
"'. c #1A8AD6",
"]. c #0292D5",
"[. c #0393DC",
"{. c #0B93DC",
"}. c #029ADD",
"|. c #0B9ADD",
" X c #0896D5",
".X c #1392DC",
"XX c #1796D9",
"oX c #0F93CB",
"OX c #2391D3",
"+X c #05A4DC",
"@X c #15A4DC",
"#X c #068DE2",
"$X c #0394E2",
"%X c #0B95E2",
"&X c #039BE4",
"*X c #0B9BE4",
"=X c #039DEA",
"-X c #0B9DEA",
";X c #0695E9",
":X c #1395E2",
">X c #139BE4",
",X c #139DEA",
"<X c #1A99E5",
"1X c #0E97EB",
"2X c #229AE5",
"3X c #02A3E5",
"4X c #0BA3E5",
"5X c #02ABE5",
"6X c #03A4EB",
"7X c #0BA3EB",
"8X c #03ABEC",
"9X c #0BABEC",
"0X c #0BAAE5",
"qX c #13A3EC",
"wX c #12ABED",
"eX c #18A6E8",
"rX c #02B3EC",
"tX c #07B6EC",
"yX c #16B4EB",
"uX c #03A5F2",
"iX c #0CA5F2",
"pX c #03ACF2",
"aX c #0BACF3",
"sX c #06ACFA",
"dX c #13ACF3",
"fX c #17A9F4",
"gX c #03B3F3",
"hX c #0BB3F4",
"jX c #03BBF4",
"kX c #0BBBF5",
"lX c #03B4FB",
"zX c #0CB4FA",
"xX c #04BCFB",
"cX c #0CBCFB",
"vX c #13B3F4",
"bX c #13BBFC",
"nX c #1BBCFC",
"mX c #17B7F7",
"MX c #25A7EA",
"NX c #24B8F8",
"BX c #26AEF1",
"VX c #25A2DD",
"CX c #03C2F4",
"ZX c #04C4FC",
"AX c #0BC3FC",
"SX c #0BCBFD",
"DX c #06C9F8",
"FX c #13C4FD",
"GX c #18C7FC",
"HX c #07D6FD",
"JX c #17D6FD",
"KX c #07C4ED",
"LX c #25C7FD",
"PX c #25D5FE",
"IX c #30C7FA",
"UX c #0EE3FF",
/* pixels */
"O o @ O @ # O o O O $ O o O @ O O O o $ o o @ @ o $ $ O $ ; @ o o $ $ $ @ $ @ $ @ O @ # o o @ O O o o $ ; @ $ $ o @ $ $ @ @ ; @ @ o @ o ; ; ; $ O @ @ @ $ O @ ; @ $ @ @ o @ * o o ; $ @ > @ @ @ @ @ ; @ @ * ; > $ ; @ ; @ @ > @ @ @ @ @ @ ; 1 @ @ @ @ 1 u ; @ 1 5 o @ @ ; , , , ; ; > > o @ ; ; ; ; @ ; * ; ; ; , * ; @ 1 1 ; 1 @ ; ; ; * 6 5 @ * 1 > $ ; ; > ; @ 6 ; ; ; @ * * , 1 3 1 ; , , @ 1 1 * ; > > > ; ; ; ; * > , , ; @ * , * ; , > @ @ 6 ; r * > ; 5 ; $ ; > ; * > > @ ; > 1 ; ; 1 ; @ @ 1 1 * ; ; ; 1 , $ * ; > 1 > ; ; , ; ; ; ; @ > > > @ @ ; > @ @ o > 1 , ; ; ; ; > @ 2 ; o ; 6 * 5 1 5 ; @ ; > @ @ 5 2 @ , 1 o $ , ; ; ; 1 ; @ o ; @ , ; @ @ @ ; @ @ @ @ 1 , @ @ @ @ , ; @ @ > @ ; 6 ; ; ; 1 > @ , ; 5 ; $ > * @ @ @ @ ; @ $ ; > ; o O ; 1 ; @ ; ; O $ ; * ; ; @ @ O $ ; @ @ $ ; ; ; @ @ ; @ $ , @ , O @ ; ; ; @ @ $ ; ; : o @ @ : ; @ @ @ O O @ @ @ @ * $ O > ; o o @ @ @ @ @ $ ; @ ; * ; ; O o @ , O O @ @ O O o o @ @ o ; @ @ o @ O # @ o . O @ ; $ # @ o ; @ @ $ $ $ ; @ @ $ O $ o O @ $ @ : o O ; @ @ @ $ O O X O %   ",
"O o $ o O O O o O O . O # o O o O O # o @ O @ O $ @ O @ O O o o o @ @ @ O $ $ @ @ O o $ o $ @ . O $ O $ @ o O O O @ $ O @ $ o @ @ ; ; O @ * @ ; o @ @ @ O $ O @ ; ; ; ; $ ; @ @ ; @ @ * ; @ ; $ @ ; ; $ @ @ , @ @ $ > @ o $ ; o o ; o ; @ ; ; @ > > * ; @ o o ; ; ; 1 @ @ 6 5 ; @ > @ ; > $ @ ; , > > > ; ; ; @ ; ; ; ; = , 6 ; ; 1 ; > * , * ; 1 ; @ * , , ; 1 ; , 2 , , 2 * > 5 1 * , * ; , 1 , 4 > , ; ; @ > > 1 ; ; * , 1 $ > 5 * ; ; * * 1 > ; * 1 , , , ; ; @ * @ @ 5 , * @ ; @ ; ; ; ; > : @ ; 1 , @ @ ; , , @ , 2 1 * ; * ; 1 5 ; 6 ; 1 , * ; ; @ $ @ @ ; * * @ 1 * ; 1 > @ @ ; * ; > , ; , 5 1 * > ; ; $ ; , @ o , ; > ; , e ; ; 1 ; ; > $ > , 6 @ ; 3 @ @ $ $ @ @ 1 ; o > ; , @ ; ; ; ; * , ; ; * @ ; ; @ ; ; 3 ; ; ; > > $ $ ; @ ; ; > @ O % $ ; > O @ ; @ @ > @ ; > ; $ ; @ ; o $ ; @ @ ; > ; @ $ ; > @ * ; @ > ; * $ @ ; * $ o o ; $ o , > @ $ O ; $ @ @ > * o @ ; ; @ @ @ ; ; o o @ o o @ ; @ ; ; @ . $ O o ; @ o $ o - @ $ O O @ $ @ ; O . @ ; $ o $ @ @ o O @ ; $ @ @ @ @ > @ . O $ ; @ O @ @ . @ ; O o O @ o o @ O O @ $   ",
"o @ @ o O O @ # O ; O O O O o @ @ o @ $ @ o O $ $ o o ; $ . o ; $ O ; o o @ @ @ @ @ O @ > o @ @ $ $ @ ; @ $ o O o $ * @ ; O o @ > $ o o o $ $ @ ; @ ; ; @ $ @ @ : o ; o @ @ @ ; ; O O @ * $ ; ; $ ; @ o ; ; ; $ ; @ $ $ ; ; ; @ ; , 3 o @ > ; @ ; ; @ , * * ; * ; @ 2 ; ; > @ * * ; > > > @ ; ; ; * * @ ; , > ; ; @ : ; ; @ @ ; @ ; @ > 1 @ 3 ; 5 ; , $ ; 5 5 @ ; > ; 1 , ; 1 > * 1 @ , 1 1 ; ; ; 6 6 2 @ , , , ; > ; , 1 1 ; * ; @ ; ; , > 0 * 1 ; > ; ; 5 ; * 1 t > @ > 5 5 * 1 > ; 6 1 @ ; * > > > @ ; ; ; > 6 * * ; ; @ @ ; , , ; * , @ @ 1 , , $ 5 > , ; 5 , ; ; @ ; , , , ; ; @ @ ; * ; @ 1 ; @ * @ > ; ; ; @ 5 @ ; ; * > ; @ @ ; > ; ; @ $ @ ; ; ; @ > > ; , ; > 5 2 ; @ * > o > $ , * * > @ @ * ; ; ; , , ; , ; ; 2 * , @ * @ @ > > @ > @ @ @ ; ; @ @ ; * , ; ; , ; @ $ o ; ; @ > $ ; ; ; @ ; > ; o ; @ @ @ @ ; ; o o ; ; o > @ $ @ @ @ ; o @ o $ ; ; * o $ > ; ; @ @ $ o @ O ; $ ; @ @ @ @ $ . $ > @ @ @ O o $ @ $ @ o @ > @ @ o $ o O O $ @ O ; @ @ * $ @ @ O $ @ $ $ @ o @ @ @ @ @ O @ $ @ o $ @ $ $ O @ o O o ; @ @ $ O @ ; $   ",
"@ o @ @ @ $ $ @ . ; @ O @ o o @ @ ; @ O O % @ @ O @ # ; @ O O @ @ O $ $ @ o @ O @ o % $ > @ @ @ @ @ @ o @ @ @ @ o @ o $ o X o ; * @ o % % o @ @ > > * @ > o o @ ; O @ @ $ o * ; ; o # $ ; @ @ > ; @ @ @ > @ @ @ ; ; O $ @ @ ; * , * > $ @ ; ; o ; > ; 5 1 ; , 3 , ; $ 2 $ ; @ 1 , * ; > * * > @ @ ; * $ @ ; , 1 @ $ ; * @ @ @ > * ; ; ; , ; 3 ; , * 6 ; ; * , ; ; , ; , 1 , ; ; > , $ ; , 5 ; ; > ; , * ; 1 5 , , 1 6 , @ , , , 6 @ > 6 * , 5 @ 6 2 ; ; * @ 5 > ; 4 1 ; @ , 5 ; 1 1 , , ; 1 , ; > 2 > @ > , 1 ; ; 1 6 ; @ ; > ; , 1 > , 1 @ > * 1 ; ; 2 , , ; , 1 ; * $ ; 9 4 $ @ ; , > 1 @ $ ; ; 1 @ 1 6 @ $ ; ; > 1 ; 6 ; , , , ; ; @ o ; > @ ; 2 ; o ; $ @ o ; 1 * ; * * @ > t @ @ @ o @ > ; @ > ; ; > * , ; ; , , * ; ; @ 6 ; @ ; ; ; , ; @ @ 2 5 ; > @ @ 3 ; 1 @ 5 ; @ ; @ @ @ * , @ @ , @ ; $ $ @ ; ; : @ @ @ $ ; ; @ @ ; ; @ $ @ ; ; * ; , ; @ o @ ; ; ; @ @ ; @ $ O o ; $ $ $ @ ; ; $ $ ; @ ; % o * @ O $ % @ O ; @ o ; * ; o $ @ @ o @ @ @ @ ; > O @ o * @ ; $ o @ ; @ O o ; $ O @ $ $ @ O # $ o O o $ o $ @ O @ @ $ @ O @ @ ; *   ",
"O o o % O . O o O @ $ % o @ O o o @ @ @ o O O @ O % O o @ @ $ @ @ @ o $ @ @ O O @ @ $ O . ; @ o @ ; @ @ ; o @ @ @ o $ $ o $ @ $ * @ > $ O @ ; @ o @ @ @ $ @ @ @ @ ; @ $ $ > ; @ @ @ ; @ ; @ ; ; @ @ $ * ; ; @ @ $ @ ; ; ; @ @ @ , $ o ; ; ; > @ * ; 2 - 2 ; @ ; @ @ , ; * > 6 , ; @ $ @ * , ; ; ; ; ; $ ; , , * , ; > @ ; 2 ; ; 1 * 1 1 ; * ; ; ; ; , , 5 @ @ @ ; ; , ; 1 @ @ 1 > ; ; , , @ ; ; ; > ; 1 6 * ; , > 2 5 > ; , , > ; * ; 5 ; * 1 ; @ , 1 , 6 ; ; 6 @ * * , > * ; ; , * , > @ 1 * @ > * , 6 ; @ > ; , > ; ; * , > , ; , ; ; ; 1 1 ; 1 , 1 ; $ ; , ; , , , ; @ , = ; 3 ; 5 , , * > 1 ; ; 6 1 * 1 $ @ * , ; , , * ; ; ; ; , > ; > * ; > > , ; > @ * 5 , @ 1 ; @ $ * ; * * $ > > @ $ @ @ > 1 $ ; > ; ; * ; @ @ > ; ; ; @ ; ; * ; ; ; * @ ; * @ ; > @ @ , @ ; @ $ ; $ @ ; ; $ ; ; @ ; , * o $ @ ; $ @ ; ; @ @ * ; o * @ ; $ - @ ; ; o ; ; @ @ , $ $ @ ; > @ * ; ; @ ; ; @ o $ @ @ @ @ o O @ > 3 o ; 1 O O @ O ; @ $ ; ; @ o @ $ % o O o $ @ o @ $ > $ @ @ @ @ @ @ @ $ $ $ % $ @ @ o O @ $ @ O o o @ ; O # @ @ O o O o $ O @ @ @ ;   ",
"O $ o @ O o # o $ @ @ O @ @ $ O O @ o @ $ o X @ $ o @ O $ @ ; o $ o @ @ ; @ O $ ; @ @ O @ @ @ O O @ O $ @ % o $ $ @ $ O @ * @ @ ; $ @ $ ; * ; $ o o @ @ # @ : ; @ ; $ $ @ @ ; $ $ @ @ ; > ; ; @ $ $ * @ * ; ; > ; @ , @ @ > @ 2 ; @ @ 2 , @ $ > ; * @ @ > > @ ; ; ; 1 ; ; , , * > ; ; > ; * 3 ; ; , ; o > , ; ; 1 @ > , * ; , ; ; ; 1 ; @ 1 5 > @ 1 ; 1 , ; ; 2 , ; 5 , ; ; ; 1 , * 6 5 ; @ > 6 , , 1 , ; 2 1 ; ; * , > , 4 , ; ; e ; ; 1 , ; 1 > > 5 , 5 5 * 6 , > , , t 1 , > 1 ; , ; @ e * @ > ; , 9 , @ ; ; ; + e > ; , ; ; ; 1 * @ 1 1 , 1 ; , ; O ; * 5 2 @ ; ; > ; , 5 @ @ @ , t , ; , ; 5 @ , , * 1 ; $ * w $ , , , 1 1 , ; * , ; ; > ; * ; * ; 1 > , 6 ; $ * > @ ; 2 , o ; 4 ; * ; ; 2 > ; * @ $ ; ; ; ; @ @ $ ; , ; ; @ , > ; ; ; ; > ; > ; O ; ; ; @ @ > ; O @ @ o ; @ $ O ; ; @ ; * 3 @ @ > $ o @ * ; @ @ > ; @ * @ @ @ ; ; ; ; ; @ @ ; ; 1 * # @ o ; > @ , ; @ > @ ; O ; % O ; ; $ o @ @ ; @ $ @ @ . $ ; ; @ O * @ ; $ > $ $ @ @ @ @ o $ o o @ o o ; o @ @ @ o $ @ @ o X @ @ @ $ O o $ o o @ @ ; o . o ; @ O O % O $ o @ O $   ",
"@ o o @ o @ O @ O o @ o @ @ o @ @ # O o $ o @ > @ o @ O ; ; @ O @ @ @ $ @ o o > ; o @ @ @ $ o $ @ @ o @ @ @ @ @ % $ @ o ; o o @ ; @ o o @ $ o ; $ ; * $ o O @ $ @ @ @ ; ; ; * ; > > @ $ ; ; ; @ ; > 1 @ @ $ ; ; ; @ @ @ @ > @ > @ @ ; , , 1 @ @ ; @ * $ @ , @ , 6 * @ ; * * , ; * 1 1 * ; ; @ * * , o $ ; > ; ; ; ; > , , * * ; ; 1 * ; 1 1 $ * @ > ; ; * ; > ; ; 5 6 1 ; > , 1 , 1 @ @ * ; , , , , * ; , 1 $ ; ; 1 5 * ; 1 ; > , 6 1 ; ; ; , 4 e * 7 , ; 5 @ ; ; , 5 ; @ ; ; , > 1 5 > ; > ; ; 1 5 , * * ; $ 1 5 5 > * ; , , 2 @ ; t ; 2 ; @ 1 t 2 - 1 , , * > @ * , o ; 1 w @ @ 3 , ; ; ; ; ; ; ; ; , 4 ; @ t 5 * , , , 1 ; ; , ; ; * * 3 * 1 , ; @ * * , ; ; @ * ; > ; @ ; @ 3 > , $ 2 1 @ ; @ ; , * @ $ ; , , @ @ 6 @ ; ; * ; * > $ o ; ; @ ; ; ; @ @ @ ; ; @ > $ ; o O * ; > $ $ @ $ $ o o $ ; @ $ @ > ; ; 1 ; ; $ @ ; ; @ $ , * @ $ @ @ ; ; $ o o * $ > @ @ ; ; ; > @ @ @ @ > : @ $ * @ > > @ @ ; @ $ ; @ $ @ $ o $ o o @ ; @ ; @ o ; @ @ @ O @ O @ $ $ $ : @ 3 $ @ o @ o $ @ O @ @ O o $ # @ @ @ @ o ; @ O @ o ; $ . @ @ @ $ @ @ @   ",
"O @ $ O o o @ @ @ o @ $ o o o ; o o @ o > ; * $ o @ # @ $ O o $ ; @ @ ; X o o @ @ o ; $ @ @ @ ; ; ; @ o O o ; O o ; o o $ # $ ; , @ $ $ o # $ ; $ @ , ; * > o @ ; @ ; @ @ @ $ * * @ @ O @ ; ; @ ; @ , $ ; @ o * 2 @ O * 3 @ o @ ; > ; ; @ , ; O : ; ; ; @ > 1 ; @ ; : * ; * > , ; , , ; ; ; ; > 2 o ; ; @ - * O $ ; * = , 3 o @ ; 1 > , ; @ @ e = ; 6 1 ; * 6 @ ; ; * ; ; 0 1 , , 5 $ ; ; , 4 * 2 1 , e ; * 1 6 1 1 , @ , , , ; ; @ , ; ; ; 1 , , 1 1 ; > , @ * 1 5 * o 3 @ @ 1 * , 0 @ 5 * , 5 5 , 6 ; ; @ + , * , ; ; ; , 1 ; ; @ 8 * ; 6 , ; * , @ 5 , 6 0 0 * ; 6 > > ; @ > t $ 3 : @ o 3 2 @ 1 $ 5 , ; o 1 , o * 5 2 @ ; 5 ; @ : ; $ ; @ 1 1 @ O 2 $ @ $ o ; 1 ; > ; ; ; @ 1 1 $ O > > = > @ @ $ > ; $ * 5 1 @ @ ; , , $ ; ; @ , @ @ $ ; ; ; ; @ ; @ 1 ; ; @ * @ @ > ; ; * > ; @ @ ; * @ O $ ; @ $ ; , > ; @ ; $ @ ; ; ; @ @ @ @ @ # @ @ ; > @ o $ o ; @ ; $ O ; o $ @ @ % o @ @ ; * @ $ ; ; @ X # o O o @ > @ # O O $ $ @ @ @ O # o ; ; . % o o O ; @ @ @ o # @ # o $ $ @ O @ o ; $ o O $ @ O @ ; ; o @ o O @ o ; ; @ > @ @ @ @ * @   ",
"O o % O O o @ O O ; O O O $ O o $ @ o @ O o $ ; @ @ $ O $ ; $ o O @ $ O % @ @ @ @ ; O o @ @ $ o # $ ; @ @ * O @ O o ; ; @ o o O $ O @ $ $ @ $ % @ * , o O @ ; , ; ; ; o @ @ $ $ @ @ 1 @ o > * * ; @ ; > $ @ @ * > ; 3 ; $ * ; # @ ; ; @ ; ; ; > @ 5 ; , 2 o o ; @ ; ; @ ; ; @ , , ; # 1 1 O @ 4 5 @ > ; ; , 6 , ; ; ; , 1 4 6 , 4 5 * ; ; @ : ; 8 , * ; > o @ @ , , ; > ; ; * 5 6 * , t 1 ; 1 6 , , > 4 , 6 * $ ; @ ; 4 z 6 ; ; 1 5 6 > ; 4 5 ; @ @ , 1 ; o @ , , * ; 6 4 5 , , ; , > , > > ; ; 1 2 ; 1 , 5 6 1 * , t @ ; 5 y ; @ , 5 * $ @ ; 1 1 1 , 1 ; 5 t 1 1 ; ; ; * ; 5 , , ; , 5 5 * 2 2 ; 4 * ; , 1 , , ; ; ; ; 5 , 1 > > > ; 5 * ; O > 1 5 @ % ; , , $ @ ; 1 5 , , * , ; ; ; ; ; * ; @ $ > @ ; > @ ; * , ; ; ; ; 5 , , ; * , 1 ; 5 5 * > $ ; ; ; $ ; ; ; ; ; @ @ @ ; * ; ; 5 @ @ @ > @ ; @ @ @ @ @ @ @ ; O ; ; ; o 1 5 , * @ $ % $ o @ > o $ o > ; : @ $ ; $ o @ ; @ @ @ ; @ o o o . ; > @ ; * > ; @ $ $ @ # # @ ; @ ; @ @ @ O $ ; @ > @ o % > o @ @ O o @ @ o O O @ $ O @ @ O @ 5 > o @ @ # $ O $ $ $ @ o @ $ o . O o o o $ O %   ",
"O o O o @ @ @ O O $ O o @ @ @ o o o @ @ @ O O @ @ $ O o $ @ @ @ @ @ $ @ ; @ ; o $ ; @ @ ; > @ @ @ @ @ $ @ $ ; @ o @ $ @ @ ; ; @ ; @ $ @ $ @ ; @ o ; ; : ; @ ; ; @ ; @ @ @ @ @ @ > > @ ; @ ; @ $ > $ ; @ o $ > > @ @ @ ; @ @ ; @ @ ; ; @ * > ; o $ 6 ; , * * ; > ; * ; @ ; ; @ 2 ; @ @ , > @ @ e 1 @ ; @ > e @ , > @ ; 5 t ; ; , 6 ; * ; 1 ; + , e , ; * 1 > @ 1 ; 1 @ ; ; 5 5 ; ; , ; 1 , * ; @ ; 1 @ 1 5 t * ; 1 ; 2 , , 1 * , , , ; * ; 5 , > @ ; , , ; ; ; 5 5 + , 6 ; ; $ ; 1 ; 2 , ; @ > 8 1 @ ; 6 , > > > 1 * 4 ; ; ; > > ; , 5 6 , * 2 ; y > > , 1 , 1 1 @ * @ , , ; 1 ; ; $ ; , ; ; ; @ ; 6 > ; ; 5 , * 1 ; @ e , ; , @ * 6 ; w 5 > * ; , ; * ; * * > @ ; > , ; > * 1 6 ; @ , > @ * ; ; ; @ @ O @ ; , ; ; ; , @ @ e 1 ; ; 1 1 * * ; ; , @ @ @ , ; @ @ ; 3 $ ; @ ; ; ; ; ; @ ; $ ; $ ; ; > @ @ @ @ ; @ ; ; @ @ ; * o ; ; ; ; * @ ; @ @ > ; @ ; , 1 @ ; $ @ ; ; @ , @ ; @ @ ; @ @ $ ; @ @ @ @ @ @ $ > @ @ @ @ @ o @ ; @ O @ ; @ $ @ @ @ $ o o o 1 @ @ @ @ @ ; $ @ @ o @ ; @ o $ O @ $ @ @ $ @ o @ ; o $ $ @ @ o @ @ . O $ o % @ @ #   ",
"; $ O o $ $ @ $ @ O @ $ ; @ o @ @ $ O O @ O X @ ; . O @ ; O @ $ o O @ @ @ @ $ @ @ $ @ ; @ $ @ @ @ @ > @ @ $ ; ; @ @ o ; @ $ @ * * @ @ @ @ ; ; @ @ $ . @ ; @ > ; @ * * @ @ @ O $ ; $ o $ > ; $ # @ 6 @ * ; @ ; @ @ @ @ ; ; @ @ ; ; 1 @ * ; ; * ; ; ; ; @ @ 2 ; 6 ; > ; > @ ; 2 $ > > 5 ; ; , ; $ ; ; @ ; ; ; ; ; ; @ 1 , > @ * ; @ , ; @ ; 6 , , ; > * , , , , ; * > @ , , , , , * 5 > ; , 5 ; @ > 5 1 5 ; ; t g , * 5 $ @ * 4 8 * @ 2 ; ; 1 1 5 , , ; > 1 * 5 4 5 * ; ; , ; 3 ; ; 5 ; , , > * , 1 ; , , , o @ > , ; @ > , ; ; > , * 2 1 , 1 1 @ $ ; 3 ; ; - * ; $ > 2 ; , 6 ; * $ * : 1 ; 1 4 5 * > ; * , ; ; 6 , , , ; 2 @ @ ; 1 1 , ; 6 , 1 ; @ ; ; 8 , $ ; * ; > , 1 > o > 1 , @ ; , , 5 > * * 1 ; ; 3 > , ; ; ; 6 : @ ; ; * ; > @ ; , @ @ > 1 > , ; ; ; ; @ @ @ @ @ ; , @ @ @ ; O > 1 @ ; @ > ; ; @ @ ; @ ; ; > @ ; @ ; > @ @ ; ; ; ; , ; @ o ; ; @ * ; 1 @ @ ; @ * 1 @ o @ @ ; ; @ $ @ @ $ o @ @ @ o ; $ $ o @ $ o @ @ ; o O > ; @ @ # O $ ; * o ; @ $ o O @ o $ @ @ @ # o . o o ; @ O O @ @ $ @ ; > o o O @ @ ; $ @ @ $ @ . $ @ @ #   ",
"o @ O o @ o o @ $ $ $ $ O @ @ o o @ $ O @ @ $ o o O o @ $ o # @ O O o @ ; o $ o o @ @ @ o @ @ o % @ ; @ o @ $ @ $ ; O ; @ $ @ * @ > @ o @ @ @ > @ @ o o $ @ $ o @ > > ; $ ; @ > @ * ; ; @ , ; o @ 1 ; ; > @ @ ; ; ; , @ @ $ > , 5 * ; ; ; > ; ; @ @ ; @ ; ; * ; @ ; ; 1 ; 2 @ + ; ; , > ; 1 > @ @ > ; ; 1 , , ; @ , 5 $ @ , 5 ; > @ ; @ * 5 5 * 3 * ; > , 5 5 ; * 6 @ t 8 ; , t 4 * $ * 1 , , @ , , , , , @ , 5 8 ; , ; 1 > 8 5 , * , 6 1 * * 6 w 6 5 ; @ > , , 6 1 @ > e ; ; > ; , ; 6 ; 6 , @ , 1 w * 1 * , ; ; > ; 1 , 2 ; ; * , 6 * ; 5 , @ ; * ; ; ; > * ; ; ; ; @ 1 6 * ; ; 3 * * ; , t 5 @ @ , ; ; ; ; , * ; * * , @ @ ; , , 6 ; @ ; 5 ; ; $ , 4 , @ ; 1 5 * , 1 ; @ @ * w ; e 1 5 ; @ ; > * 2 ; @ ; ; o $ ; ; @ @ , , ; > ; @ ; ; > * * ; $ 1 , @ o o ; @ ; ; ; ; @ * $ ; 3 @ , , @ ; @ ; 1 @ > @ @ > $ ; > 1 > @ * @ ; @ ; @ > ; + @ $ @ ; ; @ > * @ @ $ @ * @ @ $ > @ > @ 1 o @ @ @ O @ @ o @ ; @ o @ $ @ @ > > @ @ $ $ $ ; @ @ O o ; ; @ ; O @ @ @ @ @ @ @ @ $ @ @ o O % . ; @ X O $ @ o $ ; o $ @ O @ $ o @ @ @ ; @ o O @ @ $   ",
"o @ O o O O O o @ @ o o . @ ; o @ @ o @ ; @ $ O O $ @ @ o @ @ # O ; @ o O ; > ; o @ ; @ @ ; $ $ $ @ ; @ @ @ o @ o o $ * $ O @ > ; o @ @ @ o @ @ @ ; ; o ; $ ; ; @ @ @ @ ; ; @ @ > ; > 1 ; @ 2 ; * ; 2 @ ; * ; $ $ ; @ $ * @ ; @ ; @ ; ; > > ; > ; ; ; @ @ @ , $ @ , > * > ; ; 5 ; ; ; > @ , , , ; ; ; ; 5 5 ; ; ; 6 1 @ ; , 5 ; ; ; ; > 1 ; > ; ; > ; % @ , 5 @ , , @ 8 5 , , 6 6 * ; ; 5 @ 6 1 8 , , 5 5 ; @ ; t 1 * ; 6 1 , , 5 1 0 , 6 * ; , , , , * > ; * * t 1 * > , 8 5 1 ; * > ; , 6 , @ * , 1 ; 2 5 , , ; * , e , , 5 6 1 , 3 * ; ; > * , * @ ; ; 5 4 5 5 ; * @ 4 7 4 5 ; * 1 , 1 * * ; ; 1 ; = > @ ; > , * 1 , , , 5 ; ; > ; @ ; ; * 1 > * @ 5 , > 1 , 5 , , , , $ > , , , , , * * > ; > ; , , @ > > ; , ; > > * , , @ $ @ 1 ; @ 1 1 ; ; @ @ ; > @ @ 3 ; ; $ ; @ ; @ ; $ ; ; * * @ ; > 1 ; ; ; @ @ @ ; @ @ @ ; > 1 * @ $ > o ; ; $ $ ; $ ; ; ; o @ @ $ @ @ ; @ $ ; ; * * $ $ $ @ @ @ O @ @ * @ ; @ $ ; $ $ o ; ; @ > $ o o @ @ @ @ @ * ; o $ @ . @ @ @ ; $ @ o o ; @ @ @ : o @ @ O o ; @ @ O o @ @ o O o O O @ $ $ o @ @ @ $ O o   ",
"@ o O O O . O O @ @ o $ @ o $ O o @ O o @ o @ O O o @ ; @ o $ @ o ; % O O @ * ; o o @ O $ ; @ @ @ o @ ; @ o @ ; @ @ $ * > @ @ $ @ ; ; ; ; @ $ > @ ; @ @ $ @ @ ; * ; @ @ @ ; @ ; @ ; $ @ ; o ; , 6 * ; @ ; @ @ ; @ ; ; @ @ , ; @ o ; @ o > 1 * * , @ , # ; , > @ > 1 * @ ; ; , ; 5 , * ; ; * ; ; > 1 @ 2 ; * 1 ; @ * = , > , 5 , $ @ 6 , @ * > , ; * * > @ ; , @ , , 5 t 4 , 1 @ 5 r > 0 , ; = t 8 , 0 4 ; ; $ , 5 , 6 ; > * ; 5 1 , 5 @ > 2 , , , 6 5 > ; 1 1 , 1 6 ; 6 1 8 5 * ; ; 1 1 , 1 , ; > > , 5 , 5 , 6 1 1 1 ; , , , ; ; 1 ; , 6 * e , , y * , , 7 , , 5 , e > , w 4 , > ; , ; 6 t u @ 1 5 , 1 1 , o , 1 > 5 , ; 5 6 6 ; 1 ; 1 > ; > 1 * 1 ; @ , 1 ; , ; ; , ; ; * > t , 6 ; 6 , @ $ $ ; 1 ; 1 1 @ @ ; 1 @ ; , 1 , * > o ; ; * , ; * ; ; $ @ ; @ ; ; ; @ ; @ ; @ @ ; @ @ $ * 1 e @ o @ * @ @ o ; $ o @ @ $ * ; * ; , ; ; * @ $ @ ; ; ; @ ; , @ @ ; ; @ @ ; @ @ $ @ @ @ @ @ $ @ ; @ o ; @ @ > ; $ o > $ $ ; @ # @ o $ $ @ @ @ @ ; @ @ ; @ ; @ $ ; $ o o @ @ ; @ @ @ ; @ $ @ @ > @ o @ o @ > o o ; o O O @ O O o @ @ O . @ ; $ $ #   ",
"O O O O O @ @ $ $ @ O @ % @ o @ @ O O $ @ @ o @ @ @ @ $ @ @ @ $ @ @ @ O @ @ @ o $ @ o @ @ o ; o @ @ O ; ; @ $ ; @ @ ; * @ @ * @ $ ; o @ > @ @ @ ; o @ ; @ ; @ @ @ $ @ ; * ; > > $ ; $ @ ; * 1 @ ; @ ; * ; @ > ; ; 1 - O > , 1 ; @ > @ $ @ ; ; * ; * * ; * , ; ; ; ; > @ ; , > @ , * 6 ; * 2 , * 1 ; ; ; ; @ > > ; ; , , , ; @ t 6 * 5 1 @ ; * 6 1 ; , 1 * * , 5 5 ; , , 6 , ; , , w ; , > 5 5 , , , , , 6 , ; 1 , ; 1 ; ; 6 8 ; 6 , ; ; * 1 , , 1 , 5 ; ; , , ; * = 5 > @ ; , 5 1 ; = 5 , ; , 1 5 ; - g , > @ 2 , ; ; 1 ; 4 9 , * > 1 1 ; , , , , 4 * * , 8 t ; ; > 6 @ @ , 1 ; ; ; , @ > , 2 ; , , @ , * 1 5 , * , 5 @ > 1 * , , > , , > * 6 * @ ; ; @ , > @ > * ; , ; ; e ; , 1 ; , * 1 > ; 2 , 1 ; @ * ; ; > , @ ; ; > ; * , 1 ; @ ; > , ; > * * @ ; ; ; ; ; - > > @ $ ; 1 ; @ 1 o > > ; ; @ ; ; * o $ ; , , > 1 ; ; @ O @ 1 > @ ; ; ; > ; ; @ ; ; , , * * @ , , @ ; ; o % @ @ ; O @ ; @ $ $ ; @ ; o O @ @ * > @ ; @ o $ @ @ ; $ ; ; > @ o o @ @ o ; 2 # @ ; @ O ; @ $ @ @ @ $ O o ; @ O O @ @ @ ; @ @ $ ; $ $ $ $ O O O @ $ @ @ O o %   ",
"o % $ . O $ O o @ o O o ; @ @ o o @ O @ @ @ @ $ @ @ @ @ o @ @ ; ; @ @ @ > @ O @ ; @ o $ o ; @ O $ @ o o o o @ o ; ; @ @ @ ; ; ; ; @ $ @ $ ; @ ; * * O 3 @ * > - $ @ > > , * ; @ ; ; O ; , ; > @ @ $ ; 1 , , ; > ; * ; $ @ * ; ; ; * ; > @ 1 * ; ; @ @ e * * , 1 , * ; ; ; 1 * ; > * ; 1 ; , * ; 1 > ; , * ; ; @ ; 1 , ; ; > $ , 4 , ; $ ; 1 6 5 ; ; ; , > ; , 0 6 1 , , , 1 * 5 5 @ 1 , , ; ; 1 5 6 ; 8 5 4 6 1 1 1 @ , t , 5 , @ ; e ; * 5 1 , * @ 5 2 , * 5 0 , 4 d * ; > , , 5 * 5 , 5 , * 5 , * ; , ; @ * * , > $ @ ; 1 5 * ; ; 1 ; * d 6 , , 1 @ 5 , , 5 , ; * 6 , 1 1 , ; > ; 1 ; ; ; , ; * e * > * 5 8 1 ; > t @ * 1 1 5 * * , ; , * 1 ; 6 e > , , ; @ ; ; > , 6 > > @ , ; @ 1 * ; @ * , , @ ; ; ; > * * ; > > * ; ; , 1 5 6 ; @ * , ; ; ; , * @ > 5 ; @ $ @ * $ @ , 5 ; @ 2 , @ @ ; ; ; @ ; > $ O , 5 @ ; 5 @ o ; $ * ; @ o @ @ > * ; ; > ; @ ; 5 * ; ; ; * @ , * @ # o @ ; * ; ; @ @ $ @ $ ; o o * $ ; ; @ ; @ $ @ @ @ $ @ @ @ $ o ; o @ @ # @ @ @ O @ @ $ @ @ @ o @ $ @ o $ @ @ ; o O o @ ; 1 ; o @ O $ $ ; o O @ O O o $ @ o #   ",
"@ ; O o O O O o . o o @ @ o @ O @ ; @ o O @ @ ; o o % @ o $ @ @ o o o O O @ o @ o @ $ o @ @ @ ; O @ @ ; ; @ $ 3 @ @ o $ O @ o O @ @ ; @ ; ; @ * ; , ; o @ * ; O @ > @ @ ; ; ; > @ @ * ; ; $ $ , > o O @ * $ o @ ; ; , * ; * 1 @ @ O ; ; 1 @ @ $ @ , ; ; > > @ , , ; * 6 8 ; ; ; ; ; * @ ; , , @ ; , , , * @ ; ; ; ; ; 5 5 ; > @ * ; * 1 1 5 = * > , , , > > * , , * , 1 5 , 1 ; ; w ; , ; 5 5 , 1 ; s 0 1 5 1 1 5 1 1 ; ; 5 5 > * , , 8 t , , 1 5 5 1 5 1 6 * , 4 w 6 , 5 * ; , , ; ; w 5 * w t , > y 1 , 1 1 , , > : 4 , , ; * 1 1 ; , 6 5 > , , > @ 5 5 ; * , 6 @ ; , 5 4 1 6 * @ * ; , 5 , , 5 ; 1 5 , ; 1 * @ 6 , > 1 , 5 ; , , , 5 1 1 ; 5 * , , , ; 5 1 ; @ @ ; ; ; ; ; , ; @ ; , ; ; ; ; ; ; ; @ @ 6 5 * @ * 1 ; ; @ ; > @ ; ; ; @ 1 ; ; > ; @ > , , 1 > @ , o ; , @ ; $ @ ; $ @ ; , ; @ @ $ ; : o , 1 O @ ; > $ o @ > @ @ @ > > o @ 1 * ; ; ; ; ; , ; @ $ $ * $ ; $ ; @ @ ; * @ > @ ; ; ; @ @ $ O @ ; O $ @ ; O $ ; @ @ * * ; @ $ @ @ o ; @ @ @ $ @ $ ; @ @ O ; @ o o o @ @ ; . o ; > $ @ @ O @ o @ @ @ $ o @ $ o ; $ o O @ X @ $   ",
"@ @ @ o o o @ @ o @ o @ @ O @ @ @ ; @ o . $ o $ @ O o o $ o ; ; @ % @ % @ $ @ @ o $ ; @ @ * @ $ @ O @ ; $ @ @ $ o @ @ o ; $ @ O $ ; ; ; * @ > @ * 1 $ @ ; * @ $ @ ; , @ ; ; @ ; ; $ > 1 @ @ $ , ; * @ $ > ; 2 ; > ; , ; 3 1 ; @ $ ; ; * 1 O # ; 5 , ; 1 * @ $ , * ; , , 5 ; @ ; ; ; > > ; , ; ; * ; > * , 6 , > ; @ 5 5 8 @ @ > 1 * ; > ; * , * 1 1 6 5 , , , , 8 , 5 , 1 ; @ ; , 6 , > ; 1 5 ; , e s 5 @ > , 4 , 5 , 6 5 , 5 2 1 , ; , , , e > 1 6 1 , 4 1 ; , t 6 6 , , @ > 6 , , ; , ; , 1 w , ; , 4 1 6 5 5 5 , , 8 8 * , 6 6 , , , , ; , 5 w 5 * , 6 ; ; , 5 ; 1 w , , , ; 2 > 3 , ; , 5 5 , ; 6 6 ; * 5 1 , , 6 5 * , 6 * 1 6 ; * 5 5 ; 1 * 6 , , 6 , * ; ; 1 t * 1 ; ; , > ; @ ; , ; ; @ > @ ; ; * * , , > , ; , , ; $ * ; 1 ; @ 2 > @ ; ; > > ; * * ; ; ; > O 1 ; , > ; @ ; # * @ ; ; $ @ * @ @ ; > ; o O 3 , ; @ ; > $ $ @ > ; @ @ 1 * * ; $ @ o 1 > @ @ $ ; @ $ @ ; @ @ $ 5 o @ ; * @ @ @ ; @ @ o @ o $ ; , O O ; ; ; $ ; @ $ > $ @ @ $ $ @ O @ @ @ $ $ @ @ ; @ o % O @ ; ; O o @ * @ $ @ O O X # @ o @ O o @ ; $ o @ @ @ $ $ @   ",
"o o $ $ O $ @ O o $ o $ $ $ @ @ $ @ @ $ o @ O o O $ O @ $ @ o O @ $ @ $ @ @ @ $ > $ @ o ; @ @ @ @ # @ , , @ @ @ ; ; o * 1 $ $ $ @ ; ; @ @ @ ; ; @ ; @ * ; ; ; , ; ; @ @ $ @ @ ; ; > O ; ; @ @ * ; ; > 3 @ ; 5 @ @ ; > @ @ @ @ > 3 ; ; ; ; , ; * t > @ * ; @ > ; * ; @ o * , , 5 , , 1 > ; * > ; ; ; , * ; 1 , $ @ $ 4 @ 6 1 1 @ , t 1 @ $ ; 1 , ; * ; ; ; 5 4 ; , 5 5 @ ; 5 5 , * > 8 ; ; ; 6 5 , 5 , , , 5 * , 1 1 5 1 , 4 ; , , * 1 1 , , 5 @ * , , w 6 ; ; 5 , 5 5 e ; , 6 , * 5 r , 1 e @ 5 , 5 ; 1 , 1 , , , , , , 1 6 5 , , , * , 5 ; ; , , 6 2 5 , @ ; , * , 5 ; > , ; * > e , > * 8 5 , ; , , ; ; t , * 2 ; , ; 6 * * 1 6 * , ; 1 ; @ 2 1 , , 5 1 , 5 5 , 5 ; @ , , , * ; , @ ; , * ; ; ; ; 6 ; > ; * ; , 1 @ 1 6 @ , ; * , , ; > * ; 3 @ 2 ; ; ; ; ; ; ; @ @ @ @ > ; @ ; > @ 1 ; $ @ ; ; ; * $ ; $ ; ; 2 @ o > ; @ @ ; @ @ ; @ ; $ @ @ @ > > $ O ; ; ; @ ; 5 ; $ @ @ @ $ @ , o @ > @ o $ @ $ @ $ @ @ ; > @ ; o O ; $ @ @ @ @ o @ $ % @ o @ , # o @ @ @ @ $ $ o $ O ; O $ @ @ % $ % O o ; @ o @ O ; ; $ $ o @ @ o O o @ o o $ O @   ",
"@ @ @ o O O @ $ @ @ o @ o $ @ $ @ O @ @ @ @ @ o o @ % @ $ @ O % @ @ @ @ @ @ @ o @ @ $ @ @ o $ @ ; o $ 1 ; @ $ ; > @ O , ; @ ; > ; ; ; o @ @ ; @ O $ ; ; * @ * 1 * ; O o ; @ $ ; @ * $ @ > 2 * @ @ > , * @ ; * > > ; @ ; ; * > ; @ ; ; ; * , 6 ; > ; > 1 ; 1 > @ 5 6 $ $ ; 1 , ; > , , * 2 , 1 , 1 6 , ; @ * 1 ; @ ; 5 ; 5 * ; ; ; , ; ; e r 5 , * ; , @ @ 4 , 1 ; 1 6 ; 1 5 4 4 ; 1 7 ; 9 , * 4 z , 2 , , d s , @ 2 ; 1 , 1 w , , 1 5 1 1 1 5 4 4 5 , r 0 1 ; 6 5 , * ; = w 1 * 1 8 5 4 1 ; , t 5 w 5 ; * * @ 6 5 , y 2 * 8 5 , ; 2 , 1 , * 1 , 1 * 6 1 , , ; 1 , 5 > * $ ; e > * > r 6 , t 6 * ; , ; $ @ , 5 ; ; , t , , 5 6 , 0 1 6 5 ; + 3 ; , ; @ 5 1 ; ; , 1 , ; 2 , 4 6 , , 6 * 3 ; ; > ; ; ; , 1 ; > * ; 1 ; 3 ; * * ; ; 1 1 ; ; @ ; > @ > 1 * ; @ @ , > ; ; 1 > ; @ ; > ; ; @ 1 ; @ @ * * 6 , ; ; @ $ , * ; ; @ ; @ * ; > @ @ @ @ ; ; ; @ @ * ; @ O ; > * ; ; @ @ $ @ @ ; $ ; $ @ @ o ; > > @ $ @ O > 1 ; @ @ o ; > $ @ @ ; ; $ o O o $ ; @ , @ . $ ; ; @ O $ $ @ @ ; * @ $ @ o @ o O $ $ o o @ @ $ @ o @ $ @ O O @ ; @ @ % @ o %   ",
"o @ o o O . O @ $ O @ ; O o @ $ o O O $ @ @ $ $ ; @ @ @ @ o $ $ o $ O @ $ @ o @ o @ @ @ @ @ ; @ @ # ; @ o @ @ ; ; @ % * @ @ @ $ @ @ @ $ ; ; ; @ @ @ 1 ; $ @ @ ; @ ; * > > * ; ; ; ; ; @ * > @ ; ; ; * @ @ 1 * * ; 2 @ ; , ; ; * > ; ; @ * * ; ; @ $ 6 ; * ; , * ; 6 ; ; > ; @ ; * , , 1 6 * 1 , 5 ; * 1 , @ , g 5 * , ; 2 > , > > , * 5 6 8 4 6 , , 6 ; ; 0 , 5 ; * 1 5 5 , , , , 1 6 @ > 1 , 6 4 , 2 2 , , 4 ; o , 3 5 1 ; , ; 6 5 5 ; ; 1 5 d 5 , ; = 4 , * 5 5 , ; 5 , , 1 1 * , , 5 , 8 t , , , 9 8 t 1 > ; , * 5 , 4 , ; 5 6 6 , t t * , 5 t , , 1 , t 5 , > ; * > ; , 5 5 5 1 7 , , @ , 8 5 5 , @ ; 1 , w e 5 , 5 , > > , * , , 5 , ; y , , ; @ ; 1 ; ; * ; ; ; > @ ; ; ; , @ ; o 2 1 * 6 ; @ , ; 5 , ; 2 > 1 @ , , , , ; * @ ; ; * 1 ; * * @ ; 2 ; ; ; > @ @ 1 ; $ ; 1 ; $ * ; 6 ; ; > 3 @ @ > @ @ ; * ; , @ ; @ ; , * @ @ , ; @ @ * 2 @ ; * o ; , @ @ @ ; ; * ; @ $ ; ; ; > o 1 ; @ @ ; o @ @ @ @ @ ; @ . @ O @ @ ; @ % @ ; o O @ @ @ @ ; @ @ ; @ @ o @ o @ $ o @ ; * @ o O O @ @ $ @ # O O @ @ @ @ @ o O $ @ o O O ; o @ O @ * >   ",
"o O @ o @ @ O O o O ; o O $ % O O o O $ + @ ; @ $ > @ O ; ; . @ @ @ @ O @ o O @ ; , o ; > ; @ @ @ @ @ o @ - ; $ @ ; $ , > $ o $ ; @ @ ; ; ; @ * ; * > o @ > @ @ * > 1 ; ; @ @ @ $ 3 ; O @ > @ > @ @ > , ; 1 ; @ > 1 @ ; ; ; > ; 1 1 , ; > ; @ $ @ , , @ ; * > 1 * * , 4 5 o @ 6 1 @ * , 5 * > > * 1 6 1 , ; , , 5 5 r ; , , , ; > 1 @ * , t 4 6 ; * 4 5 * , 5 , , ; 1 5 , ; , 1 1 5 , ; ; 6 5 5 4 6 * , 5 , , 5 t 5 - 5 5 ; , , 5 , 4 * > ; 5 5 t , 0 5 w 5 > , 5 9 , 1 w ; * 1 , 5 0 > 0 5 4 5 , , 5 s 4 ; , ; 5 t , , 9 1 ; , 4 , , , , 5 0 , , , , 4 4 4 4 5 ; ; > ; 1 6 * 1 5 * , 4 6 > ; 8 8 5 5 * , t 5 ; , w * 1 , * ; ; ; 5 , , e 5 5 4 d 1 6 @ 1 , * > ; > * ; @ : ; , , * 5 ; * 5 > , * , ; , ; ; , > $ 5 @ 6 > ; 1 * @ ; 1 @ > , ; 5 2 ; ; 1 ; 1 * 1 ; * @ @ > ; ; @ ; ; , , @ @ ; > ; # @ @ > ; , > > ; @ ; ; , 1 @ ; , @ @ ; ; ; o > @ O ; @ > $ o # ; 1 , $ ; ; @ o ; ; ; * @ ; > @ $ , $ o @ $ o O o o , ; @ o @ $ ; O ; ; @ > > @ @ o ; @ @ O @ $ $ ; @ @ $ @ $ O O O ; @ $ @ @ O $ @ @ ; @ O @ O @ > ; ; o @ O # o ; ; O   ",
"o $ o o O @ @ O @ @ @ O o $ @ $ o @ @ ; @ @ @ o o ; o X % $ o ; @ @ @ 3 ; @ $ ; @ @ @ , @ @ @ , ; @ $ $ ; @ @ ; @ @ * $ ; : @ @ @ @ o * ; @ ; ; ; @ ; * @ $ $ ; ; ; + @ @ ; @ @ ; o ; O @ ; @ 1 , > * , ; * ; 1 , @ @ , , * 2 > @ * 6 , ; ; ; ; > > @ 6 1 ; ; ; > * ; ; , , > ; 1 ; > , ; 1 > ; ; ; > 5 ; * 1 , , ; 6 @ > , , , , > ; 1 , , 5 , @ ; ; d 4 5 , 1 , , , 8 5 ; ; 6 t 5 > d 5 1 ; 1 1 8 1 1 1 , t , 5 5 1 + z 5 5 5 , , 5 5 w * 1 , , ; t 4 5 5 ; t , , 1 , 6 5 * t 5 5 , , 5 6 4 5 , , 5 , 6 5 5 w 5 > 1 5 , , 1 6 , w t , 1 6 1 > , 7 4 6 , 8 5 ; 1 1 , 1 ; 5 , ; , 5 1 5 ; , 5 , 4 ; 6 , , , 5 ; , , 6 ; , 8 t 1 > , 1 , 4 5 = * 1 5 1 @ @ 5 w ; , 6 ; > * 2 , w 6 > ; , 5 > > 1 , @ ; e 5 * * @ @ , @ ; * ; 1 , 3 ; * > ; ; , ; ; ; @ , * , > ; , ; ; ; @ > 1 , 1 * 5 ; ; ; ; * ; 1 @ ; > ; , @ o > ; ; @ @ , $ * * , > @ @ ; ; @ @ @ , @ @ @ $ @ ; * , * @ O > @ @ ; @ @ o $ $ ; ; $ @ o ; ; @ % @ o $ ; @ ; @ @ @ $ @ $ @ @ ; ; @ $ * @ O o > 1 @ @ $ $ o o $ @ @ @ $ $ . . @ 2 $ o $ @ O $ @ O @ @ ; o X @ O o @ @ @ $   ",
"O O @ O @ @ @ @ $ o o . o $ @ o @ ; ; @ @ o o % $ @ @ $ @ @ @ @ @ o @ * , @ o > ; @ ; ; O @ @ ; ; @ @ ; ; ; $ o @ O > $ o o * ; ; ; > ; @ $ @ @ > O o ; , o ; ; * * o o $ $ @ @ ; @ * ; * ; ; 1 , ; ; 1 , ; ; , ; $ ; ; ; @ ; @ > , @ @ > ; ; * 5 - * 5 * o @ ; 6 , 3 ; 5 5 , ; ; ; $ , ; * @ * , * ; , ; ; ; $ ; ; @ ; q , 1 5 5 , 6 ; $ > > O % $ 1 5 5 2 ; ; 5 4 5 5 , 2 * = 8 , , 7 5 , , ; 5 w 5 @ ; * , 8 8 , r > , , , 6 , 1 4 g r , 2 * > y 6 r 8 ; , * 6 * > > @ 4 f d , , 5 j 4 ; 1 5 ; , ; 0 6 , 5 t , , 1 , 1 5 6 $ ; 5 , 1 , 1 ; o ; t , , 1 w @ * 5 5 4 ; ; w 5 @ * r > $ , 7 w , , , , ; 1 5 ; > * ; * $ 5 i 8 * @ 1 1 2 , 8 9 ; @ > 1 > 1 6 r , 4 , ; > * 6 = 5 5 ; t , 5 ; @ > @ ; > , , ; : @ > 5 w ; 1 6 * @ 1 , > ; o , 1 @ $ > > ; > @ ; ; > @ 4 ; O $ , 4 1 * ; > $ > - ; ; 5 ; ; $ $ * ; @ ; > ; @ @ ; * ; ; @ ; ; @ @ ; > ; . ; ; ; @ ; ; ; * * ; ; @ 3 @ o , ; > O O # @ ; @ % # $ , * ; ; @ @ o ; 1 * @ O , @ o $ @ $ @ > ; ; ; # o ; ; $ @ @ o o $ @ $ @ @ * O X O ; ; O $ ; $ @ @ @ O ; @ X O @ @ @ @ O @ @ $   ",
"O o @ O @ @ : X O o @ O O @ @ O # O o % @ * ; , ; o o ; @ @ @ @ $ ; O @ ; $ $ @ o @ @ ; * @ @ ; @ @ $ O o $ @ > > @ @ @ $ , ; @ ; o @ @ ; @ @ $ ; > ; $ ; , 1 ; @ , * 1 @ ; ; , + ; 1 , ; ; @ @ @ ; $ 5 , ; @ ; 0 , , , , ; * ; ; , , ; > * , ; ; ; , , ; @ , 8 8 @ > ; @ ; ; ; ; 1 * $ $ 6 1 6 , * : o * * 5 1 > 1 5 , 1 * ; 5 4 * ; ; ; 6 , ; , 1 7 3 @ ; 5 1 , , 5 5 * ; e 5 4 d ; ; 6 * 6 5 ; 5 , , 5 1 , 5 t 4 4 5 t 5 , 8 5 , @ ; * , d 8 , 5 t 4 5 d r 4 5 9 6 2 ; i f = > 4 > 6 d 5 * @ ; 7 7 s 6 , , , , , 1 ; 1 , , ; , 6 ; ; @ , 8 8 , 6 4 , 5 5 , 5 6 5 @ , ; , w > ; 4 $ 1 1 1 > 6 > @ ; 8 , , 6 * 9 5 > , * , , 5 5 4 , , r 5 ; 1 , 6 > ; 2 : > 6 * @ * 1 5 e 2 * 5 1 ; 4 , @ ; 5 , , ; , 5 ; ; > * 9 , , ; # ; 5 9 , @ @ ; 6 ; * 2 ; > ; , , , 4 8 ; ; @ > 1 , ; > @ 1 @ 1 5 @ # $ ; ; @ @ @ ; 5 , ; ; @ ; , , ; o * * @ ; ; @ ; , ; @ $ @ , 1 @ @ 1 @ $ $ O o ; @ o @ $ , , * o @ @ @ ; @ $ @ ; @ ; * @ > $ O * ; @ $ O O $ @ $ @ @ @ @ ; @ ; o o $ O O 2 ; o . o > o o $ @ % O O O # @ O @ ; @ o $ * @ O O % $ @ O @ @ $   ",
"o o o @ o O @ O O @ @ o O $ o @ @ X o @ $ @ $ @ @ O O ; @ ; $ @ @ @ o @ @ @ @ o @ $ $ * $ o o ; @ o $ o @ @ * ; @ @ @ @ > * @ ; > @ @ @ ; ; ; @ ; ; * @ o * ; > @ ; 5 * , > O @ > @ ; ; ; > ; ; * $ ; , * ; @ * , * , $ , ; 3 @ ; 6 ; ; * * > ; @ , 2 1 ; > > 6 * $ ; * @ ; , , 1 > > , @ 1 ; * w @ ; @ > y 5 @ ; , , 6 > ; , w 5 ; , 1 ; , 1 5 4 , 7 - , 5 , 1 1 6 , 5 y 5 6 5 6 5 > , 1 9 6 , * , , , 4 5 1 * , 5 5 5 8 5 4 d 5 ; 6 5 1 5 8 5 5 , 6 5 , t 5 , 9 4 * e * 5 t w , t , ; 1 , ; ; 5 6 5 5 5 5 , 9 t 1 > , , 6 t 1 , 0 6 5 , 5 6 6 5 , 6 5 5 , * 4 , , , 5 , 6 6 , , 5 > 5 1 6 5 ; , * 1 d 6 * 6 ; , , , , , 8 * 1 8 5 5 6 5 , 5 1 ; ; , @ * * * ; , 5 , ; , 5 5 , , 1 ; 5 6 @ > 1 ; , * ; > ; ; ; > 1 6 ; ; ; - , 8 ; ; , + @ > 1 * 1 , ; ; * ; , , ; ; @ 6 * * , ; ; ; ; * ; ; @ @ @ * ; ; @ @ 1 2 ; ; $ $ ; ; ; ; ; @ ; 2 $ @ ; ; ; ; ; @ $ 5 ; ; > @ ; $ @ @ ; > $ @ $ ; ; * @ @ ; ; @ o ; ; ; @ @ ; ; > @ o > > o @ @ @ o @ ; $ ; ; @ @ @ @ ; @ @ o @ $ @ @ $ o O $ o ; @ @ O o @ $ $ o @ $ % @ @ > @ $ o . O @ . @ @ $   ",
"o o @ O O O O @ o @ o O o # @ ; @ 3 * O @ o @ @ $ @ @ o o ; @ @ ; > @ @ @ @ ; @ ; @ @ ; @ @ $ ; @ O @ ; ; ; ; ; o $ ; @ $ @ o @ ; @ 2 $ @ ; ; @ O ; $ > , 5 * , * ; ; @ ; * ; $ > , * @ O ; , 1 , , ; ; * ; , , @ , 1 o ; > ; $ ; 1 @ 5 , @ ; ; , , ; $ ; $ * > @ ; ; ; , , ; , 5 @ @ , 6 , > * > 1 1 * w 1 @ * > , ; 2 , e , , , 1 , 5 6 @ @ ; 5 t 5 5 4 5 ; ; 1 g 4 @ 5 8 j 6 ; , l * ; r , 5 6 8 t 6 w , 5 5 5 , 5 6 5 5 6 5 5 1 5 , 5 5 , , , 5 ; e , , 9 5 5 d @ , 5 w * 1 r 5 4 5 6 3 ; 8 f 6 * 5 , 5 6 d , , 5 f 4 5 5 , 5 * 9 s s , ; 5 6 8 , r 6 , , , 6 , 5 1 , t , 5 ; , ; , 4 * e * 6 t 4 , 4 , t , * 6 , , t t w * 1 5 w * ; d r @ @ > 6 ; * t t ; ; 5 5 ; , , 5 , ; ; o * 8 , ; , * 1 , , ; 1 , @ ; @ O , t , @ 1 5 * > 0 , + ; 2 * 6 * , , , > ; @ , > , 5 ; ; * * ; @ 6 ; @ ; 5 , @ ; * @ @ @ @ 3 ; ; ; @ o # 3 * 5 2 @ ; 3 @ @ @ ; 1 * > @ @ 4 ; @ * 1 @ * > @ ; > # ; ; @ @ @ ; ; ; ; @ @ @ ; ; $ o @ $ ; ; o @ ; o @ ; ; ; ; ; o ; ; @ ; @ o ; $ $ @ . O @ @ @ o $ $ O @ > ; @ @ O $ @ X O $ o @ $ ; ; ; @ O o @ O O %   ",
"O @ @ O O # O @ @ O @ O o @ o @ @ : @ $ $ @ @ @ $ O + # o o $ ; ; o > ; o @ > o @ > @ @ $ ; @ ; @ @ @ o @ ; > ; @ o > @ # ; ; * ; @ ; @ $ > @ @ > ; ; , > > ; ; ; ; $ > @ ; ; @ * , ; ; @ @ * > * , > ; ; 1 1 > ; , ; @ , ; * , @ @ @ y w ; @ ; 5 ; , ; ; ; ; o ; > > ; , 2 * , , @ ; , 2 * * , ; @ 5 , 5 * * 1 , 5 5 @ , , , t , , , , 1 1 ; , , 8 , 1 5 6 , ; , 8 6 ; * 5 5 * ; 5 s 0 1 5 , 8 d 4 , = 8 5 d 5 5 , ; 6 1 , 4 ; 5 , , t 8 4 6 y , 6 5 1 * 5 t , , r 1 d 5 8 1 * s 5 6 w 5 ; , 9 7 = 6 w w w 5 , 5 , , D 7 ; 5 5 , 5 4 , 5 , * * * 5 * , * , , 5 8 , 5 * ; t 5 5 1 1 , 7 8 * 5 6 8 d , ; e 6 5 4 8 5 5 5 , 5 w 1 1 * 5 6 , w = * @ ; , ; 5 5 4 , > , , 1 1 , , , > , ; = , ; > > @ ; 6 6 , 6 ; , ; ; : 5 4 * , 1 * ; ; ; ; ; * , ; t * 6 , ; @ @ ; 2 * 1 1 1 @ 3 , ; ; , ; ; ; * 5 @ , * @ * , ; @ ; $ ; ; @ $ @ * 6 , @ @ o , o @ > * + ; ; o , $ @ ; 1 * $ $ $ ; $ @ @ ; ; ; ; > @ ; ; ; ; ; ; @ ; o @ o @ ; @ o ; o @ o @ @ ; ; o * $ @ ; @ @ @ o ; @ O $ @ o @ % @ ; o $ $ o @ @ @ ; @ o % @ @ > o @ @ > @ O o @ : $ O   ",
"o @ $ o @ o O o @ o ; O O > @ o O o . @ o @ @ o O o @ $ @ O ; $ $ @ ; @ o $ ; @ > ; @ @ $ , ; @ @ > @ @ ; @ @ @ @ $ > @ > ; ; ; @ @ @ $ ; $ @ > * @ @ @ @ @ * , > $ @ ; ; 6 1 , , @ > ; , 1 @ ; , ; > ; ; ; * ; @ , ; ; , , 1 , ; * , * * @ , , ; 1 , , 1 ; $ * 1 5 @ 1 , * 2 ; > ; 1 * , 5 , 5 6 1 ; ; t * 1 > * 5 , ; 5 ; ; 6 5 ; , * ; , , 1 * , 5 , , , 5 1 , , t d 8 t , 5 5 5 8 6 1 6 5 8 r 4 1 8 5 , 5 , 5 t 0 , 5 8 t , t 6 5 8 f 7 , g 5 , w 5 = 5 8 1 6 5 4 r r 4 t 4 5 w > 8 4 9 5 4 5 ; t * ; d 8 5 > 6 , * w 6 , t 8 w , * > 5 4 , 1 5 6 5 6 5 6 5 * , 1 ; 6 6 5 , 5 , $ r t , 5 t , , 5 1 * 8 7 t t 6 1 d , * , , 6 ; 5 5 1 , , t y > 1 1 8 , , w , 1 , , , * , e 6 * e 5 , 2 * 1 5 , * , 5 1 , 1 @ @ 5 1 * ; * , 1 5 * * ; 8 9 , * , ; , 5 * ; , , ; * @ ; ; ; ; $ ; ; @ ; 5 * * ; 1 > * , 2 * ; ; @ $ ; * ; ; @ @ @ , ; @ @ @ ; ; ; @ ; ; ; ; > @ > ; * > @ o ; ; O 2 ; @ ; ; @ @ @ @ ; @ $ $ @ @ @ @ > * $ @ @ $ ; $ @ O ; * @ @ o > # @ @ @ @ @ @ @ @ ; $ $ # O o O @ $ ; . o > @ o @ @ @ @ $ @ @ @ @ @ @ @ O % @ $ @ O   ",
"O @ o O @ o @ . O @ @ o o O @ $ $ # O ; O $ @ @ $ o ; $ @ $ o @ @ o @ @ ; $ @ O @ @ > O @ @ ; @ @ @ @ @ 1 $ @ $ ; * * o * * ; @ ; ; * @ @ @ ; ; @ 2 @ ; @ @ ; @ ; ; @ @ ; * , 5 , * @ ; , 6 @ $ ; ; * , 1 @ > ; ; 5 , ; , , * ; ; 1 6 ; > ; * ; @ 1 * , 1 @ , 5 8 5 @ , 5 * 2 > , 5 2 1 ; , 1 , @ 1 > ; , 1 ; ; ; , 5 5 t > 1 , + , 5 > 1 5 , , e 1 5 y ; 5 , 5 4 , 4 9 4 4 y , 5 5 5 , 5 6 6 , 5 , , f 5 , 5 6 7 8 t 5 , 5 , t , 6 , 5 5 t , , d 8 , 2 5 5 8 w 5 , 4 t 8 4 d 0 4 5 * t , 8 4 1 y 4 4 1 , , , , , 4 6 1 6 , * 6 4 , 6 ; ; 9 s 5 * , 5 5 t , 5 , 5 5 5 1 , 5 = , 6 8 * 5 9 , 8 , , , 6 ; ; 8 r 5 1 ; 4 4 , 5 1 @ y t , = 6 ; ; 5 4 * 1 t 5 ; , , , 1 , 1 , , ; * 5 , @ 1 = ; @ , 5 , , 6 1 ; 1 ; 1 ; 5 ; ; $ > 6 6 1 1 > , 5 4 ; > > ; ; ; 1 ; , , ; ; @ @ ; 1 * @ 2 , @ o 5 , ; ; ; > @ 5 1 , 1 ; * ; > @ , 1 ; O : 5 ; ; $ o ; * @ ; ; @ $ @ o $ @ ; @ ; @ @ > @ $ ; ; ; ; @ @ @ ; @ ; * @ @ @ $ > @ @ ; ; @ @ ; $ o @ $ $ ; @ o $ * o ; @ ; @ o ; ; o > $ @ @ o @ O ; ; o O @ @ $ @ $ @ @ @ $ $ o @ ; @ o @ @ o @ @ @ $   ",
"@ @ O O o o O O o @ O @ @ O @ $ @ o ; > @ o o $ ; @ @ O @ @ @ @ O $ @ o $ > @ o @ ; * o @ @ ; ; @ o O @ @ > @ > ; ; @ ; > ; $ . o , , @ $ > ; * @ ; , @ ; @ > * ; ; ; , ; @ @ 3 ; , ; @ @ , * ; ; ; @ 1 , @ > 6 , * , , , ; @ ; @ , > ; @ , ; , @ , ; * @ > 4 4 5 > ; , 6 1 1 , * , , ; , , * > ; , , , ; 6 , ; > , d , , ; , 5 * ; 5 d 5 * 2 * , 5 , 2 5 r s t 5 , , 5 5 5 6 5 6 , * * 8 4 5 1 , t 5 r j w , 8 s r , g 8 5 , 8 s , 5 4 , 8 5 4 5 t 6 5 7 = 6 5 5 t s 4 , 5 , 5 t , , t 8 5 0 w 5 , , w 5 g t 5 5 4 1 6 w 5 6 5 0 ; 2 , , t 5 , 1 5 7 5 4 5 , 5 r 5 8 8 r 6 , 5 8 r 6 , 6 4 5 1 , w r 6 5 5 8 , @ 5 t ; ; r g ; , d 5 , e 5 , t 6 , 1 * 0 1 , , 8 5 , , 5 5 6 ; * , , ; , 5 t 1 = 1 , ; 1 , , , 6 , 5 * 1 5 1 ; , , 1 6 ; , * ; , > 1 * ; * , * 4 5 ; > 1 * ; ; , 1 , ; @ ; , 6 , . @ $ ; @ ; > 1 ; , o @ ; 5 ; @ ; @ ; > ; * ; o * @ ; ; ; > ; ; @ @ > , ; ; ; ; ; + $ ; @ @ ; * > : > o ; , @ o $ @ 1 > o @ @ > @ o $ ; $ ; $ @ $ @ @ @ $ $ $ @ $ ; $ @ o @ > @ @ O $ @ $ $ @ ; $ @ o O @ ; @ ; $ O ; $ @ % @ $ @ ; ; 2   ",
"o o o O O @ % O O $ O @ @ O @ o @ % o o o @ O ; $ @ @ ; @ o ; $ o @ @ @ @ @ > ; o ; @ @ ; o @ @ 1 @ ; @ @ * * ; ; ; $ ; ; ; @ . O ; 2 ; @ ; > * $ ; * * > ; * ; @ @ ; @ * ; @ ; @ , 3 @ ; 6 , * @ * ; 1 * * ; 6 4 ; t , , > ; ; $ 1 ; 1 1 1 > 1 = 6 1 + > , , * > @ ; , , @ 1 ; , ; > , , 9 1 * * , ; , ; ; 6 ; @ ; , * 1 1 * t 5 , w 8 4 , ; 5 , , , * = 8 r 6 * 6 t * , w 5 1 e , 1 r j 5 5 5 w 8 8 7 5 4 5 t s 7 1 7 , , t r 4 8 5 t 5 6 , j 4 8 r w , 5 5 5 5 8 l 5 1 5 , s f * l , ; 5 1 8 5 , 5 t 4 , 5 t 5 4 5 4 5 t 4 4 5 5 * 5 8 w , 1 y w 5 8 w , , 7 f 6 8 8 t , = 1 5 5 4 , , 9 , , 1 , s 5 8 w 5 1 5 e 5 1 , s s 5 ; j w , , t , , 5 w 7 ; , 5 = 6 , 4 y * * , 8 , @ 5 6 > 5 , 8 ; ; w , @ e ; ; , * ; ; @ ; 4 = , 5 > ; 1 @ 3 ; > ; * 1 > ; ; 5 2 ; , ; 1 1 ; @ 2 * , 1 , , ; @ , 1 ; @ $ ; ; ; @ ; @ 2 * ; $ @ ; 5 ; ; @ ; ; * > @ > * ; @ * ; 1 * > ; , 2 @ > @ ; @ @ $ @ $ @ @ ; ; @ O o , 1 @ ; @ $ > @ o ; @ @ @ @ @ @ @ @ * $ @ $ ; @ ; @ @ @ $ @ @ @ $ @ ; @ o @ $ @ @ @ ; $ O @ O @ $ o % @ @ O o % @ @ @ $ $ ; ; ;   ",
"@ O O o O o O o O $ O $ O O @ O @ $ @ o @ @ @ O @ @ O @ ; @ @ o @ , @ $ @ o $ * @ @ o ; 1 @ o % @ ; % o ; @ $ ; O @ , @ @ ; * ; ; @ ; * ; ; ; ; $ o @ @ @ @ ; * ; * $ > 2 ; $ > @ @ ; ; > ; > > > , @ ; ; , * ; 5 * ; , 1 * * * > ; ; @ @ , 1 ; @ > ; * ; 2 ; , , * ; 1 ; ; ; * , 5 1 ; ; , , > $ 1 ; , ; * , > ; ; 1 2 , f 5 ; * , 5 , * 6 5 @ * 1 , 4 5 , 1 , * w 5 4 5 , , 5 5 5 7 7 7 ; , s B , 5 t , s l , w s 4 r d d 5 t s d g t 5 6 = w t 7 5 5 8 5 4 4 t r t 5 6 8 5 , 5 t , 5 8 9 8 1 6 8 8 w , , , d 5 , 5 5 5 5 * t d 4 5 5 r t , * 6 * 8 ; 8 d 4 5 4 1 , 5 8 , 5 5 s 4 , * , 6 , t 8 , d , 5 , 6 4 1 t 1 8 g , , j s 4 6 , 1 w , 6 1 1 t 2 @ , 9 5 * 1 t 5 , , 1 , , 5 t ; * 5 , @ @ 6 1 ; > ; , , @ ; - 5 , 4 6 1 ; * 6 ; ; 5 ; , 2 ; ; 5 , ; * > ; ; ; ; ; > ; , , ; ; , ; @ ; > , , , ; $ @ ; @ @ ; * $ > ; ; * ; ; o ; > 1 , ; @ @ ; ; ; , : ; @ @ ; > 1 ; > $ o @ - > > @ ; @ $ ; ; $ @ $ @ > @ @ ; ; ; ; ; $ $ $ @ @ ; > * o @ $ ; ; > @ @ @ @ @ @ @ ; @ @ o O $ o $ ; @ $ o @ $ ; % O $ @ $ ; * @ @ @ @ $ @ o o ; @ #   ",
"$ o O O O O $ O O @ O O @ @ o @ o @ $ $ ; @ # o @ ; @ @ @ @ @ @ > $ o ; @ $ @ @ 3 > $ ; ; o > > o * @ > @ @ ; @ @ o , O * ; @ * , ; ; - @ @ > * @ > , > > @ @ @ e @ ; @ > ; @ 2 ; @ @ , @ ; > @ > > o , , , ; 2 @ * $ 5 5 @ , 1 ; ; ; ; 2 1 , ; > ; > , 1 ; ; , 1 > ; ; ; , 1 5 5 , , , 5 5 w 3 @ ; > 1 > 1 5 , 6 ; , , , 5 , , ; , w 6 , 1 4 , 5 4 1 1 1 1 , 6 6 4 5 5 8 5 6 , , w r 8 w 5 4 h s 8 , 5 6 t 5 4 , 5 , 5 t l , 7 j 7 4 9 w 5 w t , 8 5 d 8 6 6 w , 5 8 4 6 t 4 5 t 5 , 6 4 5 4 * t 8 5 r ; ; 8 8 8 t 5 4 , 6 5 ; 6 t 5 6 s r 5 t * 6 5 8 6 5 8 g 5 , , d r , , 5 7 5 8 , ; g , , , 6 r 4 t , 1 , t , t = , = w r 7 = 5 , * t 4 5 6 ; , < ; , 6 5 , , , 0 , ; 1 1 , 6 4 5 5 6 @ ; > @ ; @ > 1 1 5 ; @ * , , t 5 , , ; , > ; , ; 6 * > , ; ; 2 , @ ; 2 1 @ * 5 5 ; , > , , ; ; ; 3 @ ; @ ; , $ $ $ $ ; 5 ; o ; ; @ * > @ ; * * ; ; > : @ @ 6 @ @ $ @ ; ; @ ; * > @ @ ; $ ; $ * > o @ @ $ @ o ; @ @ @ @ @ ; * @ @ @ @ O @ o o @ @ o @ ; @ @ * ; ; @ o ; @ @ * > @ $ @ $ @ $ o $ @ $ @ @ @ @ @ @ @ @ @ ; ; @ o $ $ O # o o @ #   ",
"@ @ O O @ @ O O O @ @ o @ o o @ $ ; @ @ % O @ ; ; @ O O @ $ o @ ; @ @ @ @ ; $ o @ $ 1 > o O ; * ; $ @ @ ; * ; @ ; ; * > @ ; $ ; 1 , $ $ > @ ; * ; ; > ; ; ; * ; 5 ; 5 * > > @ * , > * ; * ; , , w * ; ; 1 5 ; * @ * @ , 1 * ; , , 1 @ , 1 , * ; 1 , , , 1 @ * 1 , * e * * , 4 ; ; * , ; 1 ; ; * 1 5 , 5 5 , * , 5 ; 1 w 4 , , * 9 5 , * , , 4 5 t 5 w 5 1 t 9 , , 5 w 5 , , t t 4 , , , 8 d 6 w , t 8 5 d r 4 , , 5 8 5 5 5 s 5 , 8 5 g , r 5 , 5 r 8 6 = t d , 5 6 , t 5 , 5 5 j 4 , r 4 8 5 6 5 f , t s t ; w r 5 8 8 t 4 5 5 1 5 d , , 6 5 d 9 g s d 5 5 , 5 5 7 7 , 5 r 5 , 1 , d 6 , t t , 5 2 5 5 g w , ; 4 8 5 ; t t s 5 > e , 5 t t , w 4 1 t @ * , , 6 5 t , * 5 1 , 1 , , @ 1 , 5 > 5 5 5 , 5 , , , , ; > 4 , , 1 , 1 > @ * 3 ; , , * > ; e ; ; @ ; , , * ; 1 , ; 1 , 1 ; @ @ ; ; $ ; @ ; ; , , , ; @ > @ , * ; ; ; , , @ , , @ > ; * , ; 4 * e @ @ , 1 @ , @ @ ; @ @ 1 1 @ * ; @ @ ; ; @ @ $ 3 2 ; @ @ @ @ ; * ; ; > ; O 1 @ @ @ ; * ; @ ; $ @ $ $ @ > ; @ @ * > @ @ $ O @ $ @ # @ > ; O @ ; 1 @ @ ; @ @ @ @ @ @ $ . > ; O @ %   ",
"@ @ o ; @ $ O o @ o $ @ @ O . @ > @ O o $ o o 1 , @ @ X @ ; o O o @ @ $ @ > ; O # @ * # @ $ @ * ; @ @ @ ; ; @ ; * * @ @ ; $ o ; + , ; o > , ; ; ; ; ; @ $ ; , 6 1 ; , ; * ; 2 ; , ; $ ; * , , 6 , @ ; @ 1 , 1 > ; ; 1 * * 5 , * 1 ; , , , ; * > ; , 5 , @ , 1 ; 1 , , , , , 5 > ; , 1 , 1 1 @ * 4 5 , , , ; , 5 , , * w 5 > , 5 g , 5 , ; * w 5 4 , , 5 , , 4 9 d 5 , 4 6 4 5 s 7 5 6 t 5 7 7 4 , w 8 r 7 9 g 4 t 5 8 5 t w k t , 5 8 f 4 d , 6 5 , r r 8 4 s 5 8 t , g 8 , , 5 s 8 5 8 t 6 , d s s , 8 8 5 , 5 8 5 t 8 7 w 8 5 5 , s , 1 5 8 s 7 8 7 r 5 , = ; , 7 t ; 1 5 t , , ; 8 ; r 8 , , , , , 5 8 , 6 , w f f 0 w 5 5 t 5 ; 6 d 7 5 5 6 5 t 8 > , 1 5 5 , 5 5 , , , 5 6 5 , @ ; 1 , , 5 5 , 1 8 , ; 6 ; ; 6 7 1 2 1 5 * * 1 6 * @ 1 , ; 5 , * , , o ; 6 , , * 5 1 * ; ; , @ @ @ > @ @ ; ; ; , w 5 5 1 @ ; @ * * 1 > ; , , ; 5 ; 2 $ @ 6 * @ 8 , ; o ; 6 5 @ 1 2 O ; , ; ; ; o > ; * @ ; @ ; ; @ @ * @ @ ; > % ; O @ * * ; @ ; @ : > * * ; $ @ ; @ @ @ @ * @ @ ; @ @ * @ $ O $ O o @ o @ ; % o $ @ $ @ @ $ @ $ O > @ $ o O @ o * @   ",
"@ @ O @ o O o O o O @ O o @ O @ @ * O ; @ $ @ * @ o $ @ @ ; @ ; $ @ @ @ @ $ o o $ ; O $ ; > ; o @ $ ; ; @ @ * @ @ @ * ; > @ ; 1 ; , ; @ $ , ; @ o > ; * : * , , @ @ @ = ; * ; > ; @ $ * ; 1 , * * ; 1 ; > o * 1 ; 1 1 * > 6 * ; ; , 1 ; 1 , ; ; 1 6 5 ; ; > * ; , ; , , 2 6 , ; 1 , > , 1 5 * 5 5 , w w ; * , 5 , , , , 1 5 5 5 ; 1 , , t 8 7 4 t 5 6 1 , r 5 6 , 5 8 8 g 4 , f 8 5 t 8 5 5 9 4 j r 8 8 s f s r d 5 6 , 8 7 s t 8 s * 5 5 r t d r r f 5 t t s s 8 d t 6 4 t s t 5 5 5 6 5 1 , t i 8 d d 5 4 7 t 4 4 r = 5 s 4 j t 5 6 t 5 , 9 , , 5 , 5 4 d 5 t f 8 r 5 5 * 6 8 t 5 5 5 t 0 , w 5 w 8 6 t 7 5 , 5 5 d ; , 1 , 8 G , t 4 5 , t 5 5 = , ; 5 5 5 4 5 e , r g * : t , , 3 , 5 ; 5 , 1 * ; t d , ; 5 ; * 5 ; > 1 , 5 5 * , ; 2 , , ; * * 3 5 * ; 1 2 @ ; > ; ; ; , * ; > , 1 ; ; ; 1 , @ > @ ; 5 , ; ; @ > ; ; > > , @ $ , @ * @ @ > ; > @ ; @ @ ; ; @ @ $ $ @ ; 1 > @ @ @ ; $ - @ @ @ o 1 ; @ @ ; @ ; ; @ @ O o @ @ ; ; ; @ @ , , @ $ @ $ ; @ $ @ ; @ $ ; > $ @ @ @ @ o * O o ; @ @ @ % o > @ ; > @ o o @ O @ O ; @ @ @ $ ; @   ",
"o o O o @ # @ o o @ O # @ @ % O o @ O ; @ ; $ $ ; @ @ $ ; @ * @ o ; ; @ @ @ $ @ $ * O ; @ ; @ @ @ ; @ @ @ ; ; @ ; o @ ; * @ > , , ; , ; @ ; ; $ # > ; > ; * ; > ; @ @ * 1 @ @ > > ; ; ; ; @ ; , , ; ; @ o @ > ; ; , $ , ; > * ; , 6 > , 1 , * * , , 5 , 6 3 , 5 5 ; 5 @ 1 1 ; 5 g , * ; , 5 6 5 1 , t , , > ; 5 w 1 , ; * w 5 1 @ 1 ; 1 4 5 5 , 5 1 5 0 1 8 4 5 , 5 8 7 f t , g 5 5 s 4 6 5 8 8 f t s i f s f 8 8 4 , t s r l 5 r h 5 g 5 5 8 8 s 8 f 7 r t 4 s h 7 4 5 d 8 8 6 , r 5 , 6 t = r s s n t , t j 5 5 5 r 1 t 5 * 9 4 7 5 5 5 f 8 , 5 6 5 1 5 f 5 4 5 t 5 7 t , e t l 8 8 8 5 , ; t 7 r 5 , t r g , , 5 5 , , 1 5 s f 5 5 8 d 6 8 5 w , 8 8 , 5 5 5 5 ; , 4 d ; $ , w , 1 r 4 * 6 ; @ ; , 5 , ; * 5 5 ; 5 5 1 , , 5 5 ; 1 , ; 1 , ; > * > 4 4 t 1 o @ ; , @ ; ; , ; ; , 4 ; ; , * ; ; > ; ; @ ; , @ ; 2 ; ; * @ ; ; ; , ; @ ; 1 ; @ $ @ # O ; 1 ; @ 3 ; o o ; , * ; @ ; ; o ; ; $ @ $ > ; > ; @ ; @ ; ; @ o O @ $ # o @ @ ; o 5 , @ @ $ O @ o @ @ @ o @ ; ; @ @ ; o $ @ @ $ @ @ @ $ $ O o ; @ @ ; @ @ ; ; ; ; o . ; $ O @ @ $   ",
"O o @ o o o $ o @ ; @ @ ; @ @ O @ @ $ $ ; @ O @ o @ O @ ; ; ; @ @ @ @ @ O @ ; ; ; @ O o @ * * @ @ @ ; @ @ ; * @ $ ; o > * @ ; @ @ ; , @ ; > ; @ > ; @ $ @ ; ; * ; , 6 @ ; ; @ * * ; ; ; 2 ; > , ; ; ; - @ , 1 @ ; * , ; > ; 1 , , * 1 @ $ ; 6 4 , , * , , @ , , 6 , , ; ; , ; , 5 , > > * , 6 ; , 1 ; ; 1 , 6 0 1 , 6 4 5 4 , , 6 t , d , ; 5 , 6 5 * d 5 , > w 5 5 7 7 8 t , 5 r s s 5 d 9 s 8 8 8 r s f f s 4 r g 7 8 s i k 7 8 s 9 8 5 5 8 j 7 8 7 s d 5 4 8 s j 6 w 5 r r 5 5 s 5 8 i 9 , s s s 8 8 e 4 8 5 4 6 4 l 5 , t w 7 7 y 6 , 8 r t 4 4 t 5 g 4 4 7 5 5 8 s w , 6 4 8 l 9 7 8 4 8 G d , t w , 4 t j 5 t d 6 8 t g 5 4 , 4 d d 5 5 4 , 5 5 8 t 5 * 5 w , 6 8 6 , 1 1 5 ; * 5 8 , * 1 5 6 ; * ; 5 t 1 ; @ * , w ; 5 4 , , , * ; ; ; , , 5 > 4 , ; ; 6 5 ; , , 1 1 * , > > 5 @ ; , 1 ; @ > ; 2 ; @ ; ; , , ; @ ; ; , ; 1 , @ @ 1 6 1 ; o * @ @ ; , ; ; @ ; ; * ; * ; , > @ $ ; 1 @ $ > @ > @ @ > @ @ @ > @ @ ; 2 ; > ; @ $ ; > @ @ ; @ ; ; ; @ @ ; ; @ @ @ ; ; @ ; ; # O @ o @ $ O @ o O o $ o O $ @ @ $ o ; $ @ O @ @ @ @ , > %   ",
"o @ @ o @ o $ ; @ @ ; o o @ @ @ o @ @ o @ @ ; . @ $ @ o @ * ; ; o X O $ @ ; > @ @ @ @ O @ * 6 @ @ , > ; @ ; ; > 1 , # @ ; > ; # O $ @ o @ ; > * 1 @ @ $ @ ; > ; ; , , ; ; ; 1 1 4 * ; ; * @ ; ; ; @ , > ; , 6 ; @ @ ; ; ; * , 5 1 1 , % # ; , 6 6 , ; ; 1 1 1 , 4 , * ; ; 2 , , ; ; 1 ; @ * , * , w @ 1 ; * , 5 * 5 , s 8 = 5 t 8 8 d 1 5 , w 5 , 5 , 4 8 , 1 , 5 r 6 6 t t 8 8 8 f 8 , j C 4 > 1 d r r 8 s f , , k v 6 7 h k t 8 t 5 8 l d 5 5 8 l 5 f f 6 ; e 4 5 d 8 , 5 4 5 8 f 5 b s f 9 8 5 7 , , 9 9 6 s d 5 5 s 7 , t 1 4 f 5 d 5 5 8 r 8 5 4 8 r 5 g t 6 6 t 6 5 s r 4 4 f 8 ; 7 l h 7 w 1 6 , w t 7 8 s r s 8 r 4 7 6 e e 8 7 r w t d 8 w ; , 5 6 6 , 5 5 8 6 @ e , 1 > ; - , 5 4 , 5 5 8 5 > ; 8 s ; ; , , $ > 6 , 1 5 , t 5 > 1 @ , 6 * , ; 2 : * l 7 @ 5 1 , , 5 , , > , > , * , ; @ 5 ; * 1 > @ > 5 ; > @ 6 , , , * , $ @ , 5 , , ; , , , , o > * * ; , , @ @ o $ 1 @ O 5 1 O $ ; @ @ $ @ ; ; ; * ; o ; , 4 6 , @ ; $ @ 5 , o ; ; ; ; ; o @ * ; ; * , $ $ @ * * @ @ @ O @ @ . $ $ ; $ @ O . # @ ; @ o @ o @ $ @ o @ ; , * %   ",
"o @ # O O o @ # o O @ @ $ o @ O % @ @ o @ ; @ o o % ; # @ = , $ O ; @ O # @ ; $ $ @ O * ; $ @ @ $ o # @ $ @ @ @ ; ; > > ; * ; * 5 7 , @ ; , 5 , , 6 @ > 2 @ ; 5 , ; * ; ; , 6 o @ > ; @ 1 1 * 5 , ; 3 5 6 1 $ ; , , 3 5 r 4 2 1 , , 8 , ; 2 * 5 5 * 1 5 , 2 * 1 5 2 @ 5 , * 5 6 4 5 > 1 ; 5 5 , > 1 t , * 1 6 4 * 5 r , 6 1 , 8 5 * 1 w 5 5 w , 6 j 8 , , , , f 8 , g f 8 8 g d 4 t 0 5 8 7 7 s l 8 9 7 8 4 d n 4 8 w v h h s 8 7 s 8 > 6 r s 5 1 t 7 5 , t 4 t , * 6 1 , l 8 , 8 d t w , 0 8 r r 2 r 5 5 8 t 8 5 , , s 8 r t 4 8 5 5 7 7 7 4 w 5 7 k < , 9 5 , t 8 ; 8 8 8 5 6 t 1 8 8 s 5 6 e , w s 5 8 4 4 8 8 5 7 8 t 5 f k 7 7 8 4 t s 5 5 5 , 5 4 5 5 7 i 5 5 ; @ ; g 7 t * 6 6 r ; 4 6 6 , , > ; ; 1 * * u ; 0 1 5 5 , @ ; 5 1 @ @ $ ; 4 t * 7 , ; 1 > 6 , ; , 1 , 4 1 * @ 1 ; > 1 ; $ , * 5 @ ; , , , 1 w 6 ; ; ; ; ; o @ ; * ; ; ; o * , , * $ $ ; @ ; 1 ; ; @ $ , * @ ; $ * , ; ; ; ; @ O @ @ @ ; 3 @ $ ; 3 @ @ = ; @ : ; @ ; @ @ @ ; ; * @ ; @ > @ @ @ ; ; * > O $ ; , @ @ $ ; * ; @ * @ @ ; @ @ $ ; * @ 1 @ @ : @ @ ; @ % o $   ",
"@ @ o @ o o o O o @ $ @ O O @ O o @ o @ o @ $ @ $ ; ; o @ ; > @ o $ ; o @ @ @ ; ; $ % ; @ @ @ @ ; + @ @ ; ; * ; $ @ @ ; @ ; ; ; ; , > @ ; e ; ; ; ; * * * * > , ; * * , , 1 , ; ; * , ; * , * 1 1 , ; , , ; > > @ 5 ; , , * > , > 5 , * ; 5 , , ; ; 5 w 5 , * 5 5 , * ; 5 1 ; ; , 6 5 4 * , 5 , 6 , 1 , > , , 5 9 6 , 5 6 > * 9 5 5 1 5 5 5 , 4 5 s d 5 w 6 4 5 w , 5 j 8 7 8 8 8 8 t 5 8 g j 9 t d , h j r d s f f s s j s f j s j 4 4 s 8 f s r 5 8 r 5 , 6 s 8 e , 5 8 f 5 8 5 f 4 4 t d , 9 5 , d 8 j s 8 8 g t 4 8 t s 7 4 8 5 r 5 t 8 4 4 5 j s 1 , x 5 5 t 5 t d 8 7 d 8 5 , 8 8 s w 5 , * t 9 7 s g , 5 5 4 6 k s t 5 8 t t g 5 8 w 6 8 5 5 s 8 1 6 9 s d , , 5 , , 5 y , 5 5 z , 6 5 , 1 , , 5 , , 5 w 1 @ ; , 5 6 ; > > 6 , @ 3 , @ w 6 @ , 5 = ; , 5 , ; 5 , * ; > , , ; 1 ; , * ; ; 2 1 ; ; ; 5 1 , ; ; 2 * ; ; ; > ; ; @ ; 1 @ ; @ * * > @ ; , , ; @ * , @ $ , > ; @ @ ; ; o @ @ @ > o @ > o @ @ * ; ; @ o > , > @ o ; ; ; ; * @ > 1 ; @ ; @ ; @ o > $ @ @ o o @ ; @ ; @ @ > @ ; @ $ ; @ @ $ O # ; ; @ @ o o ; @ @ o O o @ @   ",
"@ @ $ @ ; @ o o ; @ @ o @ # @ @ O @ O O $ @ $ o @ @ $ @ o O @ @ @ ; ; * @ ; @ ; $ $ @ # @ ; ; o @ ; @ ; ; > * * * @ @ , , , * ; ; ; 1 * @ o ; @ @ $ * , ; 1 ; ; ; * ; ; ; * , ; ; @ , , , , , ; ; @ * > * , , ; ; ; * ; * , ; ; * , > ; , 8 5 ; > > 5 ; , , 1 , , 6 5 4 6 ; 4 > 1 , = , , > , 8 t , * * ; 5 4 , , , 4 > 5 1 5 5 , 8 5 5 5 , 5 5 5 5 ; N j s t * 8 8 5 , 7 s 4 8 f g s d 7 8 d 5 , j r s s i f f s s s f t t t s s 4 t s k r 4 s k t t k l t 4 i k 1 1 x f t t d s 8 h i k 8 , 1 , r j , 8 h h 8 w t r , t d i d 5 9 g , 5 8 r 8 , 8 8 8 s f t r 5 5 8 , 7 9 s s 6 , s t 8 8 d 8 9 7 4 j i 8 5 5 6 r 8 d 8 8 r g 4 * 7 5 6 5 , g t 5 f 5 4 t 9 8 t ; , 8 5 5 = , 5 6 - 4 5 5 , 1 , , w 5 , 5 5 , e w 4 5 1 ; 2 5 * , , , t 6 ; > , ; * , 1 6 , 1 , 1 6 , ; % @ 5 , , 1 ; ; 1 1 @ > * ; ; ; > @ * ; , @ 6 , ; > @ @ > > , , @ > $ > 6 3 1 5 5 , @ ; ; ; , @ ; ; * ; @ o ; ; * @ $ @ ; ; @ ; @ * , ; @ , ; > > @ ; , @ @ ; ; @ @ @ * @ o @ * * > @ @ @ @ > $ @ @ ; ; * @ $ O o @ @ o @ ; @ $ X O # @ $ > o @ @ @ $ O ; @ ; @   ",
"@ @ @ @ ; $ O o @ @ @ @ o @ @ $ $ o $ @ $ O @ $ ; $ O @ ; O o > ; @ @ > ; ; ; @ $ @ @ @ * ; ; @ ; > ; ; * @ * ; , ; 5 ; ; * @ ; @ ; * , @ @ ; @ 1 ; * 1 , , * ; 1 > , * , ; 6 * > $ > 5 , * 1 , * 5 , ; @ > , ; * , 2 @ @ > , > @ * , ; * 5 1 5 ; @ 5 1 * ; 5 ; ; 1 w * , 5 , , , 1 , , > ; , 7 8 * * 1 , , 6 * , 5 8 @ , 4 7 , 1 6 5 5 5 1 6 5 w , 8 h 8 5 8 5 g 8 d r t d r x 8 r 8 8 k 8 , 8 s f 8 j s s s j s k b s 8 4 d f f 8 r d s s f 8 8 7 i s 8 8 8 N B 5 , s 7 5 t 8 i 8 z B 7 r 9 6 , s r 8 5 g i s 7 4 5 5 g f 7 5 5 8 8 4 , 4 6 8 8 w 8 x f 8 5 5 5 t s 5 w f 7 7 r s f 1 5 f i r f 8 5 d s 8 8 5 7 f l f 5 8 s g 8 , j d 5 g 8 5 r g k t 5 , 5 , , 5 t 5 7 w 5 * , t ; , , t ; ; 5 d 8 , 6 5 5 , 1 6 8 ; 5 ; * 9 5 , ; , w , 5 * , t @ * , 5 5 1 ; , 5 1 ; ; @ 5 t , ; , 1 * , , ; ; , ; @ ; @ ; ; ; @ 5 , ; ; > * ; * , , * , o @ ; @ , 1 t , * ; @ * ; > , * ; ; @ @ ; ; ; * @ * ; @ $ @ @ 5 , ; ; ; ; @ ; @ ; > * , @ * * ; O @ @ $ @ 3 @ * ; o @ @ @ @ ; @ @ @ ; @ o O ; > # O @ ; @ % O O O O ; * $ @ @ O o @ @ @ @ @   ",
"$ @ @ o O # O o @ $ @ $ $ @ o @ @ @ ; @ @ @ $ ; $ @ o @ ; $ @ ; * @ @ @ * * ; * @ * @ , , ; ; * * @ $ ; ; @ @ @ ; * 1 o * @ @ ; * , ; ; ; > ; ; 5 ; ; * > > , , 6 ; 5 @ ; 1 , ; ; > ; , , 5 , ; , 2 6 @ @ * ; 6 , ; ; ; 6 * ; > ; 1 , * ; , , , , , , > , 6 ; ; , > , ; 5 5 , 5 , ; 5 5 ; , 5 , , * , u * * , w t 6 8 5 t 5 , 5 1 5 8 , 6 , 8 y , * i 4 5 r 4 5 5 8 5 4 5 = 4 s 8 8 r 7 S f s 9 8 k h i d l k s l f s s B f s s f l s 4 6 d f j 5 f j f 8 8 r t 6 r r 7 d r 7 f 5 , > g , w t 5 7 8 k g 6 t 5 s s 8 8 5 d s 4 5 5 s 8 k g , 5 8 s , 5 2 5 5 s 4 4 8 t 8 9 g h 7 8 d s 8 , r 8 s j g g t 8 s f s f 8 k s 7 d r 8 g s s s 8 8 f d 8 x 8 t 8 9 j 5 4 5 4 4 t 5 6 1 5 5 6 x 5 ; @ , t 4 5 ; 2 1 = 8 , * 5 > ; 5 4 5 , ; * , , @ ; , 5 1 5 1 2 * * 1 1 6 5 2 ; 5 8 * ; 1 * 1 , @ ; 1 1 ; @ @ , * ; ; @ @ 3 * ; * @ 1 , * > ; ; , ; > ; ; , $ @ * ; @ ; @ @ ; > , > , ; > ; ; , ; , 1 ; @ ; $ @ > 1 * > @ o @ > ; @ ; @ ; @ 1 , ; @ % @ ; ; @ ; $ @ ; @ $ @ @ ; @ + $ o O o $ ; ; ; # 3 $ > > @ * @ $ $ > $ o o > @ o $ @ o O @   ",
"o ; @ O . o $ $ o @ @ @ @ o @ $ @ @ ; @ $ @ @ ; @ o % @ $ @ $ ; * * ; @ @ , ; > : ; O 5 , ; $ o ; @ @ > ; @ @ @ ; @ ; $ @ * ; $ * , ; $ @ ; * ; * ; ; ; @ @ ; , ; @ , * @ , , ; ; ; 1 * ; , ; 5 1 @ 1 ; ; @ ; 6 1 * @ ; , ; > , , 4 ; , > > * 1 , , = @ 1 y , @ ; 5 @ 5 4 , 5 w 5 @ , > 1 ; , 5 1 ; 1 , 1 6 1 5 , * , 8 6 , , 5 4 5 , 5 4 5 5 5 1 , j r 8 d 5 7 d , 5 t r 5 5 s f t d s f 8 8 f k S h s k f s k B s f f i h f 8 f h n 5 4 s 8 f f f 9 s f t e , t 5 5 j d s s j 5 t = 5 f 7 4 f g 5 r 4 8 5 5 8 8 7 f 4 w 5 8 6 , j d i 8 4 6 8 s 6 w 6 5 i s r , t 7 s s 7 8 S 8 8 8 t 4 t t j 8 8 s 8 5 8 i B s 8 n s r r t s s 7 8 s f n j d 5 8 7 5 r w 8 s r w 6 7 8 , 5 t t , , 8 4 * , 6 , 5 d , 6 , , , 4 5 * > = 0 w 5 y ; 5 > @ * 5 1 , ; 4 ; 8 5 ; * > , , ; @ 5 5 ; $ 3 , @ , ; , , 5 ; @ 1 ; , ; @ * > , ; 1 ; 1 1 * ; ; ; ; ; ; ; ; , 5 @ ; ; ; ; * ; > ; @ ; * , ; ; , ; * > ; ; ; @ > * @ @ ; ; @ > > ; > @ ; @ @ ; o > @ * * $ @ ; @ @ @ > ; @ @ ; @ ; $ ; @ ; @ $ > ; ; @ o o @ @ ; @ @ * ; o O @ ; o $ * @ o @ > @ @ ;   ",
"@ $ O @ @ @ @ $ @ @ @ $ @ o @ $ @ o @ o $ o $ $ @ @ : ; @ O ; @ @ @ * $ O ; $ $ O o o o @ @ O @ @ > , > @ > , @ 3 @ ; ; @ $ $ @ @ 3 ; @ > > @ > @ * ; * ; 2 @ > 1 5 , 4 6 ; @ ; 6 ; , > ; @ * ; , 4 ; @ @ ; * @ ; * , , ; = 1 > ; * ; 1 , ; , 1 4 ; t 1 8 5 , , 1 5 , * 1 , ; , w w 5 ; , 5 , 6 1 ; 1 , , 1 5 ; , w , ; , 1 , 4 5 4 t 5 8 5 4 4 r 6 , , 5 r 9 8 s 5 , f s r d s s 8 5 k r h 8 x 4 7 s k B s f f s f k B s s h r j j s s B 8 f s s 8 4 7 C 8 4 g g 4 8 r 8 s s 7 4 j f 4 d s 8 j 5 5 s f i t w w 8 4 j 9 t 4 t , 5 8 g t 8 n k 4 t s 5 f s s s w , r f s f x s g 8 s l r 8 t 4 r s 8 f 8 d G s 4 8 s C 8 s s r d l d s d 7 x 8 , 4 8 8 r 6 , 8 h x , 6 , r k i 4 5 1 1 6 8 1 t > * , 1 r d , 1 > ; , , , 5 , 4 , ; , 1 * ; 1 e @ ; 6 1 t , 5 , $ 2 > ; , , 1 * ; > ; 5 $ * ; * ; @ @ ; ; ; ; @ , ; , 4 ; 2 @ * 1 , @ * , , * @ > 1 , > , ; @ ; ; * ; 3 > @ @ ; ; , ; , @ @ > @ @ ; ; ; , , @ $ ; , 5 , ; @ * ; ; @ $ @ @ o ; ; @ * , @ * > ; $ @ $ @ ; $ > ; * @ @ , ; @ @ o @ 2 ; o 3 @ @ ; ; @ @ @ ; @ @ @ @ @ o o . @ >   ",
"o @ @ o $ @ @ O @ @ @ o O $ @ @ O $ O @ o @ $ @ o o @ o @ @ ; @ o * ; $ @ o @ o @ @ @ ; $ % @ $ @ * > @ @ > ; * > @ @ , , * @ @ @ ; @ @ - ; ; ; ; ; ; 6 ; ; @ ; * 9 ; r t + > * , * ; ; 1 , > ; 5 5 ; > $ > , e ; > 5 ; @ ; , , 5 , ; 0 5 * w 5 * , , * ; , 6 , ; 1 8 , 1 > , , 4 t 5 , 5 , 0 6 , 1 t 5 @ , , 5 5 5 , 6 1 5 1 5 t r , , 6 4 w w 4 5 > s 8 7 4 8 f 8 j 8 r r f r k t 5 k 7 n 7 d l s f S 8 f k f s s 8 k k s j i s s r N N 8 B l 8 s s s i 8 7 8 8 8 d 8 s s f 8 t 4 B d 7 s l t 4 9 s f 7 f r 5 d d 5 8 s 7 5 5 s 5 8 5 t h m 5 5 5 6 b k 5 s 5 5 8 l l 7 s 8 7 s 7 5 8 7 5 s s f 8 f f 7 s f t g r i r f h f 8 7 g f s s 8 g d g 9 8 f 8 8 5 5 l , 5 , d f s 4 , ; 5 0 5 5 5 5 ; ; * 7 8 4 > ; ; w ; l r 1 5 ; , , 5 ; , 6 , @ - e , t ; 4 g 1 * ; 1 5 w 1 > ; , @ , $ , 1 1 ; ; ; 2 @ @ > , 5 , , ; ; 1 ; @ , , ; , y , * ; @ , ; * 4 * * ; 1 ; ; @ @ ; ; * @ @ $ 5 $ @ @ ; @ ; > ; 5 , ; @ > 1 ; , 2 @ , , 1 ; $ ; @ @ ; ; * > ; > ; * @ @ @ * @ ; @ @ $ * @ ; , ; @ # @ @ $ @ O @ $ ; ; $ $ $ @ @ @ ; @ ; 3 o # @ @ #   ",
"o o @ @ O @ @ @ O O o O ; @ @ @ o $ $ @ @ @ @ $ $ $ ; > * o o @ @ ; @ @ $ @ * @ $ 3 * ; @ ; ; @ ; $ O $ ; , 1 @ % @ * @ ; , , , ; ; $ ; > * , 6 , ; 4 > @ ; ; ; 5 1 * ; , ; ; @ * > @ 1 ; ; 1 0 , > 1 1 ; 1 * , 5 , * * 1 ; * 1 5 * 6 @ 1 1 ; , ; 5 * @ ; ; 6 6 ; ; , @ 2 w 4 4 * > > 5 = ; t 5 , ; ; , , 5 , , 1 1 1 , 5 5 8 5 4 5 6 t ; 8 g , , 6 d d , 4 t 5 i f f 5 s s d , j l s i k B s t d d l d 8 f B B n 8 s 8 k s s B B i l f s s f s 8 i s h B s 7 d 5 t j 5 s s s 9 s t r 1 5 f 8 s f 8 f 8 8 r 5 j r r k 5 5 g 4 j 8 7 t 5 f i i r 4 8 7 s s 5 d 4 t 5 , f s 4 ; f 8 s d f 4 d f j 8 8 l s l s s 5 d s 6 P k i C N s 6 d 8 n s f s s s t f s n f 4 5 t 8 g f 4 9 8 5 , 7 , , r r , 6 5 ; 5 5 , 6 4 , 1 # d 5 , > ; ; w * 5 6 1 1 ; ; 5 d 4 5 1 1 5 ; ; , ; ; , 5 , 6 , > 1 ; , 1 ; @ , , * * 6 ; * ; 5 , @ ; ; @ @ ; > ; @ ; ; @ * > @ * ; @ ; , ; * 1 , @ @ ; > ; * ; @ * > @ @ $ @ ; ; @ @ ; * > @ $ 2 * @ ; @ $ ; @ o , , @ # $ @ ; , * ; $ @ > 3 o ; ; @ $ @ > ; @ @ @ @ ; ; @ ; @ $ ; @ ; ; o o ; ; O o ; @ @ O $ ; @ %   ",
"o @ @ @ o @ o O o @ O @ $ $ @ @ @ @ $ O o ; $ @ $ @ ; ; @ o @ @ @ ; > @ o @ ; ; ; * ; > ; ; ; + > @ o ; @ ; ; * o o @ , ; ; ; ; , > ; @ ; , * 0 , , t ; , ; 1 , * , * , t , ; $ $ * * ; , * ; , , + , , ; ; , , , 4 ; 5 1 @ ; ; * ; * 1 , 1 1 , 5 6 ; ; , 6 0 ; , ; 5 @ > t , , ; 5 @ 5 e , 5 s g , , w , 5 8 , ; , 1 5 , 5 5 6 , t 5 4 t 8 , 5 6 , 5 , 4 8 r 8 h i F s f k s 4 s l f V D n 7 s f s f s k k i l n i N s B s s k i f s 8 s f k s s S s 7 D r i l 8 8 f 8 5 s 7 5 s f , t 8 g 8 s k k f 7 9 t 5 d 8 t i s 6 5 7 s d 5 w d 8 v C j 4 8 G r 5 s f 5 t 8 4 8 s g , j s s i k 8 r r k f r k 8 n s l t 8 B t m 8 k v h N s f f C i j B 8 l 8 s i 8 C 9 6 5 8 4 5 t 8 r g 5 8 , 6 5 d 5 5 w ; 7 5 , , 5 4 * - 5 4 , 1 e 9 5 6 ; , , ; ; 1 ; 5 5 4 , , 6 1 * 5 * > * , 5 1 * , , 6 , 1 ; 1 2 6 > @ @ 1 6 ; * 1 ; ; @ ; > , ; 1 ; ; ; * ; ; ; * ; @ ; @ @ , 6 , > * @ @ ; ; ; $ 1 * ; > ; @ @ ; ; @ 1 @ @ ; @ ; 1 * > $ ; ; o $ ; * ; @ 3 @ ; ; * ; $ * @ ; O $ ; @ @ @ ; ; @ @ ; ; ; ; @ ; ; o ; ; $ ; @ # $ @ o @ $ @ @ o o O $ ;   ",
"$ o @ O O o @ @ @ @ @ O O % @ @ ; @ o ; $ $ o @ @ @ ; ; @ ; @ ; @ @ > @ @ @ ; * ; @ @ o @ @ @ > $ > ; $ o @ ; ; ; > ; , 4 * ; @ @ ; , 1 , * @ ; ; > * + ; > @ * 1 , 5 5 5 @ @ , 5 ; 5 > ; , , 5 5 , * * , 2 * @ * r , t , , 1 5 6 , * 6 , , , * 5 5 , ; 4 5 5 5 ; > 5 * , @ > t 4 * 6 6 , * 5 8 5 1 , 6 @ , t 5 , , 5 ; * 5 , 1 * 8 8 5 4 4 8 t 5 , t 5 8 8 f g 8 8 5 6 7 i l k s f j f s s P C B 4 8 n V h d r f C v v k f k s S n t 5 s k B 8 j k s r s 4 i B f f l s 7 j s s f 8 9 i h 5 5 8 h k t l 5 8 7 s 7 s 4 5 l d s , 7 d j s 4 f k 8 8 7 8 7 8 s k s 8 r s j s s 7 s f 8 5 k f 8 7 s n f s s R r d j s f f f n B f 8 k F 4 s k D s 9 s l k B f 4 l s 4 d 4 5 , 8 w 4 8 r 9 r d ; , 5 , 5 5 5 8 , 1 e = 5 2 d 8 > ; 1 * , * 1 6 5 , , , 1 5 4 y ; @ ; ; 8 1 t 4 @ ; @ > t * , 5 , , , 1 , 6 1 ; , , * ; ; @ > 5 1 , ; ; @ ; ; > , ; , ; @ 1 1 ; ; ; @ @ , @ 4 1 @ @ @ @ , 1 1 , , * ; ; @ 1 ; ; @ ; > @ @ ; , , ; ; , ; @ $ ; @ ; ; @ $ ; , $ @ @ * ; @ @ o @ ; $ ; ; @ ; ; ; ; @ @ $ @ 1 > * @ @ ; $ ; @ @ ; > $ @ @ @ # # $ @   ",
"@ @ @ O O O @ @ $ $ ; @ O o O @ ; @ @ @ O @ $ ; o o ; @ $ > * > ; @ @ ; ; ; @ @ > ; @ O o > ; ; @ ; @ ; > ; @ * ; 1 ; , ; 6 > @ @ @ , 0 * @ > @ ; 3 @ $ ; , ; 1 6 0 5 7 , o ; , , 5 8 ; , 5 , , 1 , ; ; ; 1 * > ; t ; 4 5 t * 6 5 * 6 4 , , 1 ; 1 5 , 5 5 5 , 1 1 * 4 , e @ 1 ; = d 6 5 ; t 8 , , , s ; ; u 4 , 8 8 5 ; 6 5 , 5 , d 8 8 4 9 t 5 5 5 8 7 5 s 8 4 4 x t 4 l n r s s s 7 d f j h r h C C s r h S l n l h V h s s s A s s h n k f 8 r l f r 8 f s i d s 8 l 8 s s s l 8 8 V A r t r s B 7 h 8 7 l s r 8 4 f s r l 7 5 g j s s s k r t f i r s i f s f 8 n g 8 l B i r l 8 s s f j h i n h v k j s 8 b n h s i f j k j s s 8 x f 8 8 f k b f 7 s j s s j r 8 w 8 4 8 r i 7 5 4 1 , * 5 5 5 , t , @ 5 r 5 @ 5 5 1 , , 5 6 w , * 5 5 , , , , , 4 ; ; ; , 5 , w , , 5 ; ; , ; 5 @ 1 6 , * @ ; ; , 1 5 ; ; * ; * , ; 1 1 ; 2 , * * e , ; , ; ; ; , , @ $ @ 3 ; , ; > 1 ; > , ; * ; 1 * ; * ; , * ; @ ; ; @ ; > 4 ; @ @ ; ; ; * > ; $ , ; ; @ 5 @ @ @ ; ; ; @ $ 2 ; * ; ; ; ; ; ; * $ o o @ ; ; ; @ @ * @ ; o ; @ @ $ $ @ $ ; O @ @   ",
"@ @ @ @ @ @ @ @ o O @ @ ; $ O @ $ @ @ o O $ $ $ @ @ o ; $ @ @ o @ @ @ > * ; ; @ @ @ ; $ ; > @ ; ; o ; ; , ; @ ; * @ @ @ @ @ @ ; 1 1 ; @ ; @ * 1 , * > 1 * @ , 3 @ , , j 5 * @ , , t * ; , * , , = ; > * ; 6 , , 5 ; > , e 5 6 , 1 * > ; , , ; , , , 6 ; * 6 5 , , , w , 1 5 9 , 5 1 * 5 4 5 5 , 5 , t , 5 ; 6 5 4 , 5 1 1 t 4 5 4 5 5 , 6 5 4 8 5 r i 5 7 f 7 5 d 8 l B s s s k i s b 9 s s 4 f 7 Y B t 8 d k C s s C l s C n C P s B b n s d s 8 s i k f b k , r s 8 s f f 7 s f 8 s s d d s s l 8 h r s r B s l f t k s s i s j 8 s 4 l f d 8 d s g 8 8 l s i r 8 f 5 r f l s f f f f j 7 8 D i s k n 8 s B n b i C k d s 8 j t 5 f s g r f D S k 7 t s f r f 8 7 f 9 , t s j r 5 8 , 5 s 5 1 6 6 , , r d , r 8 * , , , 4 , 5 e , 4 * 5 , , e ; 6 * * , t t ; 1 @ 4 ; ; 5 , 3 2 > ; 6 ; $ 6 , * , 4 , ; @ , , ; 5 @ ; ; * 1 6 * ; , 5 , ; , ; ; ; @ ; ; 5 > ; @ ; 1 @ @ @ , ; @ ; 5 o > 6 ; $ ; , ; * ; > * ; > > @ > @ ; ; @ @ 6 ; @ ; ; * ; ; o @ @ @ @ ; ; ; @ o ; ; @ @ $ @ $ ; * ; $ @ @ 2 @ o @ > ; o @ @ $ ; @ ; O @ @ o o ; ; ;   ",
"@ o o O O $ @ $ O O @ @ @ O O o @ ; @ @ O @ o @ o @ $ $ @ @ : @ $ @ @ > @ ; @ ; @ ; @ o ; > @ , 5 $ 1 * ; > ; * ; o ; O ; @ ; 6 , * > @ > , ; , , > * , , , ; 1 1 8 * d 4 @ : 5 5 , o 6 6 ; * 5 , ; 6 * @ > , , 5 1 , , * , z , , ; ; , 5 , 5 ; ; ; , 1 6 @ 5 6 , s , ; * 4 5 , 5 ; 6 , , 5 , 5 8 1 ; 4 t 1 * 5 5 ; 7 ; 4 j 5 s 7 5 6 6 , w 5 r g j 8 s j 5 j s 7 4 8 n k s 8 f k b V j h 4 8 ^ >.{ m i n N b h h b V k n b N h v h S k n s g i k k f f h N s s B g s k b 8 t t s S h ; d s f s s s k j 8 8 n 8 5 r w f 5 s s 8 f j 5 r 7 8 7 B k 4 s 5 s f 8 f d r s 7 f 5 8 f f s 8 i r B h s s n k B B f h n B N v k k k B k h K h i i r l n k f s 5 s s i f r s f 8 , r j 4 5 5 f 5 8 i d > @ , 6 , 4 5 5 5 5 , f 6 5 t 5 , * 5 , 4 g , ; @ @ , e > , 5 8 * > > 1 5 5 , , ; , > @ , 5 * ; r 5 5 , 1 ; @ @ ; = 6 , ; ; 3 ; 1 * , , ; ; ; ; * , ; 3 $ @ 1 ; ; 1 @ * - $ > ; , ; ; , $ @ ; ; o $ ; @ $ * * ; @ $ ; o ; , 5 ; ; o ; ; @ ; ; ; ; @ $ O , 1 o @ ; ; ; @ @ ; @ @ $ @ @ $ * ; @ @ @ ; ; @ ; > ; O $ > @ @ @ $ o O O o @ ; , $   ",
"@ O @ @ o $ > @ O O @ @ $ ; > @ @ @ @ $ $ o $ > $ o @ @ $ $ @ ; ; ; > $ o , ; @ > @ ; @ @ ; ; @ ; > ; @ , ; @ @ > ; * ; 1 > @ ; @ ; ; ; ; ; 1 > * * @ > ; , ; @ ; 5 , @ ; , , * > , 1 , ; ; 1 * ; 1 , , @ > t , , > 9 , @ , * , 9 6 > , 1 , , 5 4 , ; 5 5 , 4 6 * , 1 1 , 4 , 5 1 6 , ; 5 d 5 1 5 , , 5 8 t , 5 w 0 7 6 4 s 8 , , 8 8 6 , , 4 8 8 4 4 d 8 * d 8 7 f 5 r f 8 8 s k C h g s V 7.XXNXXXY.oX$.p V n b V V K N h A k k V s s 8 B N k h h Z s k f s f k 8 f h i 8 k s f n s 8 S l 7 i l 8 8 n f s N 7 s s r h g i f s i 9 s s f s 4 s f 4 F k 7 k j i s d 5 s b h l l i s 8 s 7 C S h k k n h B k k b V i B v V s 7 v 2..Xy.z.| s s r l k x s f s f 8 l l s f B 5 8 i d 4 7 1 t , s g , 8 , j x * > ; 6 ; 4 , 1 5 5 6 4 1 6 5 8 , , 4 w , 8 w 1 @ ; 1 ; 5 > 5 , , ; , 5 , * ; 1 ; * e , , * , e > ; 6 , , ; > ; , 1 ; @ 1 * ; , ; 6 ; , ; 1 ; @ > * , , * @ ; ; ; * 1 ; @ ; 1 ; ; ; @ @ ; ; * ; , , * > > o ; * > 1 > ; @ 1 @ @ ; 2 $ @ ; ; 1 ; @ ; , ; 1 ; @ $ @ @ - > * @ @ ; @ $ @ @ $ @ ; @ @ $ ; ; @ # ; ; @ % $ @ ; * @ *   ",
"# o o @ O O $ @ $ O @ o @ @ ; ; @ O @ ; O ; > @ $ ; @ @ @ @ @ * @ @ $ $ @ @ > @ ; o ; $ ; , ; @ ; , * ; ; o o @ , 1 @ ; 6 , @ @ @ $ @ , ; * > ; @ o > @ o * 2 @ @ > , ; ; 5 w @ o ; , ; ; 6 ; 5 5 , > 6 , , , u 5 @ 6 , * , , 1 5 5 , , , ; ; , t 1 5 , 5 8 4 , 6 ; 1 5 , ; > 6 , 4 , 1 5 9 4 5 1 ; 1 1 6 7 t 6 ; 6 8 5 4 8 r 1 , 8 8 d 4 9 t 5 5 y 0 8 t 9 d 8 f i 9 4 8 r f n N s A u 4 u.fXsXsXpXxXcXeX;.9 9 C V K h m V m n N S h G d b m V n n h r F d f k A s s f B B i v B 8 r m b f 8 l k s j k s v n 9 f N t h k r s F 8 8 r 8 f S f f s 4 d B 8 s x r k s , v V m N r 7 9 l j s h h V k s N V k s k V K b C j 9 t ..c.fXlXuXpXz..., 8 d s s n s 7 8 w i s 8 f s 5 5 s f 5 i 5 ; > w i l 5 8 h s , 3 ; j 8 s 5 1 1 ; 5 , 5 5 w , , 6 f h , = 5 1 > $ 2 , 7 5 , , 1 2 , 5 8 0 1 > ; ; * * 1 > , , , , , 5 ; 6 , , 5 ; - ; 1 $ ; 2 * * 1 , * * ; , ; ; @ @ ; 6 1 * , , @ : ; o 4 5 $ @ ; ; # @ $ ; * 1 > @ ; ; * * 5 , * 5 , > O @ * ; @ $ @ t > @ $ @ > ; , ; > @ @ $ * * , ; $ ; * ; $ . . ; ; @ @ @ * ; @ X ; @ ; $ ; * @ @ O $   ",
"$ o @ O @ o . # $ ; $ O # @ @ O $ @ @ $ @ @ @ $ o o @ @ o ; , ; @ @ o $ @ ; ; @ o o # , @ $ o O @ ; @ o $ * 4 ; ; ; % ; ; * 0 @ ; ; , > > ; ; , , , 3 , ; @ ; * z ; @ , , + 2 d 4 ; ; @ @ ; > ; 6 , 1 @ * , 5 , ; 5 : 1 5 4 t 4 , , , ; ; r 5 = 1 t ; > ; , 1 , 5 t , , 2 1 , 1 9 , 5 5 , ; > 2 , 5 5 s f 4 4 e , e y 5 6 5 , 8 5 w 8 s d 4 t 5 5 5 r f w ; , 8 s k h s s s k B k n V t V eXpX[.%X-XQ.6XxX6Xr.p y N / T _ d f R C l n s B m n B k k m t k s h f k h i f i s l B l s V k f k f f 8 s B s 5 8 G f s s r h s f 8 s n n 7 b h h B j 8 f h N h s f g s f m h 8 r 9 r k s n n s k i P b s v P P N h r f M c d i l.ZXlX7X&X&XgXFXhX2.n d G v s k n k s 8 5 5 t 8 h 8 4 d 8 6 k g * 5 f s 6 5 5 ; , 6 w 5 * ; f s 5 , , 1 t 4 8 4 1 6 5 1 1 , 1 8 8 6 @ , 5 0 1 * 5 6 , 8 7 8 1 ; > * 6 5 ; ; 1 2 @ @ > > > 6 , ; ; , @ @ ; , , ; O $ , , , @ @ * * ; 5 1 @ ; > * @ ; ; @ > @ ; , * , ; ; @ * , 1 , ; @ @ $ 1 @ o O @ , ; @ @ ; , , * ; ; ; @ O $ ; ; O . @ @ ; ; @ o o * > $ @ ; O o ; $ o ; ; @ @ > ; @ @ @ ; $ @ $ O O @ O # ;   ",
"@ o O @ o @ O o @ @ @ ; O o $ o @ @ $ + @ ; @ $ o ; $ @ ; ; ; ; ; @ @ @ @ ; @ * ; > o , 1 @ @ ; ; ; ; ; , ; 2 ; > * ; * * ; ; * > * * , , ; ; $ 1 ; > 1 6 ; > * , ; ; ; 6 @ @ 6 , 1 * ; 3 , , e ; ; 6 5 , ; > ; @ , @ , 5 1 4 t , 1 , , , t 5 * 5 5 ; * * 5 6 , 5 j 1 , , , ; * , , 5 5 4 5 ; , 1 5 , , d 5 5 5 , 5 6 8 , 5 w 5 w ; 5 6 , 5 w 5 5 4 l 4 4 5 , 8 7 f S 8 f i k f s h N j 5.mX^.-X*X=X[.&XbX6X>X=.s s F Y V s l b i n c s m m m h s n m s s f k k s B l n h h b h 4 n k s k k n i 8 s n f l i i s s 8 s h B k i f 8 s 8 n N h 8 9 8 k A B s s l f s k C k k l 8 i k k n s s l i n S s V i n R h ~ P C j 7 ;.LXgX8X=X}.9X3X3X6XXXh ; R V f N v k B t t d l 8 d 4 5 r , 4 8 8 5 6 8 d , 4 , t ; ; 8 , 5 , 5 t 8 , , 5 5 , , t 6 * 4 * ; 5 , 5 , 5 > ; 5 ; 6 1 5 1 , 5 4 5 @ ; , ; 6 4 , , , 1 ; , 1 @ * @ ; ; ; 6 , > * ; 1 ; * ; 1 ; , @ 4 * @ > ; @ 1 ; , ; ; ; ; ; ; * @ > * > > @ ; @ , ; ; ; 3 @ ; ; @ ; o @ 5 ; ; ; > @ ; > @ ; @ ; $ @ 1 > o o @ @ ; @ @ @ @ ; @ O ; ; O @ ; ; @ @ @ @ @ @ $ @ $ $ ; @ @ @ @ @ ; O o ;   ",
"o @ o @ @ O O ; @ o X @ * o # o @ @ $ ; $ $ o @ @ ; @ @ , ; @ @ @ ; * , * $ ; @ > ; ; ; @ ; * ; ; @ @ , t @ o : * * ; * ; 3 @ 5 6 * @ ; , o @ ; ; * * 1 5 ; ; ; @ , 5 @ @ w 1 * ; , 5 , ; 5 , , , 6 , 5 6 , * ; ; ; 4 7 7 @ @ 6 , , ; 4 , * 6 , , , , 6 5 , , > ; , 6 6 * 5 w 8 8 6 t 1 6 4 6 8 , , , , 5 * , ; 5 d 8 t 5 5 , 5 5 4 8 1 5 f f 5 6 5 8 6 t r r r 9 s s s B s 7 h n k h 7 x.NX#XQ.P.&XhX[.*X$X3XvX| i e V K A A h N m V V V h K A k b m 5 s V N i f g j 7 C S h i B h s k k s s s f i s s k h k s k i n s s V b h s t l s i B f s x s k f f f r h b s t B b d f N h k s n n B s f s b ~ h f C v U [ c i -.yXaX3X[.=XaX3X}.8XaXXX;.i R D r k V k f s g f j 8 d d r f s f 4 r s 5 5 5 1 5 , w w 5 4 , t 4 ; , d t 5 , t w * 6 6 * 9 5 , 5 , > 6 ; 6 ; @ 6 8 , ; @ 1 , , * @ , 6 @ $ , 6 , ; 1 , , , > , , , * @ ; 1 > * ; ; 5 4 , ; @ ; O 6 4 * @ 1 ; 1 ; , 5 $ ; ; , , * 1 * @ ; * ; ; , ; ; @ @ > ; @ @ , ; : @ * 1 ; ; ; @ @ ; @ ; o ; 1 * ; @ ; $ * ; * * ; $ $ * ; @ ; ; ; ; @ ; @ @ ; @ * ; @ $ @ o @ ; @ > ; ; @ o @ o   ",
"O o o O o O O @ $ ; X ; ; o @ $ o o @ @ ; ; O $ @ o @ o ; ; * @ > @ $ 1 ; ; @ @ $ * , * o > 1 1 * ; * 4 1 @ o * * > , , ; ; @ , t * ; ; > ; * @ > @ ; , ; , , ; ; ; , 1 , 5 ; @ 1 * , , * ; 1 ; , , ; 8 4 * , 5 ; ; 5 4 5 , > * * 5 , 6 6 * 3 1 w ; 0 9 5 * > ; 5 6 @ > , , 5 5 5 5 6 , ; 5 , , t t , , 1 5 5 , ; t r * 1 6 4 8 , 8 8 w 5 d 8 4 8 z 5 8 s 8 d 5 , l h k f r k h b n s h R.6X=XfX].].bX4XE.vX=XzXU.J s C Y m m P R h P V L C b N L V A 9 s V v h B 8 i i f B h k x f f k 8 s D k h f s h b v k l k s v s s h S s f 8 s n s n s h h s f s s s k n l d 7 h k i B k s f k V v k s k f B N k A m V m A m | GXzXuX3X4X7X3X3X7X7X=X*Xy.h h f N C b n l 8 s 8 5 8 f 8 7 f d d , , t 5 1 5 t 6 , , , 8 8 6 g 5 e 5 8 9 ; 5 8 1 , * , 5 6 , 6 , , , ; @ , 1 ; 5 6 w 1 ; , 1 , * 2 , 5 5 * 6 5 5 , , 6 5 , , , 8 2 ; 1 > * * , * ; 1 5 , ; o > @ * 1 ; * * ; ; @ , ; * 3 * , 1 , 6 1 ; ; * ; , , > @ @ ; @ * > 2 ; * ; ; > @ ; @ @ $ > ; * ; @ $ , * ; @ ; ; 3 @ > ; ; ; @ o ; ; $ @ ; , @ o $ $ @ @ > * ; @ $ o $ ; @ @ o ; @ @ @ $   ",
"$ % O $ @ @ $ . @ ; O o @ @ O @ o o > O # @ @ @ ; @ $ @ ; ; > > ; @ ; o > ; * > @ > ; * ; $ @ @ @ ; $ ; @ ; ; 1 w > ; ; @ ; ; @ @ o ; $ @ , 6 6 , ; , ; @ @ ; , 4 @ ; 4 5 , * 1 ; , 5 ; 1 4 2 * > 5 * 5 1 = 4 5 5 , * ; , 5 , , 1 , , , , , , * 5 1 5 * 5 , * 5 8 , , 5 8 4 , 4 , , 8 * 1 ; 1 , 4 6 , 5 8 t 5 w , , 8 , t 6 9 8 5 8 t l , , 5 f 8 , 8 t 7 r t , h A s f s 7 k k s B b i i.cX=X*X{.7X[.aX9X3X=XE.fXNX2.a h N V V C s P U V n l V v v V 8 C P N n C C K f f k h B f C V k k f k k i f f x s k k s i n B l s 7 f l i m s k k C m s n f 0 C N k V f f r D i n C k h k v b V h v b N s k k P V m A j 7 $.7XlX8XzX=X3X}.aXQ.E.6XxXzXk.m n B k k s s n s 8 5 8 d f 8 8 B 4 ; d 5 , 1 , , w 5 , , 4 f 5 @ t 6 6 s , 1 * ; 4 5 5 , , ; > ; 6 , 1 6 * * 5 , 5 5 * , 5 t , 1 ; 1 1 ; ; > 1 ; , ; 5 * * ; 6 4 , 9 ; * ; * , 5 * , * ; 1 ; ; $ 1 1 ; ; @ ; ; @ @ * , ; * > ; , 2 * , , * * ; @ > ; @ @ @ * * ; $ o ; ; 1 > > @ , , * > ; * , 2 ; % ; @ $ @ ; ; ; O ; @ @ ; $ ; * ; # ; ; @ @ @ @ ; o @ ; ; @ ; @ ; > o @ o @ o ; @ O ;   ",
"$ @ O ; o % o O @ * O O # O $ $ # O @ o # ; $ ; @ @ ; $ ; 1 @ @ @ > ; o @ @ ; $ O @ * * ; O @ @ @ @ @ ; > ; , ; @ * * @ ; , , @ $ > ; o @ 1 = 5 , ; @ * > * @ , 6 , e 1 , 1 1 1 ; ; , ; ; 5 ; ; ; 5 ; * , 6 4 r 4 * 0 1 6 , 4 6 5 , , 1 , 5 t 8 , * , 5 5 * ; 5 8 , 5 5 5 9 , t r 5 8 5 5 , * 5 4 , 5 w , 8 8 , , t 8 , 5 5 4 5 8 8 5 t 5 , 6 s f 7 7 t 4 t r 8 8 v s 7 s l k f k A m , U nXpX=X[.=X~.*X}.=X7XP.[.bXaXI 8 A V Z V h v P P k k C P P N k h P k k N m V h i k V i s h b N k f f f s k n h l s s s h i n s B 8 f k s b n i 8 8 V N N s 5 k h b h s k k P B k k h s n N b m E b N A n k P V m L P j J XXAXgXkXdXE.^.9X3XiX7XuXlX4X$.l i v s k k h B n f f 8 g j 4 d 5 , 2 8 8 6 , 5 4 5 5 w 8 8 6 1 * 5 1 , r , 1 > , 1 4 , 6 t 1 ; , t 5 5 , ; t g 5 5 y > , 5 , > , ; * @ w , * , , ; * 5 5 @ @ , 6 1 * * , > * 6 4 ; 6 ; @ ; 1 @ ; , * @ * 2 @ ; , ; , 5 ; * , , @ * ; * ; * ; * ; * , ; ; * 1 ; @ : o > ; ; 1 @ * , 1 @ @ $ * , > @ o ; @ @ @ @ @ @ @ ; ; ; @ @ * ; , @ ; $ ; @ > @ ; : o ; > @ ; ; * $ @ # o ; @ * ; o @   ",
"o @ . @ o o . @ o ; O O O @ $ @ @ $ $ * @ o ; ; o @ * o , > @ @ @ ; * @ $ > * , $ o $ @ * > ; ; 3 @ @ ; @ ; @ @ * , ; ; @ ; ; , ; ; $ * ; ; * @ > 1 * , > ; ; ; * > 6 > @ * 6 4 5 ; @ , , ; ; 1 , 0 * @ , 5 , 6 , ; , 5 w ; 4 5 4 , 5 , 5 , , 5 4 6 * w 5 1 1 , 6 6 5 5 w 1 , 6 5 , 5 1 , 9 4 4 t 5 5 , 5 5 7 4 5 t , 1 , 5 d j , 5 4 4 g t 4 s j d n ; r 8 i n s n f 8 t B k i l k f 9 h u.NXlX=X4X$XP.9X[.$X7XaX8XxXeX` 8 B N V U J N v K m f s k P A b V h b S b V N h V m n P h s s N i 8 B b N P N 8 h A k h h v k N s f s k i s k k s f k m i C n 7 f k N Z S b h B k k h V n v h k C k h K b P m L m s I l.bX8XrXpX7X3XaX4X}.aX8XuXvX2.s n b V B 8 h s s r 9 n b 8 5 0 f 5 7 t s 7 8 , 5 5 9 5 5 r , 4 ; e 8 t , t 5 1 , 5 5 6 9 ; , 4 l 8 , , 4 , , 4 , , 5 ; 6 1 5 5 5 * , 4 > , 5 5 * * 6 1 , ; 1 1 ; ; 1 4 1 ; u , ; > > * , , 1 , > * 5 , ; , , 1 , 1 > 1 ; @ 1 , @ @ 3 , @ 2 > ; o ; ; > , ; * 1 * @ > @ * ; ; , 1 ; , , @ @ ; ; ; @ @ ; ; ; ; ; @ ; @ @ ; @ * ; @ @ ; ; @ ; o @ $ ; @ @ $ o ; @ @ ; @ @ @ O @ ; $ @ @ @ o @   ",
"o @ O @ $ O @ ; > ; $ O o @ $ @ @ ; $ % ; > o O @ $ @ O ; * @ @ @ * * $ 3 ; @ 1 ; o * @ @ > * * > @ ; 2 * @ > @ > ; @ ; ; , ; 1 5 ; * , , @ @ ; ; ; 1 4 ; * * 1 5 * @ ; @ 1 5 , * > ; ; e ; , , ; 6 > , > , > ; , > = 5 8 , 5 t , , , , 1 , 1 w 5 , , 4 , , 6 5 5 5 , , , ; 6 , 5 5 , 1 , l j 5 , 4 , ; 1 1 5 7 5 9 ; w 4 7 f 5 8 w s 4 5 5 f f 8 7 k z 7 s s 5 8 s l 8 s n s l B n S n k I J.fX=X3XpX&XfX-X=X6XkXbXeXAX Xm f A v J P V V Y L k s C v s N K V k A k b A V m V V h V C h C f i h i v v b V k h P k n D l s k N h b 7 k n k f i n P h f A h s C v v N k b M V V B b P C D h V V k m K k V C n m oXbX6X[.6XhX6X3X3X6XaX=XZX9Xc.J k C k C D k n k f s 8 7 n s 7 4 t B s 8 r 5 8 F d t s 4 4 8 0 ; t 5 4 g 5 1 5 , 8 8 5 5 ; * 8 8 8 5 8 0 5 6 , , 6 , ; , , * ; 1 , 5 t 8 ; ; 8 8 ; 6 6 5 , * 5 , ; > , 5 1 , * * @ ; * ; > , ; , ; 1 ; $ ; > , , , * ; ; * ; 1 * ; ; ; 6 > 1 ; ; @ ; ; > 1 ; , ; ; ; ; , ; * ; * 1 ; ; * , > @ @ @ $ @ ; @ @ @ ; ; 6 * @ > ; * ; @ $ ; @ ; 1 @ @ @ @ @ ; ; @ ; @ @ @ @ @ > * $ ; * @ ; * @ @   ",
"X @ @ @ $ o ; @ @ @ $ ; O o @ @ ; @ o @ % @ @ o ; @ @ @ * , * @ @ o @ ; @ o $ @ @ > ; @ ; @ > @ o @ ; o @ > ; @ @ 5 @ ; , ; ; ; > , @ , 1 * 3 ; @ , 1 > * ; ; * , ; ; 1 * , , , 4 g 5 # ; 5 , @ * , 1 1 , 8 8 , 1 6 , 5 , 5 5 1 , 1 , * 0 8 r 1 1 5 5 ; 5 , , ; 1 , 6 5 9 , 5 4 , , , t 8 , 1 ; , 8 5 ; 1 , 8 d , 1 , s 7 s 5 ; 5 t 5 f 8 8 g 5 5 t 8 i s 8 d 8 8 k f j h K K 4 5 s v N ~ h p 2.fXzXcXgXaX&X$XbX+X+XjXjXGXI.H s D L m P b m V _ B N / V J h B s A m n n k V m A k A L k s b N N A 8 s k b m b n k h B j 8 B B 5 n x s m V h B n m C i k s n n h h r h B i P V b k k b k V ) k D b J b l i V J.bX3X8X=XkXhX9X;X$X6X6XxXzXy.v t f b l s b A 4 C f 8 j 0 6 7 h B 4 , g s , 5 t s 5 1 5 5 6 5 , d , , w 8 * , 6 8 t 6 4 t 5 8 4 , 5 ; 5 5 , w 2 , 6 * , 6 > ; , ; * 1 1 7 * 5 > ; 8 5 , @ , , > 2 * ; , @ ; > 5 , * 1 ; 1 * @ ; ; @ , 6 1 ; ; > ; ; @ @ @ 1 , * ; * e @ 5 ; ; , * , * @ , ; * 6 6 @ @ ; @ ; ; ; * o @ ; * * > ; , * ; * o ; ; @ @ * * o > ; > @ ; ; @ ; X , , @ @ ; ; ; ; ; @ $ @ @ ; @ @ > @ ; ; ; $ @ * ; ;   ",
"@ @ o X @ O . @ ; @ @ O o @ @ ; $ @ o @ @ @ @ o @ @ ; > ; ; > ; $ $ @ + > $ ; ; - ; , 1 ; @ * ; , ; ; ; o ; ; ; @ * ; 1 ; @ @ ; * 5 @ ; 5 * ; ; ; * ; @ ; 6 5 @ ; 3 @ e 5 ; ; $ 1 9 , @ * 5 6 ; ; 6 ; ; ; , w 5 , 5 t , ; 7 6 , > ; , ; , 5 , * t 5 8 6 , ; 5 ; 6 5 5 7 4 6 1 , 4 5 8 4 i , * > 5 , 9 5 5 , , , g t 0 f 4 4 t ; , 8 9 d 8 f d , w 5 4 d s s 8 j 8 i 7 j h h k f g b b S V A f i 1.mXxXgXcX;X$X[.hX8XtX9XgXFXR.L s J P P V V B V L N C V L N D s v V k n s _ b b s V b f k P m v N f s k N m b k f h s i f v n 8 B n s h N n b C s k b N A b k B h k N k i m E V k N b S K b v V C b C C v h.GX3X&X9X}.8X}.L.P.$XhXgXkXJ.J a l k N s s V b 8 S f h s g g 6 B k s 6 d f t 8 5 5 4 * 5 4 , 6 w t 5 8 5 6 y 5 8 , 7 , 6 w t 1 , 1 > , t 5 * 6 e = , 5 , , ; ; 6 5 , ; > = 6 5 ; * 9 5 ; ; 5 , @ 6 5 1 , ; 6 , 5 , 1 * @ 1 * @ ; , ; , ; @ @ ; * ; 1 ; $ @ , , 1 ; @ 1 ; ; * o 5 6 ; @ > ; @ ; ; * * 2 ; ; ; > , > ; > ; * @ @ ; 6 ; $ > ; ; ; ; ; @ ; @ ; * ; @ ; 3 ; @ O 3 * $ @ ; @ @ ; ; $ @ @ o @ @ ; o o > > o O @ @ * ;   ",
"O o @ o @ @ O @ @ @ o O o @ ; @ @ @ $ @ @ * @ @ ; @ : $ O O ; > * @ > $ > @ ; @ $ @ @ 1 5 @ ; , ; ; @ 1 ; @ ; > 1 ; , * , ; ; 1 , 6 @ > * ; 1 , , 4 * ; 5 ; > ; * 1 , 1 , * 6 ; * * , , , , > , > ; 5 , * ; , 1 5 > 8 1 , 5 , 5 1 , 5 d 4 * ; , 5 4 , , * 6 5 7 d 0 , 9 , , * , t d , 8 d 4 , 5 , 5 t 4 t g 5 , 4 8 4 5 , 4 t 5 6 5 5 8 8 r w 4 8 f d 8 l f 8 s B l 8 s k k s G s C P C v V l d v 2.eXsX8XgXaX;X$X6XzXaX}.9XFX|.W a R L L P A L V k h b L N k v b b k N k f k P L k f f s B k i h V V b s n n L N V A s C S s s n h k c k l i P v i k f v v k N N ) s k P V h k b P k P V L U m ..Z j m r.LX8X3X9X9X4XxX&XP.eX}.8XbXJ.J h P m C B n N k h v k A k n n 5 d 8 , s D 4 6 f 8 r g 8 = d 8 4 6 6 6 w t , k 5 d g 5 4 , t 5 4 * 6 , d w * 5 5 4 * , 6 , 1 , 4 t z * 6 d , , e * > , @ , + r w 4 , w ; 1 * ; t 5 , * 1 ; , , 5 , , 1 @ ; ; 6 ; ; 6 4 , ; @ ; , = , ; * ; ; ; ; , 1 , @ * , * ; > ; * * > @ 6 @ ; * 2 ; ; 1 @ @ ; @ ; * @ * * 1 6 @ @ @ ; ; ; ; ; @ @ o @ * 1 @ @ @ @ @ * * @ ; ; * @ o o $ ; % @ ; @ o o @ @ * $   ",
"@ $ @ o o @ ; o @ ; $ @ O @ @ O ; @ @ @ @ @ @ $ $ @ @ o O o @ ; > * , @ 1 @ @ @ * * @ @ * > * ; @ , > , , ; $ @ , ; ; , @ ; ; , , ; * @ * * 4 * * e * > , @ 1 ; ; , 6 1 0 5 5 1 * 2 1 6 , ; ; = , 6 5 ; @ > ; , 6 , , , 1 5 5 8 4 4 4 5 1 @ ; z , 5 5 4 6 1 4 f 5 , , 5 6 , > , 8 5 1 4 5 8 w ; 4 7 f 6 , , , f 8 5 r 6 8 8 9 5 y 5 4 t , , 4 s d s 7 8 s s f 5 n N s s s f s s k n M k h N v S l t 5.wXgXlX3X6X}.uXgX[.4XgXlXAX4XW k ( V A m P N b M ) m v V A V m s v ) A s V J s s B b i f B v V / b b f h m v k m 8 B v n C f k C r s C i N n h N f f P k s S v K P m N n V Z L m N m / [ W K k v z.GXjX3XGXzX[.[.gX=X8XpXhXbX.XI s k ` ^ N l A b g h B h s n k f 7 x t 6 7 s , 1 k 5 8 8 5 8 r r 5 , , , , 4 5 h 2 4 s 7 8 5 s r , 5 1 , s 8 * 5 r t = 6 5 @ 1 t 5 4 ; * , 5 5 ; ; 5 5 6 6 5 * 4 , , 5 5 @ 1 2 1 5 , 6 , ; t w , 1 , , t @ @ > , * ; 8 0 ; , > ; 1 , ; ; * * ; 1 * * ; 5 @ ; > ; * ; > 1 * @ 1 , ; * 1 ; @ ; ; @ @ * 1 ; @ @ ; , 4 5 > @ @ @ ; @ @ ; @ > 3 @ @ ; ; $ @ @ @ @ ; O ; @ ; ; $ @ ; @ O @ $ $ @ ; @ ; o @   ",
"@ * $ @ O @ $ @ @ @ . $ @ o @ @ $ ; O @ $ @ @ @ @ @ @ $ $ o ; @ ; ; * @ > @ * ; > @ ; $ @ * 3 o @ 1 * ; * 1 ; @ ; * 2 5 * ; ; ; ; ; , @ ; , * ; e ; * @ * * 8 6 ; * , , 5 , ; 1 5 e ; ; , ; ; , 5 5 , * > 1 6 5 , * , 0 5 * 5 d 4 5 5 , , t 5 1 ; t 5 5 5 7 9 , ; 5 ; 1 5 w z , 6 , t * , 8 , , 5 s s 5 * 8 7 s 5 4 5 , 8 7 5 8 5 * d g 5 5 s 5 t 5 4 s 8 5 8 l s r s 8 s s f C m k s h P Z b C h n v 5.BXlXlXlX8X3X9XFX5X6XxX5XGX4X{ i C / V [ V Y E ( N L A V V / V h b U U m N m N / ( C B N P k h h X.B h A b k m s m V b k n h D n h v A V h i k k b N b v B s P / s b A Y N k V B Z V C v V m y.GXAXrX3XvX9X6X}.6X&XgXjXJXoXU C S P ^ ] N i v V l s l k i n s f f s l k f d 5 6 h , y t , 8 d 5 s 8 4 6 4 9 s 8 , , j j , 5 9 j r 5 , 5 4 d 5 , 4 t 5 , 5 1 , , 8 5 1 > , ; * @ 6 6 ; 4 5 ; w 4 8 , , , t * ; 5 ; ; e , @ ; 1 8 , 5 5 * 5 1 * , * , ; * > @ , , ; @ @ ; 6 ; ; , , , ; ; ; ; ; 1 , , @ - 2 ; ; 5 @ ; > ; $ * @ ; , ; * ; 3 ; 1 1 ; ; ; * > , , $ @ @ 3 * > ; @ @ ; ; ; * ; $ @ * ; ; @ O > ; $ > $ $ @ o ; ; ; ; $ O   ",
"; @ @ ; o @ o $ o o O ; $ o $ $ * @ @ ; ; @ @ $ > @ * @ ; ; ; $ ; * ; @ ; ; @ ; ; ; , ; * @ > $ $ , ; , * ; * ; ; , @ ; ; > ; ; > 6 5 , @ 1 2 @ 1 ; ; , ; , 4 5 4 ; * 1 , @ ; , 5 5 * @ > * ; 5 5 5 , , , , d 1 1 8 y 5 4 1 , 9 5 8 6 ; , i 8 , - 6 5 ; 4 d 9 ; > 8 , 5 r 4 5 5 5 w 5 ; 8 4 6 6 , n 8 , 5 s 7 * 5 5 4 8 5 4 8 d , 6 8 1 8 n f 4 5 , 8 B f 5 8 f r j s f s i f n b V N m V v v C V ) i 7 %.NXAXpX&XkX}.AXgX3XAX8XkXZX@XJ f ! V Y Y P K m P / N b m J C C m I  .N n L ' L m v B h V C h Z J v k C h k b V P m k s f V b C m v P b N C b Z V b C b n r k _ k E K V h k A L Y m k C m z.PXxX8X4X{.Q.&X5X[.8XmXgX9XY.J p S b ! M A n C k m x f 8 l s k k f s s s k f r 5 9 k t , 8 8 w 4 5 5 8 5 8 d s f t w 5 , 5 , d 6 , 8 6 ; 5 , 4 t 1 , 5 5 8 t , 1 , 5 , , 2 1 ; ; , , 5 , , 1 1 4 z 5 5 e 5 5 5 ; 1 ; ; ; 5 1 ; ; * 1 ; ; ; 1 5 t ; , 5 ; ; ; @ 6 , @ @ > , 4 , ; , 5 , @ ; ; @ @ ; 1 * o @ @ @ , ; * > * ; $ @ ; 1 ; , ; @ ; @ * , @ > , * 1 ; ; * $ + 1 , @ ; @ @ $ ; ; , @ > ; @ $ @ O o @ ; ; ; ; @ @ @ $ @ @ 1 > ;   ",
"$ @ $ ; @ o O $ $ @ O @ @ O @ * ; @ @ * @ o $ ; o @ @ @ ; ; * , > * @ @ ; ; @ @ @ , , @ ; ; 1 6 * ; > ; o @ 1 , * 1 @ ; @ 6 1 @ > ; , ; , * 1 ; * 1 2 * ; ; * , 1 1 1 , , , , ; , , 5 ; 5 6 * ; , 5 1 > , 6 t * 1 5 t , * y , 4 , 6 > 6 5 7 d , , s 4 5 4 5 g r 5 5 8 , w 4 4 0 , 5 , $ 5 4 r 5 , 5 6 , 4 4 r 6 6 7 4 5 g 4 4 8 s 6 t , 4 s 4 8 D s = t 4 9 s 4 4 s 8 s f k i l k n b V M N j n V V V k s ` VX9X6XhX9X3XgXkX3XpXkXpXJXoXI m K L V N K ^ / m ' V V v k K V V U A v V V V N P V C V P k b v V V b N h b P V h V C P m A N b h L P m V P V N N N i A C _ b h N P m ~ V V V Y P C m -.vXFXkX6XU.aXhXhX5X3X3X6XFXeX| k D U V V V k s v C m n k f s k C s n i 8 r 4 7 8 f i 7 f 4 8 8 5 5 5 8 5 4 8 5 r 5 1 f 5 ; 5 7 l 4 5 , 4 , 1 5 , r 7 6 5 w , 5 , 6 , , 5 , 5 t 1 w , 1 5 1 1 t 6 ; , , , ; ; , 6 , 5 4 5 * * 1 6 e 1 , e , * ; * t ; 5 , * ; ; ; , > > ; , , ; * * , , * , ; > @ $ 1 o @ 1 5 * ; @ 1 ; ; , ; @ @ 6 * ; ; ; ; ; @ ; * , ; * @ ; * @ @ ; ; * ; @ > o , @ ; ; @ ; 1 * o @ @ @ > ; ; @ @ $ $ @ ; @ o o @ @ @   ",
"@ @ O o ; # O @ ; @ * . @ $ ; @ @ o @ ; @ @ $ $ o O @ ; $ $ @ ; , , o > , ; 5 ; 6 , @ @ ; , , , , ; ; @ ; ; ; , 1 , @ ; @ 5 , ; ; ; @ 1 , @ 3 ; * 6 4 * 1 * @ > , , , ; e * @ 3 6 > ; , , , 1 @ @ 1 6 5 , , * ; 3 > 4 2 ; , , 5 ; * , 5 5 4 , 7 s s 1 t 9 , 5 i t , l 4 * > 5 t 4 8 w ; 0 s r t 1 * , 4 w , , 5 5 4 8 , 6 r 5 s k 5 w t 0 0 9 h v s 5 ; 9 l s f s h 8 r s R B f 8 n N J P B f h m L m B d s { zXxX3X=XAXFXFXpXpXpXcXZXJXh.v D ) J N V V } ( K V _ D n _ Z B k k P N f v A V k m b h m n b m / P V N N L k n N Z m m P P N A h V b h ' N h N S N P m h C N k A b / X.^ o.U m k $.nXAXgX}.8XFX6X[.gX8XbXzXgXcX1.v b b ~ V A v S k n V N f b k i k P h B s r 5 , 8 8 8 N 1 s r 8 i 5 , t d 5 4 j 8 , g j r 5 > 5 s h f * 5 6 , , , 1 8 4 1 5 , ; 6 t , , , , 6 5 8 7 5 , 5 , ; , 5 5 > 5 5 1 , 1 5 , , 5 4 4 > ; , 4 5 ; ; , 5 6 * $ ; ; 5 6 , 5 , ; , , , , 6 , : @ ; 1 ; * , 1 > * 1 ; o ; 5 4 * 3 ; * , ; > @ 1 , , ; ; ; , ; $ 3 @ @ 5 * @ o - > ; $ * ; * @ @ > ; , ; @ $ @ ; ; ; $ $ > @ @ $ > @ ; ; ; @ o $ % $ $ @ $   ",
"@ @ O @ @ o @ @ ; @ O @ O @ @ @ ; ; @ @ > @ o ; @ ; * @ ; ; @ @ @ @ , * @ 1 * @ 3 , ; 5 , * * ; ; * , * , ; ; 0 @ @ , - , 4 4 6 1 * > ; ; > @ * ; > o * > 1 ; > , 5 ; @ ; ; 1 * e ; , $ 5 4 , , , 5 1 ; 1 7 d 5 w 6 i 5 , , 4 w , 5 5 4 1 6 @ 9 s w ; t t d , , 5 , ; 5 4 d 8 5 f i 1 p n 8 * 5 d 8 , , 5 5 5 , z g , , 5 s h 7 4 , w 8 , 6 , 9 l 9 , w 5 s l , 9 j s N h k f s s n s f k k h P L P Z  .I K t ' NXxXgXpXhX=X3X[.bXzXgXDXJX7.m v Z ~ R ' ' P Z V J J V / J Y V v / P A J U m P U Y k v m m V K h b h b V k n k U m A h V A v v C k h B x v I :.b A L b ( v ( L m P V D J V i +.tXZXgXpX#X9XcXgXpXpX3XgXDXyX:.j G Z B b R k s D Z C s k s n j s f l 7 d 7 s f s 8 4 5 d j , 8 , 9 , > 1 G 4 y 1 4 s 8 5 5 6 w 7 8 r 8 4 5 4 1 1 6 4 , o 5 y w 5 5 , ; * r 1 6 2 ; 4 , > 1 6 5 5 t , ; 5 ; 3 @ 1 e 5 1 6 8 4 5 5 @ ; 8 * > , 1 = , > ; ; ; 6 , , * , 1 5 4 , 5 ; , ; , 1 4 1 $ @ ; ; # o ; ; @ # $ ; 1 O @ , 5 3 o @ @ > # O @ , ; > @ > 3 @ ; ; * , * @ , , @ ; : @ 6 ; , ; ; ; , * @ o ; ; @ @ $ $ @ O * ; $ @ @ @ $ @ $ @   ",
"@ @ O @ ; @ @ $ @ @ . ; @ @ @ @ ; @ o @ ; $ @ ; @ ; * @ ; $ @ 1 > ; ; > @ > 3 ; @ > @ , ; $ $ 2 , @ ; 1 1 ; o ; 6 ; ; @ ; ; ; 1 > ; ; ; , ; * 1 > ; * * ; 1 ; , , 1 6 @ * , 6 , , , 5 ; , w , , 5 6 5 , t 4 , 8 , 6 6 9 , 5 5 5 0 8 , 6 5 4 , 6 5 0 ; 5 8 5 , , 6 , ; 8 8 4 5 5 5 l e k 8 5 5 5 4 t 7 4 6 , 8 = , 5 y 9 7 4 g g t 4 4 , 6 6 5 f s 5 5 5 8 8 8 5 s 8 s l x f 7 k s s B v h V C N b k P J V P C v $.wXcX8XbXFX5X}.kX8X5XZXFXyX$.L P Z m J ..V V / Y V / m b V U m P V b J ..V m K N b P / U m P m / :.m m E k m / s v P L K V V V A P m s V / V h V m N _ m P U m U J m C h ^ L.bXCXgX8XgXpX3XvXaX3XGXZXNX-.8 L N h ~ A v h P b s n n C s h B s s k s x 8 d S s w w t 5 r 5 d d 9 r g , 4 6 * 4 l s 4 1 6 , 5 f t 5 5 4 9 8 0 * , g w ; , = , 5 5 5 6 ; r w * @ 5 t > 5 1 , 5 5 1 e , 4 , , > 1 * , , ; 5 5 , , , , 8 , , ; , 5 , , * 1 ; , , , 1 , 1 1 , , 1 , ; ; ; ; , , , @ , ; o > * 1 * @ @ > ; @ ; 6 ; * * > > , * @ ; , ; $ $ ; @ > , , @ $ > @ > , @ @ ; ; * o @ * @ * ; ; $ ; > * @ : > $ @ @ @ ; * $ $ @ @ @ $ $   ",
"@ @ o @ $ @ $ @ @ o o @ @ @ o @ @ @ ; $ O @ @ @ @ ; @ , ; o $ , 6 > o @ ; @ $ ; @ ; @ * ; o ; , ; @ @ 1 ; @ # , 5 * ; * ; % o . ; 6 * ; 6 5 , 2 ; ; 1 9 ; ; ; , , * , , 5 5 5 * , 5 6 , , * , 5 * w 4 5 * , , t 8 0 @ w , , , - * 8 1 5 5 4 d 5 * 6 9 , 8 , , 8 5 , 5 w 4 7 t , * 4 6 5 5 , 5 6 4 5 9 7 f 1 5 t 8 5 d 7 s 5 , 5 g 5 s 5 5 8 r s 8 r 5 5 x , f x 4 n h 8 l f s N b h V h N n b S S V V A N V J J h { XXHXxXkXvX3X8XAXkXkXCXFX+X' N / J V V U ` U L J Z S A J ' P h P k V V L m N A V V V J P v / Y V m ( V m P N n Z V V J m V m k / K V / N v V P U J A L L V V J =.Z j h h.JXzX3X6X}.rXlX[.$XpXAXjXAX8.m N / S A K A N v h A b V f h N b j s k s s f d t k s 8 5 d 7 t f 4 5 6 4 f s , 5 w 4 i 8 5 5 7 j 8 t 1 , = ; ; 5 s l , , 6 5 6 , , 5 ; 5 d , 5 t 5 8 , * 1 7 1 * 4 8 , @ , 4 t 5 , , , 1 ; : ; 5 4 4 , * , , , 5 * ; t 5 ; , , * 5 ; > , > ; , 4 8 5 ; * @ ; $ , 5 ; * ; 6 , ; ; ; , @ @ ; 5 * @ o ; 9 , ; , 4 , ; 1 ; @ @ ; , , ; * > @ , ; @ ; ; @ @ $ * $ @ ; > ; @ ; ; * @ @ @ @ $ ; @ $ ; @ ; @ $ @ * @ $ ;   ",
"@ @ O $ @ @ @ o o $ $ o @ o $ @ o @ ; @ O ; @ @ @ > @ , ; @ @ @ @ @ o @ > + @ > ; ; > ; ; @ * ; @ @ ; $ ; @ ; ; * > ; , ; ; * @ > 1 > * * , , , ; ; ; 1 , 1 , , 5 1 ; , 4 5 * * 6 5 5 , > , , 5 5 5 5 t , y , * 5 5 ; 5 5 5 , ; 5 8 5 ; , 7 h 4 5 5 s 8 6 , 5 d 5 , 5 , 5 5 r 4 e 5 , ; , 1 = 7 s 8 6 4 5 8 * r r 5 t l 7 , t 5 8 4 d 5 , 8 d r 5 j 4 7 s d f 8 7 l k d 7 7 B i k ~ k l _ b m A h m V k V ^ } O.S i 6.DXJXgXhXhXxXpXrXgXgXjXGXoXV Y P V L } ] J / ( / N m ^ L m h P [ L b L m m V L L L V v V m v K P / v V P h V Z V V / V V P V m m L m v V ) v U K V V V L P Y @.U n | yXSXkX[.&XbXgXrX8X7X6XZXLXh.h L / m J / m s C A b A b V k N S h s s k B f s 8 8 f r 9 4 s k 5 5 8 5 4 8 s 5 5 5 t 7 d 5 5 ; 7 B r 4 8 5 , 5 1 t r 7 5 , 5 , 6 t 5 > , 6 5 4 5 5 8 5 ; e * g 5 , 8 5 1 , , 5 5 , 5 8 4 e , 8 @ @ 5 8 * , w ; , 6 , @ ; 1 , ; 1 6 ; , ; ; , ; ; ; * * 6 , > , @ ; w 5 ; ; w * ; * 5 , > ; ; ; * 6 2 @ , , , ; , 5 , * + @ ; @ ; ; , ; @ ; ; ; ; ; 1 ; @ ; > @ @ @ * * @ @ @ $ @ ; ; ; $ @ ; $ @ @ > $ @ * ; * $ @   ",
"@ @ o @ $ $ o o O @ * $ o @ ; ; @ @ $ @ ; ; @ o $ $ , @ @ @ @ @ o ; ; @ ; , ; @ o @ , o ; , * @ @ > * @ ; , , , * @ 1 , , , , , , ; * @ ; 1 4 1 @ @ ; @ ; 5 5 6 5 * , , 5 , 1 , 6 * ; * ; w 1 * t , e ; ; 9 5 , 5 4 , 5 5 6 w , , , 5 , 5 5 8 8 7 5 i , , s 8 7 8 , w 5 1 5 5 8 t , 7 6 , 8 4 8 8 5 , 4 r w 5 8 5 5 8 8 1 5 5 4 7 5 ; r B 5 * t 5 4 f w r j 7 s t 8 4 f s s f h i f k 8 S N m A m / C h b J J T ( C a 7.mXAXjXjXcX3XgXjX8XAXZXGX2.M n U [ L N V U L /  .' V / / P L K U L ) V ^ U V V ~ V P J Y L Z / m V m ) ' V V v P A k Z P Y L V / m J / / m ) V U U P P P V b H $.yXFXjXAXcXhXbX8X6XzXcXkXyXc.v T  .[ v L J k i k _ k k h h V L s r h S s 8 j i 8 s j d f s 7 k , 5 l 7 f 8 4 4 4 d , 6 6 , t r 5 * 8 r 8 5 1 5 8 y 5 , 8 8 9 4 t , , , 4 5 * r 5 4 , 5 5 5 , 4 4 5 t 1 5 6 6 , @ , 5 7 5 , e 8 0 1 , 5 , , * 1 , 1 , , @ 1 , 1 , > ; ; ; ; ; * @ > ; , 1 , > 4 , , , + 5 ; ; ; @ ; , ; ; @ @ , 4 , ; @ $ ; 5 1 o @ , , ; , ; @ @ @ @ @ ; , ; @ > > ; ; @ @ 2 ; , > ; @ $ $ @ ; $ ; ; ; @ o ; > @ @ o @ @ ; @ ; @ @   ",
"@ * @ o @ @ @ O O ; @ $ @ @ ; $ o ; o ; 2 ; @ ; @ * @ O ; , ; @ $ , ; ; > 1 $ ; > ; ; ; * ; 1 ; ; * * $ ; 5 1 ; 2 @ 1 ; ; 5 > @ 1 ; > > > , , 1 ; , ; 1 5 * 4 5 , 4 1 * 6 , w 5 , 1 2 > , , , 5 , 8 , ; ; , ; ; , g 5 , , , 5 5 5 , 8 6 * 8 7 d 5 5 8 > 1 f 9 4 5 5 4 5 , 1 5 r 4 = 7 8 5 t 6 5 t t 5 6 5 4 5 6 6 t 8 5 4 9 4 8 f 8 , f k , > 8 f 8 s r s 8 f f 8 t t 8 n B k B f 8 N n h k ~ V ' ' b O.J V L J ] J B m i.JXCXrX8XrX3X6XhXKXCXAXyXU M ` J U V ^ / J L  .] J V V ( J J ^ L m J `  .Y V L V / V J K h V ) / V V U ^ N h b V V m m m V h m P Y J L L V V `  .V m J V V h y.JXyXAXrXgXkX6X=XhXgXAXmXr.v s o. .P N / T C v V v v C A m b k s B s f s l 5 d D s 9 4 s l 8 8 f i 9 7 l 5 7 4 4 6 5 t , 1 f 7 t 6 1 , l f w 8 ; 5 5 5 , 6 5 8 5 5 , , w d , 5 ; 5 , 2 , , w , 5 5 , ; 5 , , , 2 1 , 5 5 ; 6 4 d 5 @ , , e * , 5 , ; t * , 8 * , ; > ; , 1 1 6 ; ; 1 , @ ; * * 5 , > ; ; 1 @ , 5 1 * @ > ; o @ , , ; 1 ; @ ; ; > o ; ; ; ; $ ; > $ o $ * ; ; - o ; ; @ > @ @ , ; @ o o ; > ; ; @ @ ; $ o $ ; @ ; ; o @ ; ; o @ @ @   ",
"o @ @ @ @ o o @ ; @ o O @ @ ; ; @ o $ @ @ @ ; ; ; ; o $ @ * @ ; * @ ; ; ; @ @ ; 1 ; @ @ * ; ; ; ; * * @ ; @ @ @ > , * ; o ; ; * 6 , * , , ; ; @ , , , 9 , > 6 , , 9 5 5 ; * 5 5 5 , 5 ; ; 5 5 8 , , 4 5 w 5 * , 4 9 , , , 4 d , , 6 , 6 1 5 w , , d 1 1 5 * 9 1 4 8 , 5 8 5 , 5 9 4 , d 4 4 , , , 4 7 , , , w g 5 , 5 s s 8 5 r 4 s 8 d = 8 d f k i s k 8 r s i d l s f s i n 8 s N P L b m m V M v N V L V V m ^ [ N G m oXJXHX9X8X8X8X5XbXkX5XKXY.I / ' ^ ^  .Z P ' ' J / ( m L U  .J Y o.' U m / V [ ` ^ m ( V ' J C b J J b m Z X.K V L o.' U U Y J Y L P b / ( V L V V U [ / m } CXSX8XbXhXAXvX&XgXjXAXFXi.J T ' m P N P A K V X.:.J N k k m N v r h i i l 8 s s g 5 f S s t 9 8 8 h 8 r 6 ; l s 6 5 s k f 5 4 h 5 r w , 6 7 i j 8 5 , 8 w 6 , d * , 6 5 ; 8 s 4 , 6 5 1 5 t , 5 , , 6 5 , * , * , 1 , , , , , = 0 5 ; , , 2 ; 5 5 , * > 6 , , ; , 5 , 1 1 , 5 6 , , , , @ ; , ; ; ; 5 , , ; @ 1 > * * * ; > > ; , , * 2 ; @ @ $ * 5 6 * ; , * @ * * ; > ; @ ; ; o * ; @ ; ; ; @ @ $ ; % @ @ O ; @ ; @ @ * ; @ @ ; @ ; $ $ @ @ ; @ $   ",
"@ * $ @ o o $ @ $ @ @ $ o o @ ; @ o > @ o $ @ @ ; ; ; @ @ ; , ; @ ; * ; ; @ o ; ; ; ; $ ; * @ > ; , ; ; 3 > ; ; ; ; > @ @ ; @ , 1 * , 5 5 ; * * > , , 4 = ; @ , 5 4 1 5 , ; 6 4 5 * 9 , , 6 , 6 , * 5 7 r * 2 9 4 4 5 > , 7 d ; > 8 , 8 5 5 5 , 6 4 w 9 , 6 7 * 6 5 4 8 7 9 = 4 8 d > 4 , 9 6 4 5 d j , 5 w , 4 , , , 5 8 f 7 r r s s t t 8 7 t f n 9 k f f 8 i l 7 8 j k h F r k P k L V n N k b V P m h L ( Y C L J C v { +XUXHX9XtX8XzX3XuXAXrXGX0.b _ U } W V V U J ' V U ^ V [ ' b m { ^ P ..( J J L L L / U ] Y C m [ X.A C L V V O.U U U L J ..' J V b C Y ^ V / Y U ] @.^ H R.JX3X3X8XgX+X8XgX8XgXJXh.v K P ^ A k m V V n v s J ^ h l s S B v f n C f 8 n n f r 5 h N 7 , d s , f C 7 , 6 h l 5 , s k 4 t d l g 8 5 4 4 8 9 4 4 6 8 5 , , 5 7 5 , = y 1 * d 5 w , , ; 5 t ; 5 ; , , 1 6 5 6 , , w 1 @ 1 9 5 , ; 6 , ; , ; , , 5 ; @ * 6 6 @ 1 , 6 @ > , , * * 6 5 , 1 * @ > ; * , , , * ; , ; * * ; 6 ; * ; > @ , , 1 @ * 3 @ , 5 > @ > ; * > ; ; ; * @ ; > @ ; ; > @ * , @ $ @ @ ; @ @ @ $ $ ; > O > ; ; $ * O @ ; @ o $ @ ; $ @ . ",
"$ $ @ o o ; ; o @ o @ ; @ o @ ; ; @ ; @ $ ; ; @ $ ; ; @ $ > * ; @ ; @ @ @ * ; @ O > o ; ; , , ; ; @ ; ; @ 6 , * ; ; @ ; , 0 , @ 2 5 5 * , ; , , @ 0 * , 5 4 , * ; 6 , ; ; 6 4 * 6 5 > 4 5 5 1 , 1 4 , 6 5 , ; , 8 8 6 ; 5 r 5 , , 6 , 1 5 5 , 4 6 * 7 6 , 1 8 r 8 5 6 s s t 8 t 4 9 , 8 t s 4 4 8 f r t 5 t 5 g f g 4 5 w 9 4 r f 5 4 r y ; 8 f 8 4 , b s 8 k x r s 4 j r s k s k h s P s s ) V P m V Z V V [ L V ~ ' P D j $.GXJXtXFX8X8XkXgXhX8XSXkXK L P ' >.>.I ' / } ` ` @.V / U / :.L T J / [ ' J / / / V ] ' U Y ^ ' T ..^ ' Z m J X.J ` [ P J ^ J ' P L ` U T Y ] =.' A n $.yXSXrXjXcX5XgX8XgXxXFX_.I P L U ' ~ O.J m ..h Y V V N s k S s k A S k f g B k s 8 s D f s F s 8 B r f 5 8 s f 7 5 6 4 t 5 4 r t , 5 5 7 j f 7 6 , 6 5 4 r 5 , 8 , 5 1 5 4 , 4 , 4 6 , 7 7 4 ; , 1 , , 8 6 ; @ , 1 5 , 4 4 , y , , ; , , 1 ; ; ; > ; , ; , y , 5 6 1 ; > 1 , 1 ; 5 @ @ > ; , 6 @ , ; ; * ; ; @ , , 5 , , ; * ; ; ; 4 ; ; ; @ ; , @ $ * , , > O , ; $ * * ; ; ; $ ; ; @ ; 2 ; @ $ > * $ @ * ; @ @ @ ; * @ ; > ; * ; @ ; @ $ ; ; O @ @ @   ",
"$ $ @ @ o @ @ @ @ $ o ; > O o @ ; ; ; @ @ > @ @ ; $ @ @ > @ $ ; , > @ ; $ @ ; o o O ; * ; 5 @ , > @ > ; @ e * ; @ * @ 1 , , ; @ ; ; 1 * > , ; , ; , * , , d 5 @ ; d 1 * ; , 9 , , , 1 5 , t 5 * 5 w , ; 5 , , 1 t g 5 5 5 r 5 , , , y @ 0 t 8 d 6 > 8 8 5 d 5 r 7 , 5 s 8 8 8 5 5 8 * 5 5 8 d 6 5 f 8 6 , , , s 8 5 4 , 5 9 8 d r w 5 9 5 , s 8 d 4 s s s 8 s i 8 l f 8 f f k h f h N P n l k L L R V L / V L V V L L J ) C J h.mXtXKXJXgXgXjXtXgXHXSX7.J ^ ] ^ U 6.U V :.+.V L V L [ ] J ` ;.` J J m ^ / X.V +.=.J L W ` U U ` J U Z O. .V K ' ^ U L ^ T L L V ' } /  .^ J ' V k l.FXjXkXcXlX6XtX8X8XJXvX{ ' P L ^ J N J T L L m / Z S x N k h h B n k h 7 s i s f s 5 s n 8 B 5 j s 7 8 4 l 8 8 7 ; , d d 8 l 8 5 , 1 5 d 5 s s 5 , 7 5 5 , 5 w 5 5 1 5 5 6 5 y t , 1 1 5 5 8 6 1 , t , 8 , $ ; 6 , , 5 , 6 , , 4 6 w 5 4 t 1 ; 2 , 1 , ; 6 , ; 6 , , * > ; 5 w @ , , ; ; e 6 ; > w , ; , 5 @ @ * ; , , ; ; @ ; ; O 5 1 @ 2 ; ; > 1 * * ; 1 ; @ , * @ ; , 5 , @ @ $ @ ; ; @ > @ o ; ; @ @ > $ @ ; * @ ; @ 3 @ * * ; @ * * * @ $ ; ; $ o   ",
"@ @ @ @ @ @ @ @ @ ; $ @ @ o $ ; ; @ > ; @ @ $ ; * > @ * ; @ , $ * @ ; > @ @ ; o ; t ; * ; * , ; * , @ @ ; @ ; ; > , , > ; ; , ; > ; ; , , , , 5 * 1 , ; ; * , 1 1 @ 5 > @ , w t , * 5 5 6 5 = 0 8 , t ; 5 w t 5 ; 5 4 5 5 , 5 5 5 1 6 5 f 8 5 , , d 4 f 8 8 5 , 6 5 6 5 , 5 4 t 5 5 6 f r , t 5 4 5 4 5 8 d 4 7 t , s w g , w w , 8 4 , g k r 5 5 d N 6 4 r s 8 r f h 8 8 s n f s P J k n n N v V A N V U V v L [ U ^ P ^ ` L m OXJXrXgXgX8XkXjX5XjXSXwX3.{ L L J ^ ] U } ` m } / L ' J V U ` ` ` ] ' / ` L U +.` V +.U U ^ { | U ] V J ] ' / V J J J J Y U ^  .' U V V U ^ W J i.yXpXjXrXgXgXbXgX8XJXPX7.J ' J U ' | ( V Y V @.^ V N k h k m C k B n s k b A d s C k f s d 5 j f 8 h j s 8 j 8 4 8 t 5 d h h s 8 t y s 9 w 5 * , 5 , 7 f 6 * 7 s 4 4 2 4 8 t 5 , s 7 , 6 w 5 8 t t * w 5 4 5 1 t j 8 , 9 = ; t 4 4 4 w 6 5 * w 4 , 6 1 1 , 1 , ; - @ 6 5 ; , 8 8 * 1 5 1 ; , > * , , 5 * @ ; 1 1 1 , @ > , 1 @ ; 1 @ @ 1 = , , @ 1 * , 6 , > @ 1 , , ; , * , ; ; ; @ @ ; ; @ ; ; @ ; ; @ @ * @ @ > ; ; @ ; @ ; * * ; @ ; o ; ; ; o @ @ ;   ",
"@ @ @ $ o @ ; $ $ @ @ . o X o ; @ @ * o ; : @ ; $ ; ; @ @ ; ; ; @ $ ; @ @ @ ; ; ; t ; , ; @ e , @ ; > ; 1 * 2 * * 1 , @ o , 6 , * ; * @ , 5 , 1 , * 6 ; ; 1 , , , , , 1 5 1 , , 5 5 1 ; 0 * 6 * 6 0 5 * 5 8 5 1 @ 5 5 t 5 5 6 5 t 5 4 9 7 7 t 4 , s 5 r s 8 w 1 , , , ; 1 5 6 6 5 t , 7 t 6 * ; 5 1 5 5 4 d r , t d l , 5 6 1 4 d 8 j 8 t k s 5 , r k 6 r f s 8 s h s B f k C n h L v s f A m v S S V P P L ..U ^ o.] V J | ' h { yXDXCXKXjXjXxXAXtXCXSX!.H C O. .` =. .m P T :.] J T ' >./ U ..J U O.T ` U +.^ P J } ' ( o.T :. .L J o. . .Y ' o.J Y :.J U W  .` Q } Y +.@.U -.NXKX8XZXgX6X9X=XzXCXAXh.m V o.` K V ' Z P b m ` J k V b Z m V V s s h C s s B k 8 k 8 7 s j 8 d 4 s j r s k t d 8 s 8 s s s f 4 d , , i r , 9 5 6 5 r 8 l 5 t 8 l , , 5 4 r f z , s 4 9 5 4 5 , , 5 > 1 8 5 f t 4 8 5 5 9 1 y 5 r 9 4 4 6 ; ; 6 w * , , = 5 1 , > , @ 4 , * 1 5 8 5 , , * ; > * ; , , t 4 @ o 1 , * + * ; , , @ * , 6 @ * 8 , 1 ; ; @ * 5 + ; 6 @ @ , @ ; ; * @ , * @ @ @ ; ; ; ; * 3 $ ; @ @ > ; ; , > ; ; @ > ; @ $ @ ; @ > ; $ O $ $ ;   ",
"@ ; @ $ o @ $ @ @ @ > @ @ ; ; $ o O @ @ $ @ @ $ @ @ ; ; @ @ ; @ * @ ; ; > ; @ @ @ * @ * @ * 1 @ 5 ; ; * > , > * , ; , ; o @ ; , , ; ; ; ; , , + , 5 o w , 5 t 4 4 5 5 , ; @ 5 , , w , 6 5 @ , , 5 7 , 5 6 5 4 ; , 5 5 , w 5 8 , d i 9 , 4 f 8 , 6 d 8 5 r s t , 6 s 9 f t , s 5 8 r 4 s g 6 , j j t 5 s 8 8 8 5 4 7 , s 5 5 , d f t 7 4 5 f 4 , 9 r V j 8 s j f k k s s s l i i N A k ~ C b b C L P C b m h / / L U K L  .| ^ S v r.SXHXHXCXrXkXxX3X9XHXmXU J Y ` ;. .^ V J  . .I  .| ( ^ V Y / L @.' Y ..' J / Y } } Y ! P T ' :.P K o./ Y / ' W ' L =.` U } |  .^ 6.;.{ b p -.FXSXtXZXbXkX5XzXZXZXtXW K @.V V A A U Z V V V P V k V P / k P b 8 A m 8 f 9 8 A k 9 s s 8 f s b S 8 t l 8 s 7 , t f s d r 6 4 5 5 r s 7 r 9 4 8 d t r , , 8 5 4 5 5 4 5 5 5 , d s 7 t l 5 4 t 5 ; , 5 , 4 4 8 5 4 5 = 8 7 , 5 ; * 5 5 r 6 , , , 1 , , 5 6 5 5 * * ; , ; , 5 ; @ , 6 5 , 1 , , , , , * 4 t , > @ @ 4 4 4 ; @ ; 0 , , t 1 @ , * * ; ; 1 @ @ , , > ; ; ; @ ; , > @ @ , > @ ; ; ; @ @ * , @ @ @ > 2 * @ @ @ * @ o @ $ @ $ @ ; O ; @ @ $ ; # O   ",
"@ @ @ @ @ @ $ @ $ @ @ ; @ ; @ @ % o $ @ $ @ ; > # o * ; @ @ * > 5 * * ; ; $ ; ; ; > @ @ , > * ; * ; , ; @ @ , , > ; , 2 ; > ; ; , , 5 6 , * , ; , , # 4 5 , ; > 5 4 , , * ; 5 t , 6 5 , , 6 w , 6 t w t r 4 5 8 j 5 8 , w 5 6 , w 7 5 ; 6 j 4 4 t g 8 ; 5 s 7 5 s l 9 S s 7 j f 5 5 s s i 7 8 s i 4 = 8 f 4 4 t f 7 t l * 1 t r 7 4 6 5 8 s l 8 4 t k r s i 4 s h b B f j s k D s S f V v A N h P V h b V m Z A L m V X.^ ' ^ P ~ ^ |.HXrXjX0X0X5XrXaXHXGXc.I ' ^ =.J L o. .] V L ] ] ^ ]  .( J L T J J Y V V V J W W J U ` J V J V m A J J ] J L ' Z { =.[ @.` ^ L ` ^ ^ / ] eXHXAXDXAXrX8X}.jXjXGXy.V R P  .J L L :.Z J ( P h S V L b k P m s f P v b B j s h C B 8 7 f l s h m i 5 t i 8 l 9 r f r 5 ; , 6 d r 4 r , t r i s 4 r 5 5 , s s 1 1 r 8 g 8 ; 2 s i 8 , d 8 8 5 4 t t 4 5 5 d , ; 1 t 8 d 7 5 * 1 e 5 * 4 5 e * @ > 6 ; , t , , 5 5 1 5 e ; 1 1 @ $ @ , , 1 , 5 5 , , * , * + 6 6 @ w 5 7 5 - 3 6 * ; 6 5 * @ @ , 6 , ; @ ; 5 , ; @ 1 @ 1 ; @ ; ; @ ; , @ ; @ @ ; $ ; 5 @ ; @ o ; @ ; ; o @ $ @ @ ; $ @ $ @ $ @ o @ $ * $ %   ",
"@ @ @ @ ; @ @ @ $ @ @ $ $ O $ ; ; @ @ @ @ @ o @ * @ - @ ; @ ; * ; * ; ; ; o ; , ; ; * > ; @ > ; > ; ; e 1 @ e * ; $ - ; ; 5 ; ; * 5 @ 6 , 5 , 1 5 , @ ; * 5 5 * 5 8 5 4 5 ; * 1 , , w * , w , , 5 , 9 * 1 t 8 4 t 4 , t r 5 5 t , 4 d r r 4 8 5 , 4 s ; 4 9 7 8 7 , t 7 4 g 5 5 5 8 6 i k 8 r f 8 4 4 t 7 9 d w 8 8 f t , 8 s 5 4 8 5 4 4 r j s 8 d s 7 s 8 s s k s r 5 l f h C h s v N h h K ^ L k k P / V v N ( P Z U J J J ^ X.V ;.GXrXSXkX5XAXAX8XDXHX@X$.m } 8. .` ' ` U U o.U J Q U W W U { 2.7.r.Y.J.oX@X@X+XBXNXyXLXyX0XeXY.J.i.-.$.$.U ` J ) ] ` ^ ^ ' | ^ =.'  .] 7.PXZXAXtXCXrXtXjXrXCXfX` J L Z ] ' Y m L V P P J V K A M h S S V v b C v r s k k s B B r h n 8 7 B h k l s 5 f s 4 4 4 5 r l g 7 1 5 4 8 5 d 8 r 5 , 8 t 5 5 5 4 w 8 5 0 8 5 , 5 s 5 g * = g g 4 4 5 5 7 5 t w , 5 d 9 w , 5 1 * t 5 d 1 ; 5 , , , ; , 1 , 5 , * , , * 6 5 , , 6 , 6 1 ; * ; > * ; * , 1 , 5 , 1 > * * @ @ 5 ; ; > * , , * , > > , 6 1 2 ; 0 ; 1 , , ; $ , 6 > @ ; > @ $ @ ; @ , , ; ; ; @ ; ; ; > @ > ; > ; > > @ ; , ; ; ; @ $ ; @ * @ ; >   ",
"@ - @ O ; @ @ $ O ; # @ @ O o $ ; * @ > @ $ @ @ @ ; @ ; @ @ $ @ @ @ # @ @ ; @ * , , , ; @ @ ; @ * 5 o ; * ; ; * 1 @ ; ; ; , 1 > @ 5 @ , 4 9 , 6 , , , 2 , 6 9 * > 5 9 5 , * ; 1 , w 4 ; , 5 8 = 6 5 t * , 8 s i 5 t 0 8 8 8 w 5 8 9 4 8 8 , 5 t 4 8 5 1 , 9 s 5 g 9 5 6 6 , 1 5 5 r 4 s k 5 d r 5 r g 8 8 4 9 5 , , i ; f s r 1 2 8 1 g s 8 7 f s s f t 7 9 B b r 5 d j i v V N k k v n P A v U ' c N V P P Z N U U V P Y @.J U ` C v  XHXZXrXAXZXAXjXZXSXAXi.V X.&.U U :.^ L :.' m B F Y 8.OX@XNXPXFXJXPXJXSXHXHXCXHXjXZXDXZXHXZXSXSXPXGXNXz.x.:.b Y Z A M ^ ] ' U ( E N T @XJXCXkXjXCXtXgXgXZXJXz.P J :. .J ^ [ / J V C V V =.W V b M K N b k _ h l d h m N g 5 n s s f n l s 5 C s n s 5 g 5 5 d 8 8 i m n 8 4 G f 1 s 7 d ; e 5 = 8 s , , 4 8 5 1 , 5 j 9 4 , , 6 5 8 s f 7 l 9 f 5 , t 8 8 n 4 , * q 6 , 5 7 d ; * 1 , 5 t 7 5 = , , 5 * 1 , @ 5 = 4 = , 8 4 , , 6 * ; @ ; 1 $ * * > 3 @ t 8 , ; ; ; , , ; > 8 1 o o 5 * @ * , ; , 7 * @ , 5 = * , , @ ; , , ; @ $ , ; , * ; ; ; , , ; ; 5 , @ ; ; @ , , 1 , , ; ; $ @ ; ; @ @ @ @ @   ",
"o ; O $ @ @ @ @ $ > % o o o $ O o @ @ @ ; ; @ o > 5 ; @ @ @ @ ; ; > > @ * > @ ; * , 7 1 , , ; O O ; ; ; , , 5 > > , = ; 1 6 , 5 5 5 1 @ ; ; 9 8 * * ; ; * ; ; @ , 5 , ; ; ; , 8 4 4 5 4 6 w > , w 5 ; 5 7 r w , , 8 > 8 1 3 1 4 j 5 s 8 s 4 5 s s d * f d , ; 5 6 5 , t 5 8 r 5 4 8 6 t s 5 8 g r 5 , s 8 5 t 7 k f , r w f t t 4 z t 1 > i f 5 ; j t d l i F 5 f V s f 8 n B s g 8 s s C V B k B k K A b J U L L L L J ' V Y / J ' V { yXAXgXAXkX5XFXFXHXHXJ.U [  .]  .K K Q %.y.].}.}.DXHXSXAXZXHXAXFXjXxX5X5XjXAXgX5XjXjXAXkX5XCXAXjXAXSXDXSXZX8X5Xl.4.{ J H O.A _ @.J y.DXZXCXSXgXpXpX9XgXHXtX` d ) =.{ P V [ Q { ( P L / V h S N V k V V i P C s C k m k 5 t d f l i h f 4 t 8 t 7 f k l 5 t 5 5 t ; > 4 f h 8 4 t s l s 8 5 8 , 6 5 r s , > y 7 s k s l 8 1 , 6 y 5 4 7 6 9 s d r 8 7 7 6 ; ; 1 t , = 9 5 8 1 * r 5 5 5 5 5 4 , 9 , , , 7 4 , % 4 , 5 * 3 ; 1 1 * , , 6 9 4 , * ; , ; # @ , , 5 4 , , 6 ; @ ; , % ; ; , ; ; > * @ 1 ; @ @ ; @ * , , * o 3 @ @ ; ; = , @ ; @ , , 3 > ; @ @ @ @ @ @ * @ ; @ @ ; > ; O $ @ ; ; @ , ; @   ",
"o @ @ o ; @ @ @ $ @ @ @ O @ @ $ $ $ ; o @ @ ; $ @ ; @ @ @ $ @ ; @ * ; , @ @ @ ; ; ; t ; * ; $ ; ; , @ ; , , , @ * ; ; ; > ; * 1 ; ; , 1 ; , , 6 , ; ; , 1 * , e 9 , 5 * 5 , * t 4 , 6 8 5 , 5 5 8 6 * 4 8 5 4 5 5 8 * 8 8 ; 5 j 8 8 w x s 5 t 8 s 8 4 N 9 ; , 5 4 8 r 8 7 j s 5 g t 4 5 d s 7 6 , 5 5 8 8 , r 8 8 s 9 s d 4 8 4 s 5 5 5 w s s 4 g 8 4 8 s s d 6 t A i s k h k s f s x C k M m k V m k L L P L / U Y Y ~ / J o.O.K ]  .m J.PX3X8XkX3XjX}.CXHXyX5.Q ' ] U { ] i.eXGXPXFXSXSXCXKXjXgXaX5XrXAXGX5XAXrXtX5XgXbXjXjXKXjXKX8X3XtXAXtXrXJX5XFXPXNXBXY.2.` J U } ` 0XJXCXCXAXtX3X9XtXSXJXh.U C J U ` Z V J J ] V V Z J L V v m L m N P V h B 7 i h s F f S s 8 k k 8 8 f s s k w f s 8 r 8 s r 7 5 y 5 s l s k 8 8 8 s 4 9 w , , 9 8 7 8 5 , , B i d 7 r 5 5 s * , 8 d 5 8 g , g 4 5 , 8 , 1 , 5 d w 5 5 5 , 5 5 7 1 5 1 4 0 5 ; > 6 * t 6 1 , 4 6 5 , * ; 1 ; * 1 , , , , 1 ; ; 1 1 @ @ ; 5 8 0 , , , , * 1 > > @ * 1 , ; ; 5 , ; , * ; @ * ; * , 1 * @ > ; @ @ ; > ; > ; ; ; * @ ; @ $ @ @ ; ; $ ; ; ; $ > ; * @ @ @ ; ; @ > ; @   ",
"@ @ ; @ @ @ @ ; $ ; ; @ 3 @ @ ; @ @ * @ ; ; @ @ ; @ @ ; @ @ $ @ * @ > ; ; > ; * * * * $ @ $ ; , * 1 @ * ; 1 , ; ; ; 1 , $ @ @ 5 , , , 6 , ; ; * , , , 4 5 , 5 6 @ * 8 4 t , 5 e , t 7 , 5 5 4 , 5 4 d 5 , , , 5 8 5 4 4 t 5 5 8 5 6 4 9 7 7 7 8 d 5 5 7 5 , 1 f 8 7 s 8 d 7 6 s s 4 f 4 w 8 s , w f s , ; 5 h d 6 4 j d t 5 r n S h t s f 8 8 s k s 5 4 s h s g 5 9 f f f n b m b h s A V A C V L J V V L V V Y J V P / T  .[ A U { } m ` yXZX8XAXtXAXKX5XCXPXi.V P W 7.+XKXGXbXrXZX+XCXDXtXrXgX6X3XFXjXkXkX9XgX5XkX8X3X8XbXrXZXjX3X=XrXzXAXrX5XHXSXjXSXDXJXJXFXyX7.W J L.PXDXCXAX8X8XwXZXgXAXXX$.{ / U U L L  .Y / J V P ^ V L K v C / V N m V N f S / v s n i k N V h l 4 s f s k k r 5 5 f f 7 j f n S , e 8 5 l C 5 r f s 8 5 w d g i 7 8 5 8 8 4 5 8 5 5 d r 8 f 9 w > 5 5 5 4 5 t 5 5 5 6 r 8 8 5 t 6 * ; 5 , 5 4 8 , * * 1 ; 5 1 * 1 * @ , , 7 t 4 = 5 r 1 ; @ 5 5 0 , @ * ; 1 ; ; 5 6 , * ; 5 * 1 5 , , ; 6 ; , 5 ; , > ; ; > 5 4 * , , , 0 ; $ ; , , ; ; ; 1 $ @ > , * $ @ O 4 5 @ ; 3 @ ; ; * @ @ ; ; @ ; @ ; , ; ; * ; @ O ; *   ",
"$ ; @ $ @ $ o @ ; ; ; o ; @ @ $ @ @ $ @ @ @ @ $ 2 ; @ 1 ; @ @ ; 1 @ ; > @ @ , ; $ ; * ; @ @ * , 1 @ > ; , ; ; @ ; 1 @ 5 1 ; * , , , ; , , ; ; @ 1 , 5 5 , ; 1 4 , 1 1 5 0 6 , , * 6 7 * 5 5 t 6 5 5 i , ; 1 t 6 5 w 8 , 8 s r 5 , 1 = w 5 9 8 s 4 4 z f 2 1 ; k s 7 r 8 t 5 5 5 7 9 k 8 4 4 w 5 4 h l 4 , s r 5 6 4 d 7 ; 5 4 8 s i s 8 k d 8 S 7 7 d B l 8 f 8 5 d k s k C b C b v v f b h P L V Y ..~ V V L / L P m U U J U N ( =.! Y m 7.LXkXkXkXjXFXZXCXjX!.I -.!.GXJXJXCXpXrXjXjXHXSXAX8XFX5XkXrXkX5X}.gXjXrXrXpXAXxX3X3XAXtX[.jX3X8XgX8X8XrXAXrXjXrXrXDXDXSXJXGXL.yXAXrXCXPX8X3XdXjXZXJX7.J } [ ]  .X.J U ` U J Z m L ( m P P k m V L V b Z 8 C V k i f B b k h s 8 f s i f s f B s d s f d 8 8 i i 7 9 j 8 s 7 w 5 f 8 t r 5 5 r f 8 8 G 4 4 5 8 t f w 9 , f 8 s , * , f t ; w 7 7 , 4 ; 5 s s 4 5 5 0 9 5 6 5 4 6 d t ; ; 4 * 5 u @ 6 5 * 6 8 6 , , 8 , * 5 6 , , , 0 3 > , , * ; 6 , 5 ; $ , @ @ * 1 , 5 , ; 1 , ; ; , ; @ 6 , @ 1 , 0 , ; ; ; $ , * ; $ ; , $ o , , ; @ ; o , , > ; o @ 2 @ , ; @ @ @ @ ; ; ; * ; @ @ @ $ @ O @   ",
"@ ; o @ @ $ @ > * o o o o $ > @ $ @ $ @ > @ ; @ ; @ $ ; ; ; ; ; 1 ; ; * 3 ; ; > @ ; , ; ; > ; ; * @ , ; ; * @ 5 1 , - 4 1 ; ; 1 , ; ; , ; , 1 ; ; * = 5 , ; , 5 , , ; ; @ 6 5 5 , 5 = , 1 6 t , w 5 5 , 5 , 4 5 1 5 r t 5 8 t 5 1 4 s 8 w t 4 8 r 8 , 8 5 6 i s f d d 1 , r f s r j i s s 4 7 t s 4 s t 8 8 8 8 r , 1 8 5 8 f 5 5 s 5 k s 9 5 i k 4 f h s d i k C h s k b N n h k m Z i C V P V V J L b V ' ^ K A L L P `  .L ] L ` +.>.{ W @XbX}.5XjXyX8XAXkXlX}.LXSXgXkXxXAXFXgXkXJXHXgXrXrXAXgXSXrXFXxX3X6XjXgXFX}.SXAX].kXkX].hXtXrXgXgXAXcXkXDX3XgXJXrXCXkX3XKXJXAXjXAX8XkXxX8XgXgXjXSXyX] I o.` U L ' L ^ ' ] ` L m V ) N N P m S b L M D v m N 8 C h n C f 8 k s n N f 8 s 5 = N h 4 t 5 5 8 5 8 5 d f s f 5 5 l 8 5 8 4 t g 8 8 5 7 8 d t , , d 5 5 8 w 5 f 5 6 4 d 8 r d * * t d 4 6 5 d s s = , d 7 , 5 5 r 5 = , 5 , 6 4 5 , 1 , , 4 6 , ; 1 5 1 * ; * 8 t , 5 5 * 1 , 5 5 , 5 5 , , 6 * 8 1 @ ; @ 1 * , , 1 * 1 , @ ; @ , > @ > ; , ; , * 1 , , * > * * ; ; ; , , @ ; 6 * ; @ ; ; @ ; 1 > ; @ ; > ; ; ; $ @ @ * ; @ $ @ : O *   ",
"; @ o o o @ @ ; @ $ O o @ @ @ @ @ @ > @ @ > ; $ ; ; @ O @ , , * ; , * o ; , * * , * * 1 * @ , 2 @ ; , ; ; * > 1 * , , 4 , ; 1 8 , * , ; ; ; , , , , 6 ; , ; ; 1 , ; , , e , 5 , 4 5 6 , * , , = 8 4 6 ; , 5 5 g 5 4 8 6 8 8 5 5 5 s f 5 5 5 5 5 f j 5 5 4 5 j r w 4 5 1 4 i k s 4 s s f r 4 5 d r 9 j 7 , 5 9 l r 8 6 7 B k s s 6 4 4 l s l 8 s k j h k i 4 s N m k s s f C n s n C b b b P N h P P V B L ` ] m N ( [ K J ( L ' U U ] { ` | OXLXZXAXcXtX[.jXjXjXkXZXgXgX3X&X8XgXrX5X5X+X3XzXgXkX}.8X3XgX8XgX&X}.].3X}.&X8XaX7X}.3XAX9XZXrX}.3XhX3XjX].AXjXkXGXCXkXjXDXjXZXtXgXgXxXAXjXxXxXJXJ.] o.' U ' o.' J [ J } } U P V N V V V A V N P v k b K X.f r k k k 8 d 7 n b 8 r n f 4 9 k h 8 B d 8 s d 5 G s s f r 5 , 8 5 4 d w , 7 8 5 d s h = 9 5 6 j 7 5 6 5 8 5 5 t 5 8 7 7 w d , 8 8 t 8 7 f r t , 5 4 r t 5 4 9 5 4 5 , 4 g * 1 6 5 t 9 , 6 , @ , 5 ; > 5 4 5 = 5 w 4 0 , @ , , 5 , ; , * 6 , , * * $ ; > * , 8 > ; , ; 1 ; > 5 ; @ @ ; ; ; ; @ 1 , * ; ; ; > ; @ , , @ > * ; * ; o ; ; ; $ * , > ; ; ; ; @ ; @ O @ > ; @ @ ; o * ; . ",
"o ; $ @ @ @ @ @ @ ; $ o @ @ o $ $ $ ; @ $ @ > o @ , O ; , @ ; * ; * , ; @ @ 1 , 1 , @ , 1 ; ; ; 6 ; 1 @ ; > ; ; ; * ; , * 1 , * , ; 4 ; * 1 t * 1 t 4 , 6 * 1 1 ; , 5 5 7 , , , 5 , > 5 , 8 d 5 t , 5 5 7 t 5 8 5 4 s , 4 5 t 5 f f i g 8 r s 4 9 s r g i 4 t t 0 s i 6 , b V 4 5 8 s , 4 l 7 5 , 5 6 d 5 s s j s 8 4 4 k n 5 d g 5 f 4 5 s 8 6 d C j h N l f B s V k f 8 k m v V S p c b v v m m V V P / V ^ b Y ` U T V v ' ] ] | ` `  .] 2.GXDXgXlX[.3XkXtXrXjXgX8XhX8X6X9X3X5XjXyX3X8XgX8X4X}.pX].&XsX$XQ.qX*XP.4X7XQ.P.Q.}.8X3X7X*X8XvXbX=X3X8X}.FXgX5XhXjX8XhX8X8XCXSXAXrXcXrXtXjXSXNX$.{ ` ` o.U  .` [ U J L L J ^ V b U ] U L b b v V v B C s b N b n h n s l h N 7 8 f k f f 8 j n 8 8 f k r 5 t s s 5 5 5 f i s 4 j t , t 9 8 g n s 5 t t 7 8 9 5 7 5 6 5 8 7 7 5 4 , 5 t 9 r 5 w 4 8 8 5 , , t 4 8 w 5 4 , i w * 1 t 4 , ; 5 d 5 = , 5 , , 5 8 , , ; 4 9 * * 5 , ; e , @ @ ; ; , 2 * ; 1 > = 4 , > * * 5 , # ; ; * > ; , 5 * ; , > ; @ * > * , > ; > @ @ $ ; ; @ ; ; $ o > ; > ; @ ; @ * > ; ; @ @ $ @ @ * ; @ $ ; @ @ ; * ; , . ",
"* ; ; $ @ $ @ o O ; @ o O @ @ @ @ ; @ $ @ @ ; O @ ; O , ; @ ; ; * ; * o > ; * * @ > ; ; 2 * * ; 6 ; ; > @ * , ; @ > @ 1 > ; @ @ 6 6 t ; * 1 , 6 , , , 1 ; ; 1 , 5 , , 7 8 w , , w , ; s 5 , 7 1 , 6 6 8 , 8 5 8 f 7 d 0 5 t 8 5 s i 7 s 4 r f 5 t l 4 5 s 8 r , , f l g 5 B h , t t f t t g 4 f i 5 , r 5 s i 4 8 r i d 6 s 7 , 7 8 r 8 d f s , 7 h 7 i s h 8 k l s i f l s S N m N b k P O.V P K b v L K m / '  .` / U ^ L ' ] W =.| ' ..P J J.JXrX6X3XbX8XkXjXCXkXhXyX8XhXlX5X6XhXxXmX3XhX6XL.$XbX*X-X$X^.E.N.Q.4X[.E.Z.M.N.+XhX[.l.^.=XQ.*X3XaX=XkXhXjXAX3XrX3X3X4X8XZXZXkX5XzX3XAXjXJXR.U L  .U  . .W U  . .^ K P L V U T [ ^ U X.V k P b b n s S P V b b A s s 8 h C r 8 f h h 8 i n i i t s f 8 s s k 8 , , d r k s f t , 8 j 4 8 8 s B t 4 8 s = i j i d 5 7 f f 4 g 7 d 5 5 8 r d 8 9 s r 5 5 s 7 t = = t t 5 8 5 , , 6 5 9 * , 4 4 6 5 , 5 r 5 6 = 5 d 4 , , , ; ; * ; ; * > , ; * ; > , , ; t 9 * ; , , , , @ 1 6 ; $ ; , 4 * > * , ; , * ; ; ; , ; > @ ; @ @ ; > ; @ ; ; ; @ * @ > @ * , @ ; ; o % * ; @ @ @ @ ; ; ; ; @ > @ @ . ",
"@ - > o O @ @ @ o $ @ o O $ $ @ 3 $ * @ @ $ o o @ @ * , ; ; @ @ * , > @ ; ; , @ @ 6 , * > ; * 5 , , 1 6 @ ; , > , * ; , , * ; , 1 * 5 1 * ; 1 * , , 6 w , * 5 , 5 r 5 ; @ 4 4 , 6 ; * 5 , 5 d 4 , 8 g 5 t 7 s d 5 , , t 8 r t 5 s f r 7 t 8 s F 4 s s 5 5 t 8 8 k f 7 f n h s 7 t 9 8 y 5 8 d s f t d s s 8 5 7 f 8 , 4 t 7 j t t k n 7 8 4 G s s s B w g s f i k n k 5 t k b Z k h v v v P m L / V V m P ) m L J J o.[ / '  .;.>.U +.U V ' J 2.BXFXFXxXSX8XrX5XjXkXAX5X3XaX}.FXrX&X3X3X].=X}.*XwX^.m.j.P.Q.sX!.P.&X%XL.-Xd.t.U.E.eX^.Q.P.[.[.[.{.[.aX=XhXrXrXkX3XrX8XjXDXkX8XgXAXkXAXHX5X` Q ] ;.J L } ] ^ ` ] J L ( L L / K P J L P b R V V h n C 8 B k N h V s f s C m i x t 5 x s 8 k s g 5 t s w s l f 5 t 5 5 8 s f t 5 7 l d t s g 8 t , , , 6 s s i 7 8 5 s 8 r 4 l 8 g 5 f 8 5 5 4 4 5 , d 8 s s j 7 5 6 5 t 4 6 t 4 , 5 6 5 , , * 6 2 * 5 5 , 6 , , t , 1 , , , ; ; , , , @ , 1 ; 1 5 ; , ; , 9 , 5 , e * , , 5 4 @ @ @ 6 t ; @ > 5 1 , @ , * , , > @ ; ; , w , @ @ ; * ; ; , @ * @ ; ; * ; @ $ * > @ # @ , ; * @ $ $ $ $ , + ;   ",
"* @ @ O @ $ ; @ $ @ @ o o @ @ @ @ ; ; ; @ @ $ @ ; @ ; , ; 3 @ ; ; , * @ ; u , @ @ 1 , o * > 1 , * 1 * ; @ ; * , , , ; * ; 6 ; , 5 1 , 1 ; 1 , @ , t , , 5 1 , 6 7 4 , ; 6 6 9 5 6 6 > 1 5 7 9 , r r r ; , j d r 8 5 t 7 5 9 r 5 f s r 4 d s i 8 8 j s j 8 8 t f C A 7 s f k s 9 r f f 5 , 5 s s f s 5 k s 4 i j s i t s z 8 s 5 x n f 5 8 5 s s f f h 8 k s f i k k S 7 f t s Z m V m Z N n N V V P L ( J m b X.^ U { { U U ] $.` } ^ >.P _ Y J oXJXDX+X5XkXtXjXAXkXjXrX8X&X[.7X}.Q.$X[.$XE.*XaXQ.{./.d.|.&X*X[.P.^.-XdX7X,XV./.m.C.[.{.Q.*X%XN.E.vX^.}.&X3X9X].].GX&XFXkXgXgXjXDXKXCXHXmX` / @.[ } U / L { ] ` [ V ^ U ' ^ v J V L A h h P V k A A h h b s V S h k n S s k n l 8 8 0 h n i 8 5 5 4 5 s 7 8 8 4 8 s 5 8 s 8 , i D 7 5 8 7 4 6 t t 8 , 8 l k 8 8 5 r d d 4 l 5 s 7 7 8 t 4 9 4 , 5 t r 4 t s 8 4 1 5 4 8 4 4 4 6 , 6 5 , 1 ; , 6 ; = ; 4 6 , , , , * , , 5 2 * 1 5 t * , 1 , 5 6 , ; ; * 6 , , ; @ 1 , , 4 1 * ; ; , 5 o $ * , * ; ; 1 1 1 , ; ; , * 4 4 @ ; ; ; @ ; ; ; ; @ ; ; , 6 @ @ * @ @ o O : , @ ; ; ; o o $ 5 3 ;   ",
"; @ O o $ @ o @ $ O ; @ ; $ ; @ o $ $ @ @ $ @ ; ; > o * @ > @ ; ; $ , , @ 5 ; $ ; , , ; , ; ; * 1 > , * 6 ; ; ; * , ; ; ; ; ; , 6 ; , , , , * 6 , 4 8 , 0 , , 8 5 * 5 5 4 6 8 t 5 g 7 > , 8 5 , t t 4 w 5 r , r 8 s 8 8 f 8 r 7 s s f t 4 f k 8 t t 8 s s t 8 s s i s i t 5 d 5 8 9 8 s s t r s 7 t 4 , j 7 f f 4 5 9 f f 8 4 5 s i r d i k k k s 8 h n C i A R i l s i P C n V K V n N n r b V V ) V [ J J X.J / ] |  .[  .J J J =.U } } ) m $.hXFXrXjXtX+XtXCXZXkX8X3XhX8XhXE.Q.Q.P.=XwX^.7X[.&X,XB.{.{.:X!.j.Q.P.P.qXU.E.j.E.!.C.*Xy.k.!.N.[.mX[.$X4X[.P.=X}.].5X3X5X3XAX8XjXDXCXZXjXGXr.m V ( >.=.^ L ' | L Y V U U V V U ' m N L b A @.U B n k v s R k k C h C N 8 k l 8 h s 4 9 C h 8 5 f k 9 s k k 8 f f 5 i s B j 8 5 8 g 9 8 s 7 t w 4 f l 8 8 5 5 s 8 r 5 5 d 7 e 1 f s 4 z t s s 5 t , 7 8 5 1 8 5 5 , 5 , 5 5 , 4 f i 5 5 8 5 1 ; 5 w e 5 ; 1 * , 5 , 5 5 5 5 5 5 , 5 1 1 2 * = 5 1 * = ; , ; 1 , * ; > 1 , 6 , * 6 , , ; ; * , * 5 , * ; 1 , ; ; @ , > * ; ; , * * @ @ ; , * * ; @ $ 3 * > ; * $ 3 ; @ ; * , > @ $ O $ * @ ;   ",
"@ @ o # @ $ @ @ @ O @ @ * @ @ $ ; @ @ @ @ @ @ ; * , @ ; @ @ > @ ; * ; 2 * , 1 * @ 5 , 1 * @ ; > 1 ; * , ; @ 1 , 0 6 ; ; ; ; 1 e ; @ 5 1 ; , , 5 4 , 5 4 5 * 6 w , $ 5 5 , * , 5 , 8 s 2 * , 5 1 5 7 , r 8 7 5 w 5 f 8 7 j 7 8 A f 7 s s 5 n N s s g , f s t 4 l s 8 B g 5 t 7 5 z l 8 s r 4 s t , y 5 5 5 7 i l 8 8 7 7 5 4 d j 7 8 4 8 k b h s s f g N k k k k h k b L P v C v Y s s k N n S Z m Z v V U  .U V U ] ^ ` U ` >.V [ 8.*.' X.L 4.eXGXjX+XZXFXrXtXCXrX8X=X[.].hX3XN.Z.[.>X}.*XP.aX=X|.j.1.E.!.r.h.BXQ.Q.<Xy.P.{./.C.C.vX4XP..Xj.4X}.vX[.vX7X[.Q.;XiX9X6XhXrXgXrX5XAX5XjXtXrXkXyXh.^ ^ ' 6.` [ U { ' L ( J ^ V m / V ` J X.V h m m h s A C v n h S s n s 8 h n g 4 N C s 8 f i f s s n s k s b k f 8 s i s s 4 w t 1 , , f s f f s 7 x s 8 w 6 9 4 j l 4 , 5 s 5 , 8 s 5 s w 5 s j 7 , k g 5 , 4 d 8 , w d 5 6 5 d d 8 6 , 7 8 t , 9 r 5 5 1 ; 1 ; 4 , , , 5 , , 5 t 5 + ; , 1 5 , ; , 5 1 1 @ 1 1 w 5 * * ; 1 1 = 8 4 1 , * 5 1 1 , , 5 @ ; * , , > 1 , o @ * ; ; $ ; ; @ , ; ; , ; @ @ , , > 3 o * ; @ * $ * * ; @ ; @ @ @ ;   ",
"; @ o . @ @ @ @ @ O @ ; @ ; ; @ $ @ * @ > @ ; ; $ @ ; ; $ > ; , , @ ; @ @ * , , ; * * > > 5 , ; ; ; 5 > * @ * @ ; 1 @ , , , , , * , 5 , * ; ; 5 , 6 5 4 , , , 5 w ; * , 5 , , 5 4 , 4 , 6 j 5 5 5 8 t 7 8 8 8 8 4 8 5 5 8 f s s f j f i f s f 8 7 l 4 d k n s g f s i f 8 k n 4 5 j s 4 8 f 5 f d s r t 5 S 8 5 l r 7 d 8 s s h s d s f s i 7 f f d d s 7 m V h C s f h s N N K N b m _ m h A V K m A ~ J J ' / Z U / U ` ` ^ V :.:.=.U ^ J.GXGXgXKXKX}.6X8X3XrXaXvX[.].;X*XP.Q.C.P.|.U.}.Q.=X$X^.%XI.d..X&XwX*XP.{.E.Y.P.l.4X.Xd.-X[.dX].l.mX;XU.U.I.8X&XQ.*XQ.7XP.7X6X8X3XrX8X8XSXzX5XkXSXGX@X%.U Q &. .V J ^ } ' Y ' / m L ^ o.L T J V h B K P m n l 8 V N 8 s k b / m 8 d k h B s 2 s P B r 4 f s h k l r 8 k k s 8 j r r 5 s g d 8 j k B f f , 7 f s f 7 f 8 8 t 8 5 s 7 , 5 d s r r f 7 r r 4 d 4 5 N s s 6 4 9 7 , 8 8 4 , , , 6 8 5 6 5 , ; @ r t 1 , d 8 @ ; ; * , 5 4 5 , = t , ; $ , , 1 , , 6 1 ; , , , 5 @ ; e ; ; , ; ; 6 8 > o ; 5 ; ; $ @ 1 5 ; @ ; @ @ 1 * ; 2 $ , @ ; ; > * > ; * ; ; ; @ @ ; ; ; * $ ; @ o $ @ * ; @ >   ",
"* o : O $ O o @ $ O $ ; o @ @ @ * @ @ ; ; > ; ; @ * @ ; , @ @ , ; ; , @ @ @ , , ; ; @ @ ; 6 , @ @ ; 6 ; , > , ; @ @ , 5 5 , ; 5 ; * 8 * ; 5 6 , 1 5 , , , , , 4 , , 5 5 t 5 5 t r 5 0 5 8 d 8 5 9 r 4 8 s r s 8 t 8 6 5 s f l 8 f 7 f k f d r B h 7 t s 8 i k t 4 f 8 f h v b s 9 d i 5 t G 7 i k s 4 5 8 B s 7 f l 8 8 8 n h i i 4 s f 4 t g 7 s s d n n v V k C f s s n A n V h V m V U n N m L V _ V V ( U [ / m V ] ` ] W U ` X.H 7.VXGXxXjXjXCXGXpXhX}.tX&XU.=X8X=XQ.~.^.fX4XE.~.{. XmX[.d.[.4X,Xd.Q.[.gXN.C./.wXP.N.t.^.!.{.E.[.[.6XE.*X4XQ.Q.u.3X=XC.E.L.|.N.*XaX}.6XLX}.8X5XjXvXtXjXDXSXyX5.m U } [ O.U U ` ^ U J / J ( J J J J _ f k L [ h k d s M b n f B b V v s l k s h k y 4 n k , d k b n 8 8 f f s k 8 s g , s B j d 8 5 , s s i r d s 7 7 f s 5 j k s 5 9 k k 5 5 s f 8 d 5 r x s d 4 5 8 A s s 8 4 , j 5 5 4 6 6 5 , 4 ; , , , * e 0 8 4 1 , 8 5 @ @ ; > , , 6 4 , * 7 4 @ ; , 4 ; ; 5 5 , ; * ; , s > @ ; > ; > ; 5 9 = * * , , , ; $ ; ; , ; ; 1 * , , ; $ ; * ; ; ; * $ @ , ; $ @ @ @ , 1 ; @ , ; ; ; ; @ $ @ ; * @ 3   ",
"o @ ; $ @ $ o @ @ @ o o @ @ $ @ $ @ @ o @ ; @ @ ; @ @ @ ; @ ; * ; ; ; ; @ ; ; , 1 , ; @ @ ; ; @ ; 6 ; 5 , ; , e 1 1 4 @ * , ; , , 5 ; , , 5 ; 1 5 , 6 , 5 5 1 1 , w , 5 6 ; 6 8 4 4 5 8 4 4 t 7 8 s 8 r d 5 4 7 8 8 9 8 8 d s 8 f s n 8 7 t s n C f d f s 8 8 n k n n f i k k f f B l g 5 7 f i f 8 f s s s s x 7 n f h 8 8 f l d s 8 l B f s 4 l k V d g s N h s h s f c l h N b v D m v P P P / V P L m V L ^ / Y U ` ` [ ] ;.] J $. XFXrX}.rXjXgXgXAXAX5XhX&XE.E.4Xj.N.<Xm.E.wXC.`.P.Q.!.E.-X9XE.{.].Q.&XC.E.qXC.*XQ.P.{.*X*XQ.Q.[.[.{.{.j.$X^.|.{.,XQ.7X4XQ..XP.$X8XhX3X8X6X6XxX8XAXkXjXZXjXJXGXr.I Y ] `  .' ^ J U U Y U ^ J V ^ L P N k m V V C b K k A k B 8 s k s h k l s i D d s h s s 8 8 n s 5 g 4 N S 8 s t t s k 7 8 7 l 8 l 8 5 8 s g 9 k b h f , 5 h s s f s f s t 5 t f f 8 l d 8 f s 8 d f 7 8 d 8 d s 5 5 5 t 5 5 5 1 w 5 1 5 ; 5 5 , * 8 6 5 , 1 t 5 , @ * 1 , = 1 1 * 6 5 , 1 , 6 1 * * , , 1 * ; * , , 5 ; ; @ 6 4 > 5 5 @ * 1 ; * @ ; * ; , * ; ; ; ; , ; ; ; > ; ; > ; * @ ; 1 > @ > ; , ; @ ; ; ; * @ ; 3 ; * ; @   ",
"o # @ $ @ $ o % $ ; > $ o ; $ $ O o # O O $ @ @ > @ @ @ * ; * > , > > , @ ; > 5 5 , , ; @ ; 1 ; ; , ; , 1 5 * ; 6 , 6 : $ ; , ; , w @ 1 5 1 , , , , , 1 4 5 , 6 , 4 5 4 4 ; 1 , r 5 8 d 6 w r r l k 8 4 5 d 6 r t r k s r 8 s s k f i 8 d 7 f s i s w s 8 8 g S k s s 8 f j s i j 8 s 8 5 9 9 s g 6 t k s 7 9 f r s 5 7 f f 5 6 ; t t i h h f 4 t k L k = r f v C k s s b C b C k N f Y P k b m V C J J / J V ..V ' W / ^ Z V ..J { XXcXjXbXyXgXjX8XgX+XAXZXpX}.;X*X.XqXl.P.).j.P.P.Q.C.~.B.Q.6X3XN.4XwX^.vX!.j.Q.*X!.-XqX[.^.^.Q.Q.[.|.B.P./.N.{.7X[.W.L.P.dX{.a.P.U.3X[.[.$X[.3XxXhXjXjXrXtX8XjXHXGX5.v P ` ` U / / :.] U +.+.' V m L V Z b k B V N K K h N s h B j G t s s s r f C s i g 8 f i s s 8 f G 5 s k 4 8 2 5 k r 6 6 8 i B h 8 8 f s 5 i m V k f t 6 i k v s r 5 f 8 , 6 8 s h s j f s n 7 9 e , * 5 8 8 5 5 1 w 7 7 , > 5 , 6 , 8 5 , 9 w 1 , 1 > 1 , s d , ; > 1 , ; > @ ; 8 8 1 @ , 5 6 ; @ > 4 6 @ # 5 8 5 * 1 1 $ @ O 5 5 = * > 1 > e > ; * , 4 $ @ ; , * * * > ; ; @ ; ; @ > > ; @ ; > * ; > ; @ @ @ @ , ; @ : @ @ + @ . ",
"@ * # O $ o o o $ o @ @ ; @ # # O * $ @ $ ; ; * ; > 5 @ ; ; @ @ ; * ; $ @ ; , 5 @ @ ; , , * * , , , * 5 , ; * , 5 , , 2 @ ; ; , ; ; > $ @ * = 4 ; 4 = r 6 , , 6 * , 8 5 8 , , 0 , r 5 s 5 5 5 8 8 r 8 8 s d 5 5 9 s s f S t n h s 8 7 S b s B s l s s J n h A V h p k N N 7 s h V h A n 8 8 , 8 l i k s s s 8 s h V s 8 8 s k s h l s g 8 i h k s f h 8 s i f V L n r k b v V b S k h s F k C U  .U s S L U / P P U W  .| N P K $.3XJX3X8X3XjXZXrX8XQ.3X5XQ.[.^./.N.[.AX=XC.qXqXm.^.$X3X9XvX^.Q.F.*XQ.C.Q.P.Q.aXdX^.{.-XE.4XfXN.[.}.^.P.~.m.B.j.V.E.{.W.^.$X Xj.|.[.E.].^.Q.aXQ.[.}.tXjXrXgXAXSXrXjXJXkXi.m E ~ ^ ( { L Y T ' L C V B A S m L ..m b k l h V m k f S h B i h m n b E V t 8 s k f t t 8 5 6 d s h N 4 d d f h i 8 8 4 l B i 7 d 8 l s j 5 5 h B x 6 4 f f l j 7 s N s f v N m 8 t r 5 B g 5 s s 5 > 4 8 t d ; 5 d 5 6 , 6 , 5 4 7 5 d 8 , 6 6 5 5 r 8 5 5 t 1 1 5 , w s 5 , 1 * ; , , 1 > ; , 1 ; 5 , , 4 @ ; , 5 5 * ; 4 5 > ; ; , @ , 5 ; ; @ 5 5 , $ , ; @ : ; 1 , , ; @ ; @ @ 3 , 2 @ > , 1 @ O > 1 ; ; @ @ ; ; @ @ > >   ",
"@ @ @ * % o @ o ; ; $ @ ; @ o @ @ ; ; ; @ ; @ * @ ; ; ; $ @ ; @ ; 1 ; ; $ $ * * ; ; $ ; * 6 e 6 2 , ; , 1 > @ , 4 > 1 * ; 6 1 @ 5 , 5 ; ; e 6 4 5 w w 5 7 5 , 5 5 5 6 5 5 0 5 1 , t t 5 5 9 8 4 d r t 8 8 4 t t d s s k k 8 s n f f f s s d s s N s j O.N 8 8 S S k B b k i x S N s s h l t 9 f j s j B s g 8 x j s k 4 j j r k n s 7 , j l h f 4 s 8 h C s s k k m N S v n A k s m L v b b k P K N N K ^ U ^ V L ' Q J ` ! V U VXFXrX+XvXhXrXkX3X9X3X7XwX[.{.;XQ.j.N.9X7XN.E.7XP.E.%XE.=X].[.N.!.P.*X*X^.Q.{.{.=XQ.U.%XN.wX[.^.fXqX{.$X&X{.%X{.C.Q.Q.!.P.m.qXj.P.eX^.&X*X=XqXE.=X7XaXbXcX6X3XjXrX8XvXCXGX{ h ' ^ Y ^ U V L ^ L L P N V k / / U m A V s s J N f k n s h S F N n i h m l 7 k b s 5 7 8 f 8 s f k k r 8 5 f s f f s f i f f s 8 5 s f 8 8 g s k 7 7 f k s i i s B f 8 f f j 9 g f 7 7 8 7 j r 5 4 t r r 8 4 5 8 8 4 , 4 s 4 5 w z , , 5 4 , , ; = 6 6 5 * ; , = 1 , 4 5 * 6 5 , > * , 5 * * , ; 1 t 1 ; 6 , ; * , u @ ; * 2 @ > , 1 ; ; 9 = * @ 1 , ; ; ; @ * * @ $ ; ; ; ; ; * @ * ; @ * ; ; ; @ @ > ; @ ; ; * ; ; @ ; > @   ",
"O @ @ o O $ o @ @ ; @ $ @ $ $ ; > @ ; ; @ ; @ ; @ ; @ @ $ @ $ 1 * * ; , ; @ ; ; , @ ; ; * , * - , 1 , ; ; ; * , 5 ; ; @ 1 * , , 5 4 , , > $ 3 w 4 5 , * 4 w 1 , 5 , * , 8 , 8 , 1 , 8 , , , 8 5 8 t d 8 5 8 g 8 8 s 4 k s s s v n l i f B s d s s i 7 A K 4 s n V V b h A V 7 k S 9 i s s 5 w 9 5 r i s , 8 r r 8 4 s 8 f r 4 8 s f k s 8 s l 8 s B d h V n f i 8 k V v k n S V C h L V m V Z n h ~ L o.` J / / ) U :.V X.R J XXJX}.AXkX3XzXgXbX8X=X6X&XC.I.!.~.4X X{.W.C.~.;XwXeXQ.C.6Xm.N.NXE.P.*X,X~.P.*XqXN.j.7X9XP.P.[.P.E.*X^.E.7X7X[.-X/. Xm.].P.W.m.V.:X-XI.W.^.N.E.*X{.E.P.$X[.8X3X5XrXjXgX5XjXJXyX-.{ } Y V  .X.L U V b V L / L ..K Y v P Z N v C h N f k N n n r s l f s k f k n 8 s k n l s s 8 8 l 7 l i k l d 8 f f s h 8 g 5 f n f 7 8 s F j 7 b N f l 7 f A s k 8 F k F s d j l k f f i h r w 8 8 j i s f 5 6 , 4 6 5 j , , , 5 5 5 4 8 7 , ; 1 6 , 7 ; , w , ; ; > ; ; 5 , * > , 4 5 5 ; ; > ; ; , ; , ; ; ; 1 * * > > @ @ 6 , 1 ; @ , , @ ; , * 1 , @ @ 6 5 $ o @ @ , 1 > , 6 > @ 1 @ @ O @ ; ; > ; o ; ; ; $ @ o 3 > @   ",
"@ @ ; % o @ @ ; $ @ $ @ o $ * * , @ > $ @ @ @ > @ ; @ ; ; @ @ ; 1 ; 1 , * ; * $ ; , ; , 6 ; ; * * @ ; ; @ ; , > ; ; * 1 5 * , 5 t , , 8 5 @ @ , , ; 5 , 1 5 , 1 5 5 5 5 , 4 t , w , 8 6 5 4 6 5 f 8 8 4 8 t 4 r l d s f k k N R b 7 v b m h C N s n V h k n B s n P b k h k h h s s i j k k s 7 t 8 l 8 f k 8 7 d s S s 5 s t i k s l g 5 8 s s j f 8 m X.V B i A V P b A v h h V P P P L J A C V L m T m ^ ' L m L } S Y J z.FXgX6X+XtXbX8X&X[.=X4XQ.Q./.j.t.E.eXP.I.m.!.$X7X$X^..Xm.eXN.C.^.*X}.Q.P.Q.].&XqX*XqXP.*XfXP.E.nXP.P.N./.|.{.N.eXj.d./.Q.N.{.<Xp.N.;Xp.a.{.[.P.fXC.N.-XQ.Q./.4XhXgXjXgXtXAXCXJX+X{ I } ' U ( P / ) L / Y ' J V P b v P m V V k h S h i h v h k k 8 s l s s s i n s B 8 s s f G 8 5 r s s f 8 5 5 f 8 8 D 8 8 t 5 s b B j s 8 s f f n i k s s k 8 s h v b f k s b s g 8 l B s 4 5 t 8 8 s h s 8 t t t , 8 8 8 6 t , 8 t 4 r t 8 d ; @ , d 5 5 5 , , 1 , ; 6 5 8 , * ; 5 4 , 1 1 , ; > 6 ; , , * , ; , * , ; @ 2 5 @ , , ; @ t ; @ 2 ; * 1 @ @ , , ; @ @ * ; , ; ; * ; @ ; ; ; $ @ 1 , ; * ; @ @ @ $ @ @ @ o ;   ",
"; @ @ o o ; > @ O @ $ $ % O o ; ; @ @ @ @ $ > @ ; > 1 > @ @ ; 1 , @ , * > 6 , , ; * 1 , * @ ; 5 5 , 1 ; * 5 , , , , 4 8 , > * 6 6 * * 5 5 , 1 * * 1 w , 0 , 4 6 5 5 5 * ; 8 9 w 5 , 7 8 5 5 4 4 7 8 s 8 8 l 7 8 r 9 8 8 l 7 f b h h N b K L V N k k ^ L N s h B b m N s d B S B 7 h d 5 8 N B 5 x h h i j k i f C 8 j l j l 8 d k s B 8 5 k k n i h k v f s V v C 8 k n h A V h V N C b P P V J U J ' / N O.V =.] J ` #.^ r.GXGX8XFX3X5XhX9X6XgXgX9X{.&XQ.|.U.N.:X{.L.P.dX4Xm.%X*Xj.[.h.h.{.Q.&X9X[.P.qX3X^.P.~.wXC.~.&X~.7X7X[.aXC.C.y.t.g..XE.Q.%XE.C./.P. X*XC.%XC.W.[.$XaX*XN.{.{.Q.Q.&X4X&X3XzX8X8XkXAXGXY.W U ' J P L V U ( X.V ^ Y h b P Z V n U / f k C b V n P V h k k h s s s s k B f d 5 f r t r s f f 8 4 s 8 k f i d 9 i h k g 5 s A s 8 h s f s 8 i V h h s D F s s C v s Z h n s n g s s r d 8 f d r r 7 r 7 4 t 4 5 , ; 6 4 6 4 4 6 4 , 4 s w * * s 5 , w , , t 1 ; , 1 5 5 , , 1 , , , , ; , 9 , ; ; , ; 5 > @ * , 5 5 , ; 6 @ , ; 5 > > * * , 4 ; @ ; * > ; * , 1 ; ; ; ; , * > 1 @ , * ; 3 , ; @ o 3 ; ; @ $ @ ; * @ ;   ",
"@ @ o o o @ @ @ # o ; @ $ @ $ @ > @ $ o $ @ @ @ > ; * @ ; ; ; @ ; 3 ; * ; ; ; ; 5 , * * ; ; ; ; 5 , , , 5 , ; ; 5 , 5 , , , @ , , , * , , , 4 6 ; , ; ; w ; 4 5 , 6 , 5 w 1 , , d 9 4 t i 8 , 9 5 s C 8 r g 7 l s 7 l 7 8 n n s N b B B 8 k k N B s k k B g k k i b B 8 D k i k s s 8 g s m V 5 7 k N s 8 s B s 8 j 7 8 s 5 r k i i h 5 g b k s f k b n k k k C C 5 h N h A m V b k m S k N P L ' L U ^ V Y L =. .^ ( K -.FXZXAXbX3XgXFXkXQ.^.8X8X].dX%X$X|.*XQ.N.[.Q.[.{.:XC.{.$Xj.Q._.j.^.4X}.*XfX^.E.Q.Q.!.m.C.E.-XP.P.}.[.4X9Xj.qXI.I.h.a.P.%X{.N.Z.C.L.|.;XQ.6XaXBXN.hX=X}./.E.k.P.Q.N.{.}.3XAXpXgX8XrXZXGXh.U V U Y U [ J J Y h L L m C V P V V V J h h C h P b C 8 b k h h k h 8 k c i 8 f l B r s r r s h t r l i b k 8 k f 5 k h 5 s k k s w C n n k k f P h h B k 8 s l j k g F F j s f n i r d n s s 5 f s f j r 5 5 r t 8 5 5 6 * 8 d , , g 8 ; 1 6 , 4 r 5 5 , , , , ; , 6 , 5 , , 5 , , , 1 , , 5 , ; , 1 ; , ; @ $ 5 * 5 4 * ; ; ; 1 4 * @ , ; , 1 ; @ , ; > ; ; , , ; * * ; 1 6 @ * : ; ; * @ 1 , $ @ ; @ ; @ @ @ + 5 @ $ . ",
"@ @ @ @ $ @ @ @ ; @ @ @ : @ ; @ ; ; @ o 3 ; ; ; @ o ; $ ; * ; ; @ ; * , ; @ @ , 6 * * ; ; > ; ; ; @ , ; 1 , 1 , 1 ; , ; , , , > , t 5 1 * , ; , e 9 > 5 5 , , 5 5 , ; 5 , 5 8 * 9 4 5 5 8 j 5 , 9 d f 8 5 , 8 f j k i s 8 m N 8 l f t 8 9 d 4 s i 5 9 j _ S b k M C h f N h n k l l 8 k k k f 5 8 f 4 8 f 5 j 5 5 j j 8 d j 8 s s s h 8 k h k 8 l f n t A N C j s C V m P p C C b P P A h R k P L m L ` ^ ^ [ V J ..U I Y.GXCX3X&X3XrXkXkX[.{.P.N.*XP.j.C.C.{.Q.Q.N.:XP.Q.4XP.N.W.C.C.L.<X/.E.{.].^.{.E.a.P.,XE.W.:Xj.BX].[.hX[.7X{.!.{.fX&X&XQ.%Xk.'.Q.N.*Xj.E.mX&X[.*X{.{.P.N.C.N.).7X^.%XGX3X+XgXAXkXFXZXDXHX0X-.Y ` ] $.+.^ ' @.J P ~ L U ^ m b V v V ..m 8 k C f n s k P c 7 h V k C B h s f i f k v v s s d s s k 9 7 8 k C B s 8 s b k f k j F n i k D k h 8 n k s N V N s G x 6 6 z d 9 s h k r r h b f 8 r w s 8 t , j i 7 s 5 t t , t 5 6 , , 5 , ; 5 t 0 , 1 , 5 5 ; 1 , 5 * , , 6 t 6 * 4 4 1 , * 5 5 ; * ; , * ; ; ; * @ , 1 ; ; ; o * ; ; , , 1 ; * , @ ; ; ; ; ; > ; @ ; 2 , ; * * ; ; $ ; ; @ 3 ; * ; $ @ > * @ % $ @ ; 3   ",
"@ $ @ $ ; @ O ; ; O @ O @ $ @ @ ; ; @ $ @ @ > ; @ $ @ ; ; @ ; > @ > ; ; > @ ; 1 , ; 0 > * , ; @ 3 1 6 5 , * * 1 , * , > , t 5 , 5 5 * , 5 , , * * 4 > 5 ; 2 @ 5 5 , 1 6 5 4 , 5 6 , ; 5 7 r d 8 r 5 8 r 4 B k s s k k l s k N h f i s k J J J | I ` V m v s B B v b n A h h V s k k f V n 7 f f F j 8 8 s 7 j 5 r s s s s h 7 G s S k s l n h f 8 k s 8 i v k 4 B P i v C b P C k V V V V P L K b N V J U V P ' L P J M.mX0XkX8X6XbXkXpX}.NX^.E.C./.Q.!. XiX[.*XGX|.j.E.P.,XN.P.Q.N.m.&XP.W.V.;XvXm.[.>XC.C.P.{.E.dX^.E.&XkX9XP.fXE.V.[.[.[.;X/.B.p.a.P..XqX>X~.[.P.N.P.P.^.P.^.qXP.N.}.[.Q.Q.7X8X8XAXjX5X3XxXDXJXVXm ` ' { { Y J U :.k A / ` o.L m P P Z J V k B B k k b 4 h k k C m k B l h h k s s s i v N r 8 n s f s j s h B l s t 8 B N 7 s s h k f s b P N 8 S N b n n N s i 1 i i i s d 7 k f s S h k s l 8 8 8 d 7 4 f 7 j 5 7 5 4 t 6 * 4 4 ; , z , 5 , 6 * , 5 l , ; @ 6 8 , , , 5 , * ; , , 6 , * , 8 5 5 ; , > > 1 ; - > ; * > ; > ; ; ; > , * ; ; 3 , > ; @ > ; * ; ; @ ; * , * ; > 1 o , 1 @ $ $ o ; @ @ ; @ ; @ o $ ; $ >   ",
"@ ; @ o ; @ O # O - * o $ ; @ $ O @ ; @ O $ @ ; > > ; , @ , , * ; @ * o O * 5 ; ; 1 ; 3 ; , > ; ; * ; 1 5 , 5 > * , t 5 5 5 * > ; 1 1 w 5 ; , , , w - , t 5 1 > ; w 1 6 @ 5 l ; 6 6 5 4 d 7 d 5 r 7 f h 8 k f 8 x r d N V h h n l 8 m r.NX[..X<XXXBXVXJ.^ h k N v N k n k v C f l B f S h C n k k f 8 7 8 v v j 8 f N s B s f k k s f f d s s l s n B n h M V k C b s s S C b V V k h m L V L o.^ J ) U ^ T / o.P U ' rXDX8XbXgXgX8X].pX=X/.N.,XfX*X^.h.}.[.^.E.-X|.[.<Xh.:X,Xm.C.C.4.E.P.~.{.E.^.P.^.P.P.>XI.fXQ.&XdXE.pX9X*XE.Q.U.vXN.N.Q.P.C.d.N.I.!.U.y./.B.p.Q.dXV.N.hXhX/.C.{.^.|.*X*X!.^.uXpX8XkX3X3XbXtXjXSXr.E ' U  .J V U / K h L V b V L J h P V V ~ n s C V m 8 j B 8 f k s f 4 5 l i s h s l l f r f B i s 8 f 7 h F 8 s j 4 8 l s f i N B s f 7 s i s B N N c f s N ;.7.7.Y.Y.-.v 7 d d f s h k s l s f 5 9 j s d 5 4 t 5 8 8 7 5 6 5 t , 5 6 1 5 4 8 4 , w , * , , 5 , 1 6 , * 5 5 e * , 8 ; ; ; 6 , > * , * , 4 , 1 , , w * * > , ; - , 6 $ @ @ , 5 @ * 1 ; O @ ; ; ; * 3 $ 3 , 5 , ; @ @ ; , * ; ; 1 O @ ; 1 @ @ @ - ; ;   ",
"@ @ @ @ @ O o ; ; @ $ * @ @ @ O o $ 2 @ o ; * @ > @ ; ; ; , ; ; ; @ 2 @ ; > , * > ; 6 ; ; , 6 @ ; ; , 6 , , ; ; ; * , 5 1 5 ; $ @ , * @ , , , 1 1 ; 6 , 6 4 , * w d 5 5 , 8 d = y w , s l 7 d 4 8 f s k k 7 s k k g 9 K V b f B k k R.bXlXlXpXcX8X6X9XcXBX` h v n 7 s m b n k f h s s s s h k s s f s G 8 n v n s h V n k s l s l l j 4 i i s s x k k h n C n i C C f k h k b U L h P A m A K V U U ) L J } / / m ` OXFXAXgXjX8X8XFXvX$XE.N.P.[.Q.|.m.L.7X&X-X*XN.~.[.P.j.m.,XE.m.>X`.!.!.L.*X,XP.P.m.*X*XN..XN.{.,XP.[.9XP.*X{.L.4XbX[./.N.A.y.B.XXP.P.^./.<X`.P.&XdX^.P.E.&XP.[.7XQ.Q.a.P.%Xm.Q.6X3XhX6X&X[.rXCXSXkX=.N U [ Y ^  . .L M B k A P V  .K V V m A h h k V b B 7 B N 7 n 8 k s 8 l j 8 f k , 7 7 8 f f f f k B s 5 k s x r s f s f s C V s B B k k B s C N m C h V K.IXLXgXaXbXwX_.] 7 8 l h N s 7 r k k 9 8 d 5 r s , d , 5 8 t d 8 8 r 5 4 , , t 4 z d r 8 6 4 w , * t 6 , 5 , 5 5 , ; , d 1 ; ; , 6 , * ; , , 4 4 , > 5 6 ; ; ; ; 5 ; 4 1 $ ; 1 , * , 1 @ o @ $ ; * > * > @ ; ; ; * ; ; $ ; ; @ ; ; ; @ @ , > > @ o + > >   ",
"; @ $ ; ; o o @ o o O ; ; o o $ o ; > @ $ ; $ ; @ , , ; ; @ * , > @ ; ; ; ; , ; @ ; @ * , , , 1 , , 6 ; , , , ; ; 1 * , ; , * ; e 6 6 * ; , ; 5 2 * , 6 4 7 5 , , 4 d 5 w * y w , 5 4 5 f 6 5 s g , 8 k k l 4 k s k l b b s l G v l.zX=X6XaX].8XpX}.4X=XFXY.U Y K j l k v h B c S s k 8 j l x j , t 8 s k k i s f h s s 8 k f 4 0 7 s f s R N k s 8 s V s s n h k h n P m C m V ( A V V P S P N V Y V L L } Y K L h.hX3XhX}.8XpX}.9X$XV.eX|.P.j.$XwXC.Z.E.Q.7X6XP.{.^.{.Q.a.qX*XQ.,XE.d..XQ.a.l.P.-XE.^.{.[.P.N.^.Q.!.$XC.dX[.P.j.U.^.=XnXfXm.Q.I.h.B.[.*XW.m.[.qX XC.iX4X[.U.P.aXP.{..X{.C.{.A.d.N.7XhXpX9XgXgXtXCXSXs.{ ' P U ' W U ' +.V V U V v P Y V s h C h S h k n k N A N s k k n l f f f s f h i k b k S k l 5 f s s k N h k s k b f r 8 B s f k b P N f m n x V v =.eXAXaXpX8XpX}.gXbXyX;.4 k v k f l r h N s f t j s 8 5 f 7 7 5 5 8 5 7 f 1 1 , 8 r , 5 , 9 5 6 , 5 4 * 4 7 4 5 0 * , w , @ 1 6 1 2 @ , 1 , , > ; 5 , ; @ 5 , * ; , 5 ; ; 4 , ; , t 4 @ > ; ; ; ; 5 * ; > 4 6 o $ > @ ; ; > @ @ @ @ @ ; ; ; ; ; $ * ; ; * @ ;   ",
"; @ o o $ % @ @ @ @ O @ ; * - ; ; @ ; , > ; @ @ @ 1 5 o ; ; @ , ; ; ; ; * ; 5 , * ; > 2 , * , , , ; ; 1 , > , 1 , , 2 > ; , 5 , , = , 0 , 5 5 , ; ; , , , 5 5 5 w 5 , 4 1 ; e 6 , 5 7 r s 6 4 n 8 , x i s s s N V n k s s N z 8 I dXAXQ.{.,X].vXaX6X$XpXxXkXz.h K A h n b k h h k B k s s 8 f r t 8 n h s f r f 8 s f r i i s 5 5 4 s B f s k s 8 n n N k s b l n b v v k ~ V L J m m V Z L V K / ) V ' W ' U b T 0XDXGX].3X3X3XwX}.P.t./.wX{.E.eX7XP._.j.Q.$X,XP.m.:X{.j.%X^.C.E.N.~.E.qX[.I.k.E.3XP.P.d.%XwX{.L..X{.}.E.&X=X/.qX*X[.[.m.P.C.W.d.B.A.C.{.[.%X~.*XE.N.Q.;XP.>X^.$XqXZ.m.[.P.eXj.P.<X&X6X3X3XzXpX8XrXSXLXr.J P U =. .` } [ Y K U o.v V L U n A B N n b f s p B s k h h k n s s s s s s k B k C h f 7 8 5 g h b k k s k k s k s s f n s g b b V s N P n P i | fXZXjX}.}.&X[.|.vX6XFXeXV b l i k B h h h s n 4 r d s f 7 s f 0 , 5 s 8 5 ; , t s 4 y 5 * 5 5 , , , g 8 t 4 4 9 , , ; ; , ; ; * , , @ 1 , , ; * * 1 , , , 9 * 1 ; , , ; @ 1 ; ; , , , , ; * @ , , 5 ; * @ 8 , $ @ > > @ * * ; ; @ @ ; > @ @ ; @ $ ; * * > > ;   ",
"@ * @ @ @ @ o O @ @ ; @ $ @ @ ; > o @ @ ; @ ; @ > ; ; @ : 3 + * 1 , ; , 5 @ * * > = ; , , ; * ; , , @ ; 1 * + 6 , 5 , ; * 1 1 ; * 5 5 6 , 5 4 , 5 1 4 5 0 , , 4 5 5 g 5 , t , , 5 8 8 4 t d 8 l f s 4 s G s l f h n m j V N l i i.GXpX6XU.].^.aX&XP.-XhX8XJX Xm l V / A B b P P v k h j m V v f k k b h 8 G s k B f 8 f k l s N _ s s h 8 4 8 b m b m z k V Z f f A m B s N v / V h ( P L L V U X.J / N ' U m V OXGXxXLX9XgX9X&X[.].^.E.^.Q.-X{.t.[.qX>XP.wXP.N.{.-XQ.L.N.$X{.j.I.eXE.^.E.j.P.fX*Xa.Q.BXE.*XP.E.*X$X;X[.7X[.[.&X&X{.dX:Xj.d.P.C.m./.C.B.N.&X=X^.>X!.N.*X{.E.fXP.a.-XN.&X*Xj.).a.~.C.j.wX&X&X3XpXhXCXjXSX XU ..U U ` ^ J J K L m [ / U i M V P k h Z m C C B C N h s v j h s f 8 B k s k f s k h l 8 d f n h s h s 8 f k s s j l f f s B k h k k V v V j h @XJXlX9XtX7XhXvX}. X9XpXFXy.m F z s c h 8 k k s f s s g t 8 s d 5 5 t t 8 , 5 5 6 = , r , 6 4 1 5 * * 4 5 t 1 1 5 t t , * 5 e , 5 8 , ; 1 , ; * , ; ; 1 , t * * t , 5 1 ; 1 @ ; ; @ @ ; , * 2 * , > , ; ; ; * * > @ > 3 ; , , ; ; > @ @ 3 ; @ ; ; @ @ + ; @ o ,   ",
"@ ; $ @ @ @ > @ * ; ; @ $ @ o @ ; @ $ # o ; 2 * ; @ ; ; @ ; 1 ; @ * ; ; @ @ $ ; , 5 o ; * @ > * ; , 1 , ; > ; t , , , , , = , * , , 1 1 5 , 5 f s , 1 8 5 , t 4 , * 8 , 1 6 5 5 5 8 7 8 8 i s 4 j k 8 5 s l s f s k h d h n s s K.aX=X[.*X[.;X;X7X=X&X9XpXZXmX} 4 Z ` h h N V m S h v n m / V P h k h B f 8 s k h h s f s C i V s s i f j d s A m k J 1 s } Y 7 r V A k h N P M v / Y V U m [ X.J @.' ^ ../ J 1.LXAXkXaX].gXkXhX9X|.].Q.fX~.N.m.E.E.~.^.E.N.*XeXd.%X7X{.W.j.-X*XP.Q.C.E.%XwX{.P.$XN.Y.C.dX^.m.7XQ.&X4X;XP.4X=X[.{.}.P.a.!..XN.d.C.^.iXZ.P.wXP.j.P.E.Q.^.E.=X7X^.{.*XP.yXQ.g..XN.E.j.C.Q.7XvX8X&X8XkXAXHXLX*.H ` { U ^ L O.L V L ^ ' Y g n L J V V V V v A N k P h k C s r A s h S A b s f s f 7 l h p N s f r k s s f k B 5 s N h 8 B A B 8 B _ v Z K 7 L GXZXgX3X+X3XgXzX6X}.mX0XKXL.i 6 9 v m 8 s f s S S h 8 5 5 r j 4 5 8 5 , , , 5 s 9 ; 1 5 4 5 5 5 0 * 6 4 , , ; 1 ; 4 4 5 6 , , , ; , 4 , ; , @ , 0 6 ; ; * 5 , * 5 , * > , , @ ; , u @ ; , ; 6 * , 1 ; ; , > > ; @ @ , * * , ; ; * ; > ; @ , @ $ @ @ > > @ @ @ >   ",
"@ ; ; $ $ O @ @ ; @ o ; @ @ > ; @ ; ; > ; @ ; @ o ; @ % ; ; * - ; 1 ; * ; ; ; ; 6 > > * > , , @ > 6 , , 1 > * , , , , , 8 6 5 > * , ; , 1 4 , ; 1 , @ * * 1 t 5 g 4 5 5 , 5 4 8 5 t 5 t , i f , 5 s s 5 , j i V S i V d B k i m OXnXuX8X8XzXaXC.~.aXpX+X7XsXLXc.5 v V N k n A m C h k m h b s b i k i n s s n b s 8 n k s s s r i k n k s n B k 7 k m s N m b B s B v n v P P h V X.H h P L V P m |  .+.V K *.|.SXgXtX&X}.4X-XP.*XL.C.&X%XB.e.r.fXE.j.^.P.U..XqXj.l.Q.Z.`.%XC.B.|.Q.P.E.*XdX^.~.C.!.>XP.*X[.C.E.!.[.[.%XP.wXdX6XmXy.P.{.m._.d.W.fXI.E.{.eX,Xp.E.P.Q.*XE.L.{.~.fXE.E.E.C./.{.7XQ.N.C.{.%X;X6XgX3XpXtXyXHXJX X^ ' ^ ^  ./ @.[ m L J v  .A V / N V A C N v h C s s f n h s l S h P C h s 8 j s s s s B C m h s s N C s t j l s B E h f 8 V V h l f h V b h ] mXjXAXmX9X[.gXhX}.6X}.4XkXl.V s C V v n f s s n s h l r 9 7 7 k l 4 f 5 f 6 , 5 t 5 t 5 4 4 6 5 4 , s 4 * > , 1 ; * , 5 t t * ; * , 1 * , 1 ; , , , , @ ; t 5 ; 5 5 ; > , @ , , , ; > 6 * ; , , , , ; , ; ; @ ; ; @ ; ; ; * ; ; ; * ; > * , ; @ ; ; * $ O 3 @ %   ",
"@ @ @ O @ @ o > ; O # $ @ * @ O % @ @ 5 , @ @ # @ e ; O $ > @ @ 1 ; , ; ; ; * , , ; ; * , , , 1 ; * 5 , * * , * ; ; ; , , 5 5 $ ; 5 ; ; > , , ; # 1 3 ; 1 0 , * 5 , 9 , 5 6 8 s 8 5 t y 9 5 f t 4 j B l 8 d j N n s M v n R s U VXzXgX9X3XrX4XW.~.7X6XwX3XlXLX8.h b n V C k v P N b i b k f F t i s r B m b k k f i ~ B f k d e 6 i k B h p M f w s l V B g s b Y b k / V J L s f L J V ) L C P o.L ` o.U p u.FXHXpX7X8X9XQ.P.N./.[./.Q.a.a.S.>XP.4Xk.=XE.C.N.^.*XwX:Xd.V.*XeXC.d.7X9X%XC.Q.&XfX^.C.E.{.E.Z.j.A.%X[.=XD.qXL.[.C.%X`./.!.t.Z.P.P.E.N.d.l.E.N.P.eXP.Q.].{.*XC.-X[.^.Q.E.I.y.^.pX4X4X/.N.Y.Q.[.cX8X3XhX XpXAXAX7.L ) ^ ^ J J [ T ^ U V Y L v C V m n j v ~ V h C l 5 k V s 8 k P h k r r B v M n s B 8 s Z C j k N v s g h h M v P V s l ..J C k g B L n f ;.LXpX8X+XvX-XhX3X0XhXjXgXZXXXV s P L h l B k j 8 8 f k s 8 s i h i t j i b i 5 6 * , 5 , t 6 ; , 4 8 s 8 * > , 4 1 1 5 4 5 5 , 2 ; ; , 1 , 4 4 5 5 ; ; > ; , , , , , ; $ ; o 7 d d , , ; @ ; , , ; , , ; 1 @ @ ; > * , 5 , O ; 1 ; - ; ; ; * ; * ; > @ @ @ ; $ %   ",
"@ @ @ O @ @ @ ; @ ; @ O ; ; * o $ @ @ ; ; ; ; ; ; ; O $ * @ , ; ; @ @ $ ; 8 t ; ; ; ; 1 ; $ o , 6 ; @ ; 1 6 6 1 @ = , 6 ; , 4 5 , > , ; @ , 5 , 2 ; * 5 5 , 6 t , 8 > g 8 7 8 7 g , r 7 5 i n D 8 f r k f 8 4 1 g B i U Y d j W _.=XaX=XaX7X&XsX3XpXpX*X=XpXbX;.s U V k A Z v A N m V N m J m 8 4 f s B l h P f 4 s h i k C k k f B n 5 9 s i h v k b f n J V s b m U ` A k N N K / ( C v I :.^ ^ ] / P W { @XFXZXxXxXgX3Xh.E.mXE.V.|.C.!.E.=X%Xd.C.U.aX}.aX%XI.W.P.*XE.Q.j.Z.<X/.4X4X&XeXm.~.-XE.XXE.{.~.fXC.j.Q.dXQ.N..XN.m.N.P.7XP.C.P.N.E.E.C.].,XE.$Xj.F.<XC.P.[.pX$Xy.>X{.V.E.>X].N.t.!.{.E.V.m.E.~.E.*X}.5XJX8XkXDXHX|.J Y [ U V N ^ ` } L J V / ( m L / U J h A h V ..h k X.m 7 g i f 7 k B N n i h b f f s j 8 h 7 r h k s m S d 8 j m N m b S b b V Z C B V h 8.FXlXzXbX7X9XQ.E.6XhXtXxXcXNXV 6 l Z V k h l n 8 h C j 5 h 5 d 8 8 t 5 5 s 8 1 s 8 8 6 , s 5 9 5 5 s 4 ; ; 8 , , > , 8 , * 5 , 1 5 4 , ; ; * 1 1 * > ; @ , @ , 5 @ 3 1 ; $ * * ; ; * * 5 ; ; * ; - 5 5 , , + , , @ ; ; $ * ; ; ; @ @ o $ ; ; , * o ; ; ; @ @ @ @   ",
"O $ @ @ @ O @ @ ; ; ; o @ ; * o ; > ; ; * * * * @ > @ ; ; > @ ; * @ * @ ; , , ; ; ; @ , , @ ; , = , ; 5 , * 1 , , 6 , ; , , t 6 1 1 1 ; 5 5 1 * , 5 , , 6 5 4 * 5 8 = 6 5 5 g w , , 5 8 8 9 s l 8 t 8 5 i k n f 8 s s N L k n I Y.hX&X&XP.4X*X[.[.zXvX9X8XgXGX7.v O._ V v b h V b V ~ b N K b k f s b s s s B i f S N k k s s N 8 i h k h j f n N n P n k h C S k v V b P v N N L v C V L ] / L [ ] ) K I 4.nXxX3X6XhXkXtX&X7X7XP.W.C.j.P.qX*X*X/.P. X9X^.[.wXP.m.%XC.C.*XE.%XQ.a.}.7X].L.P.E.6XE.N.eX!.t.:XN.N./.*X{.E.fX.X.X{.C.{.{.`.m.<XeXQ.!.oXC.aXeXU.I.E.C.{.wXeXj.P.eX^.E.{.}.U.$X:Xj.E.Q.Q.m.:X[.C.qXaX}.5XSXtXrXxXLX;.m  .:.P V ' J N V X.V v V P R h M V N N k b Z k f m V h f l k F V h C k s k k f s f j F V b n d 8 s B s f t 8 h _ k A 7 h V Z V V m V p -.LXZX3X[.|.}.}.=X6X}.rXxXrX9XJ 9 n h m K l s k k b 7 s 7 l r 8 7 5 ; 9 8 , d 8 8 5 5 5 , 8 5 ; , 8 7 , ; ; 5 * 5 , , 5 , ; 5 , , , d , ; 5 , 1 , 5 , * ; > , 0 5 , , , * @ > > = 1 1 * , > 2 ; ; , ; , ; , o ; 6 $ @ ; @ ; @ , > ; ; ; ; ; @ 1 > @ ; ; @ ; 3 1 @   ",
"@ * ; @ @ o ; * ; @ O $ $ ; $ @ ; ; ; @ ; ; > ; @ * ; * , ; * @ 1 > 5 ; * @ * 5 , > > , 5 6 5 * o 1 1 , 1 @ @ 6 1 , 5 @ > 5 5 , , 5 , 5 t , , * 5 8 4 5 5 5 , , 5 4 5 5 t , 9 5 5 d 6 8 s 5 , , d f 8 t s v L n 8 B h V b B M W h.aX[.qX{.,X%XP.N.}.5X3XZXjXPXx.h s s A L P L Z V h k m V b s C m h k s s t s s b f h V s 8 j M v k v n k f s l f C Z k s l s h C f f k m P Z V m / k L [ U J V U J / Y I U.xXkXvX].9X8X3X[.U.N.,X{.N.P.Q.[.!.~.P.N.A.!.|.Q.Q.[.^.P.^.C.|.$Xj.4X&X{.!.aX^.[.[.-XE.U.[.P.j.a.I.!.N.d.N.%X~.~.P.[.qXN.C.C.W.B.j..X[.j.^.{.W.Z.C.Q.[.,XN.!.E.dX^.E.V.Q.=X^.&XE.qXeXj.E.*XN..X^.C.3XhX].gX4XtXrXJXXXJ L Y Z o.>.J L / A b T K m V V n p N N k m P h c S 8 s k D s b h k k s s s s s k S s k N P h k f s s h s s f l h k B l k X.L n A V L i -.mXgXgX9X7XQ.vXpXQ.&XhXjXxXyXU i P V h k k C k n l 7 d r 8 n l d 8 5 5 w 6 s 5 4 , 1 5 8 , , , , 4 4 , 1 t 2 , 5 = 6 > * 4 5 1 6 ; t 9 4 , , > * , 6 , ; ; 5 5 ; , , , * 1 , ; @ , , 5 @ ; ; o @ 1 ; @ > e > 1 5 > @ 6 , @ ; * ; ; @ @ ; @ ; @ > ; @ ; ; @ o , >   ",
"; @ @ @ $ @ @ @ @ ; $ @ @ @ @ @ $ @ @ * 2 @ ; ; ; ; @ , ; @ ; ; ; , , , @ > @ , ; * , , , , , > ; , 6 ; @ ; , * , 4 , , ; ; 1 5 5 @ ; 5 5 5 , , 9 4 6 8 , 5 w , 6 5 t w , 5 8 4 w 7 , r s r t 5 8 f f 5 s V K C 8 s C A b N b p OXvX+X8XqX^.$XQ.7XaX XmXZXgXJX2.M Y k b v V L V V N C V V s k h b C k N s 8 s l s i V A S f s A m s N 8 F N h h s C m h n k h b N s s n N E V V U Y h / ] L U o.} } [ T -.LXCXZXyXP.6XpX6XaXE.j.C./.{.E.>X!.m.E.fX/.m.C.P.,XP.C.].P.fXN.t.>X*X[.4X!.W.GX3X=XmXP.E.qXC.!..Xy.I.*XE.^.*XQ.^.%Xm.E.Q.P.W.U.^.N.k.d.^.7X7XC.a.P.P.fX*Xm.C.qX7X=XQ.~.{.W.=XeX7X[.[.].{.Q.P.E.Q.^.qX=X8XkXgXrXAXjXCXGX-.J K U V ^ J / L m b @.L v A V b C N N V b V k n V s k h n h k b N h k b B i n k h n h k h h k s B s D s h n i s N ) D i m _ V Z E P V ;.mXgXxXvXvX[.6X=X6XbX8X5XxXmXU j ) V N i B h s f k 8 f 8 s s s 8 g f 5 5 , r 8 6 1 5 8 t ; 2 5 t d 5 5 5 w * , 5 , 6 , 0 4 , , ; ; * , 5 6 r , 5 t ; * ; ; 1 t ; , 1 5 * 6 , ; , * , * ; ; ; ; @ @ , 1 @ ; , * * ; ; * 2 @ ; ; > @ @ , ; $ ; @ @ ; ; @ @ $ * ; ;   ",
"@ @ ; @ ; * @ @ O ; @ o O @ ; @ @ ; @ ; > @ @ @ > ; ; @ @ ; ; ; ; ; o , ; , ; ; ; , @ , , * , > , * 5 @ @ 5 5 , , * 1 , 2 ; * 8 t * 1 ; ; 0 8 = , 4 * r 4 , 1 , 5 1 , 6 , t 7 s 8 7 9 x s s 7 7 s s k i F s s C s k m D b V C p 4.nXJXhX{.C.=XpX3XQ.{.qX3XpXGX7.k P N P [ J J J V m V 8 n A m k b s i f s V b f s V V h h r 8 k B 8 S 4 8 h V V B N 7 f V V L V n h V C s N m ' V V K v Y ( ( U ` ` @.T J.JXZXhXtXpXjXaX6X$XC.N.m.p.P.C.V.P.N.,X3X{.%XwXE.N.C.m.N.[.|.!.{.*X*XU.C.*XP.C.4X6XN.d.%XP.P.P.a.MXQ.L.,XP.~.I.j.C.a.P.U.4X-XP.].*X*XN.{.FXN.j.fXN.!.eXP.p.d.E.7X&X$XN.{.P.P.l.a.C.W.N.[.E.N.{.Q.a.=XpX8XSXAXCXrXrX5XPXY.^ o./ L ^ ' m U ^ L U L L Z N m K V m ( P v A m C B 0 7 B V A f 8 B s s P m s f f s h B 8 h V V k h h P C k h R m h m n n V V V C ) h -.GXxX6X4X+X$X&X=X8XrXjX8XxXBXJ i N V A n n s v f j s s s s f 8 j 4 5 f 5 5 r 5 t 5 5 7 5 6 w 5 4 5 0 5 , 1 5 ; 5 6 , t d , 6 ; > 5 5 , 1 1 1 5 5 ; , , * * ; = , > @ @ , , 1 , 1 ; @ ; e 1 , , > @ , > * ; = ; 1 ; ; > @ ; , ; @ $ @ ; @ @ 5 ; @ ; * @ 3 @ , @ @   ",
"* ; * @ $ @ ; ; @ @ 2 $ @ @ ; ; ; ; @ ; @ % @ ; ; * ; @ @ ; ; @ ; $ o $ ; 1 1 > @ 5 ; ; 1 , 2 ; 1 5 1 2 @ , , , t , ; 5 @ $ , 6 , , , ; ; , 7 5 1 5 @ 7 w 6 , 8 r 4 , 4 w 5 5 r 8 g 4 s i d 8 l B s n s f 4 d N N n m p s Z C v x.tXjXpX&XqX;XhX&X[.dX%XE.6XFXc.k A m V / Y K U m V m k n h V h l h f j h m n s h A v k l n s s f s h r j k k v h B A f b m P h N ! K N V V V o.V V ' U L Z J ^ { U K I oXkXrXcX8XhXhX[.Q.$X!.W./.d.P.m.j.^.^.P.^.^.P.&X&XP.W.W.j.;Xt.y.|.E.j.wX4XP.m.^.wXQ.wXwX*XN.N.E.%XP.N.Q.!.Z.^.Y.P.eXN.%X-X].[.*XwX8X&XC.d.mXQ.^.eXh.j.a.E.*XQ.$X}.aX}.[.>XP.C.eXI.y.L.P.Q.E.P.N./.N.P.8X3XpXZX8XgXhXCXZX+X| U / J ^  .U o.] U V L L L R P V V U m b s m m m v 8 B v s f 8 i s f h b k s n 8 f s f k B P V i N k h n n V m v k V A l V V J N ) 7 $.JXlXpX^.9XpX9XQ.].+XcXZXxXeXU 8 h V M f B k k k n 8 k B r r 7 j r s n 8 5 4 4 r r s 7 , , 4 8 5 , 5 6 4 , 8 5 4 , , , , 5 * ; ; , 5 , @ ; ; t 4 ; 1 1 , , @ 1 , * @ ; 1 , , , ; $ @ , 4 , 5 ; ; ; , ; 5 , * = 1 ; @ 1 * ; ; @ ; @ @ * ; ; 4 ; $ $ * $ > ; ; - $   ",
"@ ; @ @ O o ; ; @ @ > @ @ @ o ; ; @ @ ; @ @ @ > * @ ; , * $ ; @ > ; 1 @ ; @ , , * , , , , * ; * * , @ 5 1 * ; ; 5 , @ 9 , 2 @ 5 , e , , 5 6 4 4 , ; 1 , , 6 t t 4 t 8 7 w 5 7 t 5 5 8 s f t 6 8 8 8 h 8 l f k b A s M B A V K s OXvX3X3X*X,XP.C.=XU.W.9XzXgXLX2.h P N ` U v N K J V V V V V k s N k f n k k i S k 8 N h k f h k i s s A V s n v m P P k N V P b f s s C P P K J ^ J U >.V V U ' J v.J -.LXtX}.FX3X$X4X6XQ.$XmX%Xj.{.m.a..XQ.,XP.m.P.~.wX[.E./.N.:X{.P.Q.P.C.*X^.[.7X~.*XeXj.qXnXN.{.{.d.P.N.>XW.t.m./.I.{.!.~.Q.V.E.qX[.W.P.3X=XQ.*XpX`.k.N.*X*X-X*X[.nXQ.P.N.4X>X/.N.{.%X;X{.j.Q.[.-XC.j.C.[.*X=X&X3X].tXGXjXjXPXu.N / ^ ' Y J ^ J  .Z J Z m n n s v / Z N h b k K K P k n r k A A b n h f h n f 4 l d f N h 8 f N k N b 8 8 A V s D k k b J J P ( P v 4.LXZX3XC.Q.8X3X&X6XQ.5XrXAX@XV j v J V 8 C k f s n i n f 5 7 i s s 8 8 f 5 s 5 5 8 7 8 l , 7 d r * , 6 4 5 1 7 7 8 , 1 5 , > ; 5 d 5 * @ 1 > 7 1 ; , , , ; 1 , 5 , 5 * $ ; , , , ; ; * , , 5 1 , , , * * ; * , ; ; $ ; > @ @ * ; ; 1 > ; ; , ; ; * ; ; @ * @ @ ;   ",
"O @ ; @ @ o @ ; ; @ @ @ $ @ @ @ @ @ @ ; ; ; @ ; ; ; @ ; ; > , ; @ , , @ 3 > * ; @ , * 5 5 @ 1 ; > @ 5 , 5 1 ; 1 ; @ , , , * * , 1 , t 4 5 , 1 , 6 , 5 6 , 6 8 4 ; , 5 5 5 7 9 4 5 8 9 s z 4 t 8 f g f i 8 B v s h s b k K Y H m XXzX8XpX&XQ.~.^.7XQ.!.kXZXxXgX-.P E N ' T v V L J V m k V C s k N k B v h j s k m n k 7 B b k s n b n m h h B b C b v k B S h k k A b v m / L m [ ' W V [ U ' { +.[ W J.PXCX3XhXuXzX7XQ.^.$X=Xj.!.-X>XP.W.j.!.Q.j.Z.!.{.[.dX{.N.m.P..XdX[.>XfX[.[.&X/.Q.*Xm.^.}.l.tX[.P.Q.E.:XW.Z.C.P.E.m.a.N.P.E./.*XC.[.Q.mXcX8XP.&X{.0.[.-X{.&XP.P.%XQ.P.eXC.C.^.d.E.[.Q.P.~.*XQ.E.N.j.N.*X*X[.vXaX*X}.}.8XrXSX_.L L ` [ m P L V } ^ V V m V v h P s N V N h D S h M v h f N V m Y b s f f b n 7 r 5 f p N s 8 b k v P B f N b N N x B Z P ) V V K v 2.GXZXxX7X[.E.[.8XvX}.].8XSX0Xm s K J k s Z b l s b k s 8 5 l f 7 s 5 8 g s 7 d 5 r 5 4 8 d 7 4 5 > , 6 4 5 ; 7 d 7 , , 6 ; $ ; , t 5 ; > 6 * 5 , > @ 6 5 @ 1 ; > , 8 , 2 @ * 8 6 @ ; 1 > ; ; 5 ; , , , > , ; , ; ; @ ; * > > 5 > * * ; , ; 1 5 ; ; $ @ ; ; * ; ;   ",
"; @ ; o @ ; @ @ o @ o $ ; @ @ ; > @ ; o o ; , * @ ; ; 2 @ ; ; * , 6 , ; ; , ; ; ; ; ; 5 , ; ; ; ; , ; , , , ; > , ; > , 1 ; 1 , , 5 8 4 , 1 = , , ; 6 r 5 5 , s f 5 5 5 t , t t 5 5 f t 8 7 f l f f j 8 7 v ~ n s k i V R b l i i.hX}.zXiX$X^.uX3X=X=X}.5XxXLX5.v ~ ( U Q m B b m K k V V 8 _ A h N P K m 8 r f s s h Z M s l f 7 h s C m h k B h N j m m v B s N V m ..P Z / ' J V ` m Z ^ U U Y } { |.JXSX}.3X3X&XpXC.C.~.[.C.%XE..XZ.a.!.P.h.!.W.Z.P.Q.!.L.*X4XU.N.fX^.N.a.N.%XQ.j.^.;X9XfXE.N.dX7XeXP.*X7XV.P.,XN.{..X!.^.[.!.t.P.&X4XwXvX].9X7XeX*XQ.dX{.!.fXQ.Q.N.N.U.wXN.Z.^.Q.U.W.C.j.[.N.a.j.&XfXE.V.*X&XbX&X3X9X8XrXCXSXwX-.J K ^ L L K U ] ..J U U L / _ m m V v A A C 8 s r l [ P h N b h 8 s h m m n s b S s v m B h s n k b V Z R A N k A C m L L V ~ Z h *.GXCXrX9XwX$XU.=X8X8XtXjXlXeXU l n Y N S E h v B k f s f j 8 5 8 r 5 5 l w 5 5 5 s 5 4 w 6 4 * 1 5 6 w 5 5 , 8 5 4 8 2 @ ; 1 * > e + ; ; * , * , , > ; , 9 $ ; 1 1 ; 1 , ; , * , , , , * ; * ; , > ; @ , > * ; ; $ * , , > 6 @ @ > 1 * ; > @ 5 ; ; @ $ ; * @ ; ;   ",
"@ @ $ @ @ @ $ $ # ; @ o @ @ @ * ; ; $ O @ ; , * > ; @ > ; ; ; ; ; 5 1 * ; , , > * 1 @ * ; ; , ; ; ; > ; 5 0 , ; 1 1 5 , 1 ; ; 1 t 1 5 7 5 , , w 5 * , 7 , > , r 4 8 w , ; > 4 j 8 8 8 8 9 s s i s 8 f 8 f h B k B k l K B S F 8 x.bX3X[.{.;XQ.vXvX[.Q.*X6X8X0X5.h  .L J U v A P B / b V _ b 7 k k s n v v P h s f n k b h A n s f D 7 R b b k k N n 5 V L v n f b U b P h V / V Y  .` C [ ` ^ ' J K $.+XSXCXbX3X3XxXlXE.|.C.|.*XE.,XP.a.N.*Xm.N..XN.a.^.[.I.P.P.P.P.Q.[.-XN.z.E.mXwXP.-XaXhXL.N.E.].=XU.h.].{.d..XnX[.j.P.^.^.U.N.I.P.6X9XN.N.iXwXj.h.|.j.,XN.a.>XP.^.!.!.|.E.a.MXN.{.B.t.C.eX`.m.'.C.,XQ.^.V.C.vX[.[.hXhX8XrXZXKXGX7.I X.P L U U ' L ' ' o.X.V V V m U m b k h V S s k k v k h _ N m j d D A k N P V 7 n m C h k f f n k h C k k V v N h T V v Z Z ) h *.LXAX3X[.=X=X].dX3XhXGXAXrXyXJ l c N L n s C v F k r s s 8 f 8 d d 5 8 f 5 8 t 5 d g 5 5 , 5 g 4 5 , t 4 t d 6 * 8 = * * , 5 @ - , * , 9 1 w , , ; , 1 , 5 e ; @ , 1 * 1 ; w ; , , 6 , ; @ 5 1 , , ; ; ; ; ; ; @ ; ; 2 * @ , ; ; ; @ ; @ $ > * > > @ $ ; 5 ; 2 ;   ",
"@ $ ; o o ; ; o @ > @ @ $ @ $ ; $ ; ; ; ; > > @ ; > ; , ; ; @ $ @ 2 > ; , ; ; , 5 5 ; @ ; * , 6 ; , ; , , 4 , , , , , * ; 6 6 @ , 5 @ 4 4 5 , t 8 , 4 * * 5 5 d 8 s 4 * ; 6 4 8 f t 5 d 7 t 5 i N j s f s r h b v N n Y v b E v K.vXgX7XP.,XE.j.N.dXaXE.[.gXmXz.J V ~ L V P Y m h N m C h m S n k C h N s v V h V m i r n N k l s k h C b k k s N s h m K / / b K P C v K ) V L L } P b /  . .` / h 5.mXrX}.zXgXxX8XfXMXj.m.Q.].j.P.^.a.I.NXm.P.B.h.Q.E.P.|.].U.N.E.>Xy././.~.4X*XN.wXaX5X[.[.*X*XN.m.N.N.a.N.d.P.{.P.h.E.%X[.L.N.`.Q.P.hX6Xm.N.Q.4X{.*XL.[.^.>X$X*X>XN.P.|.L.P.N.C.L.y.t.N.<X_.a.!.{.C.^.qXQ.[.6X=XGXcX8X6XtXJXCXGX XW J / ]  ./ / Y ` ' V N V L J Y V s P N P V N m V E s b B v b h n s r s s k N U N N 7 s n v B h A V N P k P V h S V ) N S P L :.h 7.PXrXpXvX;X=X%XqXU.9X9X3XAX0XJ s ) V V V s s b k f c s r l c l f 8 5 8 r 8 5 t 7 , 1 5 6 , 8 f i 7 5 6 5 4 1 , t 6 * d 5 5 6 1 5 ; 8 w , 6 , t , 6 5 , @ , , , ; 1 ; ; > , > * 5 1 ; * > ; ; , * @ 1 1 , ; , > ; O @ > * @ 6 , , > @ ; ; ; , , ; ; ; ; ; ; ; o ;   ",
"@ $ @ @ $ $ ; o @ * o ; @ ; @ @ @ ; ; ; * ; * * * ; ; 5 * ; ; ; ; ; ; , > ; @ , 4 , > 6 ; ; , ; > , @ ; , , 5 , ; * * ; ; , , , 5 , ; 1 1 t 5 ; t 4 8 ; 5 8 4 5 t g 9 , 5 t 8 s 8 8 6 f 8 4 8 h i 7 8 s f s i k N h s m V m V m h.mX8XmX3XQ././.m.^.8X,X=X5XPXi.v P P N N Y U V m V ( k p h ( b i N b n i B h L P h f k s 7 k k s N h n m b b N N n P N h J U L m Z h K m K v P L J T o.^ ] ] | [ U z.FXZXAXbXgXxX=XN.E.|.[.E.W./.W.Q.l.!.<Xj.Y.XXV..XE.E.fXP.%X|.P.|.I.B.P.*X4X}.N.Q.[.[.&X*XU.-XP.`.P.U.P.C.MXd.m.{.I.>X[.{.].I.N.*XqX[.aX<XN.P.9X9XN.P.qX%X~.C.P.C.!.>X>Xj./.Q.j.*Xk.j.C.l.k.h.E.E.{.^.C.P.%X].pX6X].Q.3XbX5X3XJXyX*.J L W ^ :./ V ] U b N P L V m A h N b Z m V Y M m h k N k C L v A k s s N s J P s t r k N h V V v b h V N S L k M m b b J L T k -.mXxX8X[.aX&XP.$X3XhXyXrXxX0X^ F C U V C B f S k r s r f f s i s s 8 r s 7 6 8 t 2 , 1 4 4 5 8 8 4 e 6 , ; ; 4 5 * , G 4 4 5 5 @ 8 8 * 5 , 6 1 , 6 5 , , ; 8 4 5 5 * , ; 1 3 5 , @ ; ; ; ; , * @ 3 , * , ; , ; , @ : @ * * , , 2 @ @ @ @ > > > @ @ @ $ @ ; , ; ;   ",
"@ o @ O o o @ > @ ; ; @ $ @ @ @ @ , @ @ @ @ ; ; * @ ; , * * ; ; 1 ; , , * ; @ > , , * 1 , , ; * , > @ > 1 ; > @ > 1 , 1 w > * 5 5 , 4 4 , , , 1 , 4 , 1 9 4 * w , 5 5 d 5 4 s f w 4 9 f k l g d r s f k h f s r B B k n k A Y v J.zXQ.8XhX=X&X7X7X&X3X-XpXlXPX2.h Y V ' ~ V V / V ( / V L m b n b h ~ E h s h N k 8 n s n E V N h f V v v h h A C i V h h U m m N V m m J b P P h O.m ^ L J U ` m *.@XFXgXkX8XjXjXaX=XN.y.C.;Xd.N.{.^.*XP.a.*XN.y.C.g.=X7XP.E.U.P.N.$X>Xy.j.*XP.].fXC.*XQ.=XQ.L.N.`.t.{.^.W.W.I.a.C.|.h.y.{.m.P.B.j.{.fXQ.j.qX{.N.m.-X,Xy.|.E.a.Z.$X[.fXC.N.C.[.BXj.<X!.I.U.h.0.a.eX[.%XP.P.C.E.4XaX{.}.hXpX9XU.&XSXGXu.m U +.^ ^ J V ^ K P J L m N V V V V h v A h k C b Z V s B n M b h V L v b k v N C b k n n h k v C C k V N N m n N / L V / U L s ;.0XxXcX4XhX4X].=X=XQ.9XZXSXyX^ b C V V R B i i f N h V n 5 8 7 l 5 , B s , w 7 5 9 4 5 5 1 , 9 s , ; 1 8 e 1 7 6 , 6 ; 4 , 5 1 * t , , 6 5 ; ; , 6 6 1 ; , 6 @ @ , 4 , > ; ; , 6 @ 1 , 1 * w ; @ 6 5 ; $ @ * ; > ; > > * , ; ; @ ; 1 ; O @ , @ ; * 1 $ $ @ 6 6 5   ",
"@ o $ ; $ # O * ; @ @ ; @ $ @ $ ; 1 ; $ ; @ ; ; ; ; @ * , > ; 1 , , * > ; @ o ; , * ; * * 1 > ; * 5 ; 1 * ; ; ; , 1 , * 6 t , , 4 5 5 w * ; 1 * ; 0 , 4 4 t w , , 8 8 7 , 7 l 8 r f 5 F r j f 5 r f k n i k k 7 9 D f E L L b p J.vX&X3X3X6X&X6XQ.[.hX3X=XuXkX4.M R L J U v n V V V m V V A s s R C m V m k k s 8 r V k v M v h k s S m ) n v h h A N N P J V A C h o.K ( L P / J L ..| ] L ) ..W 4.yXGX8X5X6XpX&X].cX{.E.W.~.E.:XN.E.{.P.E.wX!.C.!./.P.-X!.$X9X|.P.sX~.Q.4X>XE.*X3X!.C.%XaXQ.U.I.P.j.<XN.C.I.N.{.N.F.U.I.C.j.!.a.E.Q.N.^.*XL.].Q.<X-XC.j.N.!.{.}.8X7Xj.j.N.P..Xa.t.Q.<Xa._.B.k.P.*XP.P.*X!.C.E.{.&X[.&XhX8X5X3XGXSXkXu.J Y ^ ' ..@.Y K J  .J m ) P h m V b m V N s g B N J / v b V h h N J V K v s n A v V V h s A k n N h C N N h b V P V V L L U Y v | GX8XZX8XhXvXrXdX4X^.$X5XjX@Xm v E v Z N b f C b n h n s 7 j s 8 d 4 8 s t = 5 7 d r 4 5 , * , 6 , , 9 8 4 1 8 8 4 ; @ e 1 5 6 6 ; ; 1 , 8 ; > , 4 , , ; , ; O o , 5 * , 5 * @ ; ; 4 , 5 1 , ; 6 4 , ; ; ; 5 @ * ; ; ; ; 5 , ; ; , * * @ ; ; O ; , , @ @ @ @ o ,   ",
"@ ; @ $ $ @ @ @ @ @ . $ @ , * $ @ > ; $ ; @ > > @ > @ 6 > * , ; , , @ , 1 * ; * , ; > 2 ; , 1 , , 5 , ; @ 1 , , ; 5 6 1 , 5 4 5 1 , , , 5 5 6 t 6 t e 8 5 6 6 8 6 t w 7 7 5 4 4 5 4 8 5 4 j 8 r g f i j s h h V C D v Z N b C i K.LX8X[.].6X=X[.uX=X9XfX8XjXGXu.h V V J J L m m b L V h v V P k n s s b V h n k i k V f i k k N C h s s h v k b b V N V E s h P A V P V V ^ J ..^ J b ] ` L C C W y.yXAXZXrXkX3XgX3X3X%X{./.W.*X-X[./.j.N.*XQ.{.E.Q.*XP.[.7X9X9XaXE.mX[.$X*XfXQ.{.9XmXA.V.E.*X|.Q.{.^.!.j.P.L.{.qXN.T.{.Q.{.Q.a.N.mX^.V.D.qXE.P.-XQ.a.].wXU.U.[.P.E.[.{.C.W.m.>XN.,X%Xm.%Xm.l.{.{.N.E.E.E.m.^./.$X&XaX^.P.8XgXlXrXCXyXz.I m ] L N ` U P Y / ' / P m P V L m N P m n F N 8 h k v V N A P m N N C h P k V h h v b s s P n n k V m k v m J Z m R V P } m v 7.IXxX3X7X$XP.Q.N.aXhX3X5XZXwXJ B P V m V n S k s k k r s k s l s n s 7 8 8 8 t 5 = 8 7 9 , t 4 , 5 5 4 5 t ; , , s 8 , ; 3 ; , 5 , > 1 * , 6 8 , , 5 5 * 5 ; w 5 , , 6 , * e 6 , o > * * , @ , ; * , > ; ; ; > ; ; ; @ @ 6 * ; $ @ * ; 6 + 1 ; ; ; ; @ ; ; * o ;   ",
"> @ @ @ ; O O $ > $ . o @ ; ; $ @ * @ @ ; ; ; ; ; 1 > * 5 , ; > , ; ; * * , 6 w , , ; $ @ , 5 5 , > @ ; , 5 4 , 1 ; 5 1 5 , , , ; ; 1 5 s 7 4 , 5 5 5 , , 5 = f 5 5 8 8 5 , * 1 t r s 5 1 s f 5 8 s d s f B P ~ V N b C h V R p z.tX&X4X{.^.4XE.;XmXwXiXQ.6XPXi.v J A V Y ` o.P h E N D N h V C s f f P V s f P V v m f d j k N h P C C n E h v N b k k b A A b m V M / ' o.m J @.T b ] ] Y ) P W z.GXSXjXZX8X].FX8XP.P.C.a.t.U.}.E.!.XXa.*X^.C.&XpX[.N.&XtXgX[.*X[.|.}.=X$X8X[.!.=XpXZ.E.Q.fX^.h.U.~.^.!.T.h.L.E.B.u.Q.E.P.Q.k.a.Q.[.E.k.BXQ.P.E.C.7XhX&X=X&XQ.7X.X/.!.N.!.N.U.N.Q.;XI.N.N.qXj.I.!.d.P.>XP.$X~.C.6XxX}.4XhX8XSXrXZXJX@Xm U =.+.' o.U ' / V K N V V ' Y P L N V K m b v n B k @.m h b Y h i d s 8 V s S _ k f C V 8 L Z h C C b ~ N V _ Z N R l b U K h 7.JXxX6X*X,X!._.[.&X5XGXkXbXwXU t A J m C B h K V B f d f b s s n C s w 5 9 b 5 6 y 4 i f , 5 5 5 5 r 1 8 ; 5 > * 8 f 5 3 > O 5 5 8 1 , , ; 8 f 4 , , , 5 5 ; , 4 ; ; > ; , 6 f 6 @ # ; ; , > ; @ ; - , 1 @ , , 1 , $ # ; , ; @ ; $ > O 6 ; ; 1 ; @ @ * ; ; + O $   ",
"o o @ @ @ > @ @ * ; @ , 5 $ $ @ $ @ > @ @ ; ; @ $ @ @ 1 ; , @ * , ; 1 6 ; ; ; > ; @ ; ; 1 , * ; @ > 1 , ; ; , 6 ; 6 , ; > @ , 5 , , , , t , = 7 t 5 @ r j 5 , w 8 s t 5 5 8 j 8 5 f , s t 1 d i f s d n h i h f s B l s V V D m c.nX3XbXwX}.8X6X*X[.-X-X8XlXJXJ.v A B / J m V V / P C N N B R B M v f k V b s s k v V B s E B r j n d N N k h N V V A d S V m N b N U W J n A ^ ` V ' P U | >.E U oXGXtXhXmX9X].}.8XgX{.vXbXxX6X4X{.].7XP.{.7XQ.wX{.4XzXtX[.9X3X3X4X^.}.6X$X&X=XaXE.-X{.LXAX+X}.~.8XcX9X].{.}.[.*XyX^.{.&XN.].*XE.-XbX=XQ.%X{.8XkX9X$X$XC.pXhXN.qX;XQ.*X^.#XdX=X3X6XE.!./.[.mX*X^.3X{.y._.W.|.wX[.[.3X0X4X$XvX|.+XjXAX@XJ U @.m ^ V U =.J J V V U U h k P K v m V h K Z h v B h B k k h m J Y P m k h l n V v U A 8 b [ J V C C V m V V A C V L K m V v 7.LXxXAX8X9XaX=XvXrX8XbXhXrX@Xm M P V m b m b k n B h s s 5 r k f f 7 r s 8 8 7 4 j j 4 t ; , , 6 , 5 , 9 5 t > 6 i * , t 6 * 4 , 4 , ; * = , 8 6 , 5 5 , , 6 @ @ $ ; , t , # , , ; , * 5 4 , 6 5 @ @ ; > @ , 5 , 5 1 @ , 1 ; o ; > ; ; $ @ ; @ ; 6 ; > @ @ ; ; $   ",
"+ ; $ O O @ ; ; @ ; @ ; ; @ @ ; > ; , @ @ > ; @ ; ; @ ; * @ 1 * 1 * @ 4 * @ > , 1 ; ; ; * , 5 ; ; ; * ; , ; > , * ; 1 1 5 , e 5 * , , 5 * , t 5 5 1 > 5 4 , , 4 5 9 4 5 t 5 6 8 5 5 , i 5 4 7 s f f 8 s k n n s k k h n N P P m r.9X8X8X&X*X$XgXiXU.[.+X8XsXJXx.h V A ' L P N ^ J m V n b V V h k s k S B v k k h b V f s h b h N S 4 b h b S b v P V k h V m S h V @.^ L V ( L [ L Y ' J U / / { U.AXjX3X5XkX8XgXAXAX}.U.3XxX3X}.].&XxXgX+XzX8X}.}.[.8XrX5X3XcXxX].hX9X].hX8X5X8X3X].[.3XrXCXFXaXgXzX3X7XhXgXaXU.bXpX3XbX8X9X&XP.gX8X8X6X8XpX3XvX3XhXtX[.U.wX*XQ.U.8XFXQ.3XgX}.gX8X6XU.3X9X].6X[.*X6X4X[.Q.;XQ.6X[.lXAXtX].hXFX3XrXAXIX2.L P L ` ' |  .} X.T U L Y N N L h C V V P V n v L A i n N h N V V m V n N K s s K Z b k s P _ k m h s n V b m P v V v L ../ m i.LXpXxX}.wX3XQ.[.JXhXaX[.jXyXJ n Y L N B b h A m h s k s f r s 8 d 4 t 4 5 t l f 7 f 5 9 4 8 t 5 , 5 , 1 4 , 6 , 8 , 5 5 6 > 1 , 5 4 , 1 e , 4 5 , , 5 , , ; > ; ; * = 6 ; ; 5 , @ ; 6 , , ; ; , * ; * * ; ; , 5 , * @ 6 1 , ; ; @ @ , ; @ ; @ ; , , @ o > > ; ;   ",
"@ ; O O O O $ # o @ @ $ o o o > ; , 1 , * * @ ; 1 * ; @ @ ; ; * ; , , 5 , ; 1 , , ; , 1 ; 5 , , 5 1 1 ; @ , , , 1 , , 1 1 4 6 > , , ; 1 5 , 6 , 4 ; 1 , 0 5 5 5 5 = 6 8 8 4 5 8 5 , 7 s k s 8 s s l f s l k h k S C K D k m P v z.FXjX6X4X-X;X[.7XhX3X}.8XZXcX5.v Y A V L V N o.J V L s V / m h C A S d i P v s n f s f S i m m V k s h N B S b V b m ' V E R k V E k N L V V L L [ m :.*.U o.) W ].HXZX+XHXCX5X3XkXAX5X3XgX8X].3X3X6XgXxXjX8X8XhXkX=XrXjXFX6X}.3XhXkXJX}.9XkXAX8XgX5XzX].kXgX}.rX8X}.[.8XtX8XrX+X6X}.rXFX8X].kX}.5X}.8XkX8X6X8X}.&X5XjX8XQ.8XmX].}.jXjXrXzXaX&X3X9X8X3X3XaX8X[.[.7XkX6X=XhX].3XFX8XxX8X8XAXkXjXcX5XpXGX7.m O.'  .>.*.U ^ ^ V >.' k k X.' m N n k P k b J V h h k b v P V m k N h S N v Z B s h A n C x s C b P N P A J X.Z ~ Z L ' @.H 7.FXZX3X*X[.6X*X^.rX8X=X=XFXmXJ s A L L S Z b L V s n h f s l C 8 5 6 j 4 8 0 5 d s , 8 8 s 8 w 8 8 5 9 6 , 8 5 , 5 6 5 , t 6 1 5 1 5 4 , , , 5 , 5 ; ; 1 1 1 ; , 1 4 1 * ; 4 , 5 ; ; 1 ; > ; ; , , 5 8 , > @ , 1 * ; ; ; , , ; , @ @ w , ; , o @ @ @ > ; ; ; @ ;   ",
"@ @ $ O O @ O o @ @ ; @ O @ @ ; * @ * > ; ; 1 2 > ; @ ; ; ; @ ; , ; 5 , * , ; ; $ ; , 1 > , * * 6 ; 5 , , 5 1 2 * , 4 @ t 8 , * 5 5 @ 5 , , * , 4 t , 4 6 1 , 5 5 , 4 6 5 w 5 8 t 6 s 4 s j s s s r s k s s B C k b m i V N m h x.nX3X^.P.&X[.P.*X6X8X|.8XAXzX5.m J / V L Z k @.J L Z Y m P _ v C V k k s N k P V v k V s S V A N h A A h h b C b V C ' L h i V V V b V V `  .U m o.Q ' ] ` o.k U @XJXCXkXCXDX+X9XkX9XzXvX3X+X4X9XkXhX}.3XAX8X8X4X3XzXkX3X8X3X*X4XAXN.3XGX}.+X4X8XkXrXGXtX0XwX9XrX8XyX4XvX3X3XkXtXkXQ.kXAX8X}.kX8XwX8XkX}.].vXkX}.4X].8X7X}.aX5X[.9X9XDXAXvX&XhX3XbX8XFX4X3XgXaX9X[.9X].6XkX&X].[.kXFX8XtXyXbX3X8XrXlXJXh.m ..( J ^ W U J o.' U U m k m m Y L n h N L M A P A A v A m m v m N s b A s V P s h k b ~ s l k s A V h h N L V V P / m J  .B 7.GXDXaXwX&XQ.dX$XpXhX-X6XZX+X| n K J m n V b P V h s h k s n h s f 7 4 8 d 5 5 * j 8 9 4 8 7 , , d 4 5 , 6 5 6 , 4 , 1 5 5 * , , @ , 5 w ; , 1 5 , 5 , ; 1 1 5 , 5 5 ; ; 1 8 1 + ; ; ; , ; ; , 5 , , 1 ; ; * , ; * ; ; * ; @ , ; @ > , * 1 ; @ ; ; ; ; , @ @ @ ;   ",
"* @ ; @ @ @ ; @ > > @ @ @ @ > ; ; ; @ @ o ; 1 ; O @ ; ; > @ @ > , * , 2 ; ; @ $ ; , > ; @ , 5 ; * , ; , ; 5 , 5 , 5 4 , 1 , , = 1 5 8 8 * 5 6 8 4 7 5 5 6 ; 4 5 5 t 5 5 , 5 , r 7 8 t 8 5 8 5 7 s f 7 B b s f C V V V B V S A m u.GXhXfX].Q.7X6X^.&X6X7X].8XGX7.v K V m Y X.m L L V k  .] k l s C N v V V 8 8 m J P K / P N h h n h k m ~ B i C s V s s C N V V / h / Z J L U J ^ >.` m ] U / Y *.4XJXxX8XkXrX8XmXhXaXgX8XbXvX&X}.FXFX4X9XtXtXkX5XxXrXrXjX9X X9XtXaX8X3XcX9X8X=X5XGXbXrX+X].vXvX3X3XwX XtXSXtX8XvXFX9X8X8XSXjXkX5XtX8XkXrX*X9XtXFXFXvXcXcX9X}.SXgXkX&XFXyX9X-XbX9XcXGX9X].3XkXhXtX9X8XAXkX5XkX&XU.hX}.7XhX4XtXxXtXkXZXGXoXJ M ' ^ U ^ U / Z V U V ' L V L P V V A b } C s k h C v B N A A V b b _ L s n h N V b C k k _ V k k v P P k D h N V P L L / h -.PXZXpX$X*X6X}.3X8X&X4XcXCX|.J s v L V ) K n v n f s B h s r f C 8 k f 8 r s 7 w 5 1 6 , 6 8 6 , 5 , , , 6 , , , s 5 1 1 , 8 , , * 0 , 5 , 4 3 , 6 5 , ; ; 5 , , 1 , ; , , , - ; > @ 5 1 , ; 1 1 * * ; @ 5 , ; 2 ; ; 1 , ; 1 6 , @ ; ; * > > ; ; > > , ; $ @ ; , . ",
"@ @ @ ; ; o ; 1 5 @ @ @ @ ; @ ; > * @ # o 1 ; o @ ; ; 4 , ; ; , , > ; ; * > - ; , , * @ , , , > , , 1 , ; , 1 , , 5 5 , , * 1 > 2 ; w 6 6 5 4 7 l = 4 4 , 5 6 5 7 4 8 5 5 6 d d t 7 , r , 4 f s j n k m b 8 l N b ~ k R k V P h K.dX^.*X7X9X8X[.E.&X}.=X5X8XFXs.V / A V T L N b v K N U L 8 B C b h P K v h D k L b m m / b h k n B h v / P i V V v A n m s _ V V N V v ..U J ' U ` =.) L ` ) P ` 9XDXjX&XrXjXZXjXrX&XjX5XrXCXhXrX5XrXrX+X5XCXrX3XZXrXDXDX8XrXjXjX3XSXrXjXtXrXjXDX5XkXjXgX5XrX8XpXkXkX3XKXDXjX5X3XSXrXjXrXkXrXCXKXSXCXjXCXkXjX5XCXrX3X8X5XrXrXgX5XrXrX5X5X3X8XgXrX5X5X3X3XSXAX}.xXjXCXCXCX+X].AXSX8X3XrX3X5XgX5XkXCXZXJXU.V ) @.` J J U  .( V J } U L L P m L ( m m U m v C V k n V k v v v b s b V V f b V V k f s s V m h B P v P m s V ) V A b b V m 7.JXgXgX[.[.aX[.&X[.7XqX6XZXyXJ i n V V V m v N k f n b s f d 7 n h h 8 s 4 r s j 5 6 ; 6 , 4 s 8 , 5 , 8 5 ; , e s 8 , ; * t t d , 1 = 5 w 5 @ , , , , 5 , 8 , , ; , ; 1 5 , * * , ; , , , ; ; ; , > 3 ; , * , 1 > @ ; ; ; * , , @ @ ; @ * * 5 * @ $ > * ; ; ; >   ",
"@ ; O O @ @ ; o @ @ @ ; o @ ; * 1 * o ; ; ; ; ; * ; , w , ; > * , > @ * ; ; ; ; , = 6 , y @ ; , w ; ; 6 ; > 1 ; ; ; , , , ; ; > e ; , 1 1 8 l 7 , * 5 5 t , 6 9 8 7 5 8 g 4 G 8 r d 5 h s s f B h h h s n j s N k B l f m ) P m R.9X7X9X&X=XQ.[.7X&X-XaXcXxXhXz.Q N N J } [ V P L L L P N N N b A h V b m P _ b C i M h v P k b N h d h s b P m V m / V L V J C N P L J V P L ^ / L ' ^ | ;.@.C { bXUXUXJXUXUXHXUXJXSXDXHXHXDXJXAXrXDXHXJXHXJXHXJXZXCXSXZXJXHXZXHXSXHXHXJXJXSXUXUXCXJXHXJXHXSXHXDXAXSXHXHXHXDXSXZXHXAXJXDXSXZXZXDXHXHXHXDXHXJXHXSXAXJXCXrXUXHXjXJXHXUXHXDXHXHXHXHXZXjXjXJXHXHXrXSXZXHXHXDXAXkXJXSXHXHXDXZXHXHXSXDXCXDXPX XV Y ..] } W / ' T J ` ' J Y V L ) J J U J v V U P b s A V A V C k n S v N J B h J L h s B b V V P N k h v V N V P V V m L L v 2.GX8XjXaX7X[.E.[.8XvX7XL.kXU.m ) O.J Z s b Y P h k N h n s f s i s k 8 5 8 7 5 d 8 f 8 1 , 8 i 8 * ; 4 s 5 ; 5 , , 5 5 t , * , t , , 6 w ; ; ; , 5 5 5 * 5 6 * ; 5 , , ; ; , , ; , , 5 , , * , 1 ; ; , ; , 4 ; * ; ; * * , ; ; ; , ; ; @ $ ; , ; ; ; ; @ @ @ > ;   ",
"@ ; . @ o @ @ @ @ @ @ ; > o @ ; 1 * @ 1 ; o $ 3 * ; o ; 1 @ ; ; ; ; ; ; > * @ > 5 , , , 1 @ ; , 8 ; ; ; * , , 6 ; * , 6 , , , ; * 5 ; ; * 4 j , ; , 5 5 8 , w t , 5 , t s * , 4 8 5 5 v k f 8 i h f N s 8 k h k k k V ~ h N V h z.vX3XaXQ.^.;X3X=X4X4XE.lXgXgXu.v P A ^ J V V U U b K l s Y V ~ h N b S N m h h s b R s h V m N m h l C k N V m m K J v U / B N V ' v L P V V V U L / ^ | 8.` O.$.J.0X}.yX+XyX+XeX|. X+X+XeX+XoXoX|.yX+X+X0X@X X0X|. X+X+XyX+X}.+X+X}.}.5X@X+X].+X|.@X].U.+X0X0X+X>X9XtX0X@XwXeX0X0X}.|.0X|.+XtX9X0XyX X0X5XAXwX X X@X[.5XyXGX@XeXyXkX+X+XKX0XtXKXeX0X0X].tX0X+X@X@X@XBX+X+XwX@X+X@X+XwX+XyXtXyXyXyXeX0Xl.I ! } J X. .) J ^  .] ] J / V m J ` J O.K b J / V m k n A L K k s s A m h v Z C V b m A m A s A P k k S ) C X.m h ~ n N J W U 7.nXgXxX8X3X*XQ.&XpX}.dXgXAX|.U P / V k j A v V k v n h b s 7 j s 8 s 8 5 s t 8 s r r 4 d t 4 r 5 = 9 j 4 4 5 s , > , w 8 1 * , , 1 , , , , 5 5 = 5 8 1 * 1 9 > ; 6 5 , 1 1 , 1 > ; ; 6 6 * , , , ; * , , , 5 2 > o ; 3 @ 5 1 @ ; 6 ; @ $ ; > * > 2 @ @ 3 ; @ ; ;   ",
"+ @ $ ; ; @ $ @ @ @ * ; ; $ @ @ $ , @ ; ; $ @ $ ; @ @ @ , , ; ; @ ; w , , * @ ; ; , ; 5 , $ ; 7 s , , , , 4 6 > ; , , , 5 5 5 1 6 8 * 1 5 , 5 , > 6 6 5 6 w 1 5 j 5 r 5 t 9 8 * 5 r 7 8 r 8 g k s i x s B k b h B C n L N N N m MXcX[.7XQ.$X}.}.Q.[.$X*X3XxXFX2.m U / m P L J J / b r K / N h b s A b N A h C S S v k v v k k A V C k h s n i B b V L / V k b ) m Z ) ~ ~ V o.X.N ] ] L ^ `  . .J J U U U J J H J W $.$.` W U I { ` I { ` I { | U U { | U { 5.$.{ ` -.5.$.| U m W $.U ` -.| ` J | { { W =.W I I $.| | ` ` -.*.U J ` { | W I { { ` | W -.$.W m | =.I I { | W U I J ` W ` ` W { { I W U { J W { | U W { { { | W J J U | ` `  .] | U L J / U W U V / ' [ P L ^ J P P m v V h i s ) h s Y U m A h k N m K T v h C v k V b h h v m v V V J Z L / L ) V ) ' p 2.GXSXtX+XcXxX X=XuX&XvX5XjX0X^ n M V s h S V S k B s j l k k 8 d s s s t r 8 r t , 5 6 5 5 5 7 5 g 8 4 9 , 4 ; 1 0 1 1 , , 5 5 5 , , * ; 1 6 ; e t , 4 5 8 5 , , 5 , ; ; ; , 1 , ; > > @ , 6 , @ > , ; , , * 4 w ; @ , ; ; @ 1 , , ; ; > $ : ; 1 * @ ; ; + @ @ @   ",
"@ @ @ o @ o @ @ $ ; , @ > @ @ @ O > @ @ ; > ; ; $ @ > $ @ ; ; @ ; @ ; ; 1 ; > + ; 6 1 , ; ; , 4 5 , , 5 5 = u ; , 1 6 6 t 5 , , 0 , 1 ; > 5 ; * * 5 5 8 t 5 , 4 f 8 8 = 5 5 4 5 4 f h 8 8 d s d r d f s s h k n V V b v k n B v J.kX6X^.Q.{.aXaX%XP.3X!.hXgXbX7.V W ] b m o. .J / ~ c J m V m V h K V V V h v v h b P T V h k b V P n i b n v k B C V L b K m K m Y V m J ` U L L >.J X.' U 8.W V _ ~ @.X.m P >.O./ J ) :.@.K O.) T Y O.O.P @.' / / o._ C Y o.~ o.&.:.` >.[ ..O.) o.@.@.>./ Y B X.P P P ..@.C ) O.V L @./ U P E n @.O.V C O...E / / ! @./ C B X.V Y X...[ / _ E #..._ ) K L L ..o./ / @.n v.:.L O./ Y ) P L R @.D R O.C k ` | $.U L Y V U ` [ T L J m K V ' J m v m P [ f j n Y L s ) V V L v V V P L K h b n P h V k k ) P V b K M V N m / J L L V ' J 7.9XxX3X9X8X8X[.8X8X[.yXtXSX+XU h s L n f n b k V b s d 7 s b i , 8 r t r f t 8 g , 9 5 1 5 8 4 g 4 , 4 t 5 5 > , 5 = , 6 1 5 8 5 , 6 ; 5 5 , @ ; 5 , , t w 4 6 , , 5 * > ; ; , 6 * ; ; ; ; 5 1 ; ; , 5 , ; 6 ; 1 1 @ , ; , 2 ; ; ; , ; ; * ; @ * 5 5 @ ; ; ; ; ;   ",
"@ @ @ o o @ @ @ ; ; @ O O @ @ ; ; @ ; > @ > ; * 1 > ; @ $ @ ; > ; > * * ; @ 5 > * * 5 1 , 5 , , ; 2 w 5 5 * * , w , 4 > * ; , 4 , , w , ; 2 4 8 d , 6 5 8 4 5 , 5 d d 1 5 g 4 r t t 4 , 5 d s 8 g s f k k A k n V m V M A k n m z.3XpX&X}.{.mXP.j.N.6X[.rXlXPX7.v } J P C v m J k V S V V k V _ m v V v V P V Y N h b T P C B D h V P V N V m V N M J B V :.J m L o.V J ^ J ^ ( V ] J U J J ;.$.] [ >.L ' ' ' +.>. .^ ' >.=. .J :.=.] ' >.L } =.5.| +.X.] 8.+.;.8.} ;. .U  .@.' ] } ` ' ;.:.W ^ @.+.;.=. .] >.>.| ` ` } =.` ] o. .>.8.^ >.>.U ' :.X.U ]  .} [ [ ^ :. .o.[ ^ [ :.X.^ ^ [ ;. ./ ' ' ^ ]  .[ U V ' :.P ^ X./ / :.[ V } ` / L L U T / ` } U ' m V @.+.Z N L U U O.V V / P V h A v v Z v b i v m m ) s v b J P s i m V _ b V V n h N P v V _ L V Y L U U U h 2.IXgXpX4X].{.nX6X8XvX3X3XSX0XW F C ^ V s v h J V k s l k N k F r 8 d f 7 8 8 k f 8 5 d r 5 t 8 8 * 1 r 7 7 5 t , 5 9 6 , , 1 5 , 5 ; g t , 1 5 4 , 6 ; , * ; 1 4 , , , , 6 @ ; , , ; ; , 2 * , 1 , = , , , 6 @ @ 5 5 @ @ , e * ; , 5 * @ ; , @ * t , * $ @ ; 1 @   ",
"@ @ @ O @ : @ * $ @ # 3 @ $ @ * ; ; * 6 * > @ , , , , > ; $ ; * ; 5 , , > ; , 5 * ; 1 , * , 1 1 , ; * , @ ; 2 4 5 0 ; $ ; 8 t > @ ; 5 , 5 ; * 7 f , 9 1 6 5 t 1 * , = , 4 5 d 4 5 5 5 , s j h f s s s s A N i b V V m A h h A v _.FX&XhXwXU.^.*X&X-X7X*X3XlXLXc.v o.J V ( O./ K V P h N N V k V ~ V _ N N v U U N C P v b s s P h m L h k O.J m ~ K L s h J  .( U J J ] >.J / / J J  .>.I J ' | *.` $.$.*.;.;.W { *.=.;.` *.;.` | $.;.{ | | -.5.-.*.*.=.| 8.-.-.$.{ { ;.=.{ W { 2.;.$.W $.;.$.{ | $.-.$.| *.*.$.$.;.=.;.$.-.8.{ W $.*.*.;.| *.*.{ { ] | -.;.{ { ;.;.$.| | { | | | ` | | *.| ` ` | { | U { ^ ` U ^ `  .U | { *.^ | { $.+.^ o. .U [  .J ^ ' [ W U =.m P / J m J ^ ' ` m k V ^ K b N ) i s A V Y A k C h L N n h h A L m J L h b P V k P P k L V L [ m / h 7.PX8XgX&X7XP.*XpXZXhX=X[.CX4XU N P ^ b _ A N Y b k h k V A 8 r l 8 5 s s t 7 r 4 9 s 4 j , , s g 5 5 5 s d , = * 4 5 5 , * ; 1 * 1 , 9 4 * ; 4 9 5 5 t ; ; * * , * * , , 5 ; > @ 5 5 1 ; 0 ; * * 1 6 4 5 * @ @ 2 5 5 o ; ; ; ; ; , , ; @ 2 1 , * , ; ; ; ; ; , ;   ",
"@ @ $ @ @ o @ ; 1 ; @ ; o ; ; ; @ @ @ * 1 ; @ , ; , 1 ; > @ ; , , , , , > ; @ , 5 , @ , , @ * , ; 1 , e , ; > 6 * * ; 1 1 , , ; ; ; 7 5 5 5 5 1 4 4 4 1 5 8 = , 1 t t s t 4 5 , 8 d 5 8 B s s F i 7 B k B i h N D s k P v b J m R.bX8X8XhX[.Q.dX4X[.qX7XgXZXaX7.m V J V P L V L L L ^ C N L m m k h N V M m J h v P V k f h V ^ V i h N N V m m V v V m A m b P V U J V K V L W ' ^ V ' X.` @.] J ` =.$.] U ] ;.$.` ` ] | ;.{ | { ] { $.;.| { { { | =.7.` ` | *.{ =.U 8.*.` { ;.;.$.=.;.*.| | { | W ` { ;.;.{ | $.` -.;.` $.8.{ $.i.| | ` $.%.W =.$.;.$.` *.;.} J U =. .` | ] ^ ' ]  .` | { ^ :.] ^ U | ` >.=.| | | =.' ` ^ { ] ] ] ] ^ L ..U U ' >.| ^ V >.:.V J m V V J L V U J U J k N P m m _ b V n v v V h N b V N m m ) V s V m m m P V m V N A ..J Y K V P m ) V 1.GXxX=XmXvX$XE.3X}.8XzXaXAX+XV h C J V _ P N m A C N i h k 8 f k s 8 d f s s 6 , s s 7 4 , t , s 8 , 5 , t g , , 5 4 , , 5 , 1 , 6 , 5 , ; ; 7 , 8 , * ; 5 5 5 5 , 6 6 , @ , 5 6 ; @ 5 t , ; , , * , , w @ ; 1 > @ ; 1 , ; , ; ; ; o * 1 > ; ; 5 o @ ; ; * > * $   ",
"$ * @ * , * ; $ $ ; ; $ @ 1 @ ; @ * 1 * ; @ ; ; @ ; ; ; , > , , 6 , * , , ; @ , 6 5 ; ; @ , , , , 4 , 4 > ; e * ; , @ t , 5 6 6 , , 6 d 5 5 5 ; 1 t 8 5 , 8 8 , , g 8 s n y , 5 d r t f 8 r 8 r h n h h k C b h b s k A m / P v R.hX3X=XaXaXaX4XqX[.V.$XbXgXFXc.h m P P V L U U V L / s V L b C V v V h b _ V A P V v k A P V V Y k f V v A m / ' s A [ L P v V V J X.P k K ` J ^ | / N J U U  .J ` >.[ U o.^ ^ '  .}  .' [  .=.Y ' V =.v.] =.@.[ V :.{  .>.V [ >.U  .>.^ ' >.` L |  .=.| } @. .:.` :.P U ' >. .P +.' ` =.=. ./  .8.+.} >. .` ` ^ @. . .^ L  .' [ :.>.}  .^ U o.) ^ Y ' [ } / ^ ~ +.' U ' [ V ]  .=. .X.@.>.] ' ^ ( [ @.U ^ ` ` J U U @.V H ^ P Z >.' +.J L ] ] V J I n C V m V V h L K V K N s n v V ~ P v m V V V ^ P V V L P N h Z [ J m P V V X.U h $.FXhXaX4X[.&X=XdX6XQ.}.gXSX0X^ k P L V b A b k s h b B s k l f s s k 5 f l h 5 * d s s 5 t d f 8 5 5 5 * 6 , 6 5 , 5 5 5 w t , , 1 6 , * 1 $ 5 , , 5 > , 5 5 , 5 , * * e > 8 5 6 $ o 1 5 , 4 , 1 ; ; , , @ ; , ; ; ; , ; * @ 5 e > @ ; ; ; @ * 6 $ $ ; , > @ * >   ",
"@ @ o o @ @ o $ @ @ @ ; * ; @ ; @ ; > @ ; > * ; ; + * , ; : @ , 5 > @ , ; 2 1 ; , 5 5 , ; ; ; * , , > * * 5 5 * , 5 @ t , ; , , , 1 ; 1 5 5 t , ; , 6 5 t 5 , 5 , 8 d 8 5 4 y , 5 4 5 7 4 8 d 8 f z s h k k s k Z V B h K P C s R.vXgX=X7XaXE.P.%XeXQ.P.=X[.yXx.m L P L L L U L V v m Z m V L P m v / / V m k N h V V V P V b m / ) D k h N A m V A C V J m L ^ @.k X.P U  .[ J ^ ' ] ' >.>. .U ] >.] U L ] :.^ >.+.} :.] J o.+.` 6.>.` U ^  .8.>.` } J | 6.:.;.>.{ >.=.`  .8.>.=. .Z 8.=.U :.^ +.>. . .}  .] ] +.$.>.=.8. .`  .' U  . .>. .+.>.^ L  .=.6. .U ' ' [ @.` o.@.` / U  .o.@./ ' @.'  . .:.`  .U ]  .J ^ ^ ' [ Y ] :.O.L [ o.` ` [ { U  .} L U { ' L / U m X.J L L V J L L P k K P V b A P v V V A m V P V V N b h V V X.V L Z h v P K P V k L Y L V L U U J 7.mXgXgX*X7X6XhX3XiX^.5X8XgXyXL B _ L m s D V s n k V V B t f l h n h 5 t f f f f r r r t 4 , t 5 , s t 1 w * 6 1 , 4 , d , , 8 8 , > 6 5 4 1 * 5 1 , 8 5 , , ; , , 4 * 1 > 4 , 1 ; , , * * * > $ > ; 5 5 @ 1 * ; 5 5 ; , 5 > * , * ; 2 , > o , > ; ; ; * 3 @ ; ;   ",
"@ @ $ : . @ $ $ @ @ $ $ @ $ @ ; ; ; ; > @ @ 2 ; ; @ ; 8 > o @ ; , > @ > @ 5 8 , ; @ 4 8 5 0 ; > , ; > ; , 5 4 4 5 w ; 5 5 2 , t w * @ ; 5 1 5 5 , 1 1 8 w 5 , 6 4 8 4 5 > , 6 , t j w f G s d 8 r 4 f k B f s n P V M l m D k v J.zXxXpXQ.aX&X$X-X^.6X|.aXgXNXr.m 6.J U L K K V K A l / m m N m m V m L m v C k L Y T U P k k Y / v b R C h N C V v V R L U o.J ) m v ^ ` J Y m ' ^ ` ] U ] L ] ] ^ Q *.5.;.{ 8.| ] =.-.;.|  .` ` 7.c.-.=.| =.-.-.2.$.-.7.-.%.1.5.| | { 7.5.W $.5.;.T 8.%.| 8.` W *.2.$.U ` ` 8.{ ` -.{ =.| 7.$.| =.8.| W ;.` ` =.=.{ 1.;.{ | ] ^ ^ ] J | | | *.$.] L W &.{ | { $.;.;.{ ;.;.=.` ]  .=.Y U ^ -.$.} { ^ $.| U U  .] J ' ` J o. .J } K V L U m P L J J ..k N V V P b m V Z Z v V A m B h V v D h V V b v ' P k k N m b A _ m J P V V  .' U 8.GX8X6XdX4X}.8XlX}.^.mX].xXtXW s P Z N B n M V k N m v N r 7 s i h b f w , , s s i 5 , f , 2 4 8 0 4 8 4 , , , 4 6 5 r 5 ; 0 s 5 = * * , 8 4 , 1 , , 5 4 , ; > > ; , 1 , = ; ; ; = * ; ; $ @ $ $ ; 1 4 5 , , @ 2 5 * 2 ; 1 5 ; @ ; , ; 1 ; - , 5 * @ 3 @ $ @ ; ; . ",
", ; O ; @ o $ $ O ; * @ * ; ; ; ; @ @ ; , * * ; ; @ * , 2 @ ; , ; > 1 ; ; * e > * 2 ; + ; ; 8 , , > , , 1 ; ; , , w 8 ; 6 > ; ; 5 , ; 5 4 5 t w , 1 5 , r 8 8 v s 5 9 8 8 ; > l 8 8 j 5 d 7 8 j l 9 l s f B b n s 7 V K N f n v z.mX}.[.[.*X$X6X7X[.6X/.9XZXmX7.H / P N b L [ U J J V Z V ' P N L m B L m V P V A K h P ^ m V B k L J k C K m J X.A S n V J o.V N ' J V Z V [ J >.} ' ..! U U 6.' :.} ! m @.>.'  .} o.' L L >.o.` :.[ ' ` o.} ` >.| }  .' =. .] | =.J =.8.W } } } 8.8.=.^ ` :. .U W $.=.} 6. .6.$.$.Q } W $.=.:.U U =. .} [ >.W W o.} o.:.Q =.} o.` >.| } &.&. .@.+.}  .' o.W U ' }  .U  .v.P K :.>.o.]  .` ../ U ` J @.P U U ] U J / [ L ( L J ..=.m U / P v ^ +.v A ( L V V Y V m Y b h V A b n V b N k J ' U Z f B V L L Z b N V V E b ' J ^ / [ K h 2.JX8X8X3X8X3X}.].4X X-X4X+XwXJ h C k k _ A b b N h x 5 x F 8 S k i d 5 s B m r 4 f k 7 5 , 5 t w 7 s 5 1 * f t 5 s 1 ; > , d , * , 4 1 * 6 9 > > , , 4 u ; - , 4 , * * > , @ ; 5 , ; ; ; 4 5 ; 2 1 1 * * , ; ; 6 6 , ; 2 # * 1 * ; > @ @ ; > @ $ ; , , ; @ o @ , . ",
"o @ o ; * @ o @ @ > ; ; ; @ @ ; ; ; @ ; , @ ; * * @ ; * ; @ ; , , , , @ ; ; * ; * 5 , * > * 1 4 5 ; ; * ; ; ; , ; , , * 8 , 0 , 1 > , 8 6 , 5 , , , 5 5 5 t s s t 5 4 f 9 1 1 8 f f 6 7 d d 8 f 8 8 n k k k N f C l B A k N n m R.mX3X9X&X3X7X&X-X=X9X[.hXjXLXx.J J L L N K J / / P A m / V h L m ) h P V m m V V N N v m V A C v K ) h b P V J U V V v ' ^ V V P ( V L L / [ ` | { U ^ ` +.| ;.| {  .*.| $.{ ;.-.{ ` ;.+.{ ` -.$.| $.;.W *.` -.8.` | | | 5.*.;.| *.| *.| 5.c.*.*.-.;.;.c.*.` | $.*.=.;.$.| | | -.7.| c.*.;.-.W ` ;.$.;.| ;.;.*.;.] { ;.| I 5.=.| { | | | | W { | =.=.| U *.8.;.| W =.` ;.| | =.{ ] ] +.5.| J | | >.` L ^ ] =.| ' =.| | =.[ [ U  .:.] J J Y L J ^ V V V J / m k V K V k k m m V J L V Z A K P V C s A m m L N b b P V ~ m V L L L Z L K r.LXgX8XvX7X9X&X-X%XN.=X8X8X@XI j P L h A k 8 A L v N s s n 8 n k B s 4 5 B i 5 r i r s d r 5 4 5 8 8 4 4 5 5 4 5 8 w , , 5 r , 5 t 5 6 , , , , , 5 5 , ; 1 , , 6 9 5 * , ; ; , , @ ; ; * 0 4 , , * ; , 5 , 1 , * 5 ; @ > ; , ; , , + ; , @ ; @ * ; , 9 1 ; @ * 5   ",
"@ $ o o * ; ; $ @ @ @ @ @ @ ; ; ; @ * @ > $ > , ; > o 1 , ; 1 1 , , , 1 ; ; * 6 5 ; 5 , t ; ; 6 5 ; 6 1 > , ; > , 1 , 8 4 5 , 4 1 , * , * > , 1 4 6 1 , * 7 5 1 * , d f 4 4 i 8 r 6 , 8 s g 5 8 s B k b h s N f s A V f C B b m oXbX=X9XaX9X[.P.[.=XgX0XzXjXvX5.m J ` / V L ^ T P N V V N J U ) m ) K m E h V [ ^ s C v A C Z v P v B m L V / V m ` J m ' X.v _ V L ^ ` ( Y W { 7.^ L ^ | +.^ ] ] { { *.-.| -.c.$.2.7.^ ^ -.$.*.` 2.-.| ` | ;.;.U *.$.| =.| | =.| *.-.-.| ` ;.;.{ | -.{ | -.-.| $.-.^ | *.| =.^ | | $.| { -.*.;.*.| U +.` { { | ^ 2.| ` *.] | ` ^ | =.=.` | W ` ` ` ] +.| ] ] | *.^ U *.7.| ` | ] | ;.;.| =.+.=.] +.8.` ^ ` ] ` | ;.{ ;.| V / P L U L `  .m ( ' V U I ] m L m N K L ) B S m L U V b C _ V V h s A m M P m m A A V P L Z Z [ L Z J [ ! v r.GX3X8XeX&X=X6X^.^.*X[.8XJXyXU k ) J h N C Z C m A m k h s s k s 8 d h i g 5 r 8 5 5 , 5 8 5 7 8 5 5 8 d s * r 5 , , 6 t 5 8 t 4 1 , , , 6 ; , 5 , , 5 , , , , , 5 6 4 * @ 6 7 5 ; ; , , ; @ , 4 , @ ; , ; > , ; ; * , , 1 5 1 > ; * ; , ; 2 * , ; , , * , $ ; ;   ",
"* @ @ o ; @ @ ; @ @ 3 $ @ , ; o $ > @ ; ; @ ; 1 * , @ , * , 1 * > , , * ; ; , 4 8 , 5 , 1 @ 1 5 * 1 6 ; * , 5 , 1 , * 9 5 6 t , = w , 5 5 , 6 5 * 6 4 1 0 g 5 5 w 5 r , 6 s j 8 5 , 8 j 4 8 r l g k p b f k s C Z v v n s n b v J.mX$X[.dXQ.l.{.[.&XzXU.3XlXmX-.v ( ` V ( U K V N V m m v ( / m m h J m b k b L L v N V N h v A k b V V P m V m L ^ L Z / m O.C h U >.' L ^ U  .=.` v.} :.:. .:.:.6.=.6.;.` c.6.:.=.=.@. .=.8.:.>.=.6.6.=.>.6.6.&.=.o.=.6.&.8.6.;.;.c.;.=.6.&.} ;.8.| 6.} v.;.| 8.8.=. .:.8.6.:.>.=.&. .:.' &.8.} ] } v.;.| 6.5.U &.=.:.=.;.:.}  .>.;. .:. .v.v.:...! 6.=.:.=.o. .:. . .;.&. .>.} &.6.^ } U +.>.' ' } >. .Z ..[ `  .U :.^  .^ X.^ U ' ^ ^ ^ / L ( L / / V b A ( V m m h h V L U ) B s v m K P s k :.m m v V P V m L V Z P L U / K U ) m 4.PXjX&XP.Q.$X4X[.8XmX[.8XSX0XL A C b V C k k v V P k h D f s B h s s B i 4 6 9 d 5 8 , w d 5 8 9 5 5 w 4 4 5 7 8 , , , , , 8 4 5 1 ; , , 4 5 5 5 1 , , , ; , 5 , , , 5 9 ; 1 , 5 , = , 1 ; @ 6 8 1 > ; ; , ; $ ; @ > 1 , , * * @ > ; , , * o 6 ; , ; ; ; > $ ; @   ",
"$ ; * $ $ @ @ @ > ; ; $ @ ; @ @ @ $ @ 1 ; * ; $ ; 1 5 > @ , , ; 5 * > * ; 1 1 1 * , * ; , , , 6 , * ; > , 4 6 , 4 , , , , @ ; * t 5 * > 5 , w 6 9 5 4 8 y > , 4 d 8 , , 8 f 8 4 s r s 8 5 s l f 7 h h l l g 8 m V b i V c B A v R.NX[.^.[.C.{.*X=X&X=X].7XxXPXu.m P ^ U / / V m L [ ] P V m m b k J L m _ A V N k m Y C v V L A V / L P V V K m ~ V K ) m W ] V P @.U J / ] :.P v Y } Y &.J J J K T } U } U U T T P Y 6.U W } U } J } v.W U J Q }  .} &.} I } =.} U ` Q { Q &.6.} }  . .I O.{ } } W ..:...J U W Q { } >...T } ' T ..v.;.' |  .Q W T Q Y ..Q &.} T } W :.:.m ..{ =.Q ' | I J Q Q T } o.T U  .I I ..' Y T Q ` } Q Q Q Y  . .J T T Y I ! J '  .( U L U  .^ ' m U Y J V V m L v b ^ ' m ) V k V L v V k n ^ J V P k V ' V m P / Y p L m V ' ' ' L V L ] V p 2.JXjX&XE.*XC.*XzXgX8X9X8XlXnX-.k V V B v b h V m k N i l k h s s r l s i s 9 9 8 5 8 d 6 t , w t 5 5 6 5 , = 7 t 1 9 y 5 4 5 , , 6 5 , , 5 * * 1 , * 1 , , 4 1 1 @ * 5 , 0 ; , @ , = * 1 > , * ; * ; > , , , $ ; , 1 ; , * > * @ ; , ; ; @ ; ; ; ; 1 ; o : ; ; ; . ",
"; $ @ ; @ @ ; @ ; @ @ @ $ @ ; ; $ $ 3 @ ; * 6 ; @ , * ; 1 * > 1 , * * , 5 * @ 1 , 5 5 , ; , 5 , 6 1 * w 4 1 * , r 6 , > , , 5 , 6 0 1 * * w , 4 5 , j 4 5 , , 5 8 4 8 5 4 7 j 8 s t k 8 d 7 s i j k s 8 l s i h B n 9 V ) h Y m OX$X6XfX[.N.{.7X}.7X|.Q.3XrXmX7.J Z m J J V ../ L J J P m ' / k k ) V K L h V A N P I k P L L N k ' L N v P / m b V L b V [ ^ L V ` `  .+.` +.m V *.7.-.{ 2.2.-.u.2.7.7.7.7.7.r.u.-.2.2.-.7.$.-.7.7.*.-.2.7.7.| | 7.y.-.-.2.$.-.2.*.-.7.-.*.2.2.-.-.-.2.-.| $.-.7.*.$.-.| { | 2.7.| $.-.| *.2.-.| *.7.*.-.7.$.-.2.2.%.2.*.*.2.2.-.7.-.7.*.*.-.2.7.$.-.-.2.2.*.| *.-.| | *.2.-.*.$.$.] | -.;.-.^ | *.{ *.*.U | { | -.*.-.{ ` L Y [ :. .U J L ^ @.L L V K J K J K J L J / ) k V C b k C ` L V Z V m m V V L V L U v.( P J U U J / J ^ P i 5.GXxXcXqX7X/.J.}.aX}.hX8X&XvX+.s S V k k f E m N k l 9 l C B B s s s s f f d 5 5 9 f d , 4 t s 4 5 t , 5 5 9 5 4 , , , , 5 5 5 ; * ; t , , s ; * 6 , , 1 , 5 * 1 2 ; 5 4 , @ 2 , 8 6 @ > ; * * > 6 ; * ; , , $ ; ; 1 > ; ; , * ; @ ; ; @ ; ; $ ; 5 1 @ @ $ @ @ *   ",
", @ @ @ @ $ @ @ ; @ ; o $ @ ; > @ @ , , @ ; , > @ ; @ , , * 2 ; ; > 1 * , , , ; , , 8 , 5 ; t ; , > @ 1 , , ; 1 5 , 1 1 r 7 8 , , t 5 , 1 , * , f 6 * 8 = 5 e 6 8 d 5 6 5 r 8 s g 4 s 7 g 7 8 d 8 8 k k i k D j 7 f F P n m C v i.iX=X[.^.>XN.iX$X=XeX!.6X&XbX7.T L J ^ ( V V L V m P L v P U V V k k P V m o.k s A T s V J L L m V K V P J [ L V J J v L k L Y ^ U ^ ;.=./ b u.@XGXJXPXGXtXGXJXJXDXJXGXJXJXJXGXPXkXkXFXGXPXGXPXPXJXJXKXJXJXPXPXtXGXJXJXJXJXKXJXJXPXKXJXJXJXJXyXJXJXvXKXGXGXKXKXGXyXKXJXJXJXKXJXJXKXGXPXPXJXJXJXKXDXJXyXJXPXGXPXJXJXJXPXJXJXJXJXPXJXJXJXGXPXJXPXJXKXPXJXPXKXJXGXJXJXKXPXJXGXPXPXJXJXPXGXGXGXGXLXPXJXKXGXPXGXPXGXLXLXGXPXoX| m ] ] U U U ` L L [ J ' V S K U X.L k L h V N h C P v L m J v k L P v m :.Y v m v U V N K U U P m J ] V K m 7.LX6X3X4XQ.;X3X*X{.[.3XpXgX@XJ i C N V B k P b b k 7 B h h s s s 8 k l d 9 g r 6 5 5 7 7 d 9 s s 5 , 9 7 r d 5 t 5 5 7 , 5 4 5 5 5 0 1 5 ; , 5 7 , , , 1 5 5 4 1 ; 1 5 5 * @ > > * 5 * , 1 , > ; 5 5 * > 6 , , 5 * , ; ; ; 1 , 1 ; * * > > ; , 4 , , ; ; > ; $ ;   ",
"@ @ @ @ @ $ @ $ * ; , @ $ @ $ ; @ @ * ; > > * @ ; ; @ 1 * ; , ; @ ; ; ; , 4 5 5 , 5 9 * , ; 1 ; , ; ; ; , , , * , , , 1 ; j 4 , ; , , 5 5 5 1 4 t , O i d 5 , , 8 d , 8 7 8 s 4 8 r r 8 8 4 5 l f f 5 A k i r l r b C b m L K h R.zX3XpXfX{.Q.7XQ.P.Y.L.3XgXIXr.m X.[ ( V V U V N L ^ S V V U J L k A V m  .@.b k N A Z P m V P V L V Y ' ^ ^ P L V  .[ / h P ^ ` U L  .[ ) J |.JXjXKXSXHXHXDXDXHXHXHXHXHXDXDXHXDXCXHXHXCXDXHXDXCXKXHXHXHXCXCXDXDXHXKXHXUXDXHXHXHXUXUXHXHXHXDXHXUXHXDXHXUXHXHXHXHXHXHXDXHXHXHXDXKXHXDXHXHXHXHXHXHXHXHXHXDXJXCXCXUXHXHXHXUXHXHXUXHXHXHXHXHXDXHXHXHXHXHXHXDXHXUXDXDXHXDXHXHXDXDXHXHXCXDXHXHXHXHXHXDXHXHXDXCXDXHXCXDXDXHXDXFXoXI o. .J V >. .U V Y U } [ h P ] U m ~ m P V m L J v Z Y V V ..P m b P V ' J b P Y T ^ V V L ) Y ^ @.] V K Y 7.GXZX8X*XvX8XzX^.C.iX=X6XlXLXI 7 D Z k b m v B l f C k i F f s l s l 8 5 8 d r 8 5 , d r 5 5 d 4 G 8 8 t 5 7 1 6 r 8 w 5 , , 5 8 5 6 , ; 1 $ 8 j 9 , 5 , 1 , 6 5 @ 1 6 * , 0 , ; , 5 1 , 0 6 ; , , 5 ; ; ; , 5 5 * > ; ; ; , , ; ; ; ; ; ; * * 5 * ; > ; ; ; , ;   ",
"@ $ @ @ % @ @ @ @ ; @ @ ; ; @ @ ; ; @ , , * @ ; , @ 3 $ ; 5 5 , ; o ; , , 5 = 6 5 , ; 6 1 ; 6 ; ; 1 6 1 , , 4 6 , ; * 5 5 , , > , 8 w ; * 6 5 5 6 1 ; r 9 , , 5 , , , g 5 4 r r s 8 s w 5 5 f l i 8 r h k k i k Z h V k S S N k R.9X3X[.wXD.Q.C.d. X%X X9XpXdX=.h A U J V ' ' T J U ' V Z V / L m L P P V h V m N V J S A N h v m Z ) b V V O.m V ' J J U X.U J ' +.U ^ Q J r.JXCXCXSX3XrXZXKXCXSXCXCXjXDXCXjXrXjXDXjXCXZXrXrXkXtX5XKXDXZXrXjX+XjXDXAXCXDXCXDXHXjXHXHXHXHXDXjXCXHXKXCXDXKXHXtXDXCXCXCXDXDXCXDXDXtXDXHXCXDXDXrXHXCXDXCXCXSXCXCXHXHX5XKXDXCXKXSXCXDXHXCXDXDXDX5XKXHXCXjXrX5XCXxXtXDXCXrXCXDXjXjXCXCXKXCXHXHXDXCXDXHXKXCX5XrXrXZXrXCXDXKXpXAXJXoX^ / ' ] ' >.:.V ( ' V U V L Y J N ( ( L ~ N J J v V B f V Y ' b f N / J L ^ V V V o./ C A m U ' U J W K h | tXZX8X{.9XpX=X}.[.4X7X8XgXFX*.i A V V B h P k k s V n 8 s l s s l f f l 8 h w 5 7 9 e , 6 5 5 * j r , , , 5 1 , 9 , , , 7 5 ; 2 4 8 5 ; , * , , , 0 1 , , 5 , , 5 , , 6 4 9 ; 6 , 6 1 , , ; > > , , ; * > > 1 6 @ @ ; ; ; ; , ; , * , , * ; , $ @ ; 9 5 @ , ; ; . ",
"@ ; @ @ o @ @ ; @ > $ @ > @ @ ; @ @ $ , > @ ; ; y , 1 @ @ , 5 2 * @ ; * ; , 5 ; * 5 , ; , ; 1 , 1 ; ; @ 1 w , ; * 1 ; 5 6 , > ; 5 5 5 , , 5 5 6 1 5 , 8 4 8 8 t 5 t t , 8 g 8 f r 8 s 4 7 s r f j j s h s S n P V b N k k k k b 7.aX3X[.7X-X%X/.*X[.[. X&X6XwX7.N N R P V L ^ L Y A N ^ L h P N h V m / m v K V m Z @.n s P P U P m P ( V m V L L J >.J } V U U ` | U E m i.PXHXrX5X8X=X8X5XSXjXrXjXKXZXtXkXtXFXjX5XCXZXAX5XrXGX+X3XjXgXgXyXkXJXrXAXkXjXKXDXDXSXKXtXSXjXjXkXrXCXrXSXSXKXSXJXKXHXKXCXSXtXCXSXSXxXAXSXkXrXZXSXKXjX5XrXCXjXrXAXSXAXjXtXjXHXCX3XAXSXCXCXDXCXCXCXCXDX5XrX8XgXAXkXtXgXkXkXrXAXSXKXGXSXgXCXDXgXZXCXCXKXJXHXJXFXcXCXKXKXKXDXSXjXZXUXJX7.V } ^ U W ` m ^ ` L L P ' L ' ..V ` v V V / Y U m s f L m L V k b L L m L U m V m m b Y V L L U ^ X.k J MXJXgX6X&XaXlXdX^.&XwX}.=X8XhX-.h N J R b h b S h h C k l f s r j r i l s , 5 5 9 8 7 , t t 1 6 6 8 t 1 1 5 5 , @ 5 4 , 1 w 5 , * 5 8 , , , 6 , , , , 1 * 8 2 > * 6 , , 1 , 5 * , ; , , ; 1 , ; * , 5 ; @ ; , , , > * 1 1 ; > * 1 , , , ; ; @ , ; ; @ * 2 > ; $ ;   ",
"* ; @ ; ; @ @ ; * * $ o ; ; , @ @ ; > @ @ ; @ @ ; 5 8 > ; O @ 5 , , ; ; * , , * , , * @ ; 1 * 1 , > 5 * e 5 , , , , , , , 2 ; , 5 5 , 1 w 8 5 , * , 6 1 5 t 7 8 s 8 5 8 7 5 r d 8 f 7 f k h B r 5 8 k f k h s A S b k b m V V h 7.0X}.&X^.^.7XpX6X$X^.{.&XvXcXkXN.J k P ^ ] T A L V L V V Y J L A h L V V P J L L C b ) K h P Y V Y J J m Y m Y [ ^ ^ J V ' ` @.U =.` U $.yXHXDXrXtX3XrXGX].mXZXgXgXjXjXkXtXjXAX}.9XJX&X5XbX8X3X].jXrXrXkXAX3XrXJX5XjXnXtXrXcXgX3X+XtXhX].tXkXCXCX+XgXrX5XrXJXHXDXCXCXrXjXrXrXKXSX5XgXrXjXCXjX5XrXCXrXjXJXrX5X5XJXSXjXHXDXkX+XAXCXjXCXjXAXjXCXJXrXKXSXAXAX3X9X3X8XrXAX3XrXtXrXrXkXkXCXrXrXrXKXjX+XjXAXrXJXtXJXSXCXtX8XjXtXCXDXyX| { J  .| =.^ L [  ./ m L V V / / m V P V A k / J V P P L m ` Y / m V T ( ( V / L m U / ^ L J o.Z C s 4.GX8X[.3X6XaX3X&XQ.aXQ.Q.[.pX0XU 8 k N N j R v s P b k f k B l d i s i 7 k f r 4 5 g 8 8 g 4 5 g s 5 5 , 5 t , 6 5 5 w , 6 6 5 8 5 ; , , 5 ; 5 1 , 6 , , 1 6 , w , , , ; , * * 1 * * , 5 * > ; > * 4 8 @ > , , ; = 4 5 , @ @ ; ; @ 1 6 @ * 6 , , ; @ ; > @ ; ; @ *   ",
"; @ @ @ 3 @ @ @ ; ; $ @ ; @ ; * ; ; ; @ o - ; , ; 1 , , , ; ; , 5 , ; ; ; , , ; 5 ; 6 ; ; 1 , , , , w * @ @ ; 6 , 1 = 1 5 ; 0 5 4 1 6 5 4 4 6 5 , w = 1 , 4 8 5 s 4 6 t 5 r r 8 1 8 8 s k s f 8 8 l n 8 x s k k k f k R V b E i *.NXgX=X7X^.[.6X&X7X$XaX*XE.8XZXcXz.U h L / U L b L [ V V ] U L m K L L / L L J P v k k L P m m ^ V ( / ( L ' U m V J / J  .' ^ J } W -.yXSXZXAX8XAXcXtX+XGX+X0XhX}.rXkXjXgXpXhXhX=X}.Q.5XjXkX}.tXJX3XAXSXxXbX[.8X8X8XgX=XrX9X6XpX9X3XkX8X3XjXZXAX9X3XAXjXxXrXCXJXDXDXZXgX5XFXSXjXjXCXxXFXrX}.AXJXSXZXDXCXjXAXrXCX5XCXjXrXAXhX5XSX8XtXrXCXAX3XSXJXkXkXCX].8XaXU.3XFX}.}.vX}.jXkXtX5XSXkX5X+X8XGXCXjXjX5XCXCXCXDXAXjXrXFXFXtXCXJX+X*.O.]  .U  .T } ` L L J P K J J Y ( m ~ b h K [ ` m f N Z ' V m Z J m V v V V L / W / [ X.U V M m | eX8X6X7X6X$X7XpXQ.^.&Xj.qX=XuXoXm s l P k f V V 5 8 V k k s 8 h s d s n 4 x k s r j 6 , s 4 , 5 5 8 t s 1 = 8 5 8 8 5 8 , 1 ; 7 r d , 5 , 0 * , 9 8 8 5 , 1 , , 5 5 ; 6 , w , ; 1 1 , , ; ; * * u * * 5 * ; * 5 ; * , 5 5 2 ; ; ; * , , @ @ ; 6 @ > @ $ ; ; ; ; ; ;   ",
"@ @ , + $ ; @ @ @ ; @ 1 ; ; ; @ ; , ; ; > ; * , 1 @ * , , ; * > ; * ; ; ; ; 5 , ; 5 d ; ; 6 4 5 , 7 5 , > , , , 6 4 7 ; 4 ; , , 5 , 1 , 1 , 5 6 6 6 5 r 4 4 4 6 4 4 5 6 r s r 9 5 r k s 5 f s 7 x h s f k i i C A s f C k m N s m eXpX3X4X&XN.d.dX=XE.!.].^.=XpX=XzXeXW v D Z / :.V A U T J m ^ T P V Y L m K V L V / ' L v Z K L m L m P m / / m / J Y ' ` 6.U [ @.H U.SXZXSXkX3X+XzX8X].gX3X].nXaX7X3XkXaX8X[.8X9X4X9X].+XhX8X8X0XrXrX8XrX[.^.&XwX>X6XQ.6X^.^.aX}.$X3XnX=X[.].cXhX3XcX].cX3X].pXAX5XSXFX3XhXkX+XFXbX3XrXrX8XyX8XkXCXjX].kXkXFX+X8XjXDXhX3XhXhX3X+X8XAXhX3X3X3X3XU.P.hXU.zXhX6XQ.gX}.cXkX].aX6X3X3XjXbXgXAXAXjXAXhXtXCX5XhX8X3XgXAXrXjX5XAXDXSXGXu.T ^ ` V L U U U V  .L P ^ U J U ` h / V T P V L m l m P m V V ' ^ m P V m  .U ( J P ^ ( / v H z.LXkX=XaX[.^.{.Q.dX|.[.uXE.4XaXbX!.m F B V m f b b k s B n 8 F k s s 7 n B 8 8 i 7 S B , d 8 r 4 w 4 , 5 8 z = 5 6 5 , 5 5 5 5 8 8 5 s s d , , , , , 5 , , * 2 , 8 ; , 4 4 5 5 @ @ , 4 , 2 @ 2 , 0 ; ; > * 1 5 ; 0 6 1 ; , 1 1 $ > 1 ; > ; ; 6 , 5 ; ; 1 , ; ; ; , 5 ;   ",
"$ > @ $ @ @ @ @ $ ; $ ; @ @ $ ; * 3 ; ; ; 1 * * ; ; ; , 5 5 * @ ; ; , ; ; , , , * ; , * ; , ; ; , d * , 6 , 1 , , 5 f : , 5 1 ; , 5 5 8 5 , 5 5 7 , 6 l 7 , 5 8 d l , 5 7 s 8 l k s i l d 5 s s k l r 8 s B c s h C f k k b C B h { wX8X&X4XI.a.Q.6XaXN.4XwXW.N. XpXGXoXU V N U :.m N ` ' P P J ' v ' L V L / P V m L { I b C ..L V X.V L ^ V v ) ^ U J ]  .| U ^ L i.GXZX5X9XjXjX3X7XzX7XU.nX[.N.].^.7X[.[.aX[.|.].aX9X8X8X].6X;XP.7X].U.U.{.P.{.{.N.wX[.Z.].*X[.Q.[.P.[.$X^.*X=XU.4XbXl.l.nXaX7X=X&X}.8X8X}.+XkX8X[.6X].vX8XQ.}.[.kXrX8XgX8X[.;XkXkX3X3X3X}.[.P.mX[.6X}.U.qXP.}.&Xb.^.[.6XQ.hX=X[.aX].&X7X[.l.&XFX8X}.8XkX3X9X5X6X}.hX4X9X&X6XcXtX&X}.+XxXgX5XFX+X%.{ [ S L ' :.L ' ^ L L J  .` J U L L V U / k k K A V L L B V J } V P ) m ` U J / / U ^ V m z.GXZXpX[.=XiXV.P.^.[.7X=X7X&X+X&XFX%.7 F S V A C n k N b k h k k C l f l s k S s j 7 r k 9 5 5 8 4 6 1 t 5 8 5 d w t 5 8 d 4 w = r , 5 t i 8 5 ; 8 , @ , 8 5 , 5 5 s ; * 5 9 4 , ; 6 1 6 , * 1 , , 4 * @ > @ * , , 0 * , @ @ , , ; ; , , , , , 1 * , * > 2 * @ * , ; * ,   ",
"@ ; o @ ; @ @ $ @ ; @ , > @ @ ; > * ; ; @ ; ; , 1 ; @ ; 1 , ; ; ; > ; 6 * ; , ; , , ; ; , * 5 , * * ; , 5 , 6 , , ; , @ , 5 , ; * , 5 , t , , 8 8 t 2 8 , 6 y * 4 d 8 8 , 6 7 s 8 5 h f 8 6 s N l 5 j B k k i h k n i V P B P k P p J.nX6XpXvXmX^.vX7X].aXN.q.W.{.[.zXcX X-.v V J Y L K L V V J m ( V U X.C b X.^ m P H U V V ' J P J [ o.Y L V m }  .P U J ] 6.I 2.LXJXjX5XgXgX8X[.}.lX4XP.eXvXN.P.iX^.$X{.N.Q.eXl.%X+X8XlX6XN./.Q.E.[.*XQ.C.qX}.N.k.}.nXN.Q.{.L.9X7XN.P.&XvX[.P.vX|.L.dX*XhX6X3XQ.nX[.Q.mXU.3X$XE.{.pX6X=X].].nXvX8XbXrX3X[.P.mXhXmX[.U.Q.^.%X/.[.{.P.Q.E.|.E.qX*X,XW.fXQ.P.&X7XwX*Xj.^.&X^.[.L.=X^.C.8X}.N.Q.].3XU.}.vX7X*X4XaXkX8XjXAXrX&XtXAXAX X` T / ` ] [ J ' J U V U Y m W L L ' U ^ m N [ / V v J Y b V V ..m V k L L J U J Y Y K J u.kXvX=XhXU.&X7X/.:X~./.[.*X8X}.rXGX XJ i ~ C s b n s k b B k s k S 8 8 f k i 8 x j f i 5 4 B 8 5 6 6 8 6 , 8 d ; 5 , 6 , , 5 , 6 9 5 5 8 8 = ; 6 5 5 1 5 w 8 * 6 6 4 , > > 1 , , t 1 8 ; * 1 , ; , , 1 6 ; , 6 5 , > * o 1 > ; ; * ; , ; , @ * 1 @ 2 = , , $ ; ; ; ; ; @ @   ",
"@ ; @ $ ; @ $ ; @ 1 @ ; @ $ ; ; ; @ * - % o @ 1 , , @ , ; * 5 5 , 4 ; , , 1 ; ; > ; ; $ , , 1 @ e ; , 8 5 , @ ; , , ; : ; t 5 , * 5 , , 4 5 , 1 5 8 @ t 8 4 r t 5 7 s 7 g 8 8 5 8 g k r 5 8 8 s f 8 h s r s s V A k b L k k C b S d I fXZXpXpXpX&XzXP.pXaX!.A.E.[.[.Q.xXFX|.} w S Y ;.L A U J K A ' V T K K b m U m _ ] / ^ ( V / P J { ` m A / } U W l [ | ' R { *XUXDXCXFXjXjXgX3X3XZXFX0XN.&X3XN.vX3XE.:XP.U.&Xj.^.6X5X8X6Xl.N.*X{.d.^.[.P.}.}.{.W.l.l.7XqX%XC.[.6X[.*X].3X[.$X|.[.E.aX=X3X}.hX].6X8XpX3X4XvX&XQ.^.3XgX{.*X6X].8X&X3XrX8XhX}.3X3X4X$X=X].%XP.C.C.C.U.>X{.Q.P.[.&X=XU.*Xm.E.E.].[.P.|.N.C.wX6XE.C.^.^.^.{.j.%X=X=XvXP.E.6X=X].].hX[.kXjXgXbX6X8XZXJXi.m o.{ ^ Y ' P @.J m @.P V ' V m ` J K m P ` J ^ L L  .V O.Z k T ^ Y V L m Y / N b v x.nXcXhXqX9X4XE.P.*X$X[.7XP.;X6XsXlXFXr.k N S n f m C C k s N b b V m s S l 4 s l 0 , B s 2 , C 8 5 * 6 8 5 8 4 1 ; 1 , 1 5 1 ; 6 , r , , 8 r > # @ 5 , , 5 s 4 5 , , , e 5 , * 2 , 4 , ; $ @ 6 5 ; ; , ; @ > 6 4 1 , , ; ; ; , , 1 > 1 6 ; > > @ ; * ; = ; ; ; $ 1 1 $ ; @ ,   ",
"; @ @ o @ @ * @ % $ $ * > O O $ @ * @ * ; ; ; @ > , @ > ; , @ , ; ; $ 3 * 4 t > @ ; * @ ; 1 > , 3 , , , 5 4 , @ ; 8 4 h 8 , 4 t , , w 8 1 y , 6 t 5 8 , , 8 8 1 5 5 r t 5 8 s r 8 3 6 d k k d 8 t s l 8 s C k s k A C ~ K L m k k V m %.BXzX3X3XqXD.^.7X[.Q.U.{.-X$X6X6XlXAX&XU d B  .^ A o.[ U V A J V Y J ' W U J T N n B V J o.v V ^  .V K ) V / U U  .[ } W Y.FXZX9X6X7X&XFXwX=X6X-X~.$X|.d.C.!.dXdXN.a.,X>Xa.^.*XmX^.qX{.W.&X}.3XvX%Xp.B.-X!.P.^.Q.3X*XN.hX[.[.Q.Q.,Xm.*XQ.[.P.l.D.C.U.mXl.|.].E.3XhXU.=XdX}.8X[.}.8X].$XhX3XC.iX8X&X-X*XP.[.9X}.[.E.eX/.[.}.*Xm.[.8X&XbX%X{.$X&XM.f.Q.*X^.[.aX[.`.Z.Z.^.N.I.W.^.;XC.C.!.Q.%X/.*X|.N.P.C.*X[.~.pX-X&X5XAX5XrXgXFXyX2.v ..^ +.` U | } L ( ` U T { N A V Z L T L n ' L v ' Y m v A Y Y P V T ..] ..F p N.lXxXhX|.=XlX;XZ.!.N.[.^.&X=X7X$XdXbXJ.s q G L h j f k B N l i k h f f 8 8 s s h h f , t 8 i s 5 5 g 7 i 6 6 6 8 h 4 6 d d 1 = j 5 , > 1 , , t 6 ; 5 , 5 5 i j , , 5 4 , , d 7 5 5 5 , , 2 s , @ $ ; * ; , 1 , * ; , , , , 1 2 , , ; , 0 5 > @ , w ; @ , 5 , ; $ . o 3 , , * @   ",
"; ; ; ; @ $ @ @ $ $ ; , ; @ @ $ @ ; > @ ; > ; * > 1 $ @ ; > ; 1 @ @ > ; * 6 5 ; ; 6 , 6 6 = 1 , @ 1 @ , w 6 5 ; 1 t 6 r 6 5 , 5 , , 4 8 5 1 6 8 5 6 5 , 6 5 5 8 , 5 d 4 5 8 8 r 7 7 6 s s 7 t 5 7 s k k s f 8 R h s B k k b A E C E k v -.LXGXuX^.;X|.}.&X^.7XdXP.P.qXQ.=XpXhX@XW b S U L L J P A J / J [ J U ' ^ ( J h / U v L Y P U J ] U m J L L X. .` Y U 7.wXHX5XjX}.aX6X3X}.=X^.l.~.$X[.N.W.j.-X[.C.Q.N.!.U.fXI.C.N.7X=X^.%XaX9XdXN.P.*XE.L.U.P.P.}.{.P.aX*XL.Q.7XQ.V.BX4XE.^.fX|.N.wX9XQ.=X6XhX7XP.$X7X[.Q.[.[.3XvX*X&X3X[.N.*XnXP.Q.$X;XaX&XaXQ.C.4XU.U.*X:XI.[.P.$X;XQ.m.*X9Xa.^.&XdXQ.[.7XN.E.E.E.[.^.C.!.eXQ.^.Q.*XN.Q.j.h.qXdX*XE.^.*X~.vX}.6XpXkXkXkX3XrXPXJ.{ o.{ *.] / J :.` V +.X.J @.T V L L P K ) V L C ] V U ' / L V P / m ' / / m h i.LXGXzX|.P.7X9XP.$X:XP.4X7XpX X6X=XpXNX;.h 8 h K A f B n i h C k f s i D B s r h n N s d 4 g n 5 8 d d s 8 5 , 4 d 8 5 5 4 , t 5 t 5 5 , , * , ; 5 8 1 1 1 0 8 9 5 1 4 5 , ; , , 5 , 5 t , @ r 4 ; * ; ; ; ; 8 5 * 1 > , e , , , ; 1 , 1 ; 3 ; @ 1 5 * ; 1 * * 1 > ; @ @ > 2 @ ;   ",
"; ; ; @ ; ; * ; > o $ = @ > @ ; > ; , , @ ; 1 ; ; ; 5 3 * , > ; > ; 6 1 4 1 ; ; 5 5 * * 5 6 ; , , 6 * , , 5 5 , 5 ; @ $ ; , , 2 , 1 4 8 w * t , d , 8 1 5 5 f d 6 , , f k ; 1 5 7 k n i l d r k k f 8 k h 8 i b N 7 N s f b k C k A k s s k.AX&X&X4XE.uX8X[.Q.aX[.&XQ.N.[.{.Q.JX9X{ f Y V ' h ) P V O.U J ^ :.L h Y ) ^ [  .T K m O.J U ^ >.J @. .V J *.@.V | yXHXrXjXkX8XpXdXQ.}.P.P._.E.N.*XE.P.%XP.{.P.).).a.-XZ.Y.^.[.^.^.%XE.9XwXE.^.4XE.N.Y.>XC.Q.E.qXqXj.W.{.*XQ.Q.N.Q.{.C.^.wXE.N.{.C.&X3X6XhX[.*X^.[.qXQ.P.7X$X[.hX6X7XP.wX[.}.{.wX=X[.7X7X4XB.C.^.[.E.k.I.d.,X=X4X[.C.C.N.&XP.dXmX{.^.{.j.C.E.7X3Xj.&XfX!._.^.&XN.j.*XqXN.C.Q.[.7X=XE.4XP.C.3X6X&X8XkXrXCXjXZXmXR.T I =.U / / U } ] ^ J Y / / +.J [ V C Y ..L V ( V K / V L N L J } U L C Z j.yX6X=X&XN.].[.U.[.$X].7X=X$XaX].6XxXFX;.B V _ V V ~ k h P h h A n f k m B s r S h s s 4 j s 8 l f 9 5 4 r 6 , 8 f 5 , 8 8 5 , d 7 9 6 , t 5 6 5 , 8 s 5 1 ; 0 > * 5 r 6 6 5 ; ; , 5 4 1 > ; @ 1 , 5 , > 1 ; 1 6 5 , , > @ ; @ 5 1 ; ; , ; @ ; 2 ; ; , ; 1 ; ; @ 1 5 , , * ; ; ; ;   ",
"$ @ ; @ @ $ o @ ; @ @ 1 ; ; @ * ; @ 1 ; ; > ; , ; * , 1 @ , 1 @ ; > ; 5 = * ; , 5 ; 1 ; , 5 * ; 6 1 1 , , 4 8 ; 1 , ; o , w 5 * , t , 5 5 4 5 5 5 , 8 1 5 5 5 , 5 4 5 8 d 5 6 t 5 f n s s 4 8 k s 8 8 r S s k v V s K ~ k k s V V s V _ A { h.nXhXaX&X6X^.{.{.^.fX7XW.-XE.E.^.lXJXqX{ V m ~ K V L T V ) V U J U / m L U m J ^ U L U J U L J J ^ J [ L ^ ) J oXFXHXrXpXgXjX8X~.$X&X!.Z.4Xm.a.!.^.P.B.U.:XE.N.m.P.wXE.W.qX[.7XC.^.[.^.N.^.$XQ.N.W.I.P.*XwXE.E.P.C.B.N.*X-XqX,XP.^.qX[.Q.N.dX[.D.E.4X8X3XQ.aX=X^.7X[.[.9XaX[.hX&X*XN.].Q.%X].}.6X3X}.[.6Xm.P.{.mX[.P.>XP.$X*X6XdX[.Q.j.*X7X7X4XP.Q.^.m.eXQ.&X*XE.7X}.a.a.W.j.>X^.M.P.qX^.m.{.Q.^.Q.l.:XZ.P.6X=XaXgXgXSXgXpXGX@X%.L  .{  .~ L { v.U ` U U L J ^ [ v h K ' V V P / J L V [ L L { ;.P v J x.SXAX$X}.^.7X4Xm.!.7X3X6X3X3XzX;X*XzXNXi.i n b c C P m V v P n V h s k k h h f i s s r 4 d f n l 7 8 6 , g 5 8 5 8 d 5 4 7 5 7 d d 4 4 , 5 8 4 5 , 5 5 4 5 , , r $ ; 5 8 4 5 , 1 ; ; 5 5 @ ; 6 * > ; 5 s , , 5 , , , , ; , ; @ 1 6 1 ; * ; 6 , 1 * ; ; ; 1 ; , , > @ * 6 > > $ ; ; ;   ",
"; ; @ $ @ ; @ o ; @ ; ; X @ * , , , * 2 , * * @ @ * 4 ; @ ; 1 ; $ @ , 5 , @ ; , 4 * 6 w ; ; , , 1 , , , 6 , , 1 ; , 1 8 , 1 1 , 5 4 ; 5 5 9 4 5 5 , 1 5 5 4 , 4 4 8 4 4 8 8 8 s t 6 5 , r 5 s 8 f x f j B f n k k v v N C ~ v L P b S ..b 7 i z.GX6X$X#X*Xh.|.*XC.^.[.h.L.=X^.6X9XAXgXQ m P ( [ L ..J V (  .J ^ o.Z M U Z K Y ^ ^ V ^ [ V ( L L ` =.} Y V y.FXxXjX}.=X8X8X8XpX=XN.P.y.P.-XXXa.m.^.P.!.^.[.W.C.{.j.Q.pXP.*XE.M.eX,XC.[.*XW.I.m.m.a.[.;X^.N.*XE.W.p.C.Q.~.Q.*X[.{.*X4X&XN.].6X*XC..X7X^.9X8X[.].E.4X&X3XcXgXfXE.m.~.{.^.qXP.[.6X3XQ.E.6XQ.4XN.!.&XbXbX$X&XhX[.].mX&XC.|.iX^.N.*X[.^.m.fX[.P.m.a.E.a.!.P.d.a.~.E.E.j.P.N.*X3X$X^.[.Q.,X[.].*X&X6X5X8XaX].8XSXkXL.J P ^ ` V V U :.U ' ` U J L ' J U o.K m V / / J ^ U L ) J / U J M m l.9XxXxX~.P.*X&X[.m.4X6XQ.&XbX8XbXuXSXbX;.b k L V S 8 k m P b k n C h h C k s s h l 7 g j s D 8 4 N 5 , 9 , 8 7 8 6 4 = 5 d 9 7 , 6 j 4 5 , 4 5 , , 5 5 * 5 , 5 d 8 , 5 5 , , 8 9 r 4 8 , * 6 8 , 5 * , 5 4 , 5 * 1 ; ; ; ; ; , 1 , * , 5 , , ; 6 ; = t > @ > * , , , , * ; * @ ; 1 * ,   ",
"@ @ O @ o @ ; ; ; @ ; @ > $ > ; , * @ * ; ; ; @ o , 1 ; ; , ; ; ; @ > 1 1 > , 1 , 1 5 1 , ; 6 1 4 4 ; 1 * , , 1 * t 1 t , ; * 5 6 , ; 6 5 , 8 5 5 , w , 8 9 5 5 x f f d , 5 s 5 t 5 5 , G G s s s 8 s s 7 n h k f k A h P k C s b v b V K E h H J.bX=X[.wXN.^./.~.fX9X!.E.8X$XC.W.6XAXIXr.v m ..^ m [ U L J o.L V L M ^ / v X.W [ / J U  .' m ` $.` &.H { tXZXxXhX3XaXgXgXkXhXE.Z.W.).[.$XP.W.N.qXE.h.Q.C.N..XI.m.-XcXQ.,XN.N.P.N.~.{.7XQ.P..X*X^.qX^.E.!.P.Q.!.C.>XE.m.N.E.Q.%XN.E.Q./.Q.=X}.j.W.[.$X3X8XvXaXU.[.Q.|.6X=XP.P.^.*X|.N.$X$X[.mX6X-X6X3X^.>Xj.N.=X6XE.6X{.*XN.[.8X3XiX^.D.N.L.wX*X%XC.d.;X*Xt.!.>Xj.{.N.<Xj.!.^.U.I.P.|.[.m.%X{.j.P.Q.9X!.N.[.&XaXhX=X4X9X3XgXwX{ b W :. .K V `  .^ ` o.L Y P J J U V / ^ [ b V +.U V L U ^ L b J i.hXcX4X8XQ.*X0X7XdX^.cX6XC. XwX[.6XdXzX2.p R J V k _ h N E s k k k f k h h h B f k k f 4 f i i i 4 8 r d f , 8 j 7 4 r w 4 , w 7 4 ; 4 5 9 5 4 6 , * 5 5 r 5 * 4 5 5 8 , , 6 4 , 4 , t r 5 , 1 4 , t 5 , 1 ; 5 5 5 0 , ; 1 , * , , 1 @ ; , = 5 * 5 ; , 6 ; * ; ; * * 5 , ; ; ; ; ; ; @ >   ",
"@ $ @ O ; @ ; > @ @ . 6 1 @ % @ ; @ ; @ ; ; ; > @ ; ; @ $ $ ; , 4 4 e * > 1 * ; ; , ; , 0 , , ; 5 5 2 5 w 1 , 5 * 1 , 5 , 6 5 ; 1 ; , , 5 , 5 5 * , ; 1 5 t 9 5 8 w k d , 8 5 4 j f r , 6 d 7 f s 4 n k s s 7 S N k j s P m k j E P v b K ' L k J y.bX6X&XaXfX^.aXzX^.^.*X[.*XP.P.j.].JXtX2.m N P L U W { V ) ' ^ U m o.[ L [ L Y P m U +.U } :.| T B { Y.AXrXzX}.8XhX6XkX9Xj.m.!.C.!.N.Z.C.P.<XQ.#X8XaXU.N.<Xj.!.:XL.*XE.*X7X%X^.$X^.j.N.Q.3XaXzX&X4X,XP.N.E.L.>XP.^.-X[.[.Q.,XQ.-XP.;X%X/.E.*XN.uXhX[.}.[.8X9X^.C.7XQ.^.^.E.&XQ.C.^.&XfX&X4X7X=X*X3XV.t.$XiXC.j.V.Q.P.N.Q.uX6X;Xm.P.$X{.V.$X].N.{.N.[.NX{.|._.N.C.C.N.t.eXeXP.N.>X^.[.qX^.C.N.,X*XaX*Xj.^.[.&X6X=XhXvXhX8XFXY.U U ' =.;.U >. .L ^ U V J / U L ~ V L J / K L U ' J L +.V M m a.bXhX&XU.{.4X3XQ.}.9XpX6XvX{.P.[.6XGXfX$.b b N v k _ V P Z k s N V N C 8 k h h r s s f f i s s 8 j g 5 6 8 b h 6 6 t 7 r 5 6 , 6 z , 1 , , d 4 1 8 5 1 5 1 = g 9 * 1 4 5 5 * , 5 , , , , , 5 6 t , , , 4 = 1 , , 4 5 , w , , ; ; 5 , , 1 ; > , , ; ; ; ; * , 5 ; ; 2 ; 5 , ; * , > ; @ 3 , . ",
"; - ; ; ; , @ @ ; @ $ ; @ o ; $ @ * O * ; , ; ; , ; ; 1 * ; , , , 5 * ; ; ; 1 * * 6 ; 4 1 , , 5 , 5 * 1 4 , , 6 , , ; ; 1 8 1 ; , 6 8 5 , t , * t , 8 5 ; @ 9 6 , , 8 8 r 8 7 g 7 f 8 = 8 7 5 f l s s f s l k s b n i s h L V s b v S n K W m R j H ).bXsX&X^.[.6X3X}.[.=XQ..X^.E.j..XrXtXGXi.b D V ^ ` =.L Y L ` o.' V N J J L J ' ^ ^ ] V v.=.` X.L y.kXcXlXaX[.kX8X=XhX[.P.B.j.m.^.C.p.N.E.!.t.;X6X[.l.m.a.a.>X!.N.=XE.P.E.Q.Q./.{.a.^.%X7XQ.8X9XE.[.Q.|..XP.!.{.a.nXQ.C.*X^.P.4X{.E.P.C.%X7X&XaXaX7X&XU.7X].{.P.-X$XQ.mX].%XE.C.[.].|.^.[.Q.[.{.].I.W.=XE.,XN.a.!.<X!.dXE.Q.4XC.!.^.P.Q.[.P.*XP.*X&XC.{.^.j.{.B.W.Q..XC.N.*X[.E.l.|.Q.{.,XI.P.P.E.,XE.E.^.-XQ.8X8X&XvX+XZXFX7.U Y ` $.U >.^ J / U Y J  .U V L V V U / V L V U ` ` ( A v 7.nXxX^.|.^.[.3X6XE.4X&X9X[.mX[.=XpXmXeX,.d C / L b h S V L N i l b b h V 8 B C 8 f s f l 8 B d r s i 8 8 1 4 v f * ; t f 8 , 5 1 , 6 5 5 5 4 9 5 5 5 5 , 5 5 5 r , 5 , , , , , , 5 , 5 1 , , , 4 , , 5 6 5 ; 0 1 , * ; , t , 5 ; 0 , 1 , ; ; ; ; * , ; > 2 ; 1 5 ; ; ; * , , * ; ; * @ > ; >   ",
"@ @ @ ; > ; @ @ ; ; ; ; ; @ ; ; ; ; > @ @ @ @ 1 , @ ; 1 , , 5 ; 1 @ @ , ; ; , , , 1 , , , , 6 6 6 , 1 w 5 > * w 5 , , 5 8 5 6 w , ; , 6 t 5 5 = 6 5 4 f r 8 4 5 g h , 8 j 5 5 8 8 5 4 r l i s f 8 s f 8 f k s k v s x ' m v N L J k S N V L L P m i M ^.GXpXaX=X}.^.[.qX[.Q.C.P.*X$X=X;X6XzXIXs.m k D ( J U ^ L L U ^ V / J J ^ J  . .J J ' U =. .J P 3XZXgXhX}.9XcX8X=XgXzXQ.!.I.W.U.,XN.p.m.*XP.%X[.E.d.d.MXa.N.,X$XN.h.{.E.V.^.Z.P.E.*XQ.Q.Q.8X7XN.$XN.j.{.|.*X{.N.{.P.Q.7X$XE.%X^.[.fX*Xd.N.{.6X}.hXbX=XC.j.*X4X=X}.mX-XN.[.P.N.-XdXP.*X&X[.*XQ.N.{.I./.{.P..XE.!.I.m.C.C.{.m.C.E.:X:XeXj.$X7Xj.{..Xa.^.[.a.W.B.a.P.d.d.W.qX[.}.=XN.p.d.^.<XN.!.j.}.C.I.N.&X6X7X-X8X8XU.kXJXyX| M | &.Q  . .U U V / J ` U ( L [ / [ X.' ^ K m [ U C b u.GXmXQ.+XNXaX6XvX6X4X^.[.=XQ.[.3XaXhXeX| 7 V Z h v P v A C m V V V B s k L , s B k s r B f j f 5 d d 5 s 7 , , d , 4 j 5 , t 5 5 5 5 4 r s , 4 5 , 6 * t 4 5 g 8 4 t 5 6 4 5 6 4 5 t , 8 8 4 , , 6 6 5 , > 5 1 ; , > , , , t w * ; ; 4 , 1 ; = , $ ; 6 * 5 ; ; ; ; * ; 6 5 ; ; , , @ @ ; , * >   ",
"$ @ @ ; @ @ @ @ ; ; @ ; * 3 ; @ ; , , @ @ ; @ 1 , ; 5 ; ; , 2 @ > $ , 1 ; ; , t 5 * > 4 t 1 1 , 1 1 , 6 , * , 5 , 1 4 * 1 1 ; 5 5 , 5 , w 8 5 , 8 r 8 w 5 d 5 5 w s d f 8 r 8 5 l r , s b i 8 B 8 7 j s 8 B s b A h s Y v n n V K V h X.) m P P V F i I >XFXlX8X|.P.aX[.{.9X-X^.=X^.~.3XaX[.aXLXz.H V A L ^ ^ ' V L U J  ./ ^ ' U ' ` T ^ } U  .' J 7.SXAXrX}.[.8X3X6XcX&XU.!.P.j.a.I.N.N.V.g.!.<X!.a._._.h.!.!.y.P.qXW.t.j.N.;X-XC.W.P.{.Q.{.=X9X*XP.m.{.BX[.N./.%Xj.C.N.^.Q.-X*XQ.[.*X[.*X-X{.N.7X3X}.6X[.%X/.].8X6XpXwX}.].7X>XQ.[.].zX6X4XvX[.P.r.Q.:XC.U.y.C.qXN.t.Z.!.E.[.C.<X=XV.N.{.Q.*XC.C.!.I.t.:Xj./.!.!.>X*XW.!.y.C.%X^.4XC.j.I.N.a.y.N.I.$X/.P.N.N.vX[.[.gXhXaXhXHXAXu.L *.^ U ] X.U / U / [ J U Y V L m L Y [ ' ^ Y Y K Y i.0XxXaXdXeX$X{.E.3XpX&X[.7X8XpXmX=XFXeX{ h G k S P V Z N s n F h / A n s k Z , 8 h V N h 4 8 8 5 8 8 s r 5 d f 6 4 5 g l 9 t f r , 5 d 8 8 j 5 ; 5 5 , 5 4 5 , = , 4 d 5 * 0 4 , 6 4 6 , 5 = , 9 5 , > ; 4 * , , > @ 1 , , , 5 5 ; * 5 = 2 , 4 1 @ , 1 , ; * * , 2 @ @ 6 * 6 > , 6 2 @ @ > ; @ *   ",
"; > @ @ ; * o ; , ; , * ; @ @ $ @ * ; ; @ ; , ; @ > 4 ; $ $ * ; @ @ > , , ; * , , , * 5 9 @ @ , , ; 1 > , 4 5 , 5 ; , t 8 4 6 , 5 5 , , w 5 t 5 4 , r 5 5 5 4 8 5 5 r 5 , 9 8 t r 5 5 A v s s d 8 S s k n s s h k v M h h b s b N k L L V v b L V P A l W U.GXzX9X[.dX8X}.&XiXdXaXQ.*XdX6X[.^.zXPXJ.{ J V U U ^ ' ' Z Y / V  .J L } U { =.>.` ' L W eXHXDXhX3XFXkX+XE.uXE.M.t.I.$X,Xj.j.F.I.B.<XP.Z.a.t.N..XN.{.L.d.^.^.qXC.W.E.[./.{.N.Q.%XN.%XN.Q.9XN.P.%XN.P.j./.W.E.P.BX<Xm.P.%X{.!.y.wX7XN.^.*XkXrXaX[.,XqX}.6X3XQ.U.bX&Xj.j.N.wX3X8X8X9X*XP.N.Z.N.C.W.N.V.{.^.j.j.P.%XC.{.*X~.4Xm.m.7XQ.P.m.>Xt.B.P.P.j.OXa.p.*X.X~.^.Q.MX!.P.~.P.7X{.E.!.P.N.P.D.%X{.<XN.=XiXpX8XkXkX}.AXjX0X$.U P U ^ X.U / ' V L / ` ^ U ^ U V L / ` ` ^ E I L.jXcXrX}.[.Q.E.*X9XaX3X~.*XwXzXrXrXnX0X{ h V ~ V V P k h V b k C V s N R B 7 c k n s 8 s s 8 s k s B s s 8 5 d 6 , l k 4 , s G 5 4 s 9 5 , 4 4 4 8 5 5 5 8 s w 5 * 5 4 7 d = t 8 5 ; * w 1 * * , * 8 5 @ , 5 , , , 2 * 5 5 , 5 1 ; 1 , ; ; 1 , , , , ; , * 6 ; 5 1 * , ; 2 , 0 > ; , @ ; o ; * * ;   ",
"$ $ ; ; ; @ ; , ; * 5 ; ; ; > , * * ; @ * , ; , ; ; , 1 ; @ ; ; @ * ; ; , , > ; 1 8 1 , 1 $ ; 6 ; , 4 ; , t t , 6 , 6 , * , t 6 , t 4 8 5 4 t 8 5 , t 5 , 6 8 d r 5 5 , , 8 s 8 4 r 5 k s s h 8 8 8 s j 8 C C h k V A i S V V S s v ) m N A k P P V J n i ` :XvXpX6XdXkX3X&X&XQ.3XaX~.$XQ.vXaX5XrXGXXX{ P P ' }  .H ~ ) L [ J ^ / J >.' *.=.[ o.V i.FXCX8X}.8XjXjXxXvXaX^.P.N.W.E.qXQ.C.:Xm.g.C.P.E.P.a.N.m.W.,X{.B.V.U.{.E.P.C.{.qXE./.E.P.Q.%Xm.-X;X{.*XE.qX=XBXD.C.qX=Xm.j./.N.W.C.U.%X{.N.$X;Xa.5X].hX[.P.6X8X6X].Q.9XhX[./.eX%XQ.hX[.7XQ.y./.*XC.fXd.p./.^.W.{.eXW.P.%XN.Q.*XW.j..X*X^.wX/.B.E.P.m.:XE.m.0.t.W.^.P.N.P.!.P.d.C.d.Q.pX^.N.W.j.m.P.N.^.E.N.N.%X=X8XrXgX}.}.8XgXJXr.U V ) ~ ]  .I ' / L ..U ^ ^ L ^ X.' Y ' ^ U N R.GXgXcX{.E.^.&XaX6XvXhX*XL.{.P.8XgXPX|.I 8 A ' T P / n N P P m C A k i l h h s h h k S i r s d s B s s s s f d s 5 7 k k 8 9 d 4 5 d 4 8 j 1 6 , , 8 , 4 w , t r 6 1 y 9 4 t 6 4 8 7 t 1 5 * > 1 , , , 4 0 5 1 t w , ; * , 5 * , ; * 5 , , * , 1 1 , , @ , ; 5 * 6 * 5 6 @ ; e ; * ; @ > 1 @ ; * ; $   ",
"@ @ @ O @ $ > o > ; o @ @ ; ; ; ; ; o 1 , * 2 @ > 1 , , 5 ; * > , 2 1 , ; * 6 > ; 5 8 * ; ; , 5 6 , ; 6 , , 6 5 * ; 5 4 , w , , 1 , t 5 , 5 8 5 7 r t w t r 4 t w , 5 5 r s s l s 8 s k i s 7 t B r h f 7 k n f n N s k k k b N h v m h V A V b V V W m B C J I.hX=X6X7X].&X=X6X=X4X^.E.aXcX^.&X8XlXJX4X| n V U ` U ] m / J V ` U ' >.W { +.+.K I +XHXkX3X8XAXjX8X&XbX;X/.Q.].!.j.N.{.%Xd.a.E.N.,XN.M.!.*XZ.m.E.iXF.I.{.d.a..Xm.W.Q.E.E.W.m.[.>Xj.U.{.-XP.|.>X^.-X!.m.{.[.^.j..XMXa.C.;XnXj.d.;X$XqX=X[.7X[.&XaX[.8X=X*X|.U./.$X*X9X*X{.4XN.qXQ.E.wXP.qXj.d.`.C.m.!.{.{.Q.W.V.N.[.4XE.B.7X%X$XQ.C.d.W.N.!.Q.<Xd.k.!.Q.I.0.a.>Xm.!.P.P.N.P.7XP.P.a.C.{.[.{.a.[.qXP.C.].hX3XaXpXvXjXSXjX=.U o.J ` U W }  .L J J ^ J P V L L L ( n Q y.vXgX8XQ.U.>X[.zX4X8XhXP.~.7XbX=XiXFXqX{ b m Z U V A b B b v B N V V C k f 8 f k 7 n b k 7 x s d f f 8 s l 4 f 8 t l f 8 8 w t 4 6 5 8 7 s g 6 , 5 s 9 5 5 1 5 5 0 w 5 , 8 4 9 , * 4 d r 1 , 6 r t 5 , , 5 5 , 5 4 1 * 6 , 5 5 ; , > > 6 * 1 6 , ; > ; ; , 6 * 4 1 > , 5 5 ; > 1 , 5 5 > @ 5 1 @ ; @ 1   ",
"; ; ; - @ @ * @ > * O > @ @ @ ; * , ; 6 , * > @ , 5 @ ; t , ; * ; , , , , = , @ ; ; , 5 w 8 , , 5 = , 5 5 , , 1 , 1 , t 8 , 6 , 6 1 4 , 5 6 5 , t 8 i 6 5 8 5 8 1 w 8 l s 4 s d 7 d r 8 4 k f , i B s 7 s 8 f k k r 6 V i k k h E m k m V m v Z b A E ^ ( n f W eXcX7X=X&XqX3X9XzX[.P.C.9X7X}.wX&X3X6XGXeXU k =.8...` / ^ >.W ] U J ^ +.` U ;.v 7.LXZX9X}.cXgXgXzX^.N.m.^.].P.*X!.t.[.P.N.>XeX].{.A.N.P.Q.E.d.C.~.Z.Z.W.d.Q.C.d.!.!.^.m.F.W.Q.wX|.B.j.^.N./.a.~.C.p.I.P.j.{.,Xd.I.I.B.].Q.Z.!.$X$XdX%X&XaX6XdX6X^.6X&X6XE.].vX-XP.4X=XN.*XE.7X9X7XL./.P.^.U.j.!.j.j.q.[.L.m.Z.~.^.^.;Xr.a.>XL.P.P.!.V.{.E.N.%XC.C.*X!.a.k.P.d.Z.{.N.C.m.!.Q.{.>X/.!.P.~.P..XI.;X^.&X7X9X}.3X8X6XgXrXHXJ.| ` L `  .:.U >.{ J / ^ U L ^ / W / V V i.yXxXmX|.I.%XqXN.].;XgXzX*X{.}.8X3XyX[.I k K m  .L Z k A V k N b k N L V i D F n b k s k f 7 i 5 7 t 5 5 8 8 4 t 8 4 s 8 6 w ; 8 4 5 5 4 d 5 , 4 8 j 8 4 4 , * , 4 , 7 5 , > 4 7 5 , 5 8 * 5 5 5 s s t ; * 1 5 , 5 8 @ * , w w , ; 4 * ; > * ; w , @ o > 1 , ; , 5 6 ; * 5 5 , ; * ; 8 5 @ > 1 , 1 > ; >   ",
"> @ @ , ; o > , > ; * ; @ @ @ ; @ , , * 1 * , 5 1 * * , , * @ , , ; ; ; ; , 6 5 t , , 5 5 4 5 1 , w 5 4 , ; 1 , 5 , ; 8 8 4 6 z 8 1 , 5 5 , 6 5 d 8 f 8 5 t 8 r 5 5 9 i s 5 8 8 d 8 f 5 8 s 8 8 f B s f s 7 j h k k i _ h h A k b k s v v P P ~ A N n K J L A n U ).GXxX8X8X}.aXpXQ.[.Q.vXhX6X].%X!.[.pXJX@X$.k ( V P @.J {  .U J ` ` ' ' ] { I oXFXpXaX8XtX6X=XQ.I.t.N.Q.[.C.N.W./.I.C.^.%XP.Q.B.a.t.E.7XW.a.E.,X!.j.P.E.NX|.j.g._.^.V.P./.Q.*X^.P.j.P.%XW.C.M.Z.M.a..X-XZ.N.P.^./.Z.E.a.Z.*X[.=XE.C.P.3XQ.[.U.Q.dX}.aX4X8X}.P.E.hX7X|.W.4XE.^.-X,X~.Q..XeXh.Q.>X!.Z.a./.{.C.P.:XA.N.!.N.P.~.l.P.!.Z.%X|.d.C./.E.!.C.!.eX_.4.d.a.P./.I.C.N.Q./.C.m.[.j.B.!.0.C.^.C.Q.{.8XgXFX8XlXDXFXmX-.J o.T &.=.J U ` @.' L ^ L Y  .J J J oXnXaXFX4X{.}.$X*XP.P.>X3X&XpXkX3XkXhXl.T p R ..J J V M b N Z V V b V S k h h s l s b v s f s l B s n f 8 l 4 g 8 r j i 7 d 5 5 t d 5 9 8 4 d , * 8 t = , 5 5 5 5 g ; * 4 5 ; 1 6 , 5 5 1 , , t 1 * , 5 0 ; 5 t , , 5 j 2 , t 5 * ; > * 5 4 5 ; ; , * , $ , , 6 , ; , @ 1 , * , , 6 * * 1 ; @ , , ; , ; > ;   ",
"; @ @ ; ; @ o ; = 5 0 o $ ; @ ; ; 5 8 , $ @ * , , @ , , , ; 1 ; , ; 1 5 ; , t , w * , 7 4 8 t > * 5 8 5 ; ; e ; , , 5 8 7 5 5 8 4 4 d 4 5 5 , 5 5 ; , 5 6 4 8 5 , 8 i s l , e 1 5 5 l 4 r 6 5 f k r s s b f 8 l b m h n s h b i B r n ~ m K V k L L k B m J V g v W #XSXjXlX[.&X8X{.E.Q.pXkX8X6X;XB.qXgXrXSXeXT l D A ^ I ` ` [ J  .` ^ :.[ U 2.LXbXcX8XAX5X&XbXE.I.M.I.m.F.M.!.>X!.d.W.^.W.#X%XW.W.>X,XP.m.eXk.D.,XB.=X[.P.Q.XXt.B.P.{.qX[.$X^.N.!.B.E.*XC.j.u.h.N.C.j.P.{.<XB.Q.^.a.Q.BXfXP.E.hX;X$XzX&X6XwXQ.l.7XrX&XrXAXhX*X^.[.zX&X}.7X&XE.E.[.E.E.d.C.-XP.L.m.B.P.P.d.:X{.k.a.B.<X{.%X,Xj.C.!.E.a.].{.I.d.j.P.~.7XN.a.k.i.A.`.Q.B.N.*X^.m.m.'.!.N.W.d.Z.I.Z.^.;X&X}.3XgXgX3XCXKXSXU.| o.U J U ^ ( / U W ` P U ( ^ C C XXGXlX8X}.U.3X}.=X[.^.7X{.^.9X3XjXgXFX4X{ j D V Y / P V L ) Y L V k A ! h k V C k l i k v f l s f h N k i 8 x 6 4 l v 8 h 8 8 f s r s i s r t 4 t 6 4 d 6 6 6 6 7 8 r 1 t 8 w , 1 5 8 4 7 w 8 8 4 6 ; > > ; * 5 r , t , i , 5 8 4 > ; ; ; 5 , 4 8 1 ; 1 w > * 6 , 6 @ > @ , 1 * @ 1 1 @ @ ; @ @ ; 1 @ * , ; ; . ",
"* @ $ o @ @ @ @ @ @ ; o % O $ , 1 * * 7 , @ ; > * ; ; > > * 1 > 3 ; , , 2 * * @ @ $ > ; , , ; 1 ; 6 5 ; > > * > ; ; s 2 5 , 8 f 5 6 1 5 5 , , t s , 7 s r s 5 6 5 s 8 5 s s f 8 1 8 j 8 r 8 8 f 8 r D t t s h m C s s t s v n n B l s k s V V m L V Z S V V J L _ 8 b x.vXgX6XdX&XaX&X-X;X[.*XhX7X;X}.+XrX3XFX XL V / A N ( V J U U $.{ ' C W L.xXvXlXgXaX4X*X%XC.|.^.%X{.B.0.g.{.%X`.B.l.:X^.j.{.:XC.C.m.E.iX].{.P.P./.P.^.#XN.Q.iX^.qX[.{.!.h.Z.:XQ.B.d.h.l.h.A.q.k.m.m.N.7X^.N.[.E.d.m.^.fXP.C.uX&X6XbXL.{._.P.[.!.XXl. XdXkXpX[.=X-Xm.j.C.!.U.P.*XT.a.^.Q.m.t.d.I.'.t.d.E.j.W.!.eX=X$X!.W.`.C.C.~./.~.Z.T.0.l.E.j.q.k.Z.,X$XQ.h.t.j.P.:X!.p.g.E.m.a.7X{.$X[.{.I.N.t.#X$XvXwXN.7XhXHX4X=.Y ' ` ` } X.Q U  .L Z ' ' Y -.mXAXAX8XgXP.$X9X$XdXj.E.9X8X=X3XaXgXZXeX' d V U V F D N A S C U J m k h Z h f 5 B s s g 7 s 8 j s d 4 s s t 5 s s 8 , t 5 f 7 s i 8 7 9 2 > , 9 4 r 8 , 5 w * 5 8 5 5 , 4 5 4 ; 5 , , d 9 , 4 * 5 8 , 5 , 4 5 5 , , , 5 , 5 , , , , * 5 , * 0 * : ; ; , , , ; , , , , 4 > > 1 , * * 1 * ; , ; , ; ; ; ; ; 3 * ;   ",
"@ $ @ ; @ @ > @ $ ; @ @ ; @ ; > ; ; @ 6 , * ; 1 ; ; @ * * , , ; , * @ , 5 ; ; 6 5 * * , 1 = , 4 7 5 5 , , , * 5 6 , 4 , , t 5 8 5 5 , 6 = , t * 5 8 , 8 5 5 5 8 8 t r g 5 8 s 8 r r 5 5 t f f j 8 s r s 7 r N k k f s 7 B N B p h n N D k V ( Z V V b k A _ Y ~ V A V m z.mXzXzXzXaX4X3X3X&X}.}.=X7XbX9X5XgXxXmX2.V L [ } V U :.} ] =.:./ U $.|.3X8X8X8XhX].j.D.C.C.:XV.N.Q.d.C.C.C.(.N.P.N.Z.l.C.C.m.P.{.|.%XN.{.{.[.C.P.d./.Z.l.>Xm.j.*XeXy.B.V.j.y.0.M.I.t.t.k.B.j.Q.P.m.|.BXP.{.vXj.W.Q./.^.4XnX[.bX}.{.4X&X&X=X=X8X3X3X}.mX[.aXaX}.N.^.%XP.j.*X~.j.!.:X>XN.:X!.I.t.t.|..Xj.Z.N.|.*XV.V.C.m.a.N.qX[.P.j.a.j.N./.T.h.d.V.[.^.C.k.d.W./.E.m.a.I.<XN.d.!.P.P.E.C.t.W.[.C.N.}.iX%X[.bXcX+X-.J U ' =.` J ^ ` ` ^ L L ' C $.0XrXbX}.hXGX[.{.[.=X*X7X&X0XyXQ.sXFXLXy.V f / ' m C s k V V k k L P V N N h k h h k h h s k s b 4 n s f j 8 s k 8 d , 5 8 s , f B k , 5 5 5 4 5 d t 5 5 , , 8 d , , , , t w 4 4 , 6 , , 5 g 6 5 5 t 4 5 6 w 8 6 5 1 1 , ; 1 w ; 4 1 ; , 1 5 5 , @ ; t w , 8 , , ; ; , 1 , , @ 1 ; , > * 1 ; ; 1 , ; * ; ; ; @ @   ",
"@ @ @ * ; > @ @ ; @ ; @ 5 , ; > @ * * $ , 5 6 * ; $ ; 6 , * , , 1 1 * , 5 > * , 4 9 5 , t ; 6 8 i 8 , , 6 y 5 4 8 , * 5 4 , 4 w 8 5 1 w 4 f f G 6 , 5 t 5 8 f s 8 6 , 4 8 e , B V 8 8 l 8 f j 5 r s 5 l i 4 k B 8 n b h C s D h V V N f s C K m N P L m _ ) i V V / P C m y.nXsXpX].9X3X3X6X3XvX8XaX3X6X&XjXSXyX$.K U  .' L :. .` Y  .] ] | oXPXpXgX[.9X}.^.-X$X*XQ.C.W.m.{.U.Q.m.0.a.~.E.P.I.P.l.P.<X/.P.I..Xk.d.$X[.E.Q.a./.P.E.m.*X~.$XP.P.{.N./.m.m.{.N.B.V.I.!.N.^.>XC.p.d.!.*XpXj.eXC.b.[.-X].L.nX3X}.[.pXGX8XxX6XxXcXaX[.&XaX}.8XmX[.P.d.W.!.~.E.{.j.P.P.%XW.a.!.].P.d.P. Xl.j.V.Q.:X^.V.W.C.C.>XV.j.Q.BXd.k.f.L.-X^.{.dX.Xd.E.XXN.M.!._.I.m.k.a.P.<X%Xm.P.{.*X,X%X&XE.[.nX9XpXrXkXR.{  .U ] J U ^ } ..}  .' ' B $.3XLX}. X8XhX&X4X[.&X&X[.[.}.&XcXcXeX%.m  .k V J J ~ s N ^ J k k P m L P i s m m f F h k h A s k C 8 s 8 7 s b k 8 j d , t 5 8 F f r 9 5 j 8 5 5 5 5 9 6 8 7 t 7 ; , 8 w 6 4 4 5 4 5 t 1 , d > , 5 , 5 y , ; 8 1 * > t , ; ; 5 , , 6 , ; 6 , , ; 5 , , , , , 4 5 ; , 6 , ; 5 , ; > * 1 ; * - , ; > , 1 * * > @ * . ",
"o @ ; @ ; $ @ ; ; ; > ; , * > ; o * > @ $ r 5 > > ; 5 ; 5 1 , , ; 5 , = 9 , @ , , , , , w , ; 5 5 5 , , 5 5 5 8 w , , , 5 , 5 , 5 7 4 8 7 8 7 7 g d f w 4 4 f l 8 , d d r 6 4 k h 8 4 s s k s 5 d g s f h C k i 8 k N V k 4 B v V v h s f N A s n L V L V k k V / V _ F h H y.mX9X8X3XvX8XpXzX6XQ.wX[.9X8XjXJXeXW o.^  .U ^ U ` J U +.} V | eXxX6XpX5XwXE.$XE./..XU.C.Z.Q.wXqXm.t.:X;XZ.C.,Xj.j.`.E.P.A.g.d.Q.%XQ.!.~.eXP.E.^.C.{.m.{.%XN.a.<XE.V.,XW.j.I.q.E.E.p.Q./.!.C.M.W.P.m.E.fX,Xd.P.^.^.N.wXwX[.aXFXhX4XfX4X3XQ.4XL.nX4X3X6X=X6X9XP.P.C.E.N.P.[.E.!.P.~.E.W.r.{.*XI.d.P.Q.a.!.V.{.!.m.W.N.C.C.j.a.E.-X-Xm.j.f.6XaX|.N.E.>XV.j.y.a.d.B.m.t.d.W.P.C.Z.E.N.E.%X*Xm.C.fXfXP.6X8X=XtXJXwX*.] :.L U } X.' V J =.J U P 4.zXhXU.Q.mX6XQ.=X9X8X[.[.9XbX[.cX{.$.s T [ N / >.V L C N L ..C k ) V m P s f P m n 7 h l k k g i k s i s l i i s j 8 s s 4 0 4 4 4 7 8 r s t 5 8 r 5 4 = 8 5 , 1 , , 5 w 4 5 1 5 g 7 4 1 , 8 * * w 5 , 5 * * 5 1 , , 5 8 1 * , 5 , , , , 5 6 , ; 1 , 1 1 , ; 4 , , , , 1 * 5 ; ; * , 4 w , * , , ; 4 6 ; , - ; *   ",
"@ * ; @ $ @ * ; @ @ ; , , @ ; ; ; 1 e ; o @ 6 , * ; 6 o @ , ; @ @ , w , , 8 t 5 , * 1 , 1 , 1 ; ; * , 5 6 , , 5 5 6 = 5 5 3 > , 9 5 r 7 9 , , , 8 6 8 5 7 9 5 7 j 8 g f 5 5 h 8 4 F 8 f f s t 5 7 7 l s k P i 8 d k v h k s n A m v n h B N k V P v m ~ U ( / b P V A V / m J u.oXpXpX}.=XxX3X=X=XE.U.}.gXHXJXJ.H ` ` J  .U `  .` 8.=.Y J i.GXjX3X8X8X3X}.7XE.4.a.-X~.m.a.N.Q.j.h.{.%Xf.d.^.~.j.m.fX^.p.XX%XE.N.Z.C.=XW.t.7XE.j.W./.P.l.T./.m.%XW.m.-Xt.h.P.^.*XP.C.eXj.0.m.!.^.*XQ.m.P.N./.E.$X-X=XvXQ.&XbXh.{ 5.-.I $.=.I u.].5XaX=XaX=XC.E.^.P.N.y.E..X[.$X*X;XC.g..XZ.m.P.m.W.^.Q.Q.{.a.g.^.N.{.P.B.P.$X=XC.iXmX~.qXE.j.a.^.%XP.j.B.XXT.d.0.`.>Xm.t.a.j.C.NX*Xd.E.%Xm.m.*X=X3XtX8XtXxXJXl.V ' ` | ' Z /  .;. .U ' W u.JX+XcXyXP.&X&X3XAX3X}.dX=XlXxXeX;.m E V Z ( / / V P O.b h m E V h N h k _ s 4 B _ 8 k G 4 l G i 8 B 8 r l i 8 5 8 4 i f r r f t t , f s * 1 j s 8 s g 4 , , * 5 t 5 * 6 t 5 , @ 5 r 4 t 5 4 ; 1 5 6 * t 5 t 4 0 1 , 5 5 , t 4 ; 5 6 , , , 5 1 , ; ; ; > , - 5 ; 6 ; 4 t @ , ; * , 6 1 , ; , 1 , ; ; ; * , > ; @   ",
"@ @ * ; @ @ ; ; @ ; @ , 2 o @ ; ; ; ; O - ; 1 , ; ; ; ; ; , ; * * @ , > , r t * ; 5 1 ; 5 , , ; @ 5 4 , d 9 , , , , 4 r 6 , , 1 r 1 = s s ; ; t j = s 4 i 5 5 , r f = 8 s 8 j l 7 s 7 4 s 5 r 6 8 f s s k h s j 8 s m k n n k h V C h k h k C k V V ' k J U Y N m J J J K L Y m %.eXxXaX}.zXhX8X6X7X}.3XgXxXmX%.m | ] ) ` { =.U L =.} K U ].ZXcX8X9X6X$X=X].V.a.j.W.W.Q.!.W.C.C.d.C.N.E..XV.|.W.d.!.Q.d.d.%X[.E.j.m.*XN.{.fX{.*XQ.~.%Xt.h.I.d.%X/.0.C.T.j.C..XE.eXC.j.I.I.C.g.m.^.>Xd.V.E.{.N.[.iX^.6XzX3XmXr.W >.:.Y | >.K c.vXZXhX}.GXP.d.Z.{.P.j.k.E.E.C.%X[.^.E.,XC.t.a..XP.Z..Xt.*XMXd.Z.:XQ.{.p.m.7X6XwXqX*X^.=XE.k._.).j.C.^.a.N.m.!.a.B.N.C.~.s.l.qXC.E.P./.fXeX^.~.C.3X8XgXGX6X8XZXyX .m $.$.J / J ` 8.V ` :.m 2.PXHX3XaX=X-XbX&X8XhXpXpX=XcXXX| i b ' V k N V V J b b V V m k V b b F s v V 7 s k h f i r f 5 s f n 7 5 s k g 5 8 d 8 s 8 6 s d t , 8 l d 4 8 8 r 5 5 8 g d ; , f t ; 1 8 9 , ; 5 5 4 l 8 4 , , 8 6 ; 6 r 4 5 , 1 6 , 4 5 , 8 4 @ t t 5 , , , , ; , 1 ; , @ 0 2 6 , t , @ * 6 5 1 6 1 * ; , , 1 ; @ * , ; , ; ;   ",
"@ @ ; ; @ @ $ $ @ > - , ; ; @ ; ; ; ; o ; * 1 ; * @ ; @ 1 ; , 6 ; ; @ > ; * ; ; ; 5 , , , ; * 6 4 j 4 , * t 5 , 5 4 s t , g 8 5 5 u * , t 5 , 6 t 5 t r t 4 6 4 4 r s r 5 5 , k 8 7 s d 8 f l 5 7 G r 8 k f 7 f s k v s h b s s B f h A V b s S V k A n h L Y b P / U V m L L V J -.|.xXxX9X&XhXgX[.8X3XpXgXwX$.h [ ;./ J | Q ' @.U [ L $.yXZXgX8X8X3X&XfX{.a..XE.t.d.,XC.a.I./.P.{.N.$X-X!.p.E.>XN.V.W.{.g.m.C.{.N.C.|.E.r.t.:XN.C.N.j.j.`.d.C.Q.p.a.I.^.N.d.q.m.p.m.j.{.j.%XeX!.d./.~.E.P.P.{.=XvX&XdXtXwXy.` @.| >.;.=.T z.LXpX6XzXzX&Xh.N.B.j.T.M.C.P.B.!.C.Q.[.W./.N.j.).Z.p.p.p.a.k.B.t.E.[.{.P.6X[.j.!.a.V.|.Q.W.j.a.Z.d.t.{.eXP.`.W.g.j.d.a.M.t.Z.!.P.N./.C.`.l.V.[.uXpX8X[.3XhXgXZXFX7.Q ]  .{ :. .I } o.J V b ^  XbX}.3X3XhXaX&XP.gXxXpXbX XT k k Y =.` V m K T K v b k Y V v n f s b P B m L P 7 f s s s F 7 h v s 8 d f k 5 5 8 r 4 d d 7 t t 8 8 6 , r j d , 5 , , 5 4 w e 7 8 w ; * 5 t 8 , ; * 5 r 9 s 5 , 5 , > * w , 5 , , , ; 5 5 @ 5 w , 4 t 8 , 5 , , 5 5 5 5 , 1 * ; @ * 1 ; 1 6 ; , , 1 * 1 ; , $ ; ; @ ; * ; , @ @ . ",
"@ @ @ @ ; ; $ @ > ; @ ; @ * @ ; ; 1 , , , ; ; , 2 * , ; 1 ; > , 1 , * @ , ; * ; 1 , 0 1 * ; ; 5 8 i 5 w ; 4 8 4 5 6 1 1 , 7 8 ; ; 7 5 1 5 6 , d , 5 0 , y , , d l 5 f 5 6 8 t G 8 8 g t 4 s s 8 l 4 , f j 7 t 8 k k s j n Y b r f s n V m C n A k k s P N k ) h b V / m K V J / Y h / 6XxX3XpX8X4X&XcXjXxXZX].W ..[ ` ' ^ ^ | ;.] ' Y H 2.GXgXpX9XkXpX&XC.N.I.P.Q.d.Z.qXQ.t.I.,X^.~./.E.{.Z.y.!..XM.W.N.V.:XB.h.P.:X!.j.B.S.a.d.m..XN.fX.Xy.k.k.:X^.W.P.j.:Xd.k.G.M.P.Q.!.a.I.W.q.C.E.!.~.Q.^.P.$XzX6X3XpXzXU.*.:.*.-.-.=.{ r.nXgX}.&XaXbXwX<Xj.l.B.l.N.C.B.m.W.%X~.V.{.*X>XB.a.j.T.m.B.t.!.E./.j.Q.$X=X[.a.M.B.d.~.P.!.^.C.Y.).h.t.W.j.d.P.`.m.y.q.k.:XC.V.L.t..Xj.m.C./.qX6X[.[.3XyXaXrXgXFXoX{ Y [ {  .=.' U [ ^ ) _ J 4.mXzXAX3XaXQ.Q.aX8X3XkXY.I j S L L J Y J P K m Y _ V V m N P P r s b m h P J m 8 8 B v s g s C n h s t g 7 s l f 5 5 5 8 j 8 7 r 6 6 , 7 r f 5 , * t 0 = ; , 8 w 4 6 1 1 8 4 = ; ; 1 , , 5 8 , 4 , 5 , , , , ; * 6 ; @ ; ; 8 5 * 6 , , , w , , 5 4 , 5 1 ; , 3 1 * @ ; ; , @ ; @ ; ; * 6 * @ ; 1 * ; ; ; ; * : . ",
"* @ @ @ ; ; @ ; $ @ 1 $ @ ; * ; > ; @ ; * , , * @ > 1 6 1 * 2 ; * 1 ; ; ; , , 5 5 ; , * ; ; , ; 2 , 8 , ; ; 5 5 8 5 , 5 t 5 6 , , 6 6 5 8 9 r 5 d d , 1 G 7 4 5 d s 4 5 6 s s 5 5 9 4 k 8 8 f d 8 5 d h f 8 s B n 8 t k s C h 8 B l k V V h V k n S V ^ V r B ' Q V b L P b ~ m K P p *.XXhX6X].}.8X3X8XrXFXY.J K / U =. .U U | W U } $.Y.FXzX3X[.=X[.L.Q.C.!.XXy.I.*XC.E.N.S.P.m.C.^.M.N.D.E.'.0.q.XX!.m.D.C.`.N.N.N.~.fX!.N.U.Q.{.m.C.B.P.k.9.!.fXj.d.N.d.M.k.j.W.<Xj.Z.Z.E.Q.fXC.j.`.m.V.E.P.-X[.8XhX8XGX X` } =.*.{ ;.$.h.mXhX&X[.$X6XQ.C.h.<XY.a.M.j.V.m..X!.N.*XP.Z.I.P.V.Z.B.a.d.t.a.`.<Xj.d.$X&XQ.N.:X.XN.E.~.P.$X%Xj.B.`.p.Z.p.a.Z.j.M.m.p.0.V.^.fXa.M.B.qXC.V.m.[.&Xj.Q.uXcX*X3XU.cXeX*.U U U V L ] ^ J | >.~  .Q NXbX6XpXtX*X=XxXZXdXi.J n ^ ' / V v / J V P V A V k b V v L Z m B k k b k s f f s n k h 8 8 i s 8 8 k s s s s 4 t s i 5 9 r 5 6 4 s s 5 8 8 5 5 6 , , w t e ; 7 8 6 , , 8 6 , 5 5 5 ; , 8 5 * 4 5 8 5 = , 6 5 ; 2 ; * 1 6 ; , , , , ; 5 @ e , , 8 1 , @ , , * = 6 , 5 1 5 , 6 @ , , 6 * ; 1 , ; ; ; ; ; > ; @ . ",
"@ ; ; @ ; * @ ; @ @ > * @ ; * ; ; * ; ; @ 5 , @ ; 1 , * 6 > @ > , 5 1 @ @ 1 5 * 1 5 @ 4 4 > ; ; ; , w 4 , 1 0 , 6 6 5 w 8 8 9 4 5 6 4 w 8 8 8 5 9 8 5 6 , 8 j , ; k l 5 4 7 F 7 6 j 7 i B f j 5 5 8 s d s f f k s , d v h s k n f h N N R b N s V k P ` Y k s X./ m K P V m A C J ^ M m U 0XLX8XaX8XpXxXgXFX4.J ) >. .] ^ ^ ] U >.[ m 4.GXkX[.].vX*X;X|.P.g. X).t.j.V.E.~.j.j.C.!.V.C.<Xm.m.:XM.a.XXP.d.W.d.!.^.E.N.V.E.$XE.[.*XP.m./.I.d.!.B.t.m.{.W.j.d.q.m.I.I.P.d.t.N.!.j.E.P.P..XB.:XW.E.C.mX}.9XhX3XGXJ.W >.$.5.| ;.{ J.hX[.}.6X&X~.;X*XE.y.W.j.B.j.m..XE.N.>XC.m.Z.B.C.{.P.B.k.N.d.p.t.F.W.d.C.,X*XC.P.j.N.!.C.N.wX~.V.j.B.I.k.0.M.d.k.p.h.:Xh.V.W.E.C.p.0.*X;XC./.7X^.d.E.;X3X^.*X3XcXmXr.L )  .` ` [ ] =.` ^ ~ ` I z.GXZXgX6X3X=XcXGXy.v P n W ` o.b k ..U U V v k n V P V E ( V h s N s C s 8 s B b k N D s d 8 d f l s l s s 5 , t j f 5 8 7 d ; , j j 4 * t s s 8 5 , 5 4 1 , 7 4 5 6 5 r w 4 5 4 5 d 5 1 ; 5 8 d 4 5 5 4 4 5 5 > $ ; 1 , ; * 1 5 1 1 , @ 1 1 t 1 * , , , 1 6 * 6 6 , , , , , 1 * * 1 , * = > > @ ; ; ; ; > @   ",
"$ @ $ ; @ @ ; @ ; @ ; , 6 @ @ @ ; , 1 , , ; ; 6 ; * , , w , * 1 @ , ; ; 4 , ; * > 6 , w , * ; , 4 , 5 , 5 8 5 , , , 5 4 r s 8 5 5 t , w , 8 w 8 * 5 f 8 r 5 8 5 t j r 4 f 8 d 7 j l h 8 j w 8 s D j 8 8 r n i s j B b f V N s k 7 k s s i b P J A B k V m J L h h V Y k K Z P S R X.B J b $.yXbXxXzXrXxXgXFX4.U ..:.^ U +.=.` J T @.` h.JXvXP.Q.vX&X/.}.N.B.N.N.j.!.m.a.I.{.C.Q.qX*XP.~.P.C.C.E.*XP.E.V..Xt.T.!.C.^.*Xa.a.qX[.j..XN.V.:X$Xd.C..Xa.j.T.C.`.m.P./.{.B.j.C.{.!.t.p.P.C.%Xa.^.^.,X[.aXmX&XxXgX8Xh.2.;.| -.5.6.J x.GXgX8X6X3XE.^.C./.y.N.MXeXC.:Xa.C.,XI.P.C.W.P.p.E.P.d.h.P.N.t.k.Z.E.E.F.Q.C.E.<XE.P.^.#Xj.V.!.C.m.a./._.N.).a.R.t.0.k.C.!.W.h.<Xp.j.a.`.C.*XwX4X/.d.].[.8XkXhX=XGXJ.` P J :.@.U ` ;.U / +.} v ;.PXjX8X8X6XxXBX;.m S Y V ^ J L V A P V V P V C k K K h K b n s s x s s f C N 7 y r 8 l s r f r f f i l 4 n h 8 t 8 5 8 4 t 8 t 5 4 4 5 , 5 4 k i ; ; , 6 t , r 8 , , 5 5 , 8 1 4 s 7 5 , , t 6 ; @ t t , ; , , * 5 ; * , > 1 ; 1 6 5 * 1 ; ; ; > , , 5 8 @ > > , , 1 ; , ; , , ; 5 ; ; @ , 1 @ $ @ * ; ; > ;   ",
"; > @ > ; * > ; > @ ; ; > ; @ ; > ; @ , , ; ; * , ; , , , 1 5 * ; ; , , 5 , 1 ; * 5 , 1 t , > 9 , 4 , 5 5 , 5 r 4 5 r 6 5 5 t 5 , 7 t 1 5 6 t 4 d t r 8 r 5 4 8 r 5 7 s f 8 * 7 s s s r 5 6 5 i h 4 s 8 s k A 8 s b K s B P s s k P k 8 f b / V s h n b m J U h n P h N V V J Z k N V U J J { y.GXAXrXgXDXnX-.T ..U U ` ^ { >.L L ~ $.@XFX9X}.hX=X&X~.V.W.j.Y.I.N.E.b.t.a.^.,XP.Q.{.a.d._.m.a.-X*XV.{.a.E.a.t.k.E.*X!.XXN.E.E.Z.N.V.E.E.E.C.a.P.%Xp.t.D.].Q.Q.E.E.h.l.E.-Xj.A.S.N.m.!.N.[.$XE.^.Q.aX&X8XjXJXL.{ &.8.*.{ ;.I r.yXZXgX8X9X].[.^.Q.).:XV.9XQ.q.P.*X^.0.C.E.V.:X/.N.{.Z.I.N.m.P.Z.P.^.^.N.m.:X[.j.V.%X$X~..X/.P.a.N.`.q.d..XC.p.a.I.I.f.b.a.XXI.r.W.!.a.Z.P.C.^.N.N.^.^.}.GXrXbX3XhX0X` / ] U ^ U |  .J / *.| E I GXjX8XcXxXGXc.p C A m @.V Z m / P k V V V v h V V v b v i B k f i k 8 N h C 7 , s B k h B s 7 s 8 8 f 5 8 i l f t r d 5 0 5 B s 5 1 6 6 t 5 t 5 , w , t 8 5 7 4 t , , 5 = t 5 4 s r 4 6 5 , ; ; , , 4 5 8 5 , , t w , * , , > , , 1 @ d 5 @ @ * 1 5 5 9 1 , ; * , , ; ; ; 2 , ; 1 @ @ @ ; 1 1 2 @ ; ; o * *   ",
"* @ @ $ : ; @ ; ; o @ 2 o > ; $ @ , ; , 6 $ ; , * @ 1 @ ; ; = , , , ; , 5 > , 1 6 , , ; , 4 , 5 , 1 5 5 5 , 5 t 7 5 8 8 4 , 5 s 4 , n 8 5 , g 5 , 5 5 8 r 8 9 8 s d g f 4 7 d 8 5 f i r 6 5 8 n 8 r 8 k B s 4 l k s L 4 7 h h n s B R k k v v h s b V C k K V K ~ b V _ V V ' / A L J } J J m v i.GXZXlXHX XH J '  .^ Y L  .=.W X.V 2.nX8XgX9X}.8XbX=Xk.g.W.W.j.Z.h.j.U.j.d.!.!.j.!.j.g.!.{.m.Z.E.$X>XP.).!.t.L.P.j.w.4XZ.t.B.BXV.C.7XB.t.U..Xm.d.m.C.!.:XQ.Q.N.j.B.m.E.N.!.C.B.j.!.E.N.{.$XP.fX[.=X3X}.3XPXl.W } 8.;.$.;.J 7.hXZXrXaXaXP.W./.N.r.P.g.}.4Xp.j.Z.P.-X{.-X~.j./.C.{.qXW.C.d.<Xm.p.{.!.I.Q.C.m.d.V..X/.m.N._.Y.M.Z.!.y.B.P.N.t.d.!.P..X/.1.a.I.t.k.M.!.P.*X/.d.!.Q.^.%XE.[.[.&X8XpXPXu.m  .=.J U >.J ^ } 5.T Y H @XFXlXCX X7.V J ) R m ' v _ V Z L V P V k A L J A h V k h C j 7 V / N A i k 8 i k n l k l 8 k h s s f B r , l 8 t d j s 5 r 7 i l , 5 7 8 t ; , G 7 w 5 5 5 5 , t s 5 9 w 5 , 4 6 5 , 5 , 5 , , t d 5 6 * , 8 6 1 1 1 , 5 8 , , 5 , ; 8 * * t 5 * ; 5 * 6 6 , 5 > > ; 5 , ; , , * * ; , ; 1 ; ; o @ e 3 @ ;   ",
"; o ; @ @ ; @ $ @ > @ $ $ @ @ @ @ , ; , , @ @ 1 5 > 1 $ , ; , , , * * , ; ; ; 5 8 ; 6 > * , 5 , ; , 4 @ , ; , 5 5 8 6 8 5 ; 5 r 8 8 h d , ; 1 r 1 4 4 r r 8 5 j i 7 5 4 5 f B s 5 8 k 9 s 5 s r t f s s n j 5 s B f k d s h C k 8 h i m m N B n f N m h N f V V J A B h L / P h m o.V Y L T P k V h.FXgXLXJ.H J J  ./  .} J $.| ` m s.LX}.9XbXvX&XQ.^.k.t.eXC.t.`.XXm.{.~.m.d.m.I.I.N.t.j.|.N.u.g.N.*Xk.a.qXqX{.a.a.s.L.P.<XN.I.N.qXE.Z.a.t.m.d.j.P.C.p.P.C.m.P.>X<XE.!.a.a.m.-X{.N.M.N.P./.E.E.6X=XhX7X&XvXY.| } :.] | ;.` i.FX3X6X&X*XP.-XC.A.B.E.-XQ. XB.m.E.~.%X^.7X$XN.C.C.C.E.d.d.M.E.C.!.I.C.P.!.j.P.<Xd.I.M.C.a.a.a.y.k.a./.<Xj.B.Z.B.W.V.d.d.s.q.0._.I.d.W.P.[.D.C.P.Z.C.=X%X[.fX8XkX8XFX@X` I =. .P m ` | m ] ..' Q l.FXGX+XW b V V ' v N J h J J V L V m m V v P m v n N k k k f i U U m b 8 x k s b s s s 5 s b n g 8 i C 7 5 8 i i s r i t r 4 t j 4 7 8 7 w @ 1 j i 7 7 6 4 6 5 8 8 s 8 5 , * 6 4 ; 5 , 5 w , , 8 i 8 * , , = ; ; @ 5 , , 9 5 , , 6 , 5 * 1 s t , * > 1 , , 5 t * , 6 6 ; ; ; , ; 6 1 5 ; ; @ @ ; ; 3 @ o , . ",
", ; @ $ @ @ ; $ @ ; $ ; ; ; $ ; 1 6 ; * 1 ; ; > * , , $ ; 5 ; * 5 7 t 6 * , 5 5 5 * ; 8 6 , 5 5 5 * w , t , 5 4 5 7 , , 5 6 g d = 8 8 = 5 6 4 f w 7 , s d , r t 8 8 , 5 t i s 4 5 8 h 8 f 8 s B l 8 f f s i s 7 f f 5 k k s k i s s h n h h ~ B k C S V A k V V m V P V v m Z A V V V J [ J m ) Y v c.GXLX7.m :.| J P ] L =.=.I ' { Y.zX8XaX$X}.3X%X[.I.T.!.P.N.j.a.j.|.{.N.I.OXm.j.Q.F.N.N.P.<XC.P.!.d.I.P.~.P.t.j.'.^.j.{.m.j.m.C.E.`.I.>XW.M.B.E.m.N.!.j.a.{.P.a.d.d.C.P.$XE.C.I.t.I.[.<XP.C.;X6X=XaX&XbXl.7.8. .| ;. .H J.GX8X^.3XnX;XC.P.P.`.d./.|.P.P.P.{.d.j.m.W.j.{.j.d.wXC.W.`.a.m./.E.m.!.m.E.fX<XQ.!.N.!.V.C.P.f.a.C.!.m.C.d.a.<XN.p.`.t.0.k.S.t.C.*X|.d.P.W.a.!.a.N.^.^.;X$X7X9X5XxX5XwX2.J X.X.` { :.U T J K P ] J.LX).| J B P V ' ..P T _ m Y ~ v b P v P N h h V b V P k s S h m m 8 f h D k s k s f k d f h 8 t f B 8 8 d r 8 5 4 8 n l 5 5 5 j j 7 , s 9 5 * f s 8 i ; 5 t , 5 w 7 5 , 1 r 8 , t 6 w 7 0 t 5 , , , 4 9 , , 5 6 0 w , > ; w 5 * 1 , t 4 5 , 5 , 5 , 1 1 1 5 * ; * , , > ; , , , , 2 > > , > ; , * ; * , 1   ",
"; ; @ * ; @ ; ; ; ; ; 1 = @ @ ; 1 6 5 ; $ * 6 ; * 6 1 * , ; ; , 5 7 , , 6 t 5 ; t , 5 7 5 1 , , 5 ; 4 8 f 4 , 5 4 t > 5 6 7 r 5 j 8 1 ; 5 8 7 s 4 j 5 s 5 e 5 8 , w r j i i t 6 s k C 5 s s b b s r f w 5 n C j 9 s v n h A f s s k A f f s k v k m f b b m O.V N N V P k k L V V E A ^ v h N L [ G m r.0X7.s v.=.^ ) / J W X.' m $.GX8X[.3XhX9X=XqX6Xl.a.j.[.>XeXk.m.P.[.N.d.M.V.C.{.*XU.k.^.Q.7X^.P.{.%XE.j.{.C.j.C. XN.E.:XW.I.I.n.E.d.P.$X<Xa.B.N.2XW.a.!.>Xl.Q.*XW.P.fX^.P.B.d.d.^.E.g.C.dXiX~.6X6XgXhXN.%.} ;.$.' 6.I r.AXDXgX}.hXQ.^.:Xd.h.h.N.{.E.j.qXW.j.Z.W.M.u.!.%Xt..XW.L.F.h.C.|.C.%XZ.%X$XE.m.m.y.N.fX~.^.E.B.h.C.W.{.m.m.E.!.Q.j.M.f.y.a.Z.XXC.=X$Xp.A.z.y.'.B.|.P.$XcX].3X].].kX6XGXL.N F K ` { ] Z O.C Z @.V $.k.&.C N Z n L V L N H +.V V V C Z n L v P n f V v Y m 8 f V P s G G f V p h 9 B s b 8 b k k j g 4 k s 8 s s 6 6 8 8 4 8 s 5 r 5 f s 0 7 s t , , 4 7 h e 5 9 8 8 6 5 8 ; 1 f 8 8 w 4 5 s 4 , ; # ; 6 t 5 ; 2 @ 4 l , 0 > , , 5 , - 1 ; j 5 @ $ , 7 4 * , , @ + > ; 2 * ; ; , 5 , , * ; ; , 4 1 * ; ; + ; ; . ",
"o @ ; @ @ @ @ @ @ @ O > ; @ ; @ ; ; ; , , > @ ; 2 , 5 2 ; ; ; 3 @ 6 5 , 1 * * ; ; $ , 5 d 1 * * * s , 5 5 5 = 7 8 , s 1 , 4 f 4 s 5 8 9 5 8 8 f l 4 s 7 s g 4 t 5 4 f l 5 r j 8 w 5 d k s h B h h h l t 5 N b h v N l 8 f k 5 k C b s k k g r f k V h k V n h P V V m s n N V U :.^ C Z L N } 8.} P h f C A W 8.W W =...I -.5...J h.LXDX&X}.tX].L.qX[.U.C.M.B.E.{.C.N.[.[.Z.d.f.0.f.%X^.3X.Xg.n.E.V.E.m.k.W.!.I.h.|.d.P./.1XB.Y.=XlX-X3.A.C.C.S.q.C.t.m.p.C.-X*XC.W.j.N.P.(.C.!.{.W.d.k.h.Z.^.Q.&XE.U.[.8XFXy.I } c.r.| 8.U r.NX3XpXAX}.j.iX6XE.P.Q.|.P.N.L.^.^.$XC.j.C.7XP.:Xj.d.<X^._.N.d.m.eX:Xh..XN.XXd.!.N.m.%Xd.d.k.XXj.h.j..X^.V.^.T.q.t.d.N.I.2.u.d.q.0.P.~.~.j.Z.d.d.Q.qXW.#X;X8X8XgXAXZXDX0XV C o.` U V / $.V  .` [ F f / L U ' U ..m Z J B L / m v ) V U ( l f S V i R l k f 8 m h s d s 8 F 8 s f s P P i 5 8 9 9 8 j t 5 4 s / h 7 6 5 6 z 5 5 8 j 5 5 f 7 i 8 , d 5 6 5 w r 5 g 5 ; 6 6 4 5 u : @ ; d k 5 4 5 8 8 , * 5 8 5 ; , f f , 6 > @ 7 9 4 , 5 5 $ @ 6 i 5 > , 1 8 , , > ; 3 ; ; ; ; 3 3 ; , ; ; 1 > ; > 2 , ; 2 @ 2   ",
"> ; ; @ ; ; @ > 2 O 3 * ; $ 3 @ @ ; , , ; @ > ; ; 1 ; , * , ; 1 * 5 5 , , ; 6 , , , , , 6 5 , , = t , w , , 5 5 t , d 6 6 g , 8 d 5 4 r 7 z 8 5 4 5 5 s r , 5 l 7 8 9 8 9 8 8 f 4 r B f f s i j n f s 8 s D 8 h R k 8 h C h s h 8 n s k s 8 h f v P m n A k k S m E P B h ) U V Z O.P J L L ' ` ^ Y ..L V V I $.] >. .Y | 2.>.:.U J.jXtX&XhXkX=X$X$X#X4XeXh.p.N.[.C.t./.P.m.a.T.a.m.F.L.qXC.D.*XN.P.>Xj.N.d.a.T.N.Q.fX|.C.C.I.k.r.-X4Xq.:XQ.C.N.j.:Xm.W.N.(.C.N.P.!.j.^./.N.W.V.j.<XB.Z.I.V.(.{.Q.$X|.aX6XLXz.{ ;.$.;.+.=.J z.PXrX3XkXmXP.$X^.^.BX{.{.<Xa.y.N.E.fXd.:X{.P.~.Q..XW.d.~.W.m.C.!.m.j.P.^.d.<XN.a..Xj.P.I.P.P.M.t.d.I.d.E.:XI.Z.M.a.j.P.a.y.u.a.m.h.L.%X{.U.I.T.j.#X$Xd.%X*X[.aX[.0X8XZXvX{ P +.` } V Y :.P { U  .V P o.L / U J U V ) / k b L P M b m V V h h s B m m h x k h X.C 8 s k f N i i l 7 n k F 7 8 s 7 d 8 7 4 j f h f , t t 4 1 4 t 5 s 8 4 4 5 d 8 d t t 5 , t , 7 5 ; 1 5 , , 6 , = , 1 4 s , d 1 5 d 6 1 5 7 4 , > 5 5 , 5 > = t , ; 1 5 9 @ @ 4 d 5 , * 4 4 , , , ; ; * @ ; , * , ; * ; , ; ; ; @ ; ; @ ; * ;   ",
"- @ $ $ ; ; @ @ 3 : ; * 5 @ ; , @ @ ; * , ; ; 1 4 d @ , , 5 ; ; 1 * , 4 , , t , , , 5 2 * 1 t 8 5 5 * d w @ > 5 5 , = , d 9 * e , t 5 r 8 , w w 8 8 5 8 7 , 6 8 4 w 6 r 8 , 4 h C 8 r s w , i k f d s s b l 7 N s h l N k N b k s r k f b h C C i N m h n k k v b V h Z V ( J h n h ( T Z P L I ] J ^ Y L ^ ] @.V  .] ' J ` :.O.{ yXZXcXaX3XaXnX*X^.E.r.I.0.j.%Xm.%X[.N.M.N.q.q.N.[.$X*X*XE.iXwXa.P.k.].%X`.t.k.a.Q.7Xb.A.Q.N.d.w.k.N.C.m.Q.=X3XdXZ.P.~.XXm.j.t.E.#XZ./.^.P.^.P.W.C.V.b.P.$XiX~.E.7X7X3XaX0Xy.$.8.5.{ ` Q Y 7.kXHX8X}.=XmX!.V.V.!.m.^.Q.y.4.M.C.D.m..XXXj.[.eXM.a.E.[.k.C./.P.j.P.%Xa.D.$Xm.a.B./.j.4.C.:Xa.j.E.^.d.Z.y.3.k.M.Q.Q.`.C.k.a.).N.!.*XC.m.j.U.`.a.d.m.C.Q.Z.Q.&X$X9X].jXnX2.b @.U ' P Y ^ U } ` ^ m / U L Z m ` +.m L A V b b Z P L L h N V P h D A h V f V h V k 8 f n b m C 8 x n f 5 8 s k l s d l r s k i * 5 6 t 5 5 4 n l 7 8 5 8 5 r , , t 8 s 8 r d 5 w 5 5 8 4 r 4 5 4 8 8 t , 4 , t , 5 5 1 , * 8 7 5 * , 4 , 5 , , 1 @ 1 , ; 4 = 6 , 1 5 5 , 5 , , > * , 5 , ; ; * 5 5 * @ e * , e @ ; > @ $ > ; ,   ",
"@ @ @ ; @ ; > @ ; @ * ; ; @ @ ; ; ; * , ; ; 5 4 4 , > 1 ; 5 5 * , ; > , 5 , , , , e , @ ; 1 6 , , 5 ; t 8 * 1 , 4 5 , 5 8 , * , 4 5 r 8 g 4 5 4 t s 7 j t 5 8 t 8 4 4 t 8 8 w s n 8 s s l t , i f s B k n l 4 f c i s 8 s N k s f r h f s C m V B N k h s S k V P V C C m m V P A V L P Z L U ^ ^ L V } J J J ' ` `  .^ V L L J x.GX8X&XU.&XQ.=XC.C.Z.C.k.Q.N.<XC.m.P.d.k.j.d.C.<X*XiXP.j./.C.{.*XV.a.!.$Xm.a.k.!.7X^.b.M.Y.t.XXj.d.E.E.W.%XV.^.[.q.C.P.B.d.N.!.j.Z.^.Q.*Xj.W.C.E.P.eX^.m./.C.y.&X7X6X3X0XyXr.U ;.5.=. .>.H 7.PXjX=X4X6X[.E.C.Z.E.{./.m.d.!.V.Q.Z.d.A.N.j.P.C.E.W.,X%Xa.j.;XP.Z.d.Z..X-XQ.I.p.0.P./.h.~.E.Z.d.^.P.m.B.g.a.`.h.j.!.a.!.a.k.j.V.N.a.a.I.`.d.a.m.P./.^.I.a.7XvX9XhX[.xX9XJ.{  .' L P [ J U =.U X.Z L U L / / Y m ' V v [ B h m m K m P V m A h N s B h h h m S n 8 8 h V h C s f k l s , j k B h 8 s k f k f 5 , 5 d r 8 7 f s 8 5 5 5 t t 8 5 , 5 5 7 h 5 8 5 4 5 g 4 9 5 8 w d 9 4 t 5 t 4 4 5 , 8 6 , 6 4 , , 6 t 4 , , t , * 5 , , 0 6 5 * , ; * 6 , ; , 3 * ; 6 6 ; ; * 8 t * $ > * 4 1 ; @ 1 , @ * o 5   ",
"@ @ ; ; @ @ ; ; ; o $ ; * , > @ > 6 , , ; @ ; g 8 * , * , ; , , , 1 ; * 5 6 4 5 ; $ 4 ; , 5 , ; , , , y 4 t r * 6 4 d t 4 6 d 4 9 8 9 6 , t 8 5 4 i 7 8 s 0 5 t 9 f f 5 5 d s 7 5 d d 4 k r j j 8 s i 8 t s s k k 7 n t 8 h C s d k h n s B 8 n C k k L L k s V m o.m V P L m m V ' m K L J Y V Y Y  .U / P Y U >. .U C ^ U W J 7.yXpX}.].9X7X3X^.C.M. XP.-X!.g.{.N.C.d.j.p.d..XP.C.7XQ.!.,X^.!.eXE.I.$X=XE.W.A.m.E.E.E.B.s.d.[.N.C.N.!.m.$X/.a.m.,Xm.{.>XQ.W.<Xj.N.E.E.!.t.t.d.!.j.!..X~.E.|.{.=X&X7X3XcXmXh.$.=.J | =.;.T u.yX&X8X=XhX=X;XW.W.W.{.P.g.E.%XC.`.p.m.j. X!.m.C.~.^.m.n.{.Q.!.a.P.d.B.^.{.E.a.B.W.P.Z.<Xd.Q.!.m.j.y.g.W.qX%XN.P.t.M.t.Z.M.k.B.m.%XN.1.M.S.j.!.E.N.MXP.j.[.7X6X3X6X3X6X5XBX{ U >.} U | 5.[ N b O.P P U / ] ^ L m o.L V Y h L T K V N L h 8 n b P s l h ) m k k h h i f f 8 s s C i k h p d r s h s l f 4 8 f s 8 t 4 f s 4 7 8 4 8 , , 4 5 5 5 , 6 5 r 8 * 5 7 i , w * t 7 6 , * 5 , 5 5 5 = w 5 , 4 5 e , ; 1 , 4 8 , , 4 t 5 5 , 1 1 , , , 1 , , , ; @ * 6 > ; ; * 8 * ; 1 * ; ; > 1 5 , @ > * @ 6 , * ; , . ",
", ; @ @ ; > + ; ; * ; ; ; ; ; * ; , 9 * > @ $ 5 , * , , ; ; , , ; ; ; 1 1 9 , , > 1 8 5 ; ; 1 , 5 t 0 , , 4 t 8 t 5 8 4 4 5 , 8 s 7 t , 4 t 5 9 s 8 4 8 s 5 4 , 7 f f t 5 8 f t , r 4 f f 7 N l i s N i 7 l l h s h b k f s s i f n v f f s s h N k i m V s k ) m Y K b K L ..m ( ^ A V V / ^ V Y V J [ ^ V V / ` | U K Q } [ U z.mX5X9X9XmX3X;XfX{.g.C.j.L.C.y.P.E.W.N.XXB.a.g.p.C.C.P.^.a.d.t.d.F.V.Z.*X~.:Xd.h.P..X{.j.t.y.P.mX^.t.`.V.E.7Xm.!.eXE.L..XN.N.j.N.E.~.-Xm.m.d.j..Xa.V.N.P.W.j.N.mX[.3XAXkX5Xh.{ =.*.{ +.} J -.0XQ.8X[.6X=X[.j.m.j.E.I.d.P.m.C.!.d.!.{.d.C.j.B.Q.-X^.d.Q.{.j.!.%Xj.a.F.P./.j._.I.m.a.^.N.B.Q.~.d.d.E.^.~.$XP.W.s.k.:XE.0.Z.Z.p./.m.k.n.m.a.W.d.g.E..XP.&X-X[.].tXjXpXFXBX-.] @.^ ` ] ] } ^ V Z S L V U J U V ~ V K m V P U k V V P A N S k A b 8 B h b ' f f s P b f f 8 f n v k f C V 8 r k n 8 8 8 B 8 7 7 f f 5 f s r d l 8 5 g 8 5 8 t 5 5 1 4 r f , i F 8 4 d ; 5 5 4 1 , t 8 , s , 5 5 , 5 8 , 4 ; , 5 5 4 6 ; 6 w , , 6 , , , , , , , , w t @ ; , 5 * ; 2 , 5 , 5 , ; o > * 5 6 * * 5 ; ; , ; 0 > , . ",
"> , @ * ; @ @ ; 1 * , ; ; @ * ; 1 ; 5 ; ; ; 6 @ @ 5 1 1 , , = 5 5 * 1 1 , ; > , 5 w , , ; ; , 5 * , 5 , , 5 , 5 8 4 6 5 5 , 5 5 , 5 5 4 d 4 8 s t s 5 5 n 8 8 k s 8 7 r s f 8 s r s d 8 r s f 8 8 f k S s 5 d 8 k b b s A h n A i i n 8 s f s k S n b A m P h A V v m V V v V v Y N m L ^ J L Y ^ L U Y V T o.J +.' ;.o.U U ' m BXFXrX3XU.3XE.y.E.<XC.P.N.Y.h.j.(.E.7X Xk.a.I.!.Q.Q.g.`.%X{.[.,Xm.j.V.m.!.d.n.t.p./.W.P.W.E.(._.!.m.M.P.vX&X*XP.P.V.,XW.m.C.!.d.Z.:Xd.W.%X/.E.k.m.P.I.r.P.:XP.>XC.-X$X3XgXFXl.| | *.W | =.I J.GXSXgXpXdX^.%X{.r.0.C.>Xb.t.k.a.a.!..XC.W.a._.B.d.`.N.D.E.U.C..X[.P.M.E.d.E.C.N.a.a.A.m.{.j.W.BXE.m._.W.E.&X%XL.j.C.!.(.B.p.T.C.M.M.j.p.j.t.a.j.Q.N.E.d.m.1XE.P.GXFX8X6XwXt.J P L U ^ V '  .m N L  .U [ V Y  .( N m K U b C N E b n h V v N C i h A P s T k h n n b D r k n C i k f f f 7 s s s 4 f r x s 4 r s s 8 8 s 5 r 9 t f s 4 8 8 8 7 8 w 5 s f s 8 1 4 , 5 8 5 @ 6 w , 8 8 5 4 5 r 5 5 , 5 6 5 5 5 = , , ; , 8 6 , 4 , ; ; , , , , * , , 5 > 1 g 5 , , 6 , > , , , 5 , , 5 * @ , 1 * @ 2 ; 1 6 > ;   ",
"* @ $ ; > o @ > 5 2 , ; $ $ @ ; ; * > 1 * , * o @ e , ; , , 6 0 , , 1 , 1 ; * , 4 8 5 , 2 @ , 5 4 , 1 d t 6 ; 5 d 4 5 , 6 8 8 5 d 6 j 8 i 8 r , 5 7 8 6 5 l n s s r , f s 8 8 j k f 4 s f w 8 k N 8 7 N k 8 d f A m h i B h k A N i b s F n v P V p n s N c b m n C A L K A V ~ b N H N / U L L V ] L V V }  .' Y  .` | ` U W -.0XbXAXzX&XaX7XQ.d.<X~.^.P.k.B.`.C.,XQ.{.y.k.m.V.B.j.<Xd.l.:Xd.Q.:Xr.A.m.A.t.M.<XN.d.l.j.P.C.E.Z.4.t.d.C.wXl.{.Z.p.Z.W.b.m.a.XXm.d.E.C.b.C.V.*XC.V..Xa. XA.E.{.<Xd.iX=X8XgXcXa.5.=.$.;.U >.T r.GXZX6XpXE.[.W.d.k.k.B./.P.d.z.N.I.d.p.).eXa.j.!.t.d.I.%X%XB.j.m.C.$XE.d.g.k.E.!._.p.p.B.>Xh.d.C.E.E.r.t.>XP.C.N.V.E.g.M.I.k.h.d.B.E.E.t.M._.k.B.P.C.>X%Xm.k.>X{.U.&X8X3XhXU.J _ L L L Y P ^ J [ m / [ U Y / V J Z V / ' N h k h v A h / h C n s v k V f h C k s 4 7 s f h s C f i 8 j s s f j 8 k l s r 7 s j 5 8 f 8 j r d 5 5 f j s 8 4 d g 8 5 8 4 5 4 s , t w 5 9 * ; , g r 5 j 5 s 5 9 5 8 , 6 t 5 r 5 , 1 > * 5 8 ; * 8 , 5 , , , 5 t , 1 ; ; 5 , 5 * 5 5 8 , , , ; * * , , , @ o 4 6 ; ; ; > , : @ ,   ",
"; ; * ; @ @ ; ; 1 @ ; @ ; ; > o @ ; 1 , > , > * 1 > @ 1 1 ; > * , , , * , , 4 5 , y * t t , 1 , 1 5 6 6 4 8 8 , 8 g 8 7 6 5 r d r f s f 8 7 5 5 8 t 5 r f 7 8 r t i s 7 8 6 , j i s d s 8 5 7 f s h f 5 5 h V k 4 f h k h i i s s n N f l B k C h A V s C v N B 7 f k s S V L Y P J ^ V V L / m L V U U J / Y U  .` J ;.T X.U i.9XjX8XtX0X-XwX,XN.I.B.W.E.N.B.r.t.qXE.N.W.W.E.g.0.k.`.d.L.!.0.d.I./.:Xg.W.C.a.B.Z.M.M.P.N.W.C.m.).k././.Q.Z.W.f.a.{.P.C.fXC.N.-X{.V./.d.d.B.m.E.N.!.N./.j.Z.N.qXnX=X&X&XgXbXJ.| =.&.;.;.8.{ 1.mX5XgXgX8X=X;XI.Z.V.W.m./.m.j.eXMXj.d.N.P.Z.m.`.[.P.C.E.a.Z.k.N.&XqX,X^.C.j.!.d.t.Z.C.V.j.Q.d.P.m.B.a.M.fXE.Z.!.E.C.W.P.k.j.4.T.N.C.!.<Xj.r.S.y.y.4.m.!.P.N.Q.[.&XQ.9XgXxXeXJ l P ^  .U  .J U @.m V ` J ' U K V m P V k _ V V b 8 n V C s s k P m V k N 8 s C s f j 9 5 f G s s C V s s s i i S 5 s N B f r 8 s 8 j 8 , 1 7 i f 1 , 7 s 5 8 4 l 5 6 6 , h k 4 5 ; ; , t 1 0 g 4 , 5 , 5 s s * > 6 , 5 w r 5 5 r ; ; 5 1 , , t 1 , 1 , * , , , , , 4 , 1 s w 4 1 , * * , 1 , 1 * * ; ; * ; ; @ , , ; * , , ;   ",
"@ ; ; @ @ ; @ > @ @ ; @ ; @ > # o ; 1 @ > 0 * , , > $ , , , , , 1 , , @ ; 5 , , , , 5 ; , , 5 > ; 5 5 ; 8 j s 5 , 7 t 5 6 w 4 4 4 f r s n 8 8 5 5 = s r s 8 j 5 i 8 f r d 5 , l f s s k s 4 t t 8 s B 5 r C h f 5 f m s k s f f N V v s 8 k b S h s C V P ) P s R b b N s h V m V o.U V V J X.m Y L J ' V ( U Y [ ' ] { Y @.J Y.GXrX8XkXaXP.^.wXh.j.Q.d.p.^.Y.s.t.^.E.C.g.%XE.C.k.).m.E.C.E.`.`.m.{.Q.C.W.(.m.a.j.`.a.P.m.E.B.t.W.%X/.C.Z.m.m.C.Z.E.j.P.Z.j.N.E.>Xd.C.C.<XM.C.,X!.P.N.d.g.W.W.N.P.6X=X3XyXyX7.` =.U { | ;. .x.GX3XkX8X8XaXC.d.j.V.P.h.~.P.N.m.V.C./.a.m.E.d.E.*XQ.C.B.a.q.d.I.d.E.E.m.k.a.m.!.Z.t.p.W.%X{.a.Z.k.d.).I.m.b.W.C.C.W.a.m.B.M.N.Z.h.d.d.E.C.M.m.d.k.t.d.E.I.d.P.fX^.[.aXgXgX4X$.C ' U =.^ ' [ U ^ / V  .' U J U ' m A k A b h J ..k 8 b k V C s s P ) h v f f N k 8 B B 8 4 j 8 r b n 8 g 8 l f j r n i i k k 7 j i 8 s r 5 9 i k , 1 5 g 4 8 f 8 8 5 d 9 i s r g * , d 4 * 6 5 8 5 1 ; 5 4 d 3 * 4 4 * 7 6 8 5 4 , , 4 * ; , 5 , ; , d ; 6 , 1 5 t , 1 0 5 8 1 * ; ; > , * 1 6 @ @ 1 , 5 ; , ; , 1 e ; ; , >   ",
"@ * ; ; 5 ; * @ $ ; ; * @ * ; > ; , ; @ * , , 4 6 , 1 1 , 5 8 , , , 5 ; ; 1 , 5 6 6 5 @ , t 5 5 5 , 8 , 8 8 5 9 d s ; 5 r 4 r 6 , 5 w w 7 s f w 6 5 5 5 s f F 8 r k f 6 , f l r 8 d s s f f j f s b k i S B 7 r g s N 5 4 f k k B 4 s h C B s m V s h V V m K k m P h V Z V V m L / U P V m ' V ' J ` L L ' J U L L J J U P I U.AXxX3XpX3X8X4X*X!.P.-XY.d.^.%XP.I./.N.Q.`.k.k.W./.k.t.C.C.^.;XW.g.d.B.!.a.M.~..XI.C.a.N.P.V.P.P.m.~.^.j.E.<XC.:X{.!.6Xj.a.<Xm.a.I.t.%X~.E./.E.C.d.m./.B.m.C.*XN.V.bX6X3XtXbXr.$. .U 7. .:.Y r.hXxXrX=X[.N.!./.a. Xj.a.V.N./.V.m.^.<X^.C.^./.d.j.{.).k.`.Z.P.N.t.N.P.<XY.3.E.(.!.m.E.C.j..XZ.a.y.d.I.j.0.m.C.N.k.d.Z.P.q.:X`.a.j.j.P.m.j.XXW.d.Z.XXM.C.P.a.[.7X$XvX^.3X].yXu.J U ;.^ N L ^ m V P m  .U m M m L U ^ / L m X.k V ( V h N E v A h C N k C l A f 8 P h V S 7 x l h s s j 8 V s j 5 s s 8 h n v f r 4 8 k h 5 d 8 4 f 5 5 w 8 7 f t 5 t 6 s , , r d t t d , 4 0 5 r , ; , 5 ; g 7 , , 8 w , ; 5 4 , 6 t 5 5 * ; ; , , , ; ; 4 5 5 1 2 @ > ; , , ; ; 5 , , ; 5 w , , ; 5 6 , 5 6 > ; ; 5 > * ; * . ",
"; @ > @ ; * @ $ ; @ ; 1 ; 2 ; * , , , ; ; > 5 ; 5 ; * 6 * 1 5 5 t , 5 , * ; 1 6 6 , t 6 @ 7 5 , 8 r 5 w , , 6 8 5 4 5 f 5 5 d d , 5 5 , , j 7 4 8 r 5 5 s l 8 s 8 8 B 8 , i k 5 5 s n t j 8 s d f s k s n l 8 8 s C v 9 8 l s h h s n M P h i V m b k k N m P b V Y V V P Y V P V V J V V } U J T ` ^ K L ` ^ J J ^ V ] :.Y $.0XrX3XaXkX[.pX9XM.d.].fXy.d.^.^.d.N.I.a.I.C.d.g.V.N.M.Y.m.j.E.%XP.MXB._.2X0.h.Z.a.d.W.C./.~.~.P.`.C.C.P.[.{.C.W.C.V.C.~.a.Z.<Xa.M.a.!.E.!.P.E.N./.d.j.N.A.C.P.V.E.,X~.3XgX3XvXY.$.` ;.-.&.J I y.gXgX3X7XmXC.{.eXE.{. Xd.N.!.m.W.|.P.a.{.%XQ./.B.B.B.q.0.D.C.C.E._.I.Z.W.j.Z.!.d.E.h.P.d.Z._.B.M.m.W./.d.d.Z.t.C.`.C.m.!.j.^.d.N.`.d.:X.XN.j./.C.m.t.I.!.$X>XQ.P.iX$XN.&X3XGXJ.I U  .' L P  .' / P ^ W J K P A V ( U U J ' ' N k V Y h C b s b v s h k Y h s s k v b m P s 5 h h i t r l C i d 7 j i 8 k h s f 4 s D s i k j 5 5 s s 5 5 f h 8 l 5 , 5 4 6 t 5 7 i s 4 t 5 , 5 1 w 6 ; 5 1 * , w , , 5 5 w ; , 0 , , , 5 , 5 2 , t 1 ; 6 5 , ; , @ ; * 3 ; @ ; ; 6 8 6 , 5 w * ; , * , ; 8 5 * * , , , ; @ , o ",
"o o ; * ; - @ > ; @ > ; , ; * * @ , ; ; ; ; > ; , * ; * * > , * 1 , 1 , 1 , 4 , , , 6 8 9 1 * f g 4 1 = , * 6 8 , 8 6 r 8 , , , t s 5 5 g t 7 r 7 7 t 6 8 s 7 s 8 4 8 7 l d 5 h s i f t 8 h C i s 8 k f 8 k l l s s k f x f 7 N v P V b s s h b n h n V B n A v V b k h N L V Z V V J h b P m L V N k V ^ J X.) J :.] ` } ! W 4XlXgXgX8X=X8X7Xa.p.P.^.l.a.d.C.Q.!.!.t.k.t..X!.0.M..XZ.M.C.d.0.W.P.j.M.h.d.k.m.V.$X:XB.C.!././.A.I.P.a.E.W.C.C./.N.N.%XP.E.1XE.`.d.{.m.g.P.!.V.Z.t._.m.3.p.!.D.~.,X}.5XrX5XmXh.W 8.=.=.$.=.} u.jX6XgX8XwX&X^.C.j.0.B.^.!.m.d.d.j.j.d.C.a.a.m.C.k.`.m.P.E.d.C.`.a.d.k.W.N.I.m.p.Z.m.E.k.y.y.I.j.E./.d.t.M._.j.Z.!.j.t.d..Xj.1.M.M.a.P.!.d.j.P.C.g.t.!.{.[.j.d.m.;XuX4X=XcXFXoXU ' L U ' Y J J J L [ L m ' ( A P b v L m V k A _ V v C b k s k C N i k v V M 8 S i s h A n 8 f b i s k N s h S 7 t j j v k r t 5 8 B s A s 8 t g 8 8 8 g 8 d 8 s 8 5 8 5 0 , r s 4 9 8 4 , 5 8 4 f d 5 s t , 5 5 5 5 , 9 6 5 1 , * 5 1 , ; , 5 * , 1 , 8 , , ; 5 w z , 1 ; + 5 t , ; @ 2 * ; * ; 1 1 ; ; , ; , 1 ; ; * 1 ; * X ",
"@ $ * > @ @ @ ; , * - ; @ * * > @ ; ; 5 , @ ; ; 1 1 ; @ 3 , > ; 1 ; 1 ; , , 5 ; > 1 @ 8 4 * ; 4 4 * * 5 d 8 8 8 t , , 5 5 6 ; , s h s 7 d , 4 f s 8 4 t 4 9 F 8 8 j , k n 8 0 k C i i t 8 b C 8 7 s s s f s f b k 8 8 h k 8 s A m V v h l s A N i k m v P s h K m k C B n s P L J P L b K V / ~ h C h ^ ` P L H U | L W ` K 4.bXAXrXaX&X.XQ.{.j.I.m.C.BXC.a.M.>Xt.V.k.B.a.Z.W.k.M.C.b.L.:X!.z.B.0.N.V.C.<XN.C.E.*XP.b.N.V.N.C.j.d.W.W.W.C.C.m.N.E.^.E.!.N./.N.N.C.j.V.I.I.I.M.d.M.d.k.r.B.N.V.d.P.3XgX5XgXLXj.-.>.U  .-.c.I 4.nXpX8X8X8XxX&X%X_.a.P.=XP.N.Z.M.a.I.I.j.C.:X!.N.P.E.j.;X_.a.N.P.`.m.j.%XF.d.P.V.N.N.).P.k.h.:X!.~.C.j.N.l.p.P.!.C.!.T.9.l.N.u.4.d.Z.d.I.P.Q.!.y.t.'.j.t.V.<XW.N.~.6XlX[.gXjX0X$.] ^ [ ` o.J L  .' V Z P U V v b S N ) C R V v m Z L J P n s k b ~ k n k b C h b k k s f h s s k B n k i t f m f 7 8 s h 5 8 g 5 B f 8 b ; 7 s 8 8 5 k 4 5 5 4 8 i 8 = s 1 , r 8 5 6 8 5 1 , r 7 7 7 f s 7 5 8 5 , 5 , 6 * 6 6 5 t 6 ; t , r 5 4 , 1 4 , , @ ; , 4 4 6 , 5 ; = 5 * ; * * , > ; * 6 ; @ ; * 1 5 > @ > ; , > , . ",
"; @ ; , ; ; @ * , ; ; ; * 5 * $ > ; 2 , , ; 1 ; , * * t 6 * 5 1 , 6 ; * 5 5 8 ; * , ; 6 , t 5 * 5 5 , 1 8 5 = t w , , , 5 5 r 5 4 8 t 5 s B 4 s 8 9 5 7 5 8 8 8 s r n s 4 4 8 s f f 9 f 8 s f f s N B d s s k s s s s h f l S b h m s k A i n C r N V m A h v P b b P b A k m m J ' h V ' M Y ~ P ( L Y V  .m ' ' J L -.] J i.FXxX+X=XmXaX^./.>X{.j.N.0.j.*X%XXXt.m.I.W..XN.h.C.P.W.d.I.d.d._.M.N..X~.C.!.M.j.d.V.[.E.d.B.t.V./.E.C.<XC.L./.N.P./.j.E.E.%XZ.t.P.P.0.d.C.a.d.!.m.`.d.p.T.<Xd.C.^.9X9X8XrX+XvXa.{ :.=. .*.} J oXLXgXgX}.aX^.P.^.B.B.Z.P.P.B.p.y.I.!.{.!./.E.P.C.|.m.V.Z.g.B.m.Z.j.B.B.C.~./.eXN.E.V.k.M.m.S.d.!.k.j.I..Xg.p.I.d.q.a.k.f.{.W.!.B.k.g.C.Q./.a.j.Y.Y.j.j.j.=XNXk.m.C.6XaXQ.E.=XLX2.J ! [ J  .U U  .U U m L ^ / J P P b v V k k K L m b V A n h V h R v k h N V h v b C s B n b s 8 f 8 h l j 7 i k j 7 n k 8 G k h F 5 8 i 6 f i h f s t 9 8 d 5 4 g t , 8 5 5 r t , 6 8 t , 5 5 5 d 8 5 , 9 5 4 8 5 ; ; w 6 ; d 8 0 4 1 5 > 6 9 5 , w 8 , , , 1 , , * 5 0 6 * , 5 ; ; * 6 1 ; * * 1 1 , > 4 5 , @ @ 3 ; ; 2 *   ",
"* @ ; , ; @ @ > ; ; ; @ @ 5 1 O * ; ; > * , 1 ; 5 @ - r 8 * ; @ 5 f 5 ; , 4 4 6 8 , r > ; t 5 5 5 4 5 5 , 5 w 5 , t 5 w 5 5 t 5 6 6 1 1 4 h b s 6 f 8 s t d 4 f 8 8 m t 8 g 7 7 j f d f 8 s 8 f r v k s 8 f C i j f C f k h h N b g s N N h n A h h b V m P N b v ( M M v n k V / Y B V Y N Z P U ` } T L [ m +.' J [ ;.=.H J.AXgX6X6XkX=X*XW.Q.E.T.a.u.P.C.E.E.b.Z.d.[.Q.j.0.Z.~.V.B.N.m.Q.E.a.g.!.m.W.d.M.B.`.F.E.$Xj.'.B.M.;X-XE.j.^.wXC.d.{.m.a.E.^.E.a.Z.`.m.Z.W.C.a.V.E.j.W.G./.j.C.h.h.[.=XaX3X5XjXnXy.U  .:.{ | / =.VXpXgXgXvXmXC.~.,XP.V.%XC.I.W.Z.j.P.j.j.N.a.*XQ..X/.~.Z.0.g.m.q.Z.p.t.*X!.E.N.W.V.Q./.Z.d.j.m.t.k.k.A.C.d.d.A.m.C.k.s.a.d.E.C.m.d.t.k.qXW.P.B.d.W.h.a.k.{.3XE.d.j.Q.hX=XvXwXaXGXr.m ..' ' U  .` [ J L T ^ L m ' ^ k ~ Z P V N A U m V N V v m K m 8 f h b A h h R b h b k s b k 4 s B n i x i B k s s V s r 8 h h 8 4 d k s 5 5 B s 8 5 6 8 7 s j 5 = t r 5 8 9 s 8 , , 5 5 2 1 , 8 t 8 8 1 6 5 5 e * 1 1 e * , 7 5 , 6 = * ; 6 * , 8 5 6 , , ; ; O @ ; 5 , , u ; ; 6 ; 9 1 @ > y ; 5 5 , 5 5 1 2 $ @ ; ; ; *   ",
"@ @ O @ @ ; @ $ $ @ 1 * * , , ; 3 * 1 ; 5 6 , , , , > , 1 * ; @ 5 4 * 4 , , 1 5 , s 5 , ; 8 d 5 4 r 4 ; ; 6 7 5 , 5 8 , 6 9 8 5 , 5 s 6 5 f h 7 g j 7 8 8 5 6 l s t 9 b h 8 5 g k 8 , s f s s f 5 5 f k 7 s j 8 n v j k V m m f r k s h C m A F f s V s B s s V V N b ' J m b V V b ) J V U m ' / V V V m U { U U J ) L U Q |.8XpX=X8XeXm.C.P.j.N..XC.^.E.j.XXI.h.u.k.S.m.d.t.m.!.4.m.k.m.B.{.j.j._.0.m.N.j.{.{.E.).L.D.I.a.W..Xa.k.V.-X$X$XC.z.Y.P.~.C.Z.s.S.N.N.a._.y.Z.D.~.#X*Xg.w.a.%X^.E.(.C.-X6X}.xXLXy.U ) ' %.8.$.H R.nX6X&XbXpX=XD.y.:X%XC.a.j.Z.N.P.W.a.W.T.C.N.E.V.V.C.,Xm.'.N.a.V.!.C.m.~.fXC.j.y.'.).0.W.'.p.t.V.S.Z.E.a.Z.<Xk.t.t.a.0.M.4.a.d.P.<XC.I.j.!.>Xk.b.t._.W.d.k.C.C.fXQ.6X3X8X6X8XxXY.m o.@.| U V  .o.U ^ ] U [ m [ U L m L K ) b m P b E A c f s b M b v i k k s s B k f s 8 l k k k s l t 0 k s 8 s l 8 s 7 j s n h h f s k t 8 h i , j B 8 5 4 7 g 8 t s 4 ; t t 4 s 8 4 t t 5 5 t ; , , 8 , 6 t y , * 5 , , 4 8 , 4 6 * ; t 1 ; , , 6 , = g 8 , * ; , > , @ ; ; * , * 1 o 7 7 * 6 , , , 8 6 @ , e @ ; > ; ; @   ",
"; ; o @ @ ; > @ @ > 3 > , , 1 1 @ , 1 ; , , , ; * , ; , , 5 * * 1 , 0 t 5 ; 4 , , 5 9 1 * 5 5 , 8 5 6 > , j 8 1 , 5 , 5 , 4 j f 4 t l 7 , d s 8 s s r i l , 8 f s 5 r s B 7 6 g 7 8 d 8 8 k k h l 8 8 D h s s s k h h h h P A s 7 h s C h h m s s h K f n k h P Y s C V / V R Z V V v / P m Z V V b b L  .` ' ' o.V L ..] -.IXyXhXgXbXN.t.>XP.m.!.j.f.|.Q.I.B.j.a.k.k.q.a.`.C.C.`.W.eXj.d.j.C.XXj.Z.V.j.I.C.m.P.E.j.P.{.C.E.P.a.I.k.j.!.>X$XV.p.p.>X!.W.j.a.d.P.*X<X.XN.C.C.C./.<Xt.t.m.E.C.:XN.C.6X8X8XcX8X2.;.o.` $.$.=.H J.zX&XpXkX=X~.E.N.j.^.!.<XW.N.W.I.'.d.E.a.{.^.`.C.Z.E.%Xm.t.B.A.d.j.Q.C.b.M.m.Z.B.C.j.Z.W.Q.Z.d.E.W.d.Z.d.m.C.M.d._.a.t.d.T.t.j.N.W.t.a.:X{.V.P.W.p.N./.j.N.W.V.d.m.aXpX8X&XkXbXL.J X.Z } U ^ J J ' [ I ^ / m / m v ~ V m b v V V h N b A n b V V k C n N N S R k s f k h v 8 b _ 8 s s d f B k s f s l g r 8 s 7 s f r s 8 8 f l f s 8 f j g 8 8 5 7 d , 5 5 5 5 d 8 5 5 , d g 4 4 5 6 9 ; 6 5 , 1 1 ; , 5 t * > 5 4 1 5 4 * 2 , , 6 , , , = * 2 5 , 1 5 @ * , * * > 5 @ 1 8 * , , 5 * w 6 * , @ * > , * @ @   ",
"; ; * 1 ; ; @ @ ; ; $ $ @ ; * 1 ; , 5 , 1 @ ; , * * ; ; ; 5 , , 0 , 4 8 4 , , , 5 , 1 5 , , , 5 8 6 > ; , i s 8 8 g 6 r 5 5 5 7 d j l 7 5 5 5 t 5 f 5 s l 4 k s 5 f s s 7 5 d 4 8 8 g g r b k 8 s f s s N N n f s n k k s k k V N V b B h s s k k N v B h N n h Z k n v N k V N Z / J E h m P Z K X.' U | J / ^ ' U ^ :.W 2.NX3X9XFXgXU.m.{.^.^.E.a.p.P.C.eXN.d.k.a.C.!.C.E.C.N.j.Q.[.m.[..XN.).j.g.!.a.P.!.m.b.$X{.d.p.j.<XI.t.d.d.I.a.V.!.E.eXm.I.a.m.!.!.P.C.N.j.W.P./.d.t.a.d.a.a.<X/.>X/.%X[.].3X8X8XLXh.J ! { &.{ U =.XXhX8XkX}.P.C.[.aX3X^.a.C.:X~.Z.0.A.g./.,XW.M.d.m.d.Q.eXE.Q.N.3.M.V./.E.P.4.k.I.%XN.a.<Xj.d.B.B.j.C.~.j.d.d..Xh._._.0.p.W.MXN.M.3.a.B.d.W.~.E./.Z.M.B.P.P.!.^.^.P.%X4X=X6X}.3XbX7X` A P Q U  .` T U V U J b A m P ( V Z m ../ h A P h V V P k m v C k s n h b s A h f s v k k 8 B f s l s h k s b s s l s r w 5 f 8 s s 8 f s 9 r k s i 7 s r 8 t 7 s 7 4 4 s s 8 , w f s 5 5 5 8 4 5 w , , 4 0 , d 8 ; 5 r d , , , t 5 8 , ; ; 1 , * u , 0 5 , 1 , 6 , 8 ; , 6 5 , , 1 2 > * 1 6 , ; @ ; , 5 @ @ , , , > , $ . ",
"$ ; ; , > * ; * ; @ 2 > @ ; ; @ 1 1 , 5 e $ $ 1 t @ , , , @ 1 0 0 , 5 * 1 1 , , 5 , @ 5 , , 5 t 5 , , * 8 8 s 4 4 f , 4 8 5 8 , 7 5 s s 9 t 4 7 g d 8 f 8 s f 8 5 j 8 7 8 k k 8 g 7 i 8 s s n f i B k h h 8 i f h S N b s f h h Z V k n s n k N A C m n h k C V m v N b n m V K V J { s b V V ( J V U U ] U L P m =.>.[ W r.wXaXaXhX6X;X/.Q.^.d.m./.C.N.a.m.a.`.!.m.XX Xd./.C.p.j.E.I.Q./.Z.C.N.C.N.T.!.P.N.Z.%X>XP.W.!.XXd.B.N.I.C.d./.m.t.N./.C.d.k.q.!.W.N.E.j.a.B.W.!.C.t.t.j.I.a.W.N.j.m.~.*XqXhX9XP.mXy.U :.=.Q 8.{ I z.kXgXgXnX7X{.$XE.{.E.V.Q.{.~.V.0.M.>XP.~.B.0.a./.A.m.d.-XnXC.j.d.W..X!.!.j.j.m.~.eXC.C.;XXXa.j.P.j.P.C./.Z.j.d.m.Z.P.j.d.r.a.E.k.a.k.d.Z.<XBXj.d.M.j.E.F.!.C.C.^.^.N.^.7XvX4X8XbX1.J ( =.U  .^ J ] U [ V J Y V m P Z L V L V h h V V J V A s b V n h h S b f k A V h b V k k b s l k b k N k r k k f k k i d s s B 8 s 8 r s s f s s s d 8 8 4 t f 8 8 7 f s 8 8 5 d 7 7 6 5 4 t 8 6 ; 5 , 5 5 , 8 5 , w 5 4 5 * , 5 6 7 ; * 1 , ; , = 5 , 5 5 4 5 5 1 , ; , * , ; , * * * 2 , , ; ; ; @ , 5 @ @ > ; ; * 1 ; . ",
"@ @ $ * ; ; ; ; ; ; 1 @ > ; ; ; @ , ; @ 3 ; ; 1 5 5 6 * , > > 5 , , 5 ; , @ ; 6 5 4 , 1 , 5 , , 4 4 7 4 d 1 , r s , i , 4 5 t t 6 4 9 4 t f h 8 1 , 8 k f s 4 8 i s 8 7 i b h h 8 i s n h 7 8 C s 7 h v l k f k k i d V n s s 8 V V Y b B _ k k k S h V V m m P h V O.P h K U h m L Y m ( V V ' =.` { U J U / ^ J =.U K U ].bXpXzX^.hXaX=X^.a.N.{.,XD.C.B.a.a.{.C.j.a.a.a.C.N.k.m.h.I.I.t.m.P.V.k.a.B.j.!.C.C.<XP.p.eXZ.W.A.t.B.C.N.p./.>Xa.T./.[.E.>XM.t.m.Z.m.a.W.d.t.I./.m.j.<X!.M.C.P.N.C.P.{.dX[.hX8XnXy.&.v.:.W 5.6.H y.FXZXuX[.mX[.[.N.d.C.,X-X.Xd.#X/.t.`.V.V.a.{.*X^.C.C.~.C.Q.^.NXq.t.y.h.I.^.aXV.m.M.p./.:XN.d.j.m.d.N.C.N.N.t.g.I.V./.Z.l.r.h.F.!.q.a.B.k.d.j.d.W.a.t.j.,XB.C.d.N.V.P.6X=X4X3XpXGXoX} U ` I ` V J V ' V J U ] P k Z P P V Y V V b V _ V m m A h k v L P h v b h m k m A n k h N i k h V i s M s i s 8 v P s i k s k i v k 9 s k C k f 5 r 8 f B f 8 8 i s t 4 r f d d 4 8 , ; , , 7 8 5 , 5 w , , 8 4 8 5 t 1 5 , 1 * , 1 ; 6 z 5 * 5 6 > ; , 4 8 * @ ; = ; 1 ; ; , , > ; 5 6 ; * , 6 5 ; , 1 ; @ > ; , > ; @   ",
": @ o ; ; ; ; ; * @ * ; 5 1 * * @ 1 > @ ; * , @ @ 5 5 = = , ; 1 , , , 5 , ; ; 4 5 5 , 5 1 , , 4 t 9 j d , , , t t t B , 6 s 8 5 8 5 6 6 , s s 7 w 6 s s h 4 s 7 j s 9 j k s v D f s s n s f f s 8 l h h c f 8 n v i 7 L b s F D h h Z b m h h h h n n U L v N V m m m m L L J P ) N k :.} b J  .{ L U V J U L [ ^  . .A W 4XgX=X9X].{.$XE.E.p./.~.d.Q.'.a.a.j.C.Z.a.h._.P.0.B.!.N.d.t.g.b.C.I.d.t.k.j.I.t.m.`.P.a.N.m.0.j.Q.A.r.a.N.m.N.L.a.k.b.*X>X/.B.M.a.t.B.d.b.Z.N.W.j.F.{.j.p.f.Z.m.F.W.~.^.E.[.hXlXLXL.U `  .&.` =.U s.AXgXgX$XE.^.E.B.d.W.^.^.I.C.V.P.!.C.E.!.W.N.{.W.m.M.T.d.^.NX7XE.>XI.t.E.[.N._.B.d.d./.E.I.m.P.`.a.r.a.N._.m.n.M.d..Xa.W.y.I.a./.(.!.M.0.a.0.t.I.C.W.N.E.N./.>X<X*XfX^.*X7XgXZXJXi.J @.U :.:.K / X.V V J m ' J V ~ m L m L / P V V V V K J V p V m L V s v C h k C A h h f b N h C h h M B k n 8 B s k s h n f i A k i s r 8 k h i 7 s d l 7 h s 5 , w s 4 f g , 7 4 , 8 r * , 1 d 8 4 0 t 5 , 6 , 4 4 w * * t , 5 5 ; , ; , 4 4 , ; 5 * ; * d e ; ; 1 t , 1 * , ; , ; , 5 = 1 ; ; = 5 ; , , , * , ; ; 1 ; ; . ",
"; $ ; @ ; ; ; ; ; 6 * ; , , , * @ * ; > 4 1 , @ ; 1 ; 6 = r , ; 5 6 8 5 * 5 j 5 , ; 7 1 5 6 4 4 , 0 , 9 5 5 8 , , 5 8 6 4 f 8 5 s d 6 t , 5 s j r l f 5 r 8 D 8 8 G s f s s f B l 4 f f 5 k s k f B s k N b N b h n V b s v C h n h k h V V V ) v Y o.V V V k C V V L m K  .V v h A V X.V J K L L L U [ J Y J J ^ ^ Y s I eXhX8X9XqX=X[.iXP.d.W.D.N.D.t.a.N.E.a.'.f.p.!.E.N.B.!.C.d.k.W./.d.a.p.j.d.h.T.N.m.|.!.p.m.F.B.P.C.>Xa.0.I.m.N.j.C.Z.m.m.q.r.I.P.a.p.W.^.g.W.~.C.d.B.j.a.d.L.B.t.m.[.E.;XC.hXrX}.nXh.| >.] | ` 6.=.u.LXuX6XpX$XE.D.E.m.y.a.m.E.Q.j.d._.!.^./.Z.p.N./.j.W.p.k.N.<Xa.E.qXm.N./.>Xa.Z.s.C.P.!.N./.!.N.W.N.h.A.P.E.C.d.3.j.d.M.q.m.Z.t.d./.C.V.Q.:XC.a.W.A.M.k.E.E.C.m.m.d.,XE.P.3XcXgXhXJ.V / ` V o.J / O.V ..^ L V P V J V / b V V A P m K h L U U m P k h h P v m C k C n N C k k F i h S B P h s s n A h 8 f f B 7 5 B k s s k k f r r 8 j g 6 s C h r 5 t 4 r x t , 5 8 8 j f 8 5 , 5 d * , 5 , , 1 5 4 ; 1 , 1 * * ; 5 , , 7 8 4 4 1 , , * 1 ; , , 1 ; , 1 6 ; ; 1 1 1 , , , ; ; ; 5 * , , 5 1 , , 5 , , * ; * . ",
"@ ; ; @ @ @ @ * 5 , ; @ , 5 , ; > 2 , 6 = , @ > 1 , > 1 , 4 , , , 1 j * , , t 6 ; , , , , , 5 5 6 6 6 * ; 8 8 , 5 9 5 7 s r 8 f 9 8 5 , 5 g 8 d 5 5 w 5 S 7 l t 5 j i i s s n r 4 s k 8 g f s s l 7 n B s k V s C h A k s B h n v b N V ~ V V k h Y J N b P m m ) L V K m / V b b V T N V :.^ V P L J ` ` U ' L L ` ] k U 9XcXAXtX[.Q.Q.*XN.k.W.C.:XV.1.I.qX!.q.f.a.a.m.C./.P.B.:XZ.W.Z.I.W.m.a.).n.A.y.t.W.m.I.j.j.:X>XN.E.C.Y.p.B.k.I.C.P.E.`.d.p.B.W.E.P.B.N.P.d.:Xm.W.'.a.B.W.N.!.d.M.A.j./.=X$X5X3X6XGXy.W 6.} | ;.{ U u.mX&XxX9XiX^.E.P.!./.B.I.$X!.t.M.B.d.C.W.P.C.C.d.!./.t.P.a.k.d.d.^.U.!.j.j.M.1.a.I.M.j.I.d.!.I.W.C.N.a.j.{.P.j.k.k.k.P.a.V.d.k.0.I.V.d.{.b.C.P.{.k.t.N.Q.7X{.h.d.j.[.-X^.7X7X8XvXXXU ' =.P U U J [ ` U U ' V V v L V m v V ) v b K L A m X.^ m V S N C V m O.n i b h V V i 8 C h f B b i n B i C A s 8 s 7 f l j g s r d s s 8 s 8 s 8 5 t 4 s i 8 6 5 t f 4 4 t t t 4 4 5 4 r l 5 9 5 0 6 5 , , 5 6 , , y ; * 6 , 5 5 , , 6 6 1 ; , 4 8 1 @ * 8 , , , @ 6 4 6 , , , 6 * 2 ; = , 6 e , , 5 6 ; @ 5 5 @ , > 2   ",
"@ @ $ @ ; @ ; ; ; ; > ; $ 1 , @ @ @ o y 5 , ; > ; , 1 , , 5 ; , , , , , > , 1 , 5 8 * 5 g 4 , ; ; 5 8 5 5 8 5 5 * s 4 7 t 1 1 8 j 9 8 8 9 8 8 , , h f j f i c 8 8 s l C B 8 n f s B h s N h n x n k n s j l k v n N b d s k A k n L P m V v N N V m m ' m V / K Z V Z N b L m P m A V V J J T / U / J U ^ `  .} U :./ Y $.kXjX9X[.*X7X;X~.!.j.m.P.d.A.g.m.*Xm.j.Y.B.N.F.d.q.Z.P.N.P.M.a.B.*XE.t.g.Z.*XW.j..X!.a._.I.F.P.I.a.a.T.V.F.C.P./.b.m.m.d.M.N.~.!.d.C.Q.P.a.a.P..X/.I.l.a.j.!.E.W.W.N.!.m.&XgXkX8XnX4.J :. .} $.:.U s.bXZXhX-X$XE.^.V.:XQ.h.{.F.).f.d.Q.{.!.j.j.I.!.d.Z./.m.m.k.9.V.b.E.dXd.b.C.W.C.Z.s.3.a.Q./.W.C.d.j.M.j./.m.g.d./.<X%Xm.j.0.I.(.D.j.a..XN.a.j.C.!.p.I.!.qXQ.P.I.d.!.%X7X;X{.7XpXgXeX-.M J ^ / V V { | L L V ^ / V V V P n / J J L S v K m V ( P m k h V m C L h C v P M i ) m m V 8 f B B s h h f s N P b k k h k s 9 s s n s 8 8 s l s s t 8 s k 7 5 g s 5 5 h j , 5 8 8 7 4 * 5 g , 5 , 5 4 , 1 , 1 ; , t * , 5 6 8 r 8 ; ; , t ; ; , 1 , , 4 5 * ; > 6 w w , , , t ; , ; ; > * * 6 ; 1 , , ; @ ; * 5 > ; @   ",
"; @ @ @ @ ; 2 ; * ; @ 1 ; * 1 ; ; ; * , , 1 , @ ; ; ; t 4 ; ; , 1 1 , t , @ , , , t 1 8 4 5 6 1 * 5 r 4 f t , 6 5 f 8 5 4 , s s d , r 9 5 d t , 5 x h 7 s s x f 8 s s i s k s r h k k k b s f s 7 V S s 5 f P b k h h s s k N k P J V 8 R C s ~ V N Y Y J ( V / m m P n v Y U Y L L X.K K ' U / J / J  . .^ ] :.J U ^ U 2.GX8X}.dXmX[.^.C.C.C.m.W.d.a.<X:XN.m.W.N.a.d.^.%X/.W.a.t.B.k.l.a.%XE.t.Z.j.%X;XN.j.m.C.Z.Z.Q.C.I.V.W.I.j.V.P.Q.W.d.Z.I.a.j.t.~.Q.Z.P.N.<XW.0.a./.a.I.C.j.k.{.~.p.a.h.E.{.aXAX3X8XnX4.U ..` ` -.&.` a.zXpX=X~.&XC./.).a.j.N.^.t.m.m.N.Z.B.M.S.B.j.[.-X%Xm.N.<Xq.h.:XW.b.d.Z.>X/.m.P.Z.k.B.C.N.V.V./.P.B.m.B.^.g.p.m./.b.I.N.XXk.0.V.E..XW.!.t.j.MXa.M.I. XC.d.C.j.m.F.!.C.~.[.}.=XlXbXyX%.V V U / / J :.+.V } X. .L m V A V M L m ' L h V K P V v m k S N m K C b P b h b N h N m k C h k B s m b b 8 s k v h k h k n i 7 8 s s f 9 s s 4 8 s 9 s f s r , d 5 4 7 s 8 w 5 w 5 8 5 5 4 j d , 6 5 w , 8 * , e ; * , 1 , 5 4 5 r e 5 * 4 ; 1 6 * * 0 t 1 @ > , 9 8 , , 5 1 , , 5 * > ; , * 6 > 1 1 * ; , , ; 6 @ ; 1   ",
"; @ $ > + @ $ > , ; @ , , @ ; , > ; , , ; ; ; ; 4 0 ; 1 , 5 , ; ; , 4 t , , 1 5 5 5 , t 8 , 5 , , 8 5 , 6 8 5 7 6 6 8 5 4 s B 7 4 4 , 5 r d 8 s B 5 9 d s s s t 8 j l 8 f f h v A s l h h s s B h s f 8 C b s h b K h V m N C V b h V v V P V m n h b s V L K N v L Y V b V ` >.X.V v V J U V P N  .:.P N V ` W } [ { J 7.PXgX].|.P.Q.qXC.V.:X`.a.d.d.W./.p.V.N.M.a.a.C.$X!.B.j.B.k.S.!.V.t.d.P.N.^.a.$X^.C.P.Z.j.g.E.a.t.;XC.N.W.P.Q.W.W.j.j.a.d.Z.P.I.m.P.P.d.p.W.j.d.I.p.0.B.I.I.V.P.P.W.A.d.Q.bX3XQ.=X7XL.2.L ` 6.*.} } R.hX&X8XpXfXE.d./.m.{.[.-X{.C.d._.N.a.W.B.u.0.:X^.V.j.Y.a.j.m.(.!.Z.0.W.C.a.M.a.M._.a.d.Z.D.j.<X Xk.P.P./..X!.E.m.t.B./..XG.0..X~.#XI.1.k.C.T.t.t.W.d.q.p.C.!.q.Z.<X*X$XpXaXhX&XpXNX4.L ) P U  .U ( J U ( V L ' U K v } :.L m P P L V b v V b V b A b m U N i ~ k r s b S s n C i m Y s n h m B h k b B b k k s s f k B s 8 s i n s b B 8 s l s s 8 5 r 5 4 8 f r 8 t 8 s 5 5 d 4 4 5 , 5 5 5 5 w 9 r , 5 5 , , 5 t 8 5 , ; = 5 t 4 6 , = , , , , 6 6 , ; * , ; , , , * 1 , 5 8 , * > @ * 1 , , ; * 1 - * @ 2 . ",
"; @ @ ; ; @ @ @ ; ; ; ; ; > * * * > , * 3 @ @ 5 5 , 5 , , , , , 5 , , t 5 ; * , t , * 7 4 , t , 8 f d 4 , , 4 j 4 1 8 6 5 r f f f 8 5 r s 8 s k B s i l h k n 7 4 f i k 7 s h S b 8 f k B s s h B s f k V P C V v m m m V V V m A N Z V k V / k n N A B R ~ N m P / J / K V I m J Z P o.J U X.K U ^ ] J L '  .J ^ ] { T 4.mX6XzX7XE.qX;X[.^.j.d.t.M.m.N.p.B.<X/.Z.d.C.qXE.t.s.W.P.a.t.d./.q.k.:XC.[.C.P.[.~.P.N.N.d.F.XXP.-XC..XN.V.fXj.p.E.{.d.k.C./.W.m.^.XX0.t.M.V.N.B.B.a.C.d.m.g.,X4XN.g.p.P.}.uXdX=XbXy.{ @.` { ` ` m z.vXpX3X3XE.E.[./.<XP.W.N.^.E.p.W.XXj.P.j.q.t.!.%XE.d.I.B.:XN.g.a.k.m.*XV.t.9.d.B.C.p.p.m.!.C.j.d.B.P.C.D.d.C.qXW.W.!.C.m.j.P.C.C./.B.p.W.V.!.I.p.m..XZ.s.Q.E.m.B.V.V.=XbX&X6X3XaXmXr.m P [ ^ =.J J o.^ L A h X.T U U U W V @.V h H ' L P ( V V C N v U Y k N N S B s v h h n n h m Y m b f V m V k b s k k b 8 f f i n l s f i b h k s r n 8 7 8 5 r 5 d d s f 7 t 5 7 d 5 5 4 8 5 6 8 5 5 * 5 , r 7 = d 4 * , 5 5 , * $ 5 5 5 5 4 , * t 5 ; , 1 5 5 5 ; ; * ; , 4 , , > * 1 t 4 * ; ; * , , 5 * * 1 * 8 @ @   ",
"$ o @ @ ; @ > > ; ; 1 ; o ; , > ; ; * 1 ; ; 5 5 , * 6 , > ; , 5 6 , 8 , 6 , 5 5 , * ; i d , * , g 5 8 8 9 8 5 t 8 9 s 7 4 8 , 8 B 7 l k d s 5 5 r s C r k B i l s i s f h 8 h s k A S m k s h l k h k P V k h V E k P V P V v N Z k b k V m V P V V J V C N V U [ / k Y L ' ' m U / K J U L @.L v J ^ '  . .U U ^ ` | J i.nX[.uX7X7X~.^.&Xa.k.m.N.N.V.!.C.j.d.a.I.N.j.:XQ.N.a.d.m.W.j.d.I.E.C.p.C.{..Xj.E.*XC.Q.C.Q.C.h.!.fXV.Z.B.N.C.m.Z.!.l.S.T.N.d.B.k.t.!.B.m.I.V.a.a.k.h.k.Z.d.f.j.N.d.!.^.&X&X[.7X8XFXh.I [ :.{ ;.8.m u.vX8X=X7Xj.E.fXm.C.C.P.d.{.P.a.d.P.,X;X/.XXZ.W.j.I.I.Q.N.Z.I.M.k.g.P.E.<Xk.3.Z.C.m.M.!.E.g.W.N.d.Z.C./.E.C.W.a.3.k.%XE.j.m./.u.0.C.m.W.N.C.Z.B.t.p.I.p.0.d.!.~.m.!.d.b.6XQ.[.|.8XvXY.J _ } `  .` ( o.L V ..P U V / V V J Z V V m V V ' v m V V V V b / J s k ~ N n K P v V P s C b v P V n m s k k h l k v C s r s h k f f k s l B s 8 i s 8 j s 5 8 r j w d d 8 5 5 8 5 8 s 4 t 6 * 5 5 6 , r 8 5 7 8 8 , 1 9 5 , 5 , 5 6 * , , 5 6 1 4 4 1 , , , , 6 * ; , 5 6 , , > , , ; * 1 5 , ; @ 5 ; , > > * ; > @ 5   ",
"@ @ $ ; * ; ; ; @ * * ; @ , , * ; 1 @ 1 ; 1 , = > * , , * ; 5 5 4 , 8 , , 5 , 4 , , 5 s s t 5 5 r , s 7 r w 5 , t f 8 8 w t 6 5 s f i s s 7 6 6 w 8 m r 7 f k k s f s B b k B 8 s b h N C s s B k v V v b l S k m b k m N k s m P h f C Z L ) L h L U m m ~ m U } V l P L m V V Y J V ^ X.Y V } :.J / U U U ` U @.' =.` Y.nX=XuX=X$XC.W.P.B.Z.I.P.W.N.[.>XN.p.t.Z.P.m.d.m.*XI.g.W.d.).XXd.^.m.j.W.V.j.E.C.j.!.{.j.C.Z.k.4././.d..XE.B.m.M.d.t.q.a.N.a.j.C.g.f.W.C.C.M.k.N.0.a.!.Y.j.k.N.!.j.P.~.6XtX6XpXcXFXa.W O.:.| ] $.U x.LX$XC.%XC.E.qXP.j.MXd.M.,XM.p.a.Q.^.E.L.B.j.j.k.g.Z.E.C.a.d.a.t.>XW.3._.h.p.B.d.0.a.fX=X4._.Z.W.k.d.*Xj.Q.N.4.3.t.V.W.d.0.N.'.d.Z.W.b.I.E.a.t.r.a.y.j.Z.a.t.P.$X*X/.d.*X*X|.[.pXaXl.J #.} J V U J U [ / J ` L Y P v P P K L L V ( V Y V Z P V P V k P K S h L K v m V v V V m h s P b b f s B C n s s v V N s f k A n k s s k r s s 8 s g 8 8 s t 8 d s 5 4 8 f 4 6 , 8 7 d w , 6 , 6 , 5 5 5 4 5 ; r 5 ; 5 6 4 * 4 5 r , , 6 6 , , 1 6 ; , 6 5 1 ; * * * , 5 ; * , , , 2 ; > * , 5 , > 6 , , , , @ * 2 o @ . ",
"; @ @ ; * ; @ * , * > @ > ; @ * ; 1 , > ; 5 5 , 5 , 1 ; 1 5 ; , 5 ; 5 5 @ 4 5 5 6 , ; * , 5 4 5 8 , 7 8 5 5 , 5 8 9 7 k l 4 5 5 8 j s s h i 8 r f f s t r k D k h f s _ h s s 8 B k h h b E m v V C b m k b V S Z ) s h v k b L Y V A n ~ X.V J P V P U T ~ m | U ] P ( V U U L ' J J ] J Y m L ] ' U ' L V  .` } ' $.m i.aXlX=X[.{.^.W.j.B.j.m.N.p.C.W.a.a.C.I.d.q.C.^.^.N.`.B.N.!.W.k.t.a.m.<XP.Z.d.%X:Xg.h.N.Q.m.a.MX/.Q.C.<Xk.g.q.0.k.`.N.C.B.I.m.m.j.C.m.0.p.j.).Z.j.a.B.a.0.j.a.P.B.P.m.N.*X&XyX6XpX4X4.I U ` =.>.{ U x.9X6X&X&XfX6XU.*X%XI.t.h.E.P.a.W.eXV.!.U.p.m.!..Xj.m.W.P.j.Y.Z.t.!.C.n.4.t.m.m.I.N.N.P.W.B.a.p./.N.p.m.d.Z.d.P.<X`.k.j.B.Z.I.M.B.I.S.:XV.h.M.`.I.p.B.N.!.M.j.W.Q.j./.E.4X&X5X8XhXGX!.J D J / U V ^ U ` ` V V m J Y ( P m ..Y R L ( / Y L m Z b v L m V K L h V / v V b C Y K V M n k k s V P i n S k h k V h n V C 8 f x n f h h n f f s k l r f r j g w r 7 g s s r 8 8 , 8 5 4 g 5 5 4 , 1 , , w 5 5 , 1 , , 6 4 6 , , 6 , , 5 4 , ; ; , , 5 5 5 2 5 5 @ 1 y , ; ; 6 5 , 1 ; , * * 5 6 5 , , , 5 ; ; 5 3 @   ",
"* ; @ , , * @ , w 4 , ; ; $ ; > * ; 6 O X @ , ; * 1 * * ; ; * ; > ; ; 1 , 5 5 5 , , 2 3 > r f 8 f 7 8 , > 6 5 5 5 , 5 8 s 4 r z 9 8 t d s B b n 7 g 4 1 8 h s k f r s n s j i k k t l l s m V L L B h x C m A V b m b ~ C P N m L V V k s ~ m J L b V | O.h v  .{ ` J ' J  .$.U L / J `  .^ [ K L U ^ _ N Z  .} ' ] W V R.hX8X=X[.|.Q.P.a.d.W.Z..XM.C.Z.k.j..Xp.I..X;X^.=X;XV.N.a.^./.W.).k./.W.p.m.Z.Q.E.Z.).d.E.,XI.^.$X*Xd.`.a.C.a.u.f.d.N.N.P.C.t.d.d.Q._.k.s.W.a.I.g.P.W.a.k.I.j.~.P.C.!.I.h.[.].}.-XmX2.J o.X.J ] =.U B.pXpX7X7X3XU.P.$X{.a.B.!.k.N.j.P.1Xm.V.N.W.C.m.C.U.E.<Xd.N.:Xm.I.I.a.W.q.p.M.W.t.a.T.0.j.OXa.a.a.m.Z.q.).s.d.~.#XE.k.4.j.C.m.9.B.u.4.f.M.u.t.B.C.N.W.d.N.k.d.p.a.I.C.C.zXzXkX+X}.cXU.m F ] ^ v O.O.U W ` V C o. .U J / J V T V P J Q I L U / v P X.U v m K ) v O.V P C v N b ..J h C A f V / P m b v A h P m m v N l 8 j s k k S k 8 8 s h k r g 7 8 8 j d 4 h i s 8 d 8 r 5 , , w 4 s d 5 > 2 ; , s 9 ; 5 6 , , 5 5 ; 1 6 t , 4 1 5 ; @ , 5 6 , * 5 6 ; * ; 4 , 5 1 1 j , , , , @ ; 1 5 , + 5 0 * ; $ @ ; * . ",
"@ ; ; @ @ ; 2 $ O $ ; @ ; ; , @ ; * 5 6 5 , , , 5 1 1 @ ; 1 6 ; ; ; 5 $ > , 6 5 , ; 2 1 4 4 6 4 5 s r : ; i C s 1 , t 8 d 5 7 f 5 4 d i S 5 t 5 n n 8 k 8 g 8 h R i k k f S N ) m m B B f s n C l n h V b K T k b b V m E _ b m ) N N V k n P C S A k ~ Z L / N v l L  .Z b E / Y L K ..) J ' ` ' / ^ +. .U } } ^ Y U $.MXzX=XzX6X}.8XV.g.C.%Xk.w.t.9.d./.~.B.5.1.d.>X!.C.`.a.k.r.a.w.T.L.q.A.T.t.a.N.C.V.b.C.'.t.^.P.t.y.M.p.|.C.~.,XC.d.~.C.a.S.d.I.d.d.W.%X3X~.P.d.E.C.Z.a.a.p.!.;XP.N.I.I.j.[.bX].0XpXcXh.{ ..T P Q J T Y.|.8X3X6X{.N.k.V.E.-X%X/.P.N.P.E.C.!.M./.^.E.$XE.W.g.t.d.qXC.a.{.E.j.d.a.d.t.0.a.l.Z.D.~.a._.a.a.P.E.d.V./.E.k.s.u.p.B.Z.C.Z.).d.m.B.s.Z.d.m.C.N.N.I.!.!.m.).k.t.N.~.,XL.N.qXiX=XgX XJ B Z ^  .U V V L ' J J ` :.V / ' L L L P Z / Y / h n / J J V V ' V V ' J / s N ] m N Z J b b m / J f N N h N n k h 8 f n B k V n k v h d 5 t k h s 8 r l h b f 5 8 8 8 s i t d 8 5 i k r 5 ; 1 5 5 ; 5 8 4 , 5 4 7 j s , ; 1 6 , , 5 4 , 5 > > , t $ ; , , * > 1 5 $ * e , * , , @ ; 5 , ; 1 , , , 5 * , 1 , 9 ; @ ; 3   ",
", @ > ; $ @ $ @ ; @ ; , ; @ , 5 * ; ; 1 , , 1 ; 1 , ; - ; 4 5 6 ; ; 6 , ; , , , 8 5 ; , 8 , 4 5 5 5 w = , 8 5 4 , 5 f 8 4 t 9 d s s 8 N C 8 8 s s 7 k R n 5 s C h k h S h N s b V b M i s L P V m m V K L P m K V V ] L m L O.v X.Z P V ( V J ` K V E @.V / ^ ( P L ( L @./ m U o.m ` L J U @.m L U ' ^  .U  . .` J +.%.Y.pX^.pX}.*XaXQ.C.a.!.Y.r.!.f.P.W.q.B.d.a.a.!.j.p.d.j.j.q.A.!.N.N.m.m.m.a.L.k.C.E.d.).{.p.P.P.m.C.p.m.E.m.B.m.C.Z._.Z.p.m.).k.m.I.B.W.C.>Xm..X!.W.P.0.d.k.N.[.fXZ.a.t.V.^.[.].3XgXbXl.U ' ' ] c.=.U J.4XpXpXzXE.!.{.B.Q.E.d.k.|.j.j.P.{.C.p.B.<XE.E.W.>Xd.M.E.C.M.d.k.j.`.N.d.a.G.a.M.d.m.W.!.0.p.0.k.`.b._.C.p.W.E.d.a.t.Z.j.m.I.B.p.a.h.t.d.:Xp.V.m.p.N.t.I.t.k.h.h.C.!.M.!.[.[.6X9XxXGX` 8 L / [ J U / J ` V V J ' ^ U / Z / ' J U m V J m m @./ P V P L b A K m m V C V n P K V A P ) h P b s M C P P k Y m A N s k k f l N v k k f f f B s d s h h s d , 8 s 8 8 8 7 5 d 8 7 s 6 5 6 5 5 , 5 8 6 4 5 t t t 4 , 5 , t 5 ; ; , 5 , , , , * @ , e , , ; 6 4 1 , , , ; 1 5 , @ , , ; ; @ ; 6 , * 5 1 @ 6 ; $ @ 2 . ",
"* ; @ @ > @ @ ; , ; , 1 1 $ ; , , 3 @ ; ; , ; ; * * > 6 , 0 , ; , d 1 5 8 1 ; 4 4 6 5 ; , t t 5 > ; , s h , * w s 8 8 8 8 d 4 8 s 8 9 8 8 8 C R s 5 s k s s k n h c k n h k h h k k n L K V V m V J L / ^ V v / [ J U P J V M V Y J Y h ^ L V J J T Q m M / / v  .} ' L L ^ U } ' } I ` ` { ' Y ( U ` V  .` :. . .J ] $. XzXcX6XQ.E.^.N.I.M.a.C.<XW.!.P.p.q.k.j.m.p.I.h.3.N.BXW.s.a./.~.M.B.d.j.<X_.p.).!.j.p.V.^.m.a.~.7XN./.P.Z.C.j.C.d.s.y.C.C.P.j.].<X0.0./.m.p.:Xm.t.E.P.a.j.M.u.m.C.%XE.#X=XiXwX[.=XLXh.J o. .+.8.{ =.x.mX6XpX=X^.E.a.I._.t.!.m.B.N.N.$XN.C.,XN.t.M.M.p.j.d.`.E.m.!.a.3.j.C.C.(.a.0.I.C.a.!.M.a.t.I.u.N.2Xm.t.d.M.a.C.N.Z.k.Z.m.k.m.C.I.u.y.I.V.N.W.y.a.C.>XB.t.M.j.4.p.M.B.Z.Q.7X3X3X}.pX}.` G @.' N V } ` U L O.P Z Z  .U Y L Y T :.6.` / K U T v V U L A L Z P N N ~ / m b Y K V J L h V K b J m ..m m L k P P V k V v h D k k / k L N s s A i s s j h 7 d 7 s d t 8 5 5 f 5 , 9 7 s 6 4 t 5 w 8 5 8 1 , 5 d , , , 5 t 5 , , 5 1 , 5 , , * , , 5 5 4 6 , 4 5 , 4 , , , ; * ; , 5 5 ; * , ; ; * 5 ; , = ; ; @ @ ;   ",
"@ @ ; 1 , @ > ; ; 1 * @ ; @ ; , 1 ; ; ; , ; ; 2 , , * > , 6 1 , 5 , = 5 t ; ; > 1 , s 6 , , w t * e , i s * * t s 8 5 s r 5 5 i f j t 9 8 s h i 7 s B r f f B k k k s i k v D C s S V V k v b n C N ) V h V P L Z ( h h ) C B B m Y P P A L A V V Y L P m V V P Y J J V ( Y L / ` U X.>.` ] W :.J / U +.=.J J ] ` ` ^ { BX8XuX$X=X$X1XP.N.).t.m.E.C.d.m.F.`.'.B.m.d.a.B.h.P.m.j.!.j.E.I.a.a.j.!.d.t.q.a.j._.N.N.<Xd.m.!.Q.Q.P.Z.m.P.W.j.k.h.t.E.^.m.,XP.I.B.d./.m.l.V.!.I.F.I.Z.d.a.N.t.P.C.~.d.E.;X4XaX=XvXr.` >.>.W U $.J u.mX&X3XdX^.D.p.d.m.M.<Xj.C.^.C.m.B.C.E.W.j.j.C.k.W.I.q.a./.C.j._.I.j.E.d.d.A.I.!.E.W.d.a.d.j.0.p.W.E.W.d.M.0.Z.XXj.a.k.j.y.s.'.d.0.d.!.j.d.T.3.Z.<Xa.j.m.C.<XR.4.p.m.~.E.[.}.[.3XAX4X{ n ] ` ^ X.' U } ` ' L O./ ^ U ^ ` L U ] ` U / b ^ ' / X.V L b V ^ n N V v V ( m h V L b V P b Z m J L h P L k m V k k M P K N C V V N h v N f s m b k k h k f 8 s 8 4 5 , j 8 4 t d 4 8 f w , 4 5 8 4 8 5 1 * 4 4 , 1 , , 5 , 5 , , 5 5 1 ; 6 5 , 6 , 4 5 5 , , 4 5 , , 5 * , 5 5 , , 5 5 , 5 * ; ; 1 , > 6 ; ; , ; 3 . ",
"; @ @ ; * > * ; ; ; , * ; ; ; > @ , 5 , , > * , 5 , ; ; 1 , 5 , 1 4 5 * 1 , , 1 6 , , 4 , ; ; e 1 4 , 4 5 d 8 j h 4 , 8 8 r i d j 4 8 f i h s A k h n s n k s x B i x k b b k S h A L A n l A D F S X.b D V R P b ..A _ E R R P A A X._ A R N A O.V ~ ) E ' V @.P L ` } / C O.^ / ( P Y V ' ^  .L ( J ^ ' U =.X.V ' ` W oX9X[.&X9X6X7Xj.4.Z.).m.a.W.Z.P.Z.d.k.3.m.,Xj.t.t.p.q.P..Xj.d.t.C.I.k.B.a.D.qXa.B.|.W.g.p.M.C.M.a.E.W.4.Z.$XD.a.N.N.P.`.C.m.E.P.E.`.d.b.C.<XP.C.W.d.d.m.Z.P.E.y.I.P.MXj.j.iXsX[.6XmX4.W ..]  .U ;.W y.mXpX=X*XE.C.!.{.p.).Z.Z.^.*XC.9.0.I.g.V.eX^.I.I.~.Q.I.a.m.P.C.Y.t.t.!.q.!.d.t.'.N.g.g.a.d.Z.j.d.d.D.`.m.C.l.r.S.M.a.a.d.s.3.a.m.e.a.d.g.p.I.B.Z.d.a.N.Q.C.C.'.0.V.E.=X7XP.P.vXpXjXwX*.A / ^ ` [ Y J W U J [ Y V L  ./ ^ ] :.L v V [ [  .o.J U ^ =.L L [ ( / ( b V / ' N C V ) L P C k M J V S C V S ~ A l b k h C Z K m N b n A b n B C s k _ h k s 4 9 x h s t t 4 d , 8 9 t 4 t * 5 4 6 4 8 8 ; 1 5 , 4 5 5 4 * ; ; 1 4 , 6 , * ; 6 5 6 , 8 w * * , 5 ; 1 , ; $ , 5 0 9 , 1 * , 6 ; 5 > , * * > ; ; 9 > * . ",
"; ; @ ; ; , ; @ ; O @ @ > 6 ; @ ; 5 * 5 , 1 * , , , > @ * 5 6 , * 5 , , , 6 , , , 5 ; 9 4 5 ; , 6 7 s , 6 5 5 f 5 g 0 8 f 5 f s s 9 4 f i s r k b f 8 f h f s k h h V v C V v V m h l n l N h p m m V m m v m V h v k m V N h m V v m ^ L h V U V J V L ^ } J K Y ' T U [ / L J @.L V m ' ]  .[ J [ ] V  .:.J ` ^ ] J $.>XaXpXgX3XiX&XI.d.q.0.M.m.W.V.t.p.p.N.'.C./.P.a.k.3.T.!.V.C.W.k.XX/.q.0.m.P.,Xd.a.B.m.a.a.M.C.W.P.M..XW.N./.Z.m.C.m.W.).t.j.C..Xa.a.`.N.V.P.!.C.E.!.I.!.a.a.W.B.p.t.!.m.wX7XQ.&X3XGX4.J ..` U ' ;.{ z.bX=X6X[.qXa.C.W.C.P.q.j.$X*XI.Z.h.Z.g.N.eXa.q.C.Z.#X.Xr.$X,XC.m.j.Z.t.j.`.V.m.Z.j.W.B.E.C.`.a.I.m.:XN.C.P..X0.d.M.Z.I.m.B.p.a.A.k.!.m.V.B.j.!.r.0.XXXXV.!.j.k.y.`.>XE.9X&X{.dX[.jX4X{ l ` @.^ U Z L X.=.@.J K } o.L V Y L } o.V N '  ./ ^ U @.o.X.( U V J m V ( ) C / C b A P b V N C A k V A k C P J k v b b k f f j V C V V k k N n f k s k k h j s 5 s A 8 5 t 8 n w s d w = 6 , , w 6 4 8 5 5 5 , , 5 4 t 5 ; ; , , 1 , 6 1 ; , , , 6 5 5 , ; > , 9 1 * 1 > @ , 1 * , ; , , * $ , 6 1 , > ; * ; , * ; * . ",
"o ; ; ; @ ; > $ @ @ * , ; ; , , 5 5 , , , 5 , , , 1 , , , 0 0 1 , 5 , 8 8 5 = 8 f 5 , 1 , , t w , s s 5 5 8 8 5 0 1 t s g 8 f k i 5 8 s i l B f i f k s s F v k b A Z h n L J V S C f m J { 2.4.1.1.2.2.%.7.-.{ -.-.| ,.4.*.4.%.$.$.$.%.$.*.2.{ ^ W U W ` J $.U J ` J I { { W { W U { -.-.I H V ^ J [  .U ` >.{ J U ] ,.vXzXgX9X&X3X].{.!.S.0.V..Xg.k.M.B.t.k.P.d.0.p.d.I.t.).k.0./.W.p.p.N.E.t.B.S.a.m.M.p.m.*XQ.P.Z.~.qXm.j.Q.y.S.a.M.P.W.d.M.g.!.m.B.k.N.B.k.d.C.N.!.N.C.<XP.d.C.j.d.Z.u.a.^.6XP.}.3X8XLXz.U @.@. .&.=.U h.IX[.3XaX9X*XE.g.d._.B.d.;XQ.0.a.XXj.a.B.d.C.:XP.E.{.C.0.F.b.q.!.j.a.r.m.I.m.<Xd.m.W.Z.I.k.j.Z.W.p.Z.).P.l.C.W.m.Z.j.d.W.!.W.k.t.a.k.m.E.E.d.t.h.z.g.q.C.!.P.N.`.k.m.d.Q.aX$X[.&XxXmX$.F ^ +.U J U o.( / Y N | W { J J { I U ` W J J I V J J I J I I U J U H H U J v J m v V J J I V v V m J H v U ` H m { $.| v m i 7 n N V V V V k b k b k b h j s l s 7 l 8 r s 4 4 s 8 , , j t w , 4 , , , 4 8 r , , , 4 9 4 , , 1 * $ 5 , ; e 1 , * 5 5 * ; , 1 ; , 6 , , 1 ; 6 , , 1 ; , 6 * $ ; 4 1 ; - ; , , * 1 ; ;   ",
"@ ; > @ @ @ > ; o ; , ; @ @ @ , , * ; ; > 4 , , ; , , 1 * , ; 1 5 6 * r 4 * 1 t d * 8 6 , , w w 4 7 5 5 8 8 t * ; 4 f 5 , f s s i s 5 f r 8 7 f C s n r r A h N L v v f k / / b C h v -.oXyXNXnXmXvXmXLXyXvXmXeXnXmXNXmXnXvXnXLXwXNXmXNXNXFXIXeX.XeX@XBX@XoXBXVXoXMXoXMXXXXXMXeXXX_.MXeXY.R.u.` U Y Y ` W ' U >. ...m 0.mXFX}.3XaX^.$XE.j.k.a.I.$Xt.k.Z.3.d.I.N.C.h.0.k.T.t.N.'.d.*XC.p.Z.)..X{.W.g.Z.!.P.a.'.P.E.m.W.~./.{.P.7XE.k.p.m.P.j.p.q.d._.E.P.P.B.d.d.I.N.C.^.N.Q.{.q.B.!.d.t.B.y.k.E.=X6X6X&X&XzXL.` J Y { $.5.W 4.yXlXpXpX^.=XZ.n.s.a.:X^.N.t.k.d.!.C.I.N.y..XE.q.N.A.C.#XZ.a.k.I.a.m.h.4.T.g.P.j.g.a.p.d.k.a.!.p.d.m.d.V.m.W./.W.I.I.d.m.a.A.k.a.h.t.d.Z.E.Z.r.t.k.a.N.#Xy.t.B./.0.k.k.P.vX[.6XtX8XmX$.E [ U ^ [ } ] W N V V i.oX_._.R.eXoXT.P.eX).'.@Xi.J.MXoXh.l.XXoXR.R.OXT.OXXXR.R.J.K.i.i.i.u.i.7.K.oXY.MX_.Y.MXVX@XeXNXMXJ.XXR.] i v n P L A A k V s N f k h s s s s 8 4 s l l 4 , 5 8 8 s 5 5 6 6 4 t , 5 8 4 5 1 , , , , , , , 5 ; 5 5 6 ; @ 8 1 8 , , 1 1 4 , 1 , , 5 5 , 1 , 1 ; 2 , , * ; , 8 , > ; * g j * 3 ; ;   ",
"; * ; @ ; * , ; @ 1 , @ ; ; $ ; , 1 ; 1 > * , * ; 6 5 , * 9 e , , 4 ; 5 6 , 5 , , 5 5 8 , 5 5 6 4 8 4 , t 4 s s s , , 5 s g 4 l f 8 f s f R s s C s n 8 f s h C m h V S V m V A N H x.GXGXFX5XkXrX}.3X3XbXbXxX3XyXhXzX[.mX3XhXAX8XkX6X8XgX6XhXpXgXFXrXzX7XvXnXbXkXvX3XbXpXzXFXFXcXGXmXmXkXPXGXMXU ..+.L ' +.J 6.| U Z 1.fX3X=XhX=X3X=XC.V._.`.I.P..Xa.m.t.a.p.d.d.p.k.p.M.a.1.B.!.Z.B.p.Z.B.t.g.XXm.a.d./.W.N.g.a.d.I.#Xm.m.<XM.d.{.E.M.h.B.I._.j.q.V..X/.C.a.a.:XI.k.g.C.I.a.W.Z.T.C.j./.N.E.a.Q.7X5X9X*X9Xy.` o...` 8.;.I 7.NX=X#X3X&XE.D.C.y.M.eXm.m.N.N.C.k.a.m.C.N.n..XV.j.B.E.P.M.C.B.k.t.k.Z.0.B.d.g.m.t.q.Z.g.XXm.a.d.<Xj.y.T.a.q.m.a.3.T.t.q.a.0.t.T.a.Z.I._.a.Z.A.g.p.q.d.Z.d.W.j.j.:XN.I./.vXQ.[.hXgXhX{ ~ U L +.o.} ` +.{ [ U @XSXFX8XGXjXnXwXnXxXpXhXFXhXjXGXJXbXkXFXkX4XNXNXLXmXvXwX}.vXvXmXLXdXbXbXnXfXsX9XFXLX{.vX9XtXFXpX6X=XbXLXLX1.6 B v N A s h E B s n h n s s h s 8 s r 8 j d 5 5 r 4 8 d = r j 5 8 8 4 = , 5 w t , 8 B 5 > 8 , ; 1 , 5 1 1 5 > ; 5 = 5 , , , , 5 * 1 5 6 1 ; ; ; ; , 1 ; 6 6 w * > 5 ; * ; ; ; ; > . ",
", * ; 1 ; ; > ; > > 1 ; > @ 1 u * , * ; * 1 0 > 1 , , * 1 ; * ; , t 1 , 5 * * 6 5 5 4 5 , 1 ; 5 5 7 8 6 , 7 h s l , 5 s d w 7 i i 8 4 i h f i B C s v 8 C N C N m C P V V P k h ' h.GXlXgXjXhXgX8XwXpX3XxX8X8X5XFX5X=XL.hX3X+XkX5X&X8XlXxXkXhX3XjXgX3XgXzX[.3XgXgX8XaXlX&XpX8XgX8XxX;X6XSXrXgXNX| ..J ` ^ ^ ] { +./ U u.LX6XpXzX3X6X7X*Xb.I.C.t.d.m.P.g.k.I.a.0.T.2XB.d.B.y.h.S.j.C.j.d.m.k.0.p.p.I.m.t.N.N.W.d.j.g.I.E.d.g.p.p.!.<XC.d.d.k.d.B.B.t.'.~.b.C.W.I.I.0.m.V.`.t.j.!.0.a.m.P.E.m.:X!.d.{.3X}.].LXh.` X.U U | =.W z.nX=X6X6XfX^.C.I.Y.k.C.m.I.W.m.W.a.q.<XfXI.3.j..XI.N..X^.W.p.j.t.0.0.Z.a.p.C.C.M.S.g.k.W.h.d.A.m.~.a.9.p.p.T.R.k.1.B.G.s.a.S.9.I.E.%XE.r.3.M.B.d.y.d.j.p.C.`.k.m./.V.;XQ.^.*X{.7X6XGX2.A =. .| } U ` | >.} W qX3XxXbXgXAXZX=XgX6XlXpXgXZXZX8X6XlXgXpXHX}.kX6X[.3XgX8X}.FXgX6XpX3XcX8XpX&X8XzX3XhX&X3XkX3X8X[.6X=XpXgXxXhXJ i n k h n A m k k h h B i f h s f f 8 8 8 r l 8 8 d k g 4 5 8 s 9 5 , 5 1 1 9 , * j s 4 5 4 8 ; 1 , 6 @ , , , * * 5 5 , 5 5 , 6 , * , 5 , ; , 1 ; ; , * , , 1 ; * 5 @ ; > > @ > ;   ",
"* * @ ; * , * * @ > ; @ ; * > ; 1 2 1 , 5 5 * , 4 5 6 5 5 * 6 1 , 6 6 5 w > , 4 d , 5 w , 5 8 5 5 9 g 6 4 j 8 4 8 5 , s s 5 5 s s s h C f r , h k s K j k P v P A N V h h B s I Y.mXAX[.&XmXaX[.6X].3XaXaX3X3X}.hXhXuX].3XgX3X3X3X&X8XxX3X9X}.8X8X&X7X3X8X6X6X}.3XhX}.&XpXaX&XkX3X].[.rXgX5XpXBX-.J U  .` V :.' U ^ ` r.NXhX[.P.}.aX~.^.C.C.j.a.a.q.P.d.A.V.j.d.N.W.I.Z.q.a.a.k.a.Z.E.T.d.N.B.M.m.a.E.C.I.a.a.m.!.N.k.f.S.a.h.Z.I.C.p.a.<XA.,.a.k.t.M.~.d.j.C.Z.q.P.{.N.N.t.q.{.E.a.0.N.P.V.p.E.>X4X}.8XzXbXl.U V  . .U }  .7.wXbX3X=X~.E.m.Y.XXa.t.j.t.C./.m./.W.B.d.a.).m.g.2XP.a.E.E.B.P.I.j.p.d.k.y.T.m.b.M.j.S.I.1.1./.*XZ.p.M.Z.XXN.0.p.A.m.M.d.0.k.g.j.l.j.Z.a.N._.k.).E.Z.E.p.P.!.r.a.m.b.C.$X=X&X7XaX5XbX-.c L ` ^ / J ;.+.Q Y { wXpX&X[.9XpXQ.=X7XE.pXpX=XhXHX8X6XcX&X=XAX3XaX6X[.$X6X+X&XcXgXpXaXpX^.}.pXcX8XvX3X6X3XmX&X8X6X=XaX=XkXpXgXxXeX$.h l l N J V N S s l h N h b B h r l 4 5 f s r 5 8 8 w 5 d , * 6 y , 5 5 * , , , , 6 8 4 , 8 6 4 ; 1 1 ; 1 5 , , 5 , 4 , , , 1 > @ 5 , 8 g , * w * ; 1 , 6 ; ; ; , ; * ; ; ; ; @   ",
"@ @ ; ; ; , , , @ ; * ; 1 , ; @ > , , , , , , , 1 5 * 5 * , 5 , , , 5 8 5 , , 5 5 , 1 8 6 8 4 w 9 4 , 8 4 8 8 t 5 r 5 s f r 5 z 7 7 k k f r l h n k n k i k V J v b b B s s W R.GXpX&X-X*X{.[.6XdX].vX3XL.4X&XhX=X[.pX3X3XvX6XQ.Q.9XdX3X}.3X3XzX[.7X4X|.[.vXLX4XE.4XU.0X8X&X$X$X*XhXvXzXhX}.wXeX{ L U ' {  .U X.^ [ $.z.aX=X6XmX=X=X[.D.m.p.I.!.Y.a.p.k.0.N.Z.M.a.d.d.t.h.XXj.q.0.a.E.c.g.[.P.a.'.I.C.m.MXk.q.P.|.d.P.r.a.Y.C.a.a.g.k.`.q.d.M.S.0.d.d.d.`.h.0.t.a.C.!.a.j.).Z.:XB.Z.g.t.N.B.B.a.*X[.}.+X6XtXj.U ' >.Y $.} J 2.*XsX=X~.C.fXm.j.Z.m.k.I.j.j.I.a.C.V.C.a.a.:XT.p.C.9.C.W.E.j.M.g.W.Z.t.q.a.I.q.Z.d.p.p.j.'.x.V.m.m.I.Z.m.j.0.4.0.V.C.a.d.d.B./.p.j.m.V.C.I.m.q.).<XC.C.E.a.P.B.d.C.`.C.C.aX&X6X&XgXLX2.k U ' L ' [ ] ^ ] :.W 4XcXsX4X8X}.*XeXU.{.3X6X}.].FX8X6X].[.qX9XzX=X=X=XaXnX8XvXpX$X}.3XqXN.BX9XmX].].8XaXvX].P.=X$X6X9X3XaX=X8XzXFXyXW 5 l N V M A V N s h _ N v k s 8 F f s 9 4 8 5 5 , 4 5 8 1 , 6 , 8 5 4 4 , 5 , 6 ; w 7 t 4 , 5 6 4 5 , 1 5 1 , 5 , 5 5 , 5 ; @ ; * , 8 7 5 , 1 1 * , 1 ; ; ; > * 1 * ; * * 3 @   ",
"@ $ ; ; $ ; @ , , @ 1 * ; ; , > , ; , 6 1 , , 6 e @ , ; , , 9 9 , , 4 4 1 5 6 , * , * 7 5 , 5 , 5 = 8 i l 4 , d r 4 5 s s s r f s f s k N s B n b N 8 V / N m v S Z ~ _ b | @XFX8X6X&X=X7XQ.P.bX[.6X=XN.N.=X}.=X$X$XpX[.C.[.=XE.[.^.$X^.{.7X=X=XaXaX[.*XP.C.}.^.7XaXU.9X9X{.[.&X7XmX9X9X7X[.3XNX{ U ^ ` `  .] U / L ` -.[.6X[.qX^.[.E.C.Z.a.k.I.a.h.a.h.g.P._.1._.C.j.j.I.M.d.`.m.r.D.a.q.W.V.u.3.q.!.a.m.%X{.a.q.Z.^.a.k._.p.j.k.0.I._.0.m./.Z.g.C.C.a.Z.s.0.<XZ.j.t.p.a.W.Z.t.1.'.Z.t.k.d.`./.V.[.3X6X3XdXr.W } ` o.| ` P i.vXpX6X[.sX=XQ.Z.P.t.t.t.C.p.t..XW.g.!.P.d.M.0.q.m.W.B.g.W.C.m.d.Z.m.B.p.E.{.N.j.a.a.a.Q.MXQ.1.q.f.k._.V.4.a.Z.t.B.B.t.T.D.j.F.W.C.{.!.m.k.h.p.m.C.d.W.~.r.0.^.:XF.d.j.7X7X[.[.$X8XyX] c U o.` U T } ` o.J { 9XkXwX{.U.hX=X7X3X&X7X^.E.*X3X].5X7X|.*X8XhX^.&XzXnX[.[.dX9XN.P.3XdXC.].Q.*X[.[.aXpX6XU.dX=X}.&X&X}.mX9X6X=X3XGXeX7.k h C m n h m P N h N h N C i s 7 d 8 s i 5 5 d r s s 5 1 4 7 s 5 t , , 4 5 , 5 t = t 8 5 5 6 , ; 6 , > ; ; 5 ; 5 5 1 w 0 1 6 6 , ; @ , ; ; 6 1 * ; ; * , > @ , , , @ * ; , . ",
"@ ; @ ; > @ @ ; * ; 5 @ @ > , $ ; , * 6 5 , , ; @ @ 8 > > 5 l , , 5 4 1 1 5 5 ; > , > t 5 1 5 5 8 d t i 8 6 6 5 s 8 j , 7 h f 8 s k f k h s v C k b n V L V h S m m V 8 I XXGXgX3XuXaX$XaXiX6X-X=XhX$XP.[.;XQ.C.Q.aXpXQ.W.*XQ.Q.qX[.^.-X[.&XaX=X[.[.3X^.*X=XQ.;X=X[.nX=XP.[.[.8X6XU.[.~.[.xXcXeX{ ^ } U ^ ^ U ` @.' L %.fX4X^.}.E.6XqXm.d.M.j.y.t.j.q.h..Xr.a.p.!.P.!.j.k.a.`.d.q.T.g.M.W.qX!.B.g.M.B.G.0.^.;Xf.0.P.C.j.C.m.d.MXI.I.V.m.'.I.C.d.Q.N.W.j.B.B.0.N.C.d.u.T.d.P.d.0.S.d.d.d.'.a.d.,X^.[.&XpX}.wXr.2. .] >.` L W 1.7X=X6X6X=X^.C.B.j.m.I.M.!.Z.N.Y.a.W.!.t.V.I.A.a.C./.k.S.I.t.j.m.C.g.q.d.C.E.Z.a.t.'.E.^.t.m.'.n.t.a.I.N.k.0.m.E.j.y.t.t.P.Z.q.:X1X^.C.I.3.q.!.<XZ.a.j.N.x.t.!.eXN.a./.7X=X^.wX6XpXyX^ Z ` ` +.` J W  .o.I -.mXcX7Xm.P.zX=X3XbX}.Q.*X3XvX6X^.[.8X8X3XjXU.=XzX8X3X=X=X8X&X8X6X$X6X[.gX=X*XzXzXiXE.=X6X}.[.aXaX-X^.U.[.8X8XP.uXzXnX-.i k k s n h m P s f C s s k B 5 8 r 7 s r 5 8 8 r f 5 5 s s 8 8 ; , 5 t 5 ; ; 6 4 , 6 5 t , 5 9 5 ; * * 6 e * , , , 4 , 1 4 , ; > > * 5 5 * 1 t , @ , 5 , 1 ; , , 6 * @ , . ",
"* ; * @ 3 @ $ ; ; , * ; * * 1 , ; , , 1 @ 0 2 * , 6 , , ; 0 t , 5 6 5 , , 5 d * 5 * 8 , ; 2 , l r , 7 , , f f 5 r 7 l j t 4 d t 8 i A s 5 k C b h C N v h k h V ~ h v U <XnX$XlX8X&X^.^.E.xXzXV.{.E.7X;X8X6X8X*XL.P.Q.].-X{.[.^.[.}.Q.iX=XQ.aXhXQ.}.lX[.E.E.~.iXQ.[.4XE.pXbX}.8X3X6XdX&XhXAX8X@X{ Q  .U L [ U ` +.o.Z r.BX8X3X^.E.nX*Xm.m.I.j.).a.p.p.B.M.M.I.E.!.d.C.0.0.s.t.a.a.k.t.C.V.n.W.E.!.I.h.).j.C.%Xp.k.t.d.m.).W.C.W.V.m.C.m.B.P.g.p.P.m.C.d.d.`.W.0.N.p.k.N.d.N.t.N.`.M.E.a.a./.d.V.~.^.$X}.4XmXy.{ o.U } U | I R.NX=X6X^.Q.E.P.Z.I.A.W.p.B.j.I.P.C.%X^.C.Z.a.j.V.B.V.C.A.a.j..X_.f.a.d.B.k.a./.>Xt.9.V.#Xd.Z.x.4.h.B.M.g.B.M.m.B.B.B./.j.m.2Xg.q.m.:Xg.a.N.M.I.P.N.Z.A.a.t.k.q.p.V.F.!.C.iX=X}.E.pXFX7.S { ` +.^ ^ >.' :.' U 4XsX6XdX].pX[.8X6X6XhX3XiXQ.*XzX$X3X8X^.4X$XuX=X[.[.7X[.[.^.=XbX}.Q.3XhX^.*X=X3X4X].=XhX&X8X6X8XhXzX3X6X=XpX*X$X=XhX0X2.v h N A b h _ C v k s s s h s l 9 d s 8 5 8 s r 4 5 5 4 6 4 , , t 9 j , 5 5 , d 5 * , 1 * t , ; , * ; 9 , 0 5 5 @ ; 5 * * , ; , ; ; 5 5 , = , @ 6 , , * * * 8 , ; > @ @   ",
"@ * > $ ; @ @ > * ; ; , t @ ; , , ; , > > * , 8 8 , * 1 , , , 5 8 , 1 9 , , 4 4 , 5 8 , > > @ 7 s , 5 y ; s h f , r 5 8 t 8 y 6 j s b 7 z f b h l f r B B f V J R t C J.bXuX=XzX=X&X{.}.P.5X8X~.M.<XpXpX6X^.[.=XaXaX*XP.$XuXuXU.vX9X6X3XpX3X3X{.^.mXzX{.P.C.].4X4XQ.].+X8XaX[.aX3X8X6XpXgXzX;XfX$.m  .J K / ' =. .U J $.}.gX=X-X~.$XP.C.C.C.p.k.Z.B.g.N.q.j.a.E.$XW.N.d.r.w.,.S.a.4.u.d.B.r.y.!.P.m.N.M.m.<X/.d.t.M.n.y.N.W.p.q.`.E.P.Q.N.g.k.>Xm.0.T.F.j.d.!.A.q.A.j.t.k.y.B./.C.N.`.k.t..XI.I.m.*X}.}.3XbXL.{ :.' o.W >.J x.GX=X=XD.!.B.N.E.m.j.G.q.y.h.N.~.C.~.E._.I.d.j.<X~.V.C.j.B.d.d.C.4.3.'.g.5.z.:Xa.f.z.d.b.A.M.h.0.m.W.d.t.j.E.j.a.m.~.%XW.d.I.M.S.q.9.`._.~./.m.p.d.V.V.!.m.2Xu.4.,XQ.a.Q.Q.;XaX7XhX3X{ D { V ^  .:.^ N P _ v oXxXlXAXrX3XwX4X^.hXcX}.~.}.|.U.=XvX;XP.[.pX3X$XqX:X[.$X~.=X[.=XNX%X}.3X{.}.N.|.*X9X].gXaXhX8X].5X3X6X=XdX$X[.}.4X^.=XyX} r h b b k l v s i k l s s s f j 5 8 8 5 d 8 t , 8 5 , , @ , t 5 8 8 6 $ @ , d 5 ; 5 , 5 , ; 3 , 5 6 , 4 4 5 , ; 6 5 ; ; > * * ; 5 * , 6 , ; o 5 9 1 ; ; 6 , ; o * ; @   ",
"; @ * @ O o ; ; ; * , > * 5 6 ; o , , * 1 * * > ; , , > 1 , 5 , 1 , ; @ 1 t 5 , ; , 6 , 5 w 5 7 d , , 6 , 5 5 8 8 , t l k 7 g 8 f f s B h m C k l n ) F V J V j h { U.ZXuX$XfX&X].Q.m.].dX[.gX7X=X3X^.^.4X!.{.+X3X*XFXI.a.eXdX[.3X!.4X[.9X6X{.[.&X*X7X[.4X:X<XQ.*X*X*X*XE.[.qXQ.|.~.|.:X&XpXhX@XZ } Y U { ^ ^ J  .` &.$. XpXpXhX}.-XqXC.k.R.h.4.a.s.W.a.t.d.V.N.V.`.`.k.a.M.P.L.'.3.s.E.^.D.C.N.m.:XC.p.S.!.a.M.C.C.:Xk.j.=X#Xj.m./.m.h.h.t.I.,XP.M.z.m.U.q.S.N.a.k.!.t.A.Q.j.0.&.p.N.s.j.4.f.<Xm.4X7X[.6XNX7.` K U { U :.Q 7.eX[.gX=XN.W.{.W.C.*Xd.$X).C.V.1X!.m.B.B.d.g.d.I.0.y.t.q./._.p.`.P.M.t.a.C.W.k.k.p.B.t.Z.P.P.w.0.E.`.f.4.a.T.r.y.).d.M.M.a.d.k.0.l.<Xj.V.E. Xt.f.k.a.C.^.a.d.h.a.Y.A.P.7XQ.[.9X[.xXFX2.C +.| { >.P J >. .&.{ }.SXjX9XkX[.W.9XcX}.].qX,X4XyXQ.Q.|.nXhX7XC.|.%X-XmX4X4X$X-X[.N./.{.7XwX}.aX4XU.<X[.=XqXQ.&X6X^.^.*X8X&X[.&X].dX3X8X}.GXzX{ 7 8 V m v z j f k k h N B s r k S s j 8 k h 4 4 h B 5 9 s f 8 , 4 , ; > , 5 5 , 5 , 5 5 8 8 , e ; ; 4 5 ; e , > 4 , 1 6 6 , ; e @ @ 1 1 ; @ ; 2 $ ; 1 1 , , 1 ; ; >   ",
", $ > @ @ ; @ ; > > , > ; , ; , ; 6 ; , 5 , > ; ; , * ; , 5 6 5 , y 5 $ , 5 4 ; 1 5 4 5 4 d 5 6 , = 8 , t , 5 g s 4 f , f i k 7 f n 8 n h k b B s B m s Z C V k U @XFX4X[.E.=XaXbXiX^.9X=XD.aXfX*X4X=X&XgX6XaXzXzX3XlX3X6X$X7X=XzX8X6X8XaX8XlXvXaX[.3XaXaX[.E.8XcXzX8X[.[.zXsXlX&X$X3X}.8XgXlXeXJ { K X.^ ] L @.U ` ;.1.|.bX6X&X*XqX[.V.g.k.r.d.B.0.k.k.h.'.`.W.:Xm.j.a.t.M.C.j.p.p.a.m.!.<X!.W.%XN.d.t.d.j.m.d.P.B.N.B.t.<XQ.t.a.N.!.d.a.I.Z.d./.W.j.m.I.m.h.I.k.t._.a.0.XXd.r.x._.m.y.m.d.C.!.b.~.uX=X}.IXr.W >.:.} {  .U i.4XpXgXhXE./.,Xm.P.<X!.&Xq.N./.j.h.M.P.j.N.A.I.k.t._.).k.{.m.g.:XE.t.k.Z.`.E.g.).I.k.a.d.m.W.a.N.d.q.a.f.g.g.I.m.a.e.d.j.k.M.d.d.B.I.e.%XP.q.B.R.9.d.Y.eX0.s.B.!.!.0.j.eX$X&X4X[.kXGX{ n X.` ' / K V ;.Q T -.tXxX8X}.rX&X&X3XgXzX&XaX8X8XcX3X&XbXhXQ.3XhXhXzX&X[.[.9XAXzX&X{.4X=X[.&X3X8X=XpX$XuXxX=X&XQ.E.7X7XP.7X6X^.hX^.eX=XnX4X&XwX4XW i C B A m k s B l l f 8 n l k 7 8 l 4 l x 5 t 8 5 5 w 4 g 5 , t w , 1 5 1 , ; 4 1 e , , , * , ; , 4 d 1 * 1 @ , 5 1 , , 1 * 5 e ; > ; ; > 5 ; @ @ , * * * 6 5 ; : . ",
"O ; @ > , ; @ @ ; ; 1 ; ; ; 1 1 ; , , 6 * ; , , ; 6 , , 5 , 5 4 , ; 1 5 , , 6 5 4 5 d 5 , t t 4 5 j d 5 t 1 , s 8 4 k f g i s l k s k V V s f k V k h N Y g p $. XhXzXQ.4X[.3X=X7X&X7X9X[.P.{.>X[.aXxXpXpXsX=XpXxXlXuXpXlX[.=XaX8X8XlX&X;X^.sXuX[.6XuX3XxX6XsX8X3XgX=X3X6XuX3XpX3XxX8XgXZXlXZXMXJ ] ) / ^ ` ( L U | { $.<X|.^.[.Q.{.%XN.p.M.k.d.a.p.d.u.a.m.d.d.XXZ.N.y.d.j.`.d.q.!.a.t.k.s.m.~.;Xd.3.I.!.P.!.P.P.B.!.Z.A.s.4.j._.d.d.m.!.m.h.b.V.).h.-XQ.N.B.I.m.r.k.k.p.t.Y.N.t.l.C.'.E.d.P.m.E.iX=Xj.wXnXr.{ 6.@.^ =.` U z.tXxX$X^.dX^.Q.|.n.4.>XN.t._.N.t.).d.V.a.a.B.p.p.B.j.C.!.k.y.P.N.N.Z.j.B.M.j.N.Z.d.k.Z.m.d.p.C.C.B.M.a.M.t.p.Y.P.I.C.E.E.m.j.t.`.a.0.N.E.%Xt.a.k.d.j.k.C.3.k.M.M.(.C.E.[.vX&X-X$XbX[.U D [ J V P P J | :.C | 0XxXpX}.5XlXAXrX8XxX=X&X}.xXgXgXgXlX6X6XzXlXxX=X6XlX[.[.cX6X3X9XhX3X8XAX=X6X6XpX6X[.lX=XgX[.E.&X$X$XP.^.=XmX[.P.E.;XC.E.{.hX0X| 8 5 h b L v l s r 8 s s l b s 5 d 9 , 5 5 6 * ; 5 8 w ; ; d , 5 5 t 1 $ , 5 1 * > ; * 5 , , 1 , * , ; ; 5 ; 8 , ; 6 * , 6 , 5 ; @ @ 5 1 ; , ; , , , , ; ; * * *   ",
"@ ; @ * ; ; ; @ @ : * ; > ; * ; , * , , , , ; ; 1 , 1 5 5 ; , , e 5 , , t , , 5 1 ; 5 5 t , , 8 5 8 4 6 5 8 8 5 f 5 8 8 f s s f k h N b C s 8 m V V Y t N p I XXlXzX=X[.[.$XiX&X6X8X&XQ.=X*XC.&X6XaXGXnXmX9X7XwXdXmXNXzXbXbX4XNXyX9XnX*XmXnXLX7XnXvXnXnXvXbXvXLX3XGXLXaXbX&XvXLXLXnX9XFXjXJXPXK.m } U  .U J  .o.} { ^ $.MXdX=X=X$XE.iXN._.M.0.a.k.d.p.N.N.W.d.d.a.d.g.p.N.E.F.m.B.T.0.u.a.d.j.E./.I.k.N.d.C.E.j.k.d.N.D.b.a.x.B.m.e.M.:XC.a.k.M.W.W.t.~./.W.j.C.a.j.V.M.j.q.M.Y.j.d.N.m.j.N.eXW.C.-X7X^.3XIXd.W >.^ J ` >.>.z.hXzX[.-X=Xm.V.|.B.0. XB.C.B.r.N.BXC.V.m.4.3.M.a.B.M.C.m.h.k..XW.d.).a.d.4.9._.m.q.B.B.a.).t.E.Q.j.Z.m.m.{._.P.m.d.a.B.%XM.Z./.m.)._.j.P.`.d.B.q.<X{.d.j.B.N.s.p.C.^.E.E.}.9X[.[.FX4X$.h L ^ } L O.L =. .C J 9XGX6XwXFX9XkXkXnX9XwX].0X6XcXFXLX}.mXcXnXhXGXvXaXbXLXbXwXnXzXmX|.vXbX9X+XvXdXmXwXnXvXLXGXpXaXW.&X7X[.E.Q.E.aX*XN.Q.^.[.].$XGXY.J 4 k A k m b f 8 l R f 4 k s 5 , t g r 5 t , 1 g r 5 ; 5 s 5 4 5 5 4 , 5 6 , ; , 5 ; e 5 , 1 , , 5 ; ; , , 5 5 , t , 1 , , * ; ; ; ; ; * 8 ; ; 2 * 5 , * * , 1   ",
"; @ @ @ @ ; ; ; ; ; o , , * > * > ; ; ; 1 , , > @ 4 * , ; ; , 8 1 * , 4 8 5 , 2 5 1 0 5 t * 6 6 , 8 * , 1 t j , 5 8 r d v b k 5 5 F b h s f b N h N _ z 8 2.|.zX6X;X6X=XE.;XE.N.*XhX[.#X[.%XsX=XlXvX7.J U ` 7.u.7.8.c.i.u.u.7.8.7.x.Y.Y.OXR.R.i.J.R.J.R.R.J.i.x.J.R.J.J.'.oXy.x.OXJ.x.L.oXY.u.^ ' ;.| ` ^ U } ' ] ^  .1..X&XaX3XaXQ.aXP.A.q.d.a.W.N.g.`.j.m._.I.N.p.q.k.a.Z.C.:XM.1.y.T.a.Q.>XN.t.m.Z.E.W.m.g.t.`.XXM.(.E.Z.B.I.B.d.).I.j.!.2Xr.4.B.B.y.d.d.t.T.j.#X~.h.d.W.!.M.a.d.I.p.k.k.t.C.m.g.].9X$X*X2.U @.=.-.^ { =.1.mX6X[.vX{.^.-XE.j.T.j.g.L.B.M.V.^.P.m.B.Z.B.d.j.m.j.m.N.k.1.0.S.!.m.a.j.M.M.k.t.B.t.q.g.m.B.j.a.Z.C.%X#XE.V.a.N.j.j.j.q.d.F.~.~.`.q.p.I.k.p.y.<XW.d.m.W.!.j.a.m.%X/.[.^.=XpXnXaX3X9X-.P ] ` U U Y / ^ ( / ^ VXeXoXY.Y.OXXXY.XXMXR.x.oXI.Y.oXJ.x.VXoXR.Y.J._.2X'.R.R.N.XXXXY._.MXY.c.OXOXY.i.R.R.7.i.R.6XhXlX=XP.>X^.^.;X6X7X&X8X&X&X0X^.*XvX<XU i g B V v n n h N B i s g 8 r G s s 5 f t 8 7 4 8 f 5 , w r , , t s 6 1 * 6 s 8 5 * * , , 5 * ; 5 , = 9 5 4 5 , 5 5 * , , 5 1 5 ; ; t 5 ; ; @ + , , 1 * ; , . ",
"* * @ ; ; @ ; 5 , ; O * , ; 1 * ; , @ , , , , ; ; t , ; @ ; e 5 , , 4 4 t 4 6 , , d 0 5 , 6 5 5 8 t t 0 ; 8 s 4 t 9 8 i 8 h B g d f k j 7 s V V k f v p W qXcXuX3X-X;X=XpX^.%X,XQ.}.].=X^.^.gXxXLXr.m b i D V V V m m h m J V V h H J m m m I H U H K v m m v m V v m v h ^ m m v v V J J m v h T o.{ ^  .J o.^ ' J T 1.BXdX[.=X6XzXiXP.0.g.`.d.N.j.XXm.B.C.t.j.N.d.G.I.a.B.I.j.a.0.q.m.d.P.h.y.Z.N.m.E.m.k.Z.!.d.a.d.t.;XN.t.p.m.W.a.a.d.m.p.s.g.h.m.0.k.d.M.y.j.#XF.W.t.a.k.k.a.d.0./.B.k.d.I.%X{.P.[.6XnXz.I ' $.2. .=.=.4.mX8XaX6XQ.%X~.E.B.j.P.m.j.Z.W.W.N.W.P.0..XI.p.!.M.N.P.V.N.2X0.1.s.t.B.m.C.d.0.1.h.a.d.B.C.B.0.a.C.d.V.Z.d.g.m.d.).2Xb.{.E.#Xm.d.(.j.S.0.m.B.4.T.B.C..XB.p.a.!.W.V.D.~.$X4X&X3X=XgX|.` K L J ` U Y ` V L V L ` U W W U J U J I U H J W J H m I J V v H a W W J h J U J v H { I H m m m v I m m H v h m r.8XsX&XQ.*X}.^.-X}.P.=X8XpX6X[.*X[.=XFX*XI 9 j g N N B l 7 f B 8 s f 4 4 f k d f s 4 w 4 s s 8 , 8 7 , 5 8 4 , * * 8 4 s , 6 @ 1 6 , ; ; , 5 5 5 5 , , , 5 ; @ t , , , ; 1 1 ; * , , @ > , 5 5 * , , . ",
"; , $ ; ; ; * > ; @ > , ; 6 * 6 1 2 4 1 1 5 @ 5 1 1 5 5 5 4 5 e , , 8 5 6 > @ 8 r 8 4 , , 1 * 4 s 9 8 5 5 5 4 8 g 7 5 8 4 7 B 8 t r f b k A V m B j s ,.eXaX9XxX3X[.P.*X-Xm.^.[.-X^.C.6X=XuXAXGX7.m m ..P @.A h K U Q J P Y V V / ^ / L J ^ ^ V J  .[ J :.[ J ] >./ L Y J Y [ ' / U Y ( / E E K ^ Y J ` ] W ' J  .' b $._.bX8X[.#X=XdXC.'.Z.0.Y.B.t.N.q.W.Z.C.q.d./.C./.XXr.h.T.q.P.P.d.k.5.$.m.E.V.W.a.a.m.N.m.V.B.#Xu.h.Y.m.B.Z.Z.g.9.a.!.C.`.C.m.m.Z.B.1.u.a.!.T.q.!.L.r.0.N.a.k.3.W.P.g.!.t.P.fX{.dX=XdXy.-.+.' ` ' =.} 7.0X6X[.6XpXiXj.Z.`.N.E.r.d.N.E.'.u.f.W.(.P.!.Z.B.m.t.C.d.P.m.a.Z.r.3.!.m.p.N.Y.p.k.B.M.d.E.N.t.S.|.#Xa.t.q.d.BXV.2.k.Z.*XC.,X<XZ.m.).0.t.m.W.r.,.p.N.3.s.I.m.(.j.3.m.^.6X=X*X[.&XcX@XJ G ^ U U / T =.8.>.J ^ Y I >./ [ Y J W =.I ` I ^ U  .U ..b V J ..B | ;.m j K T J K J :.T p o. .J P U ' J ' Y / b k i.nXlXzX3X7X[.=XdXC.$X;XE.~.P.qX7XaXcXbX_.U 7 2 b V 7 r l k s s n f s d 8 8 t 8 4 4 6 5 4 7 t 4 5 g 4 t * ; t 5 5 8 , 5 5 5 , t z 5 ; , , , > * , , 5 6 @ ; ; w 5 , ; , , , > : 6 ; ; 6 * * @ 5 @ * . ",
"@ @ ; $ ; ; * > * @ , > @ 5 , * * ; 8 ; ; ; , , ; * 1 8 6 1 , 2 , , 4 , 1 5 * 6 r 7 4 , 8 , ; t w , s f g , 5 s 8 s 9 j s 8 s n f s k n N h m B s h >.lXbX{.[.hX=XP.-X[.E.Q.*X^.4X;X[.hX=X3XmX*.h V _ ^ J m Z n / ` ' U Y ~ / L [ J ( Z ^ ' ..O.K ` J J o.L J / Z V Y ^ ~ P m m L V L [ L b m >.] Y A Y ` ' ^ ^ L V P { j.hXaX{.*X;X;XE.C.m.p.y.j.a.Y.q.d.d.d.g.t.<XE.V..Xq.p.M.j.{./.d.u.&.5.<XV.E.!.M.r.I.W.d.'.N.E.u.1.d.`.<Xm.N.E.B.a.P.P.`.d.C.1XC.p.u.h.W.a.q.q.Z.L.a.y.M.t.a.k.a.C.C.~.!.C.P.Q.wX&XdXy.| ' / `  .o.v 4.nX[.^.[.pXE.j.f.d.P.j.Y.:XI.p.N.y.4.d.Q.d.!.j.t.<XE._.I.*XV.j.A.T.a.j.m.I.M.A.4.a.B.3.s.m.a.q.m.C.C.Z.h.k.p.V.D.s.t.h.d.m.Z.g.d.t.a.r.s.d.m.M.r.z..XM.T.y.y.a.M.N.d.!.-X$X[.3X6XbXoXJ D ] [ L +.Y J ;.' Z v } U ' U ^ / ^ U  .V :. .J J U L V _ K / / ^ { U x C V V V L V [ / P U @.K P J V S Z Z / E K V z.7XlXlXhX3X;XQ.Q.[.*X*X&X}.[.3X8X6X6XgX XU ; v A l f i f 5 n s h i k 4 t 8 6 y t , 4 , s , 5 w , 5 5 , ; 6 t 5 1 , ; 5 1 5 5 t , * 2 1 ; * ; @ , 8 5 > : 1 5 4 , * e 6 * , , 6 , ; , ; $ o , @ @   ",
"; @ ; @ ; ; ; ; $ ; * ; 2 ; $ ; ; * 5 , ; 5 5 ; ; , 1 5 , 6 , , 6 ; 4 , ; 1 5 1 5 s = ; 1 d 5 , , t f 4 1 6 5 n k 7 s 5 j d s C h s v B h i h 7 9 2.aXfXdX^.$X;X;XwXE.Q.*XiX;XE.=X;X&X=XaXBX4.v A Z L Y Z N V K P V A L A Y b U U b v L ' J V ~ m o.' T L m / ' J U X.V Z P J  .U J L J U J o.U ^ ' ^ J ' U ` :.J L Y W R.vX=X6X6X;X*XQ.m.~..Xr.x.k.g.d.p././.B.W.%XE.m.m.:Xm.p.q.Z.r.k.u.4.a.k.g.g.t.I.B.A.g.a..XC.!.g.z.:XC.d.j.`.W.^.E.j.d.d.j.Z.N.N./.B.3.T.m.T.t.m.Y.r.x.s.t.V.m.u.t.N.E.%X~.{.=X[.9XFXL.J o.X.Y $.;.m x.nX#X=X}.6XqX!.d.I.P.M.).C.t.0.Z.m.m.g.M.d.B.y.d.d.C.s./.%Xh.q._.g.C.Z.Z.s.0.A.m.s.3.u.s.k.d.P.{.t.a..XB.t.2Xt.0.I.C.C.d.h.y.p.q.a.a.d.p.M.).d.W.2X0.P.).t.N.k.`.Z.C.|.$XQ.7X3XgXcXeXW [ J ^ ` X.Z ^ ] :./ ^ ' m  .V Y ) =. .W / [ J L L L ^ m P Y J m V J V b ~ A Y Y P V / U ' L N V V ' U V V o.J V Z m v 7.9XFXgXcX{.}.zXE.^.[.E.{.pX}.E.7X6X3XzX|.$.5 f s N s A B f f 8 f f 5 8 s 8 r 4 8 s 1 5 5 , , ; , 9 8 , 5 5 5 5 5 5 8 , , 5 , , ; ; 5 6 6 5 ; 1 1 ; 1 @ * , , 5 , 5 ; ; 5 ; ; ; , , @ ; 6 ; ; ; . ",
"* - @ @ ; ; , > @ ; @ * > ; @ ; ; ; 5 , , , , ; > ; 6 5 , ; * 8 8 5 t ; * ; ; 5 5 4 , - , 5 1 w * 5 t 4 , 6 4 f l i i l 8 i k v f f b s n N k h *.aXxX}.[.$XmX$X[.P./.iX}.{.;X^.$XzXaXpX7X| m A A m / N N V / V b b b L R A V ~ Z V ~ L L N P P J [ m ( P Y ^ J U U ' m h A J |  .^ ' U [ / L ( ^ =.} ^ Y U ` ' U / J J R.GX$X=X8X^.*XnXm.P.h.3.0.N.XX!.p.d.d.d.W.V.N.*X;XC.d.N.`.r.s.g.0.a.A.k.9.h.I.d.W.m.d.`.a.I.:XF.a.%X/.g.`.E.C.-X$Xj.a.I.U.{.M.m.C.m.p.B.d.a.a.N.M.t.t.3.)./.Z.a.y.m.C.^.m.E.mX[.=XGXj.I o. .o.2.` m i.mXhXrX}.[.V.:Xj.a.d.h.a.W.<XW.t.C.2XM.C.j.!.Z.1./.BXt.!.m.`.`.d./.C.C.N.0.9.M.C.t.1.t.9.M.W.E.W.j.a.d.t.N.B.0.f.j.{.XXm.3.t.x.s.s.d.C.k.p.B.d.m.B.t.d.p.C.I.a.t.m.^.C.wX^.].6XpXE.!.{ v  .>.' T K J ` ] [ J / U K [ L B J ^ ^ ^ ~ ^ } ' ` L V P ^ K m P b P P V v J ' V b V L L ~ k V J Y J Z [ P m v L C h d $.hXcXuX}.zXzX=X%XP.^.;XzX=XQ.7X;X=X3XcXfX' 7 s b k v f 8 f f s t 4 s l w 9 5 i g 8 = s 5 1 1 6 s 8 , 6 ; 4 8 , 4 8 , 1 , 5 5 e * = 4 5 5 ; * 6 , 5 5 ; , 6 1 @ ; ; ; ; @ , ; , * ; , ; * ; >   ",
"O @ ; $ $ @ @ @ ; 6 @ * ; > 1 6 , ; , , 1 , ; , 5 5 5 8 ; * 5 8 5 6 ; ; , 5 5 5 ; 4 1 5 7 d s G 8 = 4 s f w 5 t s f 8 s 8 8 l k k s n f 7 n k i.mXsXlXP.E.aXaXQ.N.[.-X%XQ.3X=XuX6XkXlXBX,.h F C V P O./ V V P v _ P h V N V N L V J o.J V L N V X.V L L Y J :.m L / U @./ C V ` @.V / P J o.U T U ` U V J L U J [ /  .U 4.bX$X=XiX{.$X=XC.y.2.a.k.`.N.N.b.M.p.I.E.b.N.$X=X~.P.k.N.M.g.m.B.N.a.0.u.B.d.I.^.t.'.B.t.d.a.-X$X0.Z.W.N.C.W.m.q.I.*XI.0.B.g.W.Z.V.k.y.M.m.m.0.M..Xm.b.'.t.'.g.0.N.{.b.!.&X3X&X6X7Xa.W &.=.o.;.` J r.+X=XbX=XE.m.MXj.a.N.B.N.m.j.d.a.a.Z.C.W.V.P.k.0.Z.>Xa.y.d.d.:XB.a.C.P.{.a.a.s.%.j.<X!.q.Z.C.Z.t.m.a.V.Y.h.,.d.(.p.d.:XE.p.S.0.9.0.a.3.a.).p.`.V.p.h.0.y.S.r.M.Z.E.V.V.dX9X8X9X3X^.oX| n J Z ^ L J =.:.V J U o.>.I U [ Y ` K P v m ] Q k N V P L V P ' X.J ' O.V C m m V b k N N v k V J v Y / N m A M / m A ~ h -.@X8XgX4X#X^.zX&X$XQ.^.P.E.{.$X=X3X3XcXMX{ s l s i N s N k s r 7 f 7 5 5 t r 5 , 1 t , 7 5 5 5 8 1 ; ; 5 5 4 6 @ ; 1 5 1 , , r r y * e , 1 1 , , 1 , , , 1 ; @ > @ @ ; , , ; * 1 1 * ; 1 2   ",
"@ @ ; @ $ $ @ > 1 , > ; @ * , , , , ; @ @ 5 1 5 , , 5 6 1 5 5 , 4 w * * t t 8 , 5 y r 5 w 9 5 4 8 , 6 8 s i 8 5 7 s n f s f 8 8 n S h V l 0 V eXlXuX=X!.pX=X^.*XD.;X=X[.P.-X6XuXgXlXgX5.v b b m L A V P V V V m V m P Z V J X.V _ J h / @./ J L V V X.J  .` J L ^ J U V ^ L V v J m Y C m } ^ L J [ U ^ ' ( o.L / J ` m r.FXcX8XmX$X[.E.E.y.a.Z./.a.3.d.T.M.u.j.!.W.E./.=XD.!.B.m.W.V.d.W.d.W.a.y.t.N.C.m.m.B.0.B.W.d.^.P.G.t.k.t.I.C.U.a.`.N.C.).y.t.p.0.W.W.d.m.I.<Xk.a.Q.-XC.M.I.t.W.j.m./.d.V.dX;X&X3X4Xt.%.&.{  .;.=.V x.vX^.8X3XW.V.d.L.:XP.W.>Xp.q.m.I.a.g.!.^.!.d.N.k.1.N. Xs.p.k.m.:XI.C.Q..XL.j.s.y.I.P.Z.a.a.q.C.!.m.M.I.N.R.y.W.C./.m.V.N.M.a.3.p.q.B.k.M.t.I.C.a.M.g.0.P.a.4.`.d.d.I.Q.}.4XdXQ.pXaX!.V C } U ` U | +.J V o. .J ' ^ ` V /  .L P V V o.Y P P Z V V K L V U V U J m C B c P A v V V s A ( / v V N V V A Z V / ^ ~ C 8 | 4XFX}.^.^.iX&XQ.{.*X9X^.[.6XmXuX[.3XbX|.m 7 k b f h B c 5 8 f 8 , 1 5 8 d w 1 , 8 5 7 8 , * , 5 , ; , 5 5 6 ; 5 , 8 5 * , r 5 , @ > $ 5 1 = , ; , , > * @ @ 1 > ; $ 5 ; ; ; , , * 1 ; @   ",
"@ ; ; ; ; @ @ ; ; ; ; ; @ , * ; * 1 , 5 , , , 0 , 5 5 @ > 5 , 0 , , , 4 5 * , 7 8 * r , 1 5 6 4 f 5 8 4 5 7 8 s s 8 i 7 s B h f k P h s F v 7.bXlXpX4X=X=XE.=XwX[.#X=X=X7X[.dX=XlXeXr.C N P R C k h b A A K A V m m N B A m V k V A V h h P J b ) A m L V v m V L m V U :.L Y J m [ U K Y ' V / V ' J ^ L J ' ^ X./ U L oXLX=X=X}.Q.hXC.V.Z.M.t.u.0.a.k.a.9.3.g.).m.!.j.l.E.^.P.W.^.V.k.h.y.OXy.a.a.m.m.j.^.E.Z.j.P.%Xd.m.XXf.S.0.).B._..XN.t.V.|.Z.^.h.1.t.`.:Xq.p.F.j.C.a.g.C.d.!.d.C.~.d.a.W.P.^.^.nXhXyXP.W =.>.^ $.:.J u.NX=X^.gX~.m.m.`.P.g.E.a.t.Z.`.j.h.0.k.P.a.0.(.^.a.0.t.W.t.f.k.j.I.d.N.d.q.k.M.d.4.1.0.g.T.d.Z.`.a.t.a.g.).k.)./.%Xm.^.p.0.Z.S.q.t.k.r.p.a..Xy.t.Y.XXC.d.!..Xk.0.M.!.E.E.[.9XQ.=XbXXXV S 8.{ J ' P V L Z L ' / m ( J J J J L X.@.m / U P A N J U L L V m v v m P b A b D A m L V k P N V A V m V _ k V m v V b b j 8 W R.JXxX=X6XP.Q.$XaXaX^.[.6XQ.^.[.^.&XmXR.m m f r s s s 8 8 l 5 d 5 d r 4 8 6 , 8 t 6 5 1 , , 4 5 6 s d 1 , , , 6 , 8 w ; @ , , 1 , > , , 5 , ; , ; ; 6 5 5 ; 1 > ; * 2 1 * , 1 , ; ; ;   ",
"$ * @ > ; @ @ > ; ; * ; @ ; ; ; 6 , * , , = 1 , 5 , 1 ; ; 6 * , , , t 5 ; 6 , 5 8 1 = , t ; 0 t 8 4 , 5 w r s f k 8 l 8 i s k k k k B j k m Y.}.pX=X3X*XN.E.-X^.=XE.Q.=XzX|.].=XNX-.b f b A b C P P C N b n k L L C b v h P A V k f A l n V V P N k ..L Z P / v K Y L U ' J T ( J ' ' L V Y N V K ~ L ^ [ ` J U U ' { P h.FX}.[.&X*X7XC.E.P.d.k.4.S.A.y.%.s.B.M.j.W.m.1.1.j.E.d.g.Z.Z.t.0.4.0.q.A.d.E.d.I.<XQ.d.N.A.m.m.W.d.d.r.k.B.a.0.m.t.a.k.t.^.b.a.T.k.d.m.Z.Z.C.W.j.d.S.I.a.E.[.!.!.0.t.!.Q.j.[.Q.$X4XL.2.} L o.{ 8.T i.nX3XpXzXwXE.Z.t.Z.E.{.k.h.Z.N.t.h.k.B.g.w.f.V.V.%X.Xp.^.W.0.f.a.a.W.N.t.s.p.g.M.w.7.7.I.a.a.V.p.M.p.p.C.j.a.0.j.d.m.~.W.k.B.h.q.4.0.u.j.Z.a.r.x.f.g.;XC.m.P.q.M..XC.%XP.Q.=X7X3X&Xl.J ) $.U =.^ n V ^ L ^ ^ Y ~ A V [ / P V m ^ L V U V N V U >.J m V T C k P V V P h k P m m Y m h h n n V V L L v N J k B n L Z D 7 H hXSX$XaX-X=X|.$X&X7X&XL.&X^.$XqX4XqXBX%.8 t f s 1 d f 8 t 8 r 7 8 4 s l 4 6 4 5 t ; 6 5 4 5 6 , s 5 , , , 0 9 * , t 1 @ + 8 8 5 * 5 4 5 2 = , e , 4 = 6 1 , ; , $ , 1 * @ ; , * 1 > . ",
"o * @ ; > @ > 2 > @ 2 ; @ 3 ; @ 6 1 * ; ; ; 2 * ; * ; 5 ; , ; 5 5 , 6 , 6 t 4 , w 9 6 r j = w 6 , 7 t 8 4 t t 8 8 i 8 j f i s r 8 i i l i { NXaXQ.^.|.$X4X$X#X&X7X{.[.Q.[.3XmXXX$.h F b b U N N P P N P m h P V P h B E h m b k k N s k C h h [ L V / b C P N N C V V P m J / L L V V V L U } / / V L ` U } V '  .J Q s %.7X&X[.mX[.&X&X^.d.a.T.r.k.1.a.).B.k.T.p.k.p.A.`.a.t.!.C.0.q.a.s.4.k.d.M.`.B.q.M.f.p.t.m.I.M.d.P.d.N.y.0.d.:XA.t.<XB.N.j.M.k.j.I.G.d.d.Z.Z.V.M.A.B.I.p.M.I.P.x.a.N.{.!.P.{.7X=X3XNXy.U } m  .$.=.J u.aXpX6XE.6XE.P.h.N.<Xm.<XQ.N.m.Z.k.t.:X:Xp.a.I.a.B._.M.j.!.!.0.a.B._.k.p.u.q.p.T.k.u.w.g.k.p.m.a.C..XM.p.t.m.a.d.P./.p.A.{.Z.0.u.r.4.d.k.a.t.y.s.q.p.%X#Xt.0.j.M.^.V.E.{.6X=X*XP.mXy.I A I V / L ]  .L V P ) ^ J V / V V m V ^ V Y b L P m P v L V L P m N N N A m ) h n V m V m Y P k E A A _ k b V N V / V n V J V v i U oXbXpX3X-X~.Q.=X6XhX&XaX=X$XmX|.~.zXy.r u 9 d d r r s 8 5 7 s , 6 6 4 8 r 8 6 1 , t 5 7 6 5 * , , w 5 4 5 4 8 w 4 , 6 0 * 5 4 , y * * 5 5 1 , * , ; , 1 ; * , ; * , 1 ; ; 5 * , >   ",
"- @ : @ @ o ; , , ; ; , > ; 1 , 6 * , 1 ; @ ; , 6 e ; 4 , ; 5 , = t ; , 7 7 , = 1 , 1 m h 8 8 , , 8 7 j s 8 1 5 8 g 8 t h b B g 5 x t 9 i 2.bXsXuX=X=X^.sX&XiXuX[.&X7X7X3XsXzX2.7 n P J V P m V h b V V U U ' m v m P L A T A A b V N A N S f m ^ J Q k K N k V m Z V N c M s P b P E ( h ^ 6.W m Y L / L V /  .U  ./ z &.wXlX=XbX=XzX6X~.M.M.j.P.B.q.m.I.t.t.N.t.9.B.V.C.s.u.I.C.t.5.$XC.k.I.C.d.m.q.p.S.w.u.'.m.j.a.g.j.T.j.Z.n.C.C.g.0.fXV.N.w.%.t.~.D.Z.k.f.4.a.E.t.B.Z.m.m.M.u.C.,.0.N.*X[.{.Q.].[.-XmXy.W >.) /  .W L x.nX$XC.[.wX$X;XC.V.N.C.D.[.!.d.a.k.0.~.#XW.0.g.B.k.9.t.Z.m..Xj.k.p.N.B.d.G.d.u.a.a.d.M.r.t.w.M.C.E.N.j.k.t.S.G.9.I.N.y.q.#XP.a.4.x.a.p.B.a.u.4.u.).b.b.$XR.u.a.j.d.`.E.9X7XQ.P.{.LX-.v z G S ~ J W ;.` b k V U ' =.J J H m k ^ J V h m K V n k A V / L k U / v V T Y N k 8 Z ) m U Y m T V m b k n m k A V L Z k E T V b 0 W 4XlX6X7X7X}.&X[.8XpX6X3XQ.}.P.#XsXl.> < d g i d f h 8 7 t f w 6 5 8 s k j , 7 5 r 7 8 , * ; , , 5 5 = 6 , 7 i , * 5 5 , * ; 4 1 ; > 5 4 , , ; ; ; @ > ; ; * ; ; , 1 ; > ; ; * @   ",
"* ; ; @ * > * @ > > ; , * @ > ; * @ ; $ $ , 4 , , , 5 ; ; 5 5 , , 5 , 1 ; , 5 * > 5 d 6 , 5 , > 5 t 6 4 1 , 5 f 8 4 6 m l i s s v b F d i 0.fXP.{.^.[.*X[.$XC.#X$X7X&XsXLXR.K 4 B V D j k V ' V h N k s D k l f A A L s n D h B ~ N k R N L ' h k h f L V m P _ C P J U ^ V h P V h Y b J U / C A :.N N o.U U K C A ( Y { 4XaXD.D.C.$XsX=XA.r.r.P.d.r.k.B.D.E.t.p.'.M.m.W.V.m.k.a.XXj.M.C.P.d.y.r.B.!.d.k.j.*XI.T.k.4.P.d.A.W.I.N.!.^.E.m.P.:X>XN.a.t.C./.m.a.N.j.a.y.j.E.d.z.B.V.P.N.B.M.j.:XZ.V.D.9X5X&XBXh.` ^ =.W *.:.J r.4X=X8X+X[.C.(.:Xh.2.z.e.>XP.d.s.u.a.W.3.p./.=XW..Xg.q.XX~.M.t.N.fX~.m.W.!.T.y.l.k.C.I.j.w.0.F.D.t.r./.<X0.3.F.Z.k.p.a.T.E.m.,Xd.a.x.3.s.a.0.%.f.W.E.W.s.d.<X3.<XW.V.b.[.bX&X}.pX4X%.L A $.U U L n P / V / J V V S k / ' J m T U V A M h V N b b k i v / V J U P f i P k P V s r L L h d v m V m k s b n s h U m k B V H n u j XXzXuXiX$X}.&XE.^.9X}./.6X|.E.{.7.4 t f f 5 G 8 s h f r w > ; w 8 d r 8 * t 1 4 5 , , 8 5 8 8 * ; 1 ; @ ; r 8 5 * ; ; 6 9 ; ; 1 , t = , 6 ; 1 1 ; * 1 @ O t 5 * 6 1 $ ; 1 o : . ",
"@ ; 3 % @ > > * * @ ; ; ; > , * 2 ; 5 ; * , 6 , , ; 6 > ; 5 5 , , 4 ; 6 5 5 8 , , 1 8 4 4 , w 5 , t , 7 r 5 7 S s 8 6 s s d j l k B j w v $.%XaX*XE.W.|.[.Q.%X-X;X6XpX7Xy.I s V P M V v m N Z P M n C Y v h s k v i S b m C k k h S P m m L N b A N k J V m L b k A ' J J P _ L X.V J L L L K L J J X.L J J ^ ^ / V / Y W 4XaXC..X*X6X9XE.j.h.a.W.M.s.d.g.t.).>XM.0.t.B.C.`.d.T.B.I.Z.t.j.`.k.N.q.:Xm.0.M.`.E.0.g.q.S.i.k.0.V.MXt.p.V.C.p.V.).t.y.d.M.d.A.q.t.Z.m.g.a.M.`.N.d.p.B.!.l.B.d.d.P.C.b.;X6X3X=X4Xj.$.] ] =.{ =.[ r.vX=X&XnXP.g.m.b.N.B.l.a.p.Z.C.a.B.m.Z.Z.C././.j.d.A.t.B./.t.I.j.Z.d.4.d.Z.4.Z.d.h.).k.h.k.f.t.Z.d.'.C.m.N.B.m./.d.g.a.t.Q.<X.Xt.r.u.5.y.r.k.a.B.d.!.C.a.t.Y.a.Z._.a.$XE.Q.bX6XzXeX$.U B  .' L } V V J V L P m ..V V V V J J L V J V P P U V P k v Z v m A V L / k h m N N f h n C V k f s P A m s B S b k k N _ b k V S C L k Q eXlXsX$X7XQ.$XhXU.E.Q.^.!.*XnX%.4 z r h s t s 8 k s 5 r 8 5 8 s 8 4 5 , 6 5 , * 6 5 , @ 8 l t , 5 ; ; 6 5 4 1 * t 5 = 5 1 * , ; 5 5 , , > 1 * * 1 1 , @ 4 5 ; 1 ; ; ; 5 @ - . ",
"O ; ; % ; > * ; ; > 1 @ ; 5 , @ > , , , > ; 5 5 , , 5 1 5 4 ; , ; 5 , 7 r , , , , , 4 8 7 0 5 , 4 4 5 d 4 s h d 8 s 4 s r d 5 j f s h s 7 i u.nX$X7X=X{.P.P.eX,XQ.pXkXr.8 h K P h K P J m A k V V N b L I Y b S m s h L V l s N b h m m V P s s ~ P K V A m V V P N V V U E h V ^ m h V V Z V U ] m S V / J J / L ' J m { ,XvXQ.&XvX;X%Xm.E.~.!.g.0.M.E.M.s.T.).d.M.XXj.p.Z.p.0.t.g.P.R.p.d.d.M.m.m.d.B.a.C.g.d.z.g./.;.u.!.j.d.s.N.m.N.m.M.a.M.0.0.A.Z.1.a.T.4.g.B.(.%.Z.<Xm.N.B.B.t.f.N.P.N.j.j.>XdXP.=XnXh.{ +.=.6.` W P i.FX6X[.7XV.W.`.W.N.N.g.Z.j.a.N.N.E.`.9.fXD.m.k.a.!.m.B.a.C.m.E.C.Z.b.a.j.q.j.C.E.p.s.S.f.j.j.r.0.k.B.m.V.g.a.m.W.p.a.a.A.j.V.V.XXk.t.0.0.,.T.B.d.W.B.d.m.a.a.T.q.g.C.-X9XU.6XQ.zX@X`  .V V ^ J +.@.J J J V P h Y L L L N m V k m m V V m V v k N ) V n N V K s h k b b A B s N V k s _ V f V b h B S i ) v A f k v V m A V Z n i T oXGX=XU.!.aXhXN.}.7X/.I.iXNXy.s 6 5 8 k h r 5 d f l 7 8 s 7 7 , , w w 5 5 5 6 4 5 , 1 5 6 w 8 5 8 5 t 2 , 1 * , 5 , 1 1 5 6 , * 5 , 5 5 * , , , * > , , , ; ; ; 5 , * , w   ",
"$ ; @ @ @ ; ; @ * 2 ; @ 1 5 * 1 > , ; , 5 , , , , e , 4 6 5 , ; , , * 7 5 1 , 6 5 4 4 4 6 t * 5 f 5 4 d 8 h s , g g 8 d 8 f 5 4 s s n V 8 , L <X=X;X[.$X6X$X[.j.E.mXY.b 8 f V V s V m Z A m h S v h v Z P v R N h V v b N f b V V b n v P V n s h L V N Z V K V P C k V P V v V @.V V L V V m L ' L v h [ v.J V L } ^ ! W L.7XP.9XaX~.Q.C.#X:XN.M.B.p.B.j.0.a.d.h.W.k.T.a.j.V.g.a.m.j.u.M.m.Z.M.q.).W.p.N.`.F.a.4.y.E.s.$..XfXj.<XQ.t.C.W.h.k.j.T.4.d.I.0.r.s.B.Z.e.XXA.Z.m.V.m.!.B.t.I.j.j.P.I.d.V.Q.4X6X*X0.U >.:.W +.` v u.kXgX^.$X*Xd.a.d.P.N.B.d.x.t.t.!.C.B.d.m.%XC.N.'.E.k.d._..X!.^..Xm.g.d.T.).j.d.`.A.3.d.d.0.A.k.9.q.p.V.<Xg.a.C.Z.h.B.a.Y.f.g.j.k.0.t.s.a.z.1.a.B.d.a.W.W.V.a.N.Z.'.C.N.iX&X6XpXaXy.J J Y L L J ^ ' J P L P J L ( J J P h V C h N L L k N P V v N h P s f A b r B A P N V B 8 N V V k V V k b S k v s s b b V n s V b C N ~ m h k i ` eXiX*X=XhX}.*X4X6X[.$X[.Y.H 8 g d 5 k s r t , 5 8 8 8 d 5 5 t 1 4 s t , 6 , , y 1 , , ; , 4 5 5 5 * , , , , t , ; 1 , 1 ; , , 8 , 5 , @ , , , > ; 0 5 , ; @ 5 5 , 0 6 ;   ",
"* * ; @ > 1 , 1 ; ; ; = , > $ ; , @ ; , , , @ * * , * 5 , * , > , 4 5 5 , 6 = , 5 7 r , 1 8 5 d f 5 5 t 5 s j , d , * s s k h B C s s h f 5 h 5.wXsX$X3X=X=X=X6X*XT.m n k k k v B b C B h b A k k s k s f k V n s m P i f N V / V s h n S k P V P b h V v h V m N ~ B N N m ..V P V N b V J Y ) V } ' L ^ =.{ V b J / >.{ Y.7X8X&XE.Q.$XC.g.p.q./.!.e.1.V.,X~.a.a.3.w.t.a.C.W..XM.0.V.B.C.m.a.k.0.k.g.q.d.t.W.).,.y.a.P.a.n./.[.{.g.'.T.p.h.d.p./.d.0.j.S.t.t.N._.g.3.A.F.p.m.P.W.m.0..Xa.0.!.E.:XqXC.pXvX!.7.W o.` U { =.V J.vX3XuXhXNXp.0.N.P.t.N.E.x.G.j.M.3.t.d.1.S.m.m.n.d.M.C.E._.t.M.m.d.d.p.d.I.q.t.).I.Z.g.a.y.N.d.!.A.M.B.p.M.a.d.p.t.).m.0.a.W.C.V.I.a.p.t.1.t.S.a.g.I.B.j.C.d.a.W.E.W.-XD.=X&X6XnXi.m ' V N K ' ' m C C K J ' ^ U [ J V V J A k v / ~ h P C V Z P h A A m S v b ) n k v f N V A h h m s C P k l n Z b s s i A C b k n V P k h m n x i { Y.mX6XgX[.*X^.P.6XuXoXV 9 l l 8 r 8 h l g 8 r 9 6 8 5 5 0 d 5 4 4 , , 8 7 9 , > , 4 1 1 * 0 * ; t , , t , 5 1 1 2 , ; ; * 6 ; ; 1 , 5 5 , ; * ; 1 ; * 1 , = = , , ; @ . ",
"; * 5 * 3 * * ; ; ; @ 5 , @ > , , @ ; > 1 , , 5 * 5 , 2 4 6 , @ * 5 4 5 , , * 4 5 9 t t * * t 8 4 , 5 * 9 9 , 0 8 8 8 8 i h h f 5 f h k s s s h %.L.|.nX7XfXMXqXy.U h k h V V s h P f B m V V k D n N 8 8 D i k A v K k s k V v m B n h h V m b m i B P V P P h N v h m K V m A h N b k Z U L m v o.J L V ` ] J L ^ J / U h.6XbX&X=XnXaXC.e.Z.(.j.d.Q.M.I.E.N.Z.a.3.'.4.k.a.W.!.0.d./.j.V.B.j._.3.t.I.<Xh.d.`.h.3.d.R.D.#X'.y.C.a.M.j.h.0.j.V.W.d.Z.M.y.d.k.a.p.p.M.s.0.Z.Z.a.j.C.C.k.L.C.m.n.V.C.W.wX[.Q.nXt.U W } | | &.J u.nX=XpX4X/.C.j.W.d.p.T.(.k.r.B.k.y.R.9.k.j.~.D.C.d.V.*XQ.d.d.F.p.W.B.t.g.t.Y.k.,.I.W.d.a.t.I.b.W.d.t.k.d.g.I.a.k.0.p.T.d.4.d.t.A.XXB.0.r.r.k.d.g.t.M.a.d.a.d.m.W.N.P.;X,X*X$X3XnXu.b o.J L J / J v ) L A J ^ L L K H m N J V v b V m b b s P ^ K m v N Y s v m m i A P i N v h B N N h K v i i h V N s n n n h b f k V L c m C V m A s v z.fXpX-X*XC.7XfXN.I 0 d , 5 s f s j 8 7 7 s 5 ; r 6 , , i s s g 4 , 5 9 4 5 ; 5 8 9 * 1 > 5 ; , , 6 6 * ; ; , , 5 , 1 ; 6 5 , , * , , , , * 6 , ; ; 1 , , , > * * @ . ",
"; ; > ; o @ 2 > ; * @ ; ; ; ; 1 , > , * o ; e ; * , , @ 4 t 6 > , y @ w t 5 8 t 4 , r j t , d 4 6 0 5 8 7 8 9 6 s F f l 8 r C 7 4 s j k l h h f 8 h  .1.2.| ` J m i l B V V N Z m C b C N N b v _ f h V A f 8 N V s h C k h n j s N b P v b h n N s C M m k C k h L L V / P h N b v L P v L ) b V L v J T / L U ' } W O.U l.bX6X&X[.^.=XC.p.A.k.j.`.!.m.h.N.t.j.a.I.a.d.I.t.A.Y.d.!.P.-X/.g./.^.E.C.%XW.d.m.j.j.a.N.!.C.a.#Xj.3.a.M.k.M.j.a.B.x.3.x.t.d.d.a.a.4.p.3.r.t.C.P.B.u.Z.<XI.y.m.P.N..XE.^.6XhX[.nXr.| >.{ -.| o.T 4.NXgX^.4X^.P.C.P.M.k.0.t.I.`.p.B.B.p.E.k.p.Z.m.E.t.C.Q.;X/.d.C.~.W.a.t.).y.y.Z.E.B.1.r.k.a.!.l.0.k.g.a.T.C.I.q.s.a.m.d.).M.t.y.a.t.t.<.0.A.A.#X^.a.u.4.t.p.`.W.C.^.^.^.4XQ.bXlXaX7.m J >.U k Y T J J [ J V L V m / ' P V L L m m h m K L V V P m V V v V v E m b v V ) V k s b P s k A N j s b k h A k k N N s f b N b b f N j f N N s r J c.oXwXNXeXVX-.8 7 s F f n k b f 5 8 s 4 s 5 4 f d , , 8 s 9 , 4 t 5 = 8 s , , ; 1 , 5 , > > , * 1 , @ w 1 * ; t , , * @ 1 ; , , ; * 5 , ; , , @ ; ; * 6 1 ; * O > . ",
"@ * ; o $ @ ; > ; ; , @ > ; * , ; , 6 , 1 > * * > 1 4 5 5 5 , 5 , 6 ; 5 4 6 5 , 1 , 4 , 4 j 5 , 5 6 1 d 8 8 8 7 f k 5 s h r 9 j j s d n k k k t j d a m i i t 5 f f k C h L b V h v k k h h b s b N m U V s j C k c s h V S h j 8 x s Z b h B k S h s V ( v b C A P v P V k n C k _ N L P N K m L S K ^ Y V V ' ` J K K W j.nX6X$X^.~.=X[.g.M.a.S.p.d.d.m.B.j.'.a.g.0.m.N.d.f.0.h.B.3.,X^.t.j.~.^.N.V.d.a.G.g.p.'.B.a.k.).^.C.0.s.A.s.0.F.m.a.p.4.t.f.m.B.0.OXR.y.u.f.p.M.P.a.r.0.Z.a.u.d.:XE.a.N.mX[.7X6XbXl.{ ` { { J P H 7.vX&X=X*X,XC.N.Q.q.M.M.y.d._.t.B.E.E.(.(.MXa.N./.E.P.m.Z.E./.N.C.n.k.a.y.z.a.E.1Xp.s.k.a.a.m.d.a.t.h.k.t.a.B.0.s.T.!.a.M.!.0.a.M.B.N.k.k.q.q.#X7Xa.s.u.s.d.a.m.C.^.aXaX+X[.*XgX3X&.) o.*.[ V h L / U o.V L P A m J V h P V J T V n S Y V K V v h ( ..V B V v D 8 k V b k f B v C n s A h s f P N N s v k k B k k v P h l s j s C S m V l 8 4 v U $.$.m 5 1 s s f k h k b r f 8 j k s 8 , 8 8 5 6 8 t 4 t 8 8 1 , 8 5 , 2 , 4 t 8 , , 6 5 , ; u ; , 5 , ; , , , 5 1 ; * 5 , 5 5 * , ; 5 9 ; ; ; , * 1 @ , @ > . ",
"; ; ; @ $ * , @ * > > @ > * ; 1 ; ; , , , ; 1 ; ; ; 1 ; 5 , , 1 , j 6 ; * r 5 ; , d , ; * 7 i g 5 5 8 5 , 5 t i h 7 , 8 7 s s s j i 7 h n s x h b B s n l s B N B C h V V m n n k v Z v B l b N n n k n k i N C i 8 g v k R f f h h s n n 8 f k b v h S v V N h h m J V S h m P k N s T U m X.V M P V V V / ` L V ] U  .U $.NX%XE.;X&XaX&XV.m.B.b.t.t.N.W.d.a.p.s.a.a.0.h.N.Z.a.Y.1.0.f.d.d.a.N.Z.a.a.0.0.B.V.m.a.9.p.k.m.g.p./.p.x.q.a.N.9.t.M.W.M.a.k.t.p.A.0.3.A.B.t.B.a.V.V.m.I.M.t.t.W.V.C.$X*X[.$X6XmXr.W / o.{ U } L z.hX6XpX-Xm..XP.F.y.t.Z.g.0.u.:X;XE.V.t.C.!.t.t.k.Z.!.a.t.C.<Xa.e.g./.h.9.m.C.q.Z.k.C.F.g.j.C.p.0.k.t.z.0.S.g.q.0.a.M.k.0.d.!.t.P.E.a.E.B.t.a.Z..Xa.B.d.c.m.0.d.p.~.iX[.P.[.6X6X4XW A f b { Y b P V m ~ L U V m O.Y J m P P b K A n h m v L m h M k k h P S s b C t s m k 8 S h h A S s 8 b P s 7 V m h k h r h b k s f s K h s h b A B B l 8 8 8 5 5 s 9 d N 8 8 c k 8 f d , t 7 f 7 , 9 5 5 6 w 4 8 , 5 8 4 5 5 , 5 6 8 ; 5 d 1 @ 2 1 * t t * $ o ; 5 , 8 0 * , 5 6 ; * t 5 , @ ; 5 * @ ; > * * 1 2 1 * * >   ",
"1 @ ; @ , , > ; * ; * @ ; 5 * , ; 6 6 5 1 ; > @ , , , , 6 * 5 2 * 4 1 5 5 5 t 5 1 , 1 e 1 5 f l , 5 s 5 5 , 5 i k t , r d d t * s k s h k s k b s s i k N h L m k h k D i b b i n C b A h k h b A s h f s k B i B k s N h 7 f h N N n h C s d P b k v b M L V N N A ..m C A V v h V b L J J m v P V K P V J U ^ / T J Z K $.MXcXQ.E.-XzX^.C.Z.).j.M.j.I.m.W.M.k.k.a.q.m._.q.0.B.d.t.).a.g..XP.Z.t.M.'.1.u..XE.d.h.u.y.b.a.f.g./.C.p.p.d.`.d.A.C.N.a.w.a.t.M.a.0.a.p.d.q.!.I.j.k.Z.a./.M.M.C.m.E.C.{.&X[.[.NXa.{ ' J =.'  .' R.FXuX[.^.#Xm.t.I.a.A.0.S.t.0.j.W.j.d.S.W.N.d.a.G.M.g.Z.V.V.d.4.Z.`.E.P.a.Z.B.d.p.N.!.W.p.y.B.).d.I.t.$.c.p.q.T.u.1.B.M.3.Z.:Xp.`.,X!.t.W.Y.a.k.0.p._.a.r.^.d.k.a.%X$X7X+XwX6XcX{.I D L / P V Z V A L V L Y ( L J J ' P m v Z n h k A C m v N N C v k k m m s s N n i C s s B s k k s s 8 J n j 8 n D C k k k B k k h f l m k f h N h 8 b f k f t e y f b v n s r j f s 5 5 t g , s N 9 l 8 f , , 5 , 5 5 t 8 * 5 t 5 , d 0 , 5 6 $ @ , 5 , , , ; , 5 , * s 6 ; 1 4 5 * ; 4 1 ; 1 , ; ; ; + > 1 ; * @ , o , y   ",
"$ * ; , 1 * @ 6 > * ; , , , * 5 , ; + * , 5 , ; , , 5 1 ; * ; ; * , 5 5 s 8 4 5 7 , 6 , 1 w 4 , , , t 4 i s r 8 8 d d h 7 8 8 f f 8 D k s k f 8 7 k b B f h h m v N s l b k s f k n 8 V h f h k k k n s k N h n k h L l l b k h k k V V Y V n n h s C S v J C B k V / h N V m / P P V V P m J :.J h k U  .L A / U V ` Z V { U.mX3X$X&X8X$X^.m.Z.N.N.m.g.p.q.N.p.4.`.N.W.I.R.1.C.`.k.0.Z.m.N.).m.a.a.m.a.'.C.Z.j.k.g.u.a.'.f.u.d.I.p..Xd.W.h.M.p.j.g.q.MXa.g.A.2XXXp.a.d..XM.4.d.V.d./.k.t.W.C.C.!.fX3X&X9XNXy.J X.`  .=.I I l.dX=XpX7XiX!.t.g.N.k.9.d.a.k.q.p.!.d.M.Z.V.d.0.T.g.t.{.%Xl.d.C.E.d.b.D.N.`.A.N.a.3.t.V.eXt.d.G.a.Z.h.0.p.f.p.B.k.x.a.k.M.d.t.j.W.d.Z.0.a.k.1.u.u.q.a.t.{.!.a.I./.E.$X$X&X&X=XzXN.I S J U C V m L m O.J L k b / L m Y P C L V n f h J b m A V v C C C s B ..v 8 k h v h h V V k f 5 8 s f k 4 v D 8 f i l B s f f B n k r v A k s C A s k C V n f x t 7 v 8 r r t f d s f f s s j s f r s , 5 8 5 t 1 5 5 , 5 , , 8 , , 5 ; , , , 8 8 5 , , , 5 6 8 4 ; * 1 5 , t ; > , * * ; ; ; , * = 5 ; , 1 > ; @ , ; * 3   ",
"$ ; ; ; > @ ; 1 * @ > g 1 , 1 , * @ ; 3 @ 1 , , 5 ; 0 1 , ; 1 ; @ , 5 5 8 8 5 5 w 5 ; ; 5 6 , 8 9 , , 5 8 s s , t s 4 s s 5 7 8 8 5 5 8 7 f 8 9 d s h d d s k C B b N s k k v A s s k C b N h k s h C v C n s k s C L k 8 k h s l 8 b N i m K m k k b P m N C h v L m Z ~ / K V m m J f N m T } J k Z ] U m b / U ` ! / J $.XX=X6XaX6X3X7X#X~.!.P.j.j.T.W.S.B.N._.I.a.t.Z.a.t.C.C.d.k./.m.j.d.B.m./.:Xj.3.t.d.a.a.!.g.a.g.t.k.0.a.XX{.a.a.I.m.k.h.k.m.d.t.C.d.V.V.a.t.(.P.t.S.S.j.q.m._.3.C.Z.d.C.~.Q.&X&X|.0.W Y [ ` ] { U z.mX;X$XV.V.:Xj.k.B.a.d.j.4.M.A.k.Z.N.3.g.j..Xd.'.M.g.N.d._.j.C.2X0.M.`.`.t.t.Z.N.d.s.k.m.B.p.C.m.t.t.1.j.d.a.t.0.a.0.t.p.y.k.M.W.d.j.B.k.a.h.0.a.g.g._.j.1.g.eXP.P.dX&X[.hX$XdX0.m .. .W n m +.v.h v P V f V o.^ M P L h J m s h ) V v V b N h h v n i s V m h k V k 8 R ~ h s 8 w s 8 G b f b s 5 d s h h h s 7 f s s s A k k k 8 k h i h N h f C h h i 5 g r 8 s t 5 s h i f f 4 7 8 , 4 8 r d 5 ; 5 , , 5 , 6 6 5 , 5 5 , * 5 4 8 5 ; w 4 4 4 4 , * 6 > * 6 * ; * 5 1 > > $ * , , , 5 , 1 , ; , > ; , ; @   ",
"o ; ; , ; , , ; * @ > @ @ > ; @ ; , @ , ; , ; @ 1 * @ , , ; , 4 w @ ; , 1 , 4 t 5 5 , 6 , 5 4 5 , 5 5 d r 8 f 5 t d 7 ; 5 h s 4 5 l 5 s l s l f s f s 7 s b b B s s _ S s l i h l k n i k n h k B k s s k l s 5 l h 8 h s l f n C s s k h k 8 s k C B h _ n i C h K m h C N N b m L J l 7 K V b ) L ' Y V L / ( m ^ U L ' U z.wX=XzX=X[.^.C.Z.j.C.m.M.d.N.k.t.t.d.a.j.j.A.f.B.a.s.t.h.W.g.a.W.Z.p.B.m.k.t.k.d.0.t.C.P.c.k.j.I.h.t.y.).4.%.m.C.A.r.h.V.d.k.N.P.Z.m.j.Z.Z.W.Z.P.B.B.t.q.N.Z.A.d.C./.C.4X&XhXNXa.{ Z :.| `  .m z.bX=X$XiX~._.C.k.p.m.`.-XZ.q.Z.d.p.2Xj.0.r.<Xa.M.`.g.B.1.B.!.3.a.C.d.a.Z.w.1.a.).p.0.0.0.B.k.j.h.0.I.`.a.B.).t.r.d.d.k.g.5.s.a.a.d.g.E.`.r.k.t.p.XXd.s.T.a.a.E.C.C.$XsX6X8XpXmXr.m X.X.J V m J ` J K V ~ N k P V h P h b h ) h k / k h i V V b N h A n V s h P S g s h N f i s s f l k i C A i j n 8 x s h S s l k i s k k h h k s 7 f k i l c h 7 i f 4 d B s s f 5 s s f h 7 s 9 r t 9 i t 6 , 6 7 j d 8 4 ; , 5 5 4 5 5 , @ 1 5 , ; 1 6 , 4 * , 1 * , 2 ; 5 , , ; , 5 @ 6 5 5 5 * , = * ; * @ , > ; ; 1 ;   ",
"@ ; ; @ @ ; ; ; 2 ; ; O $ ; ; ; ; 5 * , , * * 6 5 5 , ; 4 , , 5 5 , 6 @ $ 5 , , * 5 7 6 5 5 6 4 8 f d 4 5 , t 5 5 , d 6 7 s l z 5 8 n s k f s n N h S f k ) m s 7 k s l s s k k 7 g k s B k k h h s f s n f s 8 f f 8 m N 5 8 s m k f b k F s s k h R k b h h Z V m b h b Z ..P h Z V f m X.~ l h J J P b ^ U J ' L L ] Y b $.*XlXaX[.Q.*XE.g.W.{.a.t.r.d.j.t.h.k.T.W.B.t.0.p.S.h.t.0.k.q.p.2XZ.t.q.A.a.k.a.k.s.g.:XE.3.).`.a.I.a.0.k.S.s.f.Z.0.B.h.M.P.Z.t.B.A.Z.d.).p.t.d.m.N.p.3.N.j.:Xj.d.Z.q.^.;XE.7XmXy.| ' :.J ` Q J h.nXsX=X-XQ.q.a.a.T.j.P.j.L..XN.d.C.j.j.a.t.y.d.g./.C.t.5.m.m.0.M.-X~.3.k.u.R.a.a.F.k.k.S.B.j.m.k.t.q.<Xt.t.T.3.'.T.p.Z.f.&.1.I.j.d.`.!.g.d.s.k.t.F.m.3.s.j.Z.b.E.iX$X^.=XuX4XyX2.U / L ..~ m P ^ U / s Z N ) P V K N V K l i N k b k k l h h C E h A b v s F v C 8 s k B 4 t f k i h n d v A i f n s b h h N s i j f s k f l f k k n k k j 8 l t 6 8 5 j r i s s 8 s s s f s 6 8 f 4 4 t f 4 @ ; 8 = 8 7 5 , 1 * 5 4 t = 5 6 1 , > , 6 * , , t , ; 1 0 , , * 1 1 , * ; , ; 1 6 4 , * , ; ; 6 > ; , , ; @ * , . ",
"; @ @ ; ; @ @ ; ; > ; 5 1 @ @ ; , * > , 5 * ; e 5 4 5 4 5 , 6 , * 5 5 ; ; e 5 , 5 5 7 @ , , 5 5 5 , 4 h h 4 5 , 8 t 6 5 5 7 5 , 7 h s s s 8 7 k k f f s b v k h s s s s k B h k k k h h F 8 8 A h 8 s s s r 4 S n d 8 b k k 7 s s f B D s s d V ( h C N h L C N V A N b v R v V P V h h A P m @.L M P @.U L m T :.L J ^ K V -.vXgX=XQ.].mX[.C.:Xa.y.m.E.B.Y.t.d.Z.r.j.F.m.p.q.k.r.B.0.p.m.N.B.j.Z.h.!.d.q.j.'.B.a.B.a.d.m.m.d.j.k.p.p.Z.q.p.A.d.C.Z.0.d.<XC.q.4.t.m.m.d.d.h.q.m.I.t.d.p.g.C.XXZ.j.;X-XC.&XvXL.U L } U 6.6.J 7.yXpX~.E.BX!.N.N.d.y.j.a.d.Z.j.p.m.!.XXt.d.a.Z.p.9.u.t.h.W.p.k.a.<Xd.q.a.q.A.C.t.k.k.s.4.d.W.B.h.a.t.t.h.p.B.p.M.Z.d.q.k.0.0.z.g.j.!.m.r.M.N.M.p.t.j.A.d.g.B.N.a.;X6X{.7X}.[.XXW J ' L b ] ' L P m L V V m Z V v V _ A m l s V Z V C B f V V h k A L i k r s s h m A k f s n V i 8 j h i 5 f k i 8 f s f f s s 7 s s B h 8 8 s k k h d f s r s r g g j s i i 8 4 s s 8 , 7 d g 5 7 s 8 , s 7 , 5 t 8 * 5 5 5 5 5 e , * 5 2 , 8 5 ; 1 6 6 , 6 5 > 1 , 5 1 , 1 ; * , t , @ ; ; 5 4 * > ; ; ; 5 ; , 5 , 5 , @ @ . ",
"@ @ > ; ; @ @ ; @ , 1 7 , , ; , 5 ; ; , 5 * > * 5 5 , 6 1 * > 3 + 6 8 4 6 5 5 5 5 4 f 5 > ; 5 d 1 ; 5 m V i , 5 f 7 8 s 4 ; > 6 s h k B 8 w 8 5 4 j 8 h 8 z 8 j l 4 x 8 n ) m s k P h h k j j i V l 8 s f g 7 P P i s 5 s N s d j s b b s l h v W P h h m U V k b b b v V h b V J s C P N V L U ` B k J J V b J { J ..+.^ Y { vXxXpX}.$XrX6XP.p.0.XX^.V.Z.a.h.d.P.k.Z.C.b.).j.p.Z.C.C.Z.d.j.p.a.m.j.d.j.d.).p.g.M.y.w.P.C.k.k.W./.t.B.N.B.0.s.B.N./.Z.m.j.Z.I.k.k.k.s.g.d.s.0.g.!.m.t.B.g.a.d.y.>X*X^.4X=XsXy.J @. .{ ;.=.H r.LXpX6XqX{.P.d.j.0.u.Z.!.I.a.4.Y.Z.m.t.d.m.m.C.0.%.4.2X#Xh.u.~.d.k.t.E.l.C.E.d.T.0.&.0.m.E.d.W.d.B.k.a.Z.C.d.Z.0.g.C.d.q.l.4.0.f.d.g.t.a.h.M.a.p.9.A.a.m.I.y.W.C.$X4XqX8X8XnXk.U Y L P S { ` V V N P Y Z C b L N N h b b b C P k V V n h V V h C m V v C i n s n U J i s b v L C 7 w B h 5 4 i b x j j s s f d r A h k s f f 8 i C i s r f k f i s s s k h g d 5 C h t t 8 4 s 4 5 d 9 , 4 d s s f 5 5 , 5 5 4 8 > @ 1 9 O @ 5 5 * * * 8 8 , ; @ 5 t 5 * = 1 ; > * = , e ; ; > 5 2 @ ; ; 6 , , , , , , @ * ; . ",
"; @ ; $ ; 5 , , 1 @ - @ @ , * @ , 1 * @ 1 , 6 * , , 5 4 ; 1 , 6 4 4 5 5 6 > 6 > * , , 1 , , 5 5 5 w , t 5 s k r 5 6 5 j 8 , t 7 4 , 5 s h f 8 7 s j d h N s d , 5 s s r 1 t f s k k B r s C S g 8 B s s k C h f 8 j V d f v b V k s n s l h N m P S r h k k A V h v k k B k A P K / m Z L N V v m ' L m P U ` U ( L W ^ ' ) V .XaX=X^.$X*X6X[.d.A.2Xg.~.D.j.j.0.g.g.a.0.t.:Xg.,.OXOXA.m.a.w.2.p.d.u.4.3.S.s.w.s.,.u./.N.Z.(.A.d.3.f.k.t.Z.).0.q.a.T.F.!.b.g.N.a.t.u.s.).m.A._.T.d.M.B.h.N.j.;XE.Z.d.7X[.&XnXh.^ E U T ' ` I c.+X=X=X!.d.d.p.d.a.I.m.x.C.F.I.d.:Xm.S.p.P.k.3.u.B.M.a.q.5.t.A.a.u.4.!.:Xq.p.Z.C.(.C.a.h.a.0.`.W.0.%.I.d.g.u.5.s.Z.j.B.T.9.g.Z.g.t.t.V._._.d.d.A.a.k.m.h.M.M.E.-X=X=X^.7X8XtX7.m ' ] U K k b N k V Y L Z V L V n V P K V ~ m U J k w f B 4 8 E v r y l k m V P f d 9 s n k k s _ s f k 8 s d h 8 5 6 s d 8 k k s 5 4 i b w r h k g s s r s f f 7 f 7 5 8 5 4 f 4 w 5 s i s 6 5 , n s 5 , 8 7 , , 5 7 5 4 , 4 , > ; 6 6 ; 5 , 5 , , w 4 5 ; @ 1 7 6 w 6 8 ; ; * 5 , 5 * 6 5 , @ ; , , , , ; @ @ , 1 1 , ; ; , . ",
"; @ $ @ $ ; ; ; > * * > , * 1 ; @ * 1 ; , 1 , , 2 * 6 , 0 , * 1 , 9 6 = , ; ; @ 1 9 9 * 1 t 8 8 t 5 , 8 , 5 d 5 8 8 5 5 5 8 f 8 G 5 ; 8 d t s 8 f i 4 f C s s 8 7 B 8 8 8 r s f k i 7 8 k i h i s S s 8 S k k k f h n B s h k 8 f k b i s s S V K n r h C k s V A ~ s h b v K V m Y K J J ~ V M P Y V V V V o.L L V J | { P J a.nX3X[.;X[.aXQ.C.a.a.B.BX).h.a.a.s.B.k.m.m.m.a.q.p.p.p.V.k.k.t.j.a.a.s.t.T.0.f.d.9.t.g.B.m.d.t.x.u.k.r.t.h.I.p.m.Z.a.%.(.`.y.h.S.M.s.q.Z.d.p.`.9.s.Z.V.0.B.M.C.B.C.W.[.[.=XnX4.J :.' O.5.} m 7.dX6XuX^.E.E.P.N.m.a.d.a.C.V.j.p.d.I.t.I.MXP.q.Z.).a.1.0.a.0.t.<XC.t.t.I.f.p.d.a.y.d.k.r.Z.g.p.k.R.S.A.N.C.a.q.k.Z.h.q.y.d.f.Y.t.0.h.d.a.d.T.p.a.j.d.N.r.p.F.V.;X$XE.&XaXpXLX-.V / L ' J h C [ L P Z } J v C V A k S s v m V O.m k b v n k f m m h s l s k N h h k s k k b h h k s n i s d h i D s f i j r d k v s 9 d C f j n k 7 j S 8 B s 8 s s 5 8 f e 8 i s 8 4 g s 4 5 9 5 8 t , , h G ; 2 5 d 9 , 1 6 r , ; , , , 5 w * 6 , 6 6 5 w 5 5 , 5 , , 5 * 1 * , 1 6 6 * ; , ; @ 1 ; ; 1 ; * 6 ; ; ; > , , * . ",
"@ @ @ @ @ $ ; $ > , * ; * * > ; @ ; 5 , * 2 ; * , ; * 1 , 8 5 , * , 5 , , 6 5 @ u 5 , , * , * , 5 5 , , w , , 6 4 5 8 , 8 s s 7 j 9 t 5 ; 5 f d F s i 5 r 5 f f 8 g t d s k s d 5 s i s m k 8 7 F s s s k s f s s h d k N d s s b v h v C 6 5 b V h h V n s C P m V L v V h V V ( v V J J h P O.m s V Y V P X.b V L T =.:.~ U r.NX9X=X[.iX-XQ.P.l.j.'.!.4.t.C.d.3.4.0.d.E.a.a.2XC.p.m.m.B.g.m.`.q.Z.d.k.t.I.d.3.p.{.m.r.k.0.%.k.h.t.0.c.u.z..XC.!.m.s.M.W.a.,.g.j.p.m.d.P.~.W.k.g.I.;Xd.4.k.j.m.C.%X;X;X=XhX4.U :.;.W =.| H z.LX3X^.-X=X>Xa.Z.m.0.a.).m.N.B.M.p.d.I.d.d././.:Xa.a.t./.a.h.A.B.a.j.'.4.b.'.0.1.z.t.4.4.c.p.0.9.t.z.y.s.z.p.;X~.d.u.M.j.).s.w.1.R.q.3.A.a.0.0.k.Z.d.a.a.N.~.^.#XE.[.6X6XzX XU G ~ ^ H ) C P T J C V o.^ B l N m i j f b b L k s P L M i A P h m ' m k g N s t f k h A s 8 k v R 8 s n b r l s s 7 f C 8 5 4 f n f j 8 5 s 8 d f h k f t 8 B i 8 s s s 7 t f f f r 8 t t 8 5 r 8 1 t 4 1 h D 5 ; * 6 , t > * 4 w 6 , ; 8 5 5 * 5 , * , , t 5 , 1 1 ; 1 ; ; * , , , ; > 1 ; , , @ , 1 ; > 1 ; ; > , ; , 3 4 ,   ",
"$ : ; $ @ @ @ $ ; ; 5 ; > ; ; ; * 2 * , 6 * , , 1 6 * ; ; 5 4 ; ; 5 4 6 , 8 5 @ + 5 8 8 ; * 5 6 4 7 w 5 5 , , 5 5 , 8 5 * 8 f d 4 7 7 , 5 t t 4 s s s , j g 7 f 4 8 7 s s f 8 9 4 f s s d f f s r s s f i f h s k A j i n 7 s k k h N b N 4 4 S k h m k b h h A K v m m V P V V P m V L L h O.U L ~ / L ^ J ^ ' J U L | L Y J 4.dX=X3X=X;X~.$X-XL.B.g.y.0.W.V.t.y.y.f.m.Z.q.0././.m.S.q.k.E.`.!.Z.m.m.t.9.d.d.k.'.`./.4.a.T.z.0.0.a.0.4.3.y.!.V.C.a.s.Z.p.f.a.d.M.B.I.t.).I.d.A.a.t.!.T.a.s.t.).~.^.].=XaXhXk.U ` 8.} ` | ` z.zXpXQ.-X^.qXd.C.!.!.N.m.b.m.0.k.s.F./.W.S.p.W.V.p.k.t.j.a.l.d.9.Z.L.y.y.a.I.M.,.t.I.m.a.4.1.A.T.b.q.0.2.k./.W.W.W.3.j.,Xt.t.0.0.a.t.d.d.k.0.,.B.'.j.d.f.Q.;XfX-XZ.*X4X=XhXh.h l / ^ Q P m m ( V V P ^ J s N A s V N h v V V h s M m V b v m i E O.V i 7 m k s s R k p l l s i C 7 8 s s 5 7 i k l 8 f l j r n i 7 s r t B f 5 8 n k s s 4 g s 8 8 t f 7 s 4 t 8 4 d 5 5 f s r , , , 5 - 8 , 6 5 , 5 5 1 , 4 5 8 5 1 ; 4 , 5 , ; 1 1 5 , , , 1 , ; , , ; , 6 8 , * 1 , , 5 , 2 ; ; 1 1 @ ; ; , 1 , 1 > * , 7   ",
"; ; * o ; ; ; ; @ ; @ ; * 6 , > , , 2 * 1 * @ e 5 1 , 1 w 1 ; * , t 4 , > 1 ; 1 ; , , 8 6 ; , 8 5 5 , 8 l r 5 9 5 4 t 5 6 4 8 G 4 5 8 i f s 7 s i s 7 c B 5 7 8 i b D h 8 s s g k 8 R g 7 j 8 r r s h j 8 l s b n h k 8 8 s F 8 j h f B k h b B s s p 8 m L K k b V V N V v P P K m P m V h m m P m C L J J ` ] ^ J ] ' (  .` { XXvX{.P.C.7X$X7Xm.t.b.2Xy.t.!.W.B.Y.j.T.S.s.0.p.A.a.M.p.N.d.p.f.d.t.M.k.P.B.).y.0.s.m.I.f.d.k.y.3.a.Z.p.XXk.a.<XI.t.,.j.Z.a.I.m.g.x.z.,.u.u.w.N.C.t.d.T.C.A.(.Q./.;X=X=X6XfXt.W ' =.{ :.` J z.bX[.=X-X~.j.j./.E./.d.d.m.d.d.d.k.Z.9.:Xd.B._.0.d.j.j.N.y.u.a.a.A.t.g.(.W.j.N.!.p.B.m.k.f.r.t.3.j.V.T.Y.%.XXt.a.k.p.C.D.q.W.^.!.t.x.k.9.s.k.M.m.d.d.!.k.~.C.E.%XE.[.aX=XzXr.V S P ] } ' U L M N ' Z b b U ` m V P L V ( h k L Z b n k k b n s k s R s n V C l 5 k h f n l 5 r 7 s s k f s d r s k s 7 j C h 7 l l k 8 f s f l 5 5 j B s 8 8 9 8 5 5 d 9 b r , 6 4 j 5 4 7 f 9 5 f r 8 ; j 5 8 5 7 s 5 1 w 7 8 , > , 1 , 5 t 1 5 , 1 5 , > ; 5 , 0 6 , 5 , 5 4 5 , * 8 8 , ; * , , , , , ; @ ; = , , @ 1 , 1   ",
"; @ @ @ > > ; $ $ 3 o @ > ; ; * > @ , , ; ; * * ; , w 5 , , * 1 t 4 5 ; ; ; = t , ; , 5 5 6 , 5 , , , 7 k 8 , 5 5 9 4 8 8 5 5 r i 5 7 7 B 7 8 j r s 4 n p 5 t g k v b s s f 7 8 k h b w 4 s s f f n h 8 i n f h k k h n s B s 8 h s 8 j s m ..k s n N k k L K n i B k n V v P L m v E b V E C ( / m N V U ' / ` ^ U ^ / ^ U ] J t.gXuX$X7X4X7XaXC.t./.N.t.a.B.B.0.d.t.1.,.a.).0.p.g.m.B.d.,.s.0.9.B.B.M.B.d.0.q.t.r.0.B.Q.j.t.a.d.g.!.W.!.t.g.d.0.k.p.0.f.j.V.j.0.4.%.T.OX,.0.XXP.a.p.a.,.t.a.q.p.C.0X$X;XNXy.U :.J ` ]  .U i.nX&X;X^.{.d.d./.j.!.d.).!.m.I.d.B.d.p.k.t.p.t.p./.C.d.s.h.y.t.B.t.d.Z.%Xd.p.p.m.<Xp.q.g._.j.p.k.k.Z.q._.k.a.S.r.g.Z.W.C.k./.%XV.p.t.g.s.3.a.M.d.a.B.j.M.%X^.C.-XP.^.$X^.eX%.J ' O.J ^ U / U V m ( ' P m :.{ m O.L V m V f b m K N h k B s n k h 8 s n C v b 8 s k h s k l 8 s s l f h s h 8 s 9 s S s 4 k k s F i s s j w 7 k s 5 5 8 k 8 5 1 , d 4 z 7 k l 4 5 t 4 l l 5 8 5 5 r f = * , 5 w 5 r d 5 w 4 4 9 , * 1 6 , , 5 , , ; 5 4 , 6 1 5 4 w ; , 6 ; * 4 , ; 5 4 r d , * , 6 , , 6 $ * 6 , , , * 1 ; ,   ",
"; @ @ @ ; ; @ ; ; ; @ , 1 * 1 * @ @ , > ; @ * * ; * @ 1 , 6 , 1 6 = , ; 2 ; 5 6 * , 5 ; * r i 4 5 > w f 7 4 6 6 8 s 4 6 5 4 5 4 5 9 t , t f 7 5 5 8 8 f f s s 5 7 f j 4 5 n C s s s 8 8 8 s P i f f s b b b k f h B 8 N N n 8 B k k h k b h h A V b n P b i m m n l n k h V m L k k A L L N v s P Y P J / N k L U / Y Y U  .' m 2.NXpXiX*X[.=XQ.C.P.P.0.T.M.d.'.M.0.p.u.a.a.N.W.W.P.%Xt.d.B.OXp.d.C.d.0.0.I.W.2XN.t.t.s.d.C.~.!.W.d.3.a.3.3.B.3.T.S.y.p.t.B.k.I.j.a.N.<Xa.a.B.A.s.q.j.a.d.`.C.P.C.I.9X&XaXmXu.U @.' =.` / M 2.mX$X;X=XfXm.`.C.q.a.k.M.C.m.a.d.m.a.q.t.W.B.d.b.C.N.p.t.y.a.3.t.d.k.d.d.d.W.Z.3.y.t.t.k.T.d.a.k.k.a.e.a.S.h.).m.q.d.!.;Xm.<Xm.a.k.t.a.u.1.0.p.j.P.j.g.C.^.[.[.[.mX$X$XzXXXU U Y O.V J { V K P V / Y Y U V V J ' m N b n b V v h m V P _ s k A A C k N b t s s B l l k h h B h n f 8 8 k k B f s r b k h s s k f 8 f j k t 8 s f 8 8 4 B B r 7 5 9 5 7 7 5 5 s f 8 4 l l 6 , 8 * , t = t 5 , s g 5 ; ; 6 , , d 4 , e , , 8 t 6 @ 6 8 , , , t 9 4 4 , , , 1 ; * ; * * @ > , , 5 6 , , 1 5 , , ; @ * , 6 , * @ . ",
"; @ @ $ > > @ > ; , > ; * 5 0 @ o $ 1 ; * 1 1 5 > @ ; 1 5 5 , * ; , ; , , , 5 * , w , > ; 4 i 4 1 1 5 t 5 5 5 ; 5 s h 2 , 5 t 8 4 t 7 5 , F k 4 8 r j 5 8 s 8 i 5 s s , t 8 7 d r 8 s d s h S i s r f V V s s f h h i h l 8 f s f i s v N n k h v V s v k B B v P h N m A k A Z P P S L J L / h N L U J ^ ( V V / L ( [ / J Y K U |.lX6X$XaXiXQ./.fXt.m..Xk.d.t.g.z.s.q.a.s.B./.~.C.V.t.).t.d.j.m.d.0.t.S.p.p.V.j.Z.W.4.q.<XP.t.`.).p.0.h.k.R.p.B.r.k._.g.t.j.0.k.a.2Xp.9.V.j.t.4.t.S.S.g.E.C.N.E.;X].6XuX].2.U ^ ] } | } V 2.NX$X6X&XQ.j.Z.j.B.d.!.a.0.k.d.g.T.).I.t.t.N.Z.d.W.d.Y.9.a.k.s.a.m.d.,.u.I.g.t.M.s.u.r.f.k.p.h.r.r.g.)._.m.t.d.`.d.g.B.~.I.C.m.d.k.a.4.1.r.t.a.d.k.a.P.d.^.$X4XE.aX6X3XFXY.v ( I U Y U / V L P V L m J J m B P J m P V A m k n s L / m h V b b h h k k m t s R h i h n s v C k 7 h n s n 8 s s k j 8 s s d s 8 f 8 8 8 f 8 f l s s l d 4 7 t 8 8 4 d f 4 5 5 8 f 6 * 8 4 , , 6 5 , t 8 7 > 5 h 4 = , ; 6 , , 4 8 , , 4 0 , 4 , 5 8 w , = 5 4 , 6 0 , , , , ; * , , , 6 , , 1 6 , 1 , , @ 5 6 ; > 2 * , 1 ; ;   ",
"; - @ * @ @ ; @ @ * t > > 2 * ; 6 1 ; ; , 4 t 6 * , 1 1 ; * , > * t 6 , 5 5 , , = 6 4 > 5 5 8 4 9 5 , 4 , ; , 8 8 i 8 ; 1 7 t 5 , 5 8 6 , 8 s s 8 t g 5 s 8 6 t 4 8 8 , 8 8 s s 5 8 n r j g , h h s f s f 8 8 w f s v 8 s s s s h k f B i B f s k C k k B b h k h V V h A n h V V V P V L m L Z V m L L } U ] L [ J R L =.U X.A W P.aX=X|.6XiXvXC.V.P.m.C.d.M.d.q.A.p.a.0.9.0.a.E.p.9.q.Z.m.t.B.d.`.t.a.s.A._.0.q.g.a.j.E.y.q.p.t.d.XXd.<XW.d.a.u.t.t.j.M.m.).S.0.a.!.0.S.m.C.d.u.u.k.a.a.m.V.N.P.E.9XQ.7XnX4.} [ ] Q >...I t.kXgXbX-X*X%XV.Z.q.k.!.d.p.k.W.y.M.j.B.9.a.!.!.t.j.W.I.j.h.W.m.I.q.t.g.q.p.S.d.k.'.B.0.q.m.t.w.,.a.P.d./.g.a.Z.3.M.b.b.E.d.j.I.h.k.).f.%.q.'.B.M.d.t.C././.$XQ.Q.{.[.;X9X7.h Q ` L h P V b J m Z K V J V Z V V L N V K ' A h K k N R s C A m m f 8 8 v B J k s l v V i 8 i j 8 s k j 8 S B i i B f 7 f s i S n 8 g , F h s 5 f s 5 t s 8 s f f 5 , w r 8 r 6 5 8 5 9 , 4 d r 4 0 6 4 8 5 1 5 6 t 4 5 , , t 4 4 , * 5 5 , ; 1 4 5 , 6 ; , , 5 1 * , > , 2 , , ; g j , ; , 5 5 , 5 @ ; ; 1 > * , ; ; > , * 5 ,   ",
"* @ o @ $ ; ; @ @ , 0 @ ; ; ; 1 , , @ * 5 5 5 @ ; 6 0 , ; , 5 1 * 5 5 4 , * > , 8 6 t ; , 8 6 , , 5 5 6 ; u , 7 t 8 8 ; @ 7 w , w s 4 4 8 5 7 n s 5 ; s f , 4 5 8 k d , 5 f s f 7 4 8 4 g 8 8 l s 8 s 7 8 j j 9 5 7 h 8 f s F k k k n k 8 s k s h h V s C n b N m V A k k V P V N L V L V N L J V P K V J } [ L K J n m | U ( S J h.NXwXQ.E.=X$XD.E.,X!.P.a.p.N.d.z.t.p.a.4.1.B._.f.S.k.q.d.m.{.p.a.p.a.g.d.j.I.0.p.W.d.a.u.a.n.t.9.j.b.C.!.M.0.0.a.A.M.C.C.C.p.p.p.M.9.a.m.V.<Xz.1.9.d.<XW.m.*XQ.zXvX[.3XbXl.U J ] I ' U m 0.nXgX=XV.^.m.m.Z.0.j.E.!.k.4.a.j.q.a.V.k.C.m.W.Z.d.d.M.k.j.C.W.d.q.S.XXA.p.t.a.r.a.V.).u.0.s.k.a.Z.N.q.I.N.t.M.m.'.B.M.T.p.B.:X0.h.G.g.4.d.j.q.0.h.!.~.C.;XN.P.{.*X^.pXeX=.J :.W ^ n P h ) @.V U P J :.m V / V Y m V ( W b V ( / v s n h V m k n f s n s L n 5 C K N s s 8 s s l h s f 8 8 f h s B s h k 8 s B f s 7 s s k f 8 s 8 j j d d 7 5 4 , 8 l 5 5 6 g , 7 t * 5 d s , 6 6 , 5 8 ; , 5 7 5 1 , , 5 5 5 5 > ; , 4 5 , 1 5 * , 1 9 6 , ; ; 1 4 0 1 1 4 , = 5 , ; 5 , 5 6 , ; > 5 , , @ ; ; , * 2 * , 1 . ",
"* @ @ ; ; $ @ ; $ , @ ; , @ ; , * 1 1 1 * @ 1 ; ; * ; 5 4 , , , * 5 * 4 , , 5 , 4 ; ; , , 6 , 5 , 8 8 , 1 5 8 t , 5 7 g 4 f 8 , t j f 5 6 w , d t 4 5 j h s g f i n r j s 7 7 g 7 n h 8 8 f f 8 r l s F i s f h s s h r 8 i S s h h s B C A k h k k V i k 7 b Z V h C C s V / m P P v m P B b ^ / V M [ V M P ' ' / L [ =.U V @.U $.<X7X^.[.=X=XaXE.C.N.E.g.0.N.B.3.0.y.k.M.w.u.0.0.W.:Xd.d.2X`.a.V.I.q.m.'.N.g.t.k.V.u.t.p.t.B.T.B.P.W.d.3.t.P.j.d.M.m.I.m.a.B.M.t.a.a.k.p.q.t.h.T.a.9.t._.9.Z.m.V.6X}.[.GXh.J ' :.&.] } Q i.BX&XpX#X%XC.`.k.`.V.p.<X:X1.r.).Z.Z.d.Q.N.q.d..Xj.M.f.w.C.d.q.a.s.0.t.d.F.I.0.1.a.p.t.r.x.q.e.N.9.t.B.d.k.t.a.`.a.3.t.h.B.a.W.N.t.0.k.0.0.p.j.t.t.m.%X^.P.N.Q.6XkX3XpXY.U V O.U / [ L V V V J K V V L V L [ V m m V V k V m h S L V V m A k k N V C s 8 V v i s f s k b B n i s s i f C f 8 l 4 j j i n 8 , s 8 s k 4 4 i B 8 r 8 8 7 4 4 t s k B 7 s , 1 4 f f l g 6 ; 4 d 5 d 5 , 4 s > 5 j 5 1 5 9 5 , , t , , , , 5 5 , * 5 t 4 , 1 5 , 1 , 6 5 6 , @ * 1 1 @ 5 @ ; , 5 8 6 > @ , 5 e 6 * ; 6 5 * @ , 5   ",
"@ ; ; @ @ @ ; ; ; @ @ , > @ + ; , ; , 1 ; > ; ; ; * ; 5 5 * 6 , , 9 6 6 , ; * @ * w 5 5 1 5 1 , ; , 8 , ; 4 t 8 r 8 s s 4 8 8 6 t t 5 8 8 , , * 5 t f t 8 8 s 8 8 h s 8 7 s j d 4 h v t 8 8 j d 5 h f n i s k m v s D s l 7 8 k 8 k h s v b s C b v V h C B k P V v s A b m J V / V n V P N b / / N h / L N v ^ =.J ^ U U ( V { U W h.7XaX4X;X[.[.U.W.7X{.j.d.a.B.B.u.0.s.u.4.u.t.m.g.p.N.F.n.n.N.E.I.Z.d.0.q.k.0.Z.k.s.a.a.k.g.3.m.Z.Z.M.a.B.q.Z.C.q.E.XXr.0.d.B.t.k.0.M.g.0.4.t.m.M.A.g.a.B.:XN.N.^.hX8XhXr.W ' ' Q ] :.H 0.wX^.=XP.C.V.j.a.B.E.p.p.W.j.k.t.d.d.B./.P.<Xd.V.B.0.4.r.N.0.0.d.9.t.f.p.N..Xs.c.t.S.g.g.s.k.P._.y.p.`.j.0.I./.q.a.a.S.a.Z.m.d.`.g.p.y.g.B.m.C.I.a.0.%X-X[.qX=X6X&XpX8Xl.U P N T J U U L L J Y / L P m ' J V Z L / L N S P / n h V J V _ n s C m m V s g h s C f 4 s h N n v k f l s 8 i B i s 8 4 i k s 5 6 t l b n t 9 f k g r j 8 d 8 l r 5 s h k t 6 6 4 s s 7 4 9 5 , d 5 5 9 5 5 7 ; 5 8 4 1 * 4 t , 5 4 4 w 4 , 4 5 w 1 @ 5 4 , 4 , ; 1 1 5 , 5 , ; ; , 6 $ @ , ; , 1 5 , , ; ; i , , @ @ ; , , 5 * ,   ",
"@ * ; @ ; > ; * @ * 2 > ; ; ; , 6 2 * @ ; , , ; , 5 , * , 1 5 , 6 4 5 , , * , 1 ; 5 8 5 4 , 5 7 8 5 5 5 , 4 , 8 s 9 4 4 6 t 6 = 8 6 , 8 7 j f 7 d l s > , d 4 , 5 t s r 5 s s 5 s 8 i 7 r 4 s k s V s k i 8 b C N s i s r 5 f r k r D h h N s h k A N B h m h s b P m L P v V V h m V Z A P J m N L Y P Y L J ^ Y ` J :. .C V =.} J i.7X[.].[.$X7X*XW.m.C.m.C._.I.h.5.u.u.t.k.j.j.B.0.m./.t.t.j.z.t.d.Z.Z.p.s.<Xj.j.W._.a.p.m.Z.Z.d.d.Z.!.!.j.,.g.m.0.d.<Xu.3.a.W.k.B.M.0.h._.S.N.t.V.m.d.3.k.C.*XBXP.6X9XwX0. .' ^ W |  .I z.NXzXuXaX$XB.p.B.C.W.j.4.,.m.a.j.>XV.Z.E.B.a.N.V.T.4.s.T.R.t.k.k.a.!.B.).t.0.m.p.0.1.e._.1.k.T.t.p.q.h.p.W.W.q.t.).q.M.m.m._.q.0.V.:XE.p.r.a.B.!.m.m.`.m.Q.].*XP.^.6XmX4.V ~ Y  .` m m L ^ L K K U ( V ^ U L P P ' m k S U J m V C A v h h h R n v s 4 l s d s s f s k s 8 s l h n s 7 8 k k i f 8 8 8 f 9 d i f s 4 t B 8 4 5 t f s r j s r t 5 4 4 , 7 = g r , 7 8 7 j 5 1 8 8 8 5 , 6 5 8 ; * 5 5 5 5 4 , 5 8 5 , 5 t * 1 w 4 * ; 5 5 * ; > , 9 ; 4 g * , 8 1 2 ; 6 , , 1 ; ; , , , 4 ; ; 1 1 @ ; 1 , ; , . ",
"@ @ @ @ ; * ; ; ; * , ; @ * > * ; , * ; 1 5 4 1 * 5 4 > , , 5 1 , , , 1 e e , ; ; , 4 t 4 4 5 g s 4 4 5 5 6 * d 5 7 5 5 6 0 , 8 z 5 8 t 5 f h 7 5 s 8 , 6 d 4 t 5 8 , 1 5 l 8 , r g i s g 8 8 h h m r 8 s s i i r f s l i t r k B i s A n l n s n n 7 V v P B s N m L J K V h N N M V V m J L Y L V ' ] U J ' / V ^ ^ U L ^ U ]  .I -.wX6X[.;XQ.;XP.P.!.C.~.W.D.9.3.4.r.s.h.d.B.a.p.u.'.E.t.M.0.r.p.g.q.B.S.3.I.P.a.E.P.q.M.k.d.N.B.Z.C.V.!.p.4.B.).P.M.a.k.k.I.q.9.k.M.t.a.M.m.g.B.C.q.a.B.t.V.Q.[.^.3X9XmXr.m Y  .>.=.W m S.vX[.^.=X%Xm.~.{.N.p.%X<Xf.B.<XN.j.P.j.`.a.B.:X<Xa.0.B.g.3.N.M.j.C.a.m.a.3.u.I.M.%.%.k.m.f.k.0.0.G.M.B.q.Z.N.k._.Z.g.d.N.p.a.h.k.N.!.E.a.t.t.a.d.C.g.m.t.D.P.^.fXpX7X!.W m X.U | ' Z L V m L L K V L V v ^ @.V h b V P N J Y ~ b s C Y B N s 8 7 k n s v 7 j i i k k s d g i k b s r 8 j f B s n f i 8 j k i s 8 l 8 8 k 8 t 1 r r 8 5 4 i s 5 6 t 5 t r 5 5 ; , t 8 i s t 4 5 d 4 , 5 , 4 5 2 * t 8 6 5 w * t 8 * 1 6 4 ; , 4 w > @ , 4 6 1 * * 5 , , 5 6 8 , , , 4 9 5 , , ; ; > ; , 1 1 , , , @ ; 1 , @ ;   ",
"; @ > @ o @ ; @ ; * ; @ @ * ; ; * * 3 3 @ @ ; 4 , , 4 ; , ; 4 , ; 5 4 5 , , 5 , e 4 5 , ; 6 6 r 4 , r t , t w 5 5 d 4 7 t 5 4 t s 4 d 5 8 5 4 4 5 d 0 j 8 5 4 8 8 f 5 4 r d 7 s s 9 s f s 4 j s k 8 n S s 8 s f 8 i f h k s S k k v h s 8 h h h B n s m v m B k C m b b V L ^ V V Y J / L P m / m P L m J U L L ' o.N V K U ` L / T $.eXuX$X-X[.$XdX^.I.C./.F.m.C.t.t.j.B.p.k.).d.p.A.1.9.p.M._.C.Y.j.m.q.0.u.p.d.x.2.q.0.B.M.M.g.p.d.j.g.P.g.k.y.t.F.N.<.k.a.t.f.T.Z.0.q.g.t.j.g.T.3.j.`.j.m.!.N.E.*X=X7XvXr.m .. .U { W m u.4X=X#XdX%XC.^.t.q.d.C.Z.a.t.M.N.a.P.V.p.g.a.p.B.Z.q.0.t.C.k.e.`.d.0.9.p.'.N.q.a.%.4.d.C.h.t.k.S.0.3.V.{.p.t.Z.d.g.W.A.a.a.p.I.m.a.a.p.9.g.B.j.t.m.(.%X{.^./.wXQ.=XvXr.J '  .=.:.V b X.C  .^ V X.L J V N P V m / Z V X.Y m m E i Z V P X.v k P N f B h m S n s R f k i 7 d k h C s j B 8 8 f 8 s b n t 8 n h f d s 8 s i g r f r 8 j 8 f 8 s 9 l 6 4 4 t f 4 8 8 t 5 , 6 5 5 4 5 , , 6 5 5 5 6 5 5 6 5 1 5 , 8 5 5 , , , 4 5 ; , 4 1 @ , 6 5 5 5 , , 8 = ; 5 5 5 , > , 1 * > 1 1 , 1 , , ; * , , > ; , 1 $ ;   ",
"; > @ ; ; @ @ @ , 2 @ > > 1 @ > @ $ @ ; ; ; @ , 8 0 4 ; 1 5 , > ; 8 5 , , ; 6 , ; 1 1 2 ; * 5 5 6 , 7 4 , 5 8 8 5 6 4 s s g 8 8 5 5 j 5 > > 6 1 6 5 > j 4 4 9 8 S C f s j j 5 f s 5 r 0 G r 8 8 l f i i 8 8 i n 8 n 8 8 n h A k b Z C 7 f N v K h h c N v i N P k b s f P ` U Z m N m m Y / m v ) V k 8.c.P A V J ( Z ( ^ ` I ^ U L I l.bX=XQ.{.E.=X$Xm.C.I.9.V.{.t.y.p.F.t.a.k.t.a.#X2.4.d.d.C.d.d.C.C.0.4.s.g.d.k.1.OXB.p.d.V./.d.B.Z.d.d.I.<Xq.q.Z.,Xp.q.0.I.C.(.V.q.B.T.f.S.p.Z.c.Q.m.h.I.t.{.*X$XQ.uXvX7.V O.} ' +.Q J u.eX3XaXP.E.V.~./.W.m.g.p.m.M.1.p.T.a.!.W.C.a.3.1.`.j.q.k.!.m.b.'.1.s.c.f.D.V.t.c.w._.I.`.r.b.C.d.w.1.p.{.I.p.t.j.E.d.a.u.z.d.d.j.d.a.S.q.a.t.r.S.V.{.C.Q.7XQ.&X^.$XyX7.U | W { V P L } b ` L I | ' P S s j b T ' m N V J F B f V ` ` J m k h L V i l b n v b i n r s B k 7 k K h k h v h h j 0 s A V 4 6 f i s s 8 s k 4 5 8 s i r r , s l 7 r i 8 t 8 8 s 7 8 8 5 w 5 5 8 , 9 t @ 2 9 j 1 ; = 4 , 4 s * * 1 t 5 , 5 9 6 7 t ; * i f ; ; 4 7 8 , 5 , 1 1 , ; , 0 6 @ ; ; @ ; , 5 * @ 6 5 ; 1 5 > ; * > ; ; @   ",
"@ @ o ; $ $ @ * , ; $ > @ ; ; 6 ; , = ; 1 5 7 , ; @ ; 1 , , , 1 * 5 r 4 , @ , 5 6 8 , 8 7 5 , , 5 f 5 , 5 7 t 1 ; , 1 8 5 t 4 r 8 6 , 4 d 5 > > , 5 t k 5 6 t z , 1 , t i i 4 8 5 s 8 s l f s s 8 8 r 4 d s l d , k i j 8 k s 7 f h v V h f 5 0 l B s b S s k m K V V P P m V P Y L m F n L b d I t.=XZX*XJ T L L / V ~ ) N X.` ^ ..J { BXaX[.*X X7XuXE.N.E.B.q.0.M.1.y.'.0.).A.p.q.s.t.'.A.q.q.Z.a.T.B.j.P.T.c.u.u.s.z.Z.k.3.x.0.a.Z.<XW.9.0.d.E.~.m.a.{.I.I.S.<.k./.d.m.V.m.d.k.d.4.u.M.I.g.d.~.E.{.^.pXnXr.U V ~ 6.[ V ` h.7XhX3XwXC.E.d.p.m./.N.W.#Xg.j.S.A.t.A.d.C.d.b.k.p.d.s.0.1.4.g.a.p.'.s.u.3.m.V.%Xj.).B.w.E.Z.p.q.a.).3.,.0.x.3.9.'.m.t.a.u.h.p.y.p.k.j.d.j.T.5.,.s.C.C.=XC.*XaX8XzXY.$.M J J U J V ..V K :.Y A ..J l.Q.$.i G X.^ P E K m ( A V V v v C v J L v b C N k j s v M v v h 7 7 i n f s l f s r h v s g 1 4 M m m C 8 8 7 5 i G 6 8 , 4 s f j s f d , 5 s 8 6 j 6 , 4 g 6 t f , 5 d f 7 s s , 5 , 5 s , ; > w , 1 , * 6 8 8 4 @ 5 8 , ; > 1 ; , @ 6 5 , ; ; * 6 , , ; ; > ; , 1 ; ; , 5 ; * 5 8 , 1 ; * 5 t > ; , ; . ",
"; * @ > * o @ * , > @ ; ; , ; ; ; , t ; @ * 1 2 $ ; ; * y , * , 6 5 d , , 1 1 1 ; 5 , 5 5 2 , , , 8 5 6 4 8 , , , 6 6 5 8 4 , s d , 1 t 6 4 , , 5 s , j 5 , j 7 5 6 4 j 7 8 j r k s s 8 j l s 7 f d 5 t s 8 i f s n B b s s l f s M b C k 8 k N s i h n k K b k P m m m m b P Z Y L J P k A h J r.wXgXhXwX5.V E m U V v V V ^ ^ L / ' J k.zXuX~.$X{.=X^.C.N.N.t.p.k.p.q.d.a.t.M.Z.q.t.3.B.B.a.`.a.0.q.a.N.m.0.q.q.a.d.4.q.d.j.s.,.p.M.0.M.d.p.d.W.<Xd.k.t.!.g.0.0.u.d.d.Z.m.m.p.g.<Xa.q.0.s.d.E.,XqX[.-X=XmXy.` ( ' { ^ ` W h.vXgX[.=X^.%XZ.y.).d.p.k.C.d.g.q.S.f.g.m.`.).n.Z.Z.B.u.M.k.u.B.d.a.p.3.s.a.d.I.m.A.p.%.y.'.j.M.N.B.C.!.t.a.d.1.s.d.I.T.j.9.q.N.Z.r.3.I.I.P.t.a.u.Z.P.C.aX;X^.].~.8Xy.J C L `  .P J J m [ ^ m ' J $.BXnXY.J k b N Y L J P J V V A V N b Y Y V m v n b s d J n s C f f s 4 N _ 4 8 h s l l f s 7 t 9 7 f s s h f t 4 l 8 r 4 5 d f s 4 r s 7 8 s 5 9 4 = 6 l 5 4 4 4 8 d 5 5 7 4 5 t , ; 5 6 5 5 0 , , 5 4 6 1 * 1 , , w > , 0 1 1 , , , , ; 1 , 4 , , 6 > 5 , , 5 ; , ; ; ; ; 5 1 , 1 , , , ; * ; ; , @ * ; >   ",
"; * @ o $ @ ; 3 @ $ @ , , ; ; @ ; 1 > > * , 1 $ o , 5 @ 6 5 , * > 5 , , , 6 , , * , w , 6 ; , , , 0 8 , , d 5 5 6 4 > 5 8 5 , w 5 * 5 , 1 5 f 5 5 s 5 9 w 5 s 7 8 9 8 f 8 w 5 s i 8 f 7 8 r s f s t t f l s b k h f 7 v h 5 l N k C h k s i V V b v h s h C C C b K } J V n h V L K J  .Y l H y.hX9X].6XFXJ.J X.L / Y Y U ' U V [ ' / m 4.vXzX[.-X].^.{.p.u.B.C.B.M.Y.C.Z.f.s.0.a.g.m.t.M.p.0.k.0.d.F.V.0.9.0.d.`.g.e.N.a.q.'.h.g.p.u.1.t.C.Z.M.h.p.p.j.t.C.k.1.M.I.g.B.k.C.M.p.d./.V.j.f.0.B.t.[.#X^.7X6XNXy.I [ } U U >.v t.zXpX8X*XQ.~.:Xk.y.t.B.Z.C./.p.q.k.k.d.W.u.t.d.m.m.t.,.M.'.a.t.p.a.a.0.M.j.t.0.B.T.4.k.p.5.t.`.W.B.p.W.W.Q.j.4.s.1.q.).M.0.a.s.t.h.a.a.t.m.d.G.y.d.U.C.{.$X=X[.=XNXu.m F J ' U ^ [ J ^ o.U b ~ U l.mXbXhXoX{ 8 F / J J J L K N Z K P m V N s A v s l C n V h k r r r s v h C r 8 n h A h 8 f d s b B 0 4 B s , t 5 4 t 4 f f l i 7 t w , 9 4 t 5 4 g s 4 1 t t 4 9 5 4 r 5 5 * , 5 1 ; 9 d , 4 8 6 , t t 9 , 6 5 * 6 d 6 , , * , 5 1 * , = 0 ; , 8 7 ; , , , 5 9 w , 6 ; , t * ; , , ; 1 > , * > 3 * 1 - 2 ;   ",
"; ; ; @ $ $ ; ; * @ @ , , * , @ ; > * ; ; , ; ; , , t * @ 6 1 , ; , , , > = 5 , t , , , , 1 , 8 5 , 5 w 6 5 4 7 8 5 5 5 8 4 5 w , d 8 4 4 4 t g 8 8 8 4 4 6 t 4 5 8 f f s 5 5 s g r s 9 f s s i 7 7 7 s s h b k k s f h n s s k k s s b n k B V m V B f s i B v h K J V N R V V m P m O.V v J.bXlXcX[.xXFX|.V ' ' J L X. .J / ^ ^  .J Y { *XlX=XQ.&Xm.Q.*XZ.9.N.P.d.p.V.Z.0.3.p.'.t.B.B.p.'.d.p.f.a.V.<XW.A.'.B.m.q.T.R.h.V.m.d.Y.t.3.0.q.m.d.a.a.a.t.k.T.k.).a.d.M.d.a.t.m.V.V.d.d.I.C.h.c.0.N.>XV.^.^.$XNXr.J P ..} [ o.Y 0.nX=X^.=X{.b.q.j.t.1.j.0.p.E.`.W.m.q.C.p.g.t.I.M.j.k.s.4.t.a.I.a.k./.m.W.y.a.k.3.s.1.B.V.0.Z.N.m.).a.0.9.I.T.0.s.0.u.a.<.k.OXf.9.t.W.B.B.t.M.k.0.B.^.{.|.Q.7X=X9XeXW k S L U U ] J ' / J ] L v W {.hXgX8XcXeXU j A Z ^ J V Y V V h V L K C k V S N s m v A h v h i l s P s i l 7 f s s h 7 s f k v 8 5 f 7 f 5 d t 7 t 9 g 7 f 8 7 f 5 5 G s 5 5 w 5 f s ; 4 d 5 s t , 6 , 6 5 4 , , = 8 5 4 t 8 5 5 * 0 4 , 5 = ; 5 , 5 5 5 0 , , 5 4 , 6 5 @ > 6 5 , 5 , , = , 4 , 1 5 , ; * , 5 , , > ; , , ; ; 5 5 * * ;   ",
"; , @ ; $ @ * ; * @ > * 1 ; * , , * ; > , ; , 5 w * ; 6 , 1 , , 5 w 4 > ; , , ; , 5 ; 7 5 , * t , 8 5 , 5 , , , 5 , r 8 5 5 5 , 5 s 4 8 r 5 4 t 8 , , s 8 8 j 5 4 5 , t 8 s f 5 6 5 t 4 8 f f j s n m s f v B 8 4 s l 5 s s n v k 8 l k P i f k k h f v h h b V Y m V N N J U m v R L v J J.mXkXpXgXpX8X+XFXh.J P } ] N L ^ U ^ ^ ^ U Y U y.GXhXE.mX%X=X[.j.d.:XP.C.W.).a.q.g.T.I.0.u.k.q.q.C.B.N.a.p.a.B.B.q.%.0.h.a.y.w.a.d.d.k.1.w.k.d.p.k.m.d.M.3.s.d.g.3.t.d.Z..XM.j.d.C.M.g.p.k.B.p.0.a.a.E.*XqXP.~.eXt.] [ ..' J / ^ x.mX^.~.[.^.%Xk.j.A.0._.F.0.a.I.`.Z.b.W.p.2Xm.0.B.k.a.p.u.d.0.u.x.g.m.!.C.1.4.B.k.d.h.j.m.f.a.0.k.R.4.0.T.0.a.I.p.3.u.g.k.u.1.3.a.h.p.!.N.d.0.0.d.m.E.Q.!.*X-XpXvX7.h b ^ V L @.U J ' T J ` ..K $.eXpXpX6XlXzXoXW i Y / U n L ^ L b V J m k h N h n s v m n s V J h l 7 n 8 i D k 8 g 8 h k S 8 h b k S k 7 t r 5 5 d 7 t i s f 8 8 s 4 g f f 5 r w * 4 l 9 4 7 d 8 5 ; 5 ; e , 9 r 8 8 4 r t 4 , 5 , ; , 8 8 4 8 6 * ; 7 1 , , , , 9 4 > , * , , ; 1 , , , 6 5 , , , , 1 , , 4 5 + > 6 > , , 5 , , 1 * 2 @ >   ",
"; ; @ @ ; ; * ; ; ; @ * > > > 5 1 @ , > ; 1 , , * t ; t , , y = 1 1 , * * 1 , , , g ; 8 7 , 6 t * 5 , 6 , r t , , 1 7 1 4 r r , * s 5 r 5 , 9 8 1 , , r l s 7 , t w 5 w 8 s i 5 w 8 x n s 5 l 5 8 b C s l B 8 f s s l f f k k b l 4 s k v 8 f f k h k h E S v V L b A k m [ J U O.C p I _.9X3X^.*X6X4X}.3XFX9XH K >.^ A / Y J ^  .V ' } } -.0X3XuX6X/.3X3Xm.{.C.p.E.k.d.0.t.T.0.,.d.a.m.'.d.m.g.j.W.Z.1.t.N.M.u.k.B.j.w.3.u.G.`.M.3.p.k.d.q.k.'.C.p.0.r.0.f.h.I.m.P.g.V.Z.a.a.a.4.y.0.0.h.'.M.g.N.7X[.[.iXNX1.U J ' =.` ` V z.0X6X=X%XC.%X).t.j.W.I.V.M.q.a.a.a.`.d.g.d.C.M.4.t.d.f.0.a.d.B.0.h.t.B.j.4.r.Z.q.3.d.).B.d.0.k.h.3.%.B.I.,.M._.d.p.9.k.B.y.t.0.r.t.g.Z.k.k.r.d.!.{.[.C.Q.P.=XsXwX;.s o.| m C [ v L K o.T J U m $.NX=X8X{.aX6XhX|.{ h C P ~ V L / k P m V b b C h _ k A P k s M P i h h d l k 8 k 8 4 s f s k i s B h h 8 s f d r s d 8 5 h f 4 5 j 7 8 9 4 7 7 s 5 w 5 7 7 j 9 5 , 5 , 6 5 ; , 4 8 8 7 4 1 w 4 4 5 , t 6 * 5 8 4 , ; 1 , * d 6 * 5 5 , , * 1 , 5 > ; ; , , , 1 , ; , 1 , @ ; , 4 ; $ ; 6 6 , ; 6 , ; ; * ; @   ",
"; @ ; @ @ ; $ ; ; ; ; ; 3 @ @ ; @ @ , 1 > ; , , , 5 9 ; o 6 4 , , * 6 8 s t @ , 5 1 e 1 , , 1 , 6 4 5 5 , 4 8 , > 5 6 ; , 8 r 5 4 t t , , 5 r 4 5 t 7 , g 4 r , 5 r 7 x r , 8 7 j 8 s v m , t 5 8 s 7 , 5 9 8 b P s f B s i k B i h b f f B S h n m Y N N V L V V ) V P V U m P A m B a.zXaX*XE.^.[.%XN.[.xXvX-.M o.` P U ^ / J P N ^ / v U oXhXpX#X^.$X6XC.Z.C.p.!.a.t.0.a.k.0.k.M.I.q.t.s.a.a.d.p.f.d.<Xj.3.f.d.0.b.S.q.q.t.h.M.m.m.A.0.B.f.p.0.t.B.z.k.1.3.a.I.m.1.W.W.t.1.0.'.k.A.d.t._.I.!.W.$X^.9X}.NXh.m ~ J W ` 6.m 2.{.=XsXmXP.m.P.j.d.x.9.0.).a.s.k.d.p.3.).d.t.s.k.B.d.a.k.d.g.'.p.B.y.u.k.a.N.t.a.Z.N.,.z._.N.y.u.d.p.B.1.d.'.0.s.a.p.p.B.B.a.a.s.-.u.p.k.a.a./.;X^.C.iXiX^.-XaXY.I M @.| J / T J ( V ' J | ] h 7.LX6XpX$X[.9XuXpXwX-.m G V / v N V V K m N V Z k B h B k N V n s 5 B P 7 8 s N k B h f s r s 8 d j r 8 s i k t 9 f 4 n k f 7 8 8 r t 8 8 8 8 x 8 4 d d 8 8 j t 9 , 5 5 7 d 8 5 ; 5 5 d 1 ; ; 9 4 5 6 5 , 1 e 5 5 = w 1 ; > 1 , 4 , 1 6 ; , 5 , , , 5 , 6 5 = , , , , , > ; > ; ; , ; > * $ ; > ; 2 , ; @ , , . ",
"@ @ ; ; $ ; @ $ @ @ * @ ; ; * ; ; @ ; * * * , , , 5 7 : ; 1 @ , e ; ; r 7 , , 1 , * d ; , 9 , ; 5 , , = t 7 9 6 * 5 4 5 5 5 8 5 8 9 5 5 6 z 8 4 6 j 4 8 , 4 t 5 4 w 7 s r 5 d r s i 8 v k , t s 8 j f d d 5 8 i k i i k s 8 l l i v b B r i m k n V V k k v P A V V k V V m @.~ k I R.uXpX&X7X^.$X*X[.P.-X}.ZXl.H [ | m Y U L L X.X.U / P U 1.dXlX=XqX=X^.^.E.N.k.a.N.0.a.d.t.k.4.t.N.t.f.k.t.d.B.k.p.N.B.t.f.a.d.A.d.k.m.s.,.3.k._.t.t.h.Z.g.0.S.u.0.1.M.g.M.k.a.t.g.D.V.k.x.r.f.q.M..Xl.q.I.P.d.Q.aX3X3X=Xa.U O.X.Q | { m i.nX&XpX6XE.d.V.C.k.4.s.M.N.k.1.g._.C.d.3.s.0.0.t.B.j.t.).k.d./.Z.0.a.u.3.A._.j.q.Z.P.3.0.d.m.t.).I.C.d.t.`.N.t.3.z.I.9.Z.k.t.m.p.t.a.0.a.t.d.-X$XP.*XvX}.4XpXE.1.S R m V U  .V V Y V L ..|  .m OXmX=X8XpXaX8X}.pXSXmX{ j I P k s A L k L L Y V N h k n k m V s 4 i v A f 7 f k 8 k b l 8 r s f s 8 f 8 f B 7 4 8 f 8 j s t 7 8 4 * 8 5 8 8 5 8 7 8 5 4 9 7 5 = 5 t , 6 5 s 5 t 9 , , , , 9 1 5 , 4 4 t , * ; , 5 , 6 , 1 ; - 4 5 ; ; , , 6 , , 6 , , 1 4 5 * , , > t 5 ; , * 1 1 ; ; , 5 @ ; ; @ @ , ; - * %   ",
"; @ @ O $ @ ; @ > > , , , , * ; > $ @ ; ; , 1 , 5 5 * , d = 6 1 ; 1 ; 4 , , ; 2 * , 4 4 e 2 ; 5 5 4 , 5 , , 5 s f ; 7 , 8 5 8 5 9 , 6 s 8 5 5 , s 8 1 s i j 9 8 g 0 5 5 5 8 7 r 5 5 5 d 8 j l s B j f d g j h B f h j s s f 8 i v v M P k s k B v C L Y M h V V V s m J J m P h W I.aXpX6X}.aXzX-XE.[.*X%X^.bXY.J L ( N V ' U U / / ' { U C ^ yX6X7X;X=XaX$Xm.m.j.k.I.1.s.I.W.Z.3.I.m.q.a.d.q.k.k.t.q.k.0.a.s.0.4.y.1.t.T.T.q.k.0.q.,.g.I.0.p.W.a.I.j.3.k.d.S.k.w.0.t.0.0.N.W.0.$.r.0.B.B.d.~.qXV.V./.Q.3XbXz.m R :.L +. .m r.vXpX=XC./.a.N.!.d.4.t.t.t.S.g.9.g.!.P.0.s.a.a.p.p.a.0.4.a.Z.k.m.C.a.u.5.,.B._.q.t.g.k.d.M.C.V.T.0.3.A.s.a.0.d.t.q.a.m.C.4.0.V.j.m.k.x.1.N.E.p.:X|.=XP.$XgXcXeX$.J P P L ' L V / [ X.( b L W J MXdX^.aXuXpXaX&X].lXcXmX1.h k I Y B b m m b _ m b b A k h k P b b h V M v A s k s s b s j k k 8 s s n f s 5 t G f 7 g 8 4 , 8 n s B 5 5 r 5 5 7 s 4 , 5 , @ , 8 5 1 t , 8 1 , 4 5 5 t * > f 5 s 5 , 1 ; , s 5 1 6 ; w 5 5 @ ; , 6 2 ; 1 4 4 4 6 = ; , , * ; 6 , 1 @ ; ; , , 1 ; 2 5 , ; d . 3 z ; * 6 5 ; ; ; . ",
"* * o o @ ; ; $ $ ; ; ; * * * > ; ; > > , , * = z * @ , s = w , $ , , , 6 , , ; 6 , 4 , , , ; , , , w , , , 7 t 8 = 7 1 t t s 6 t 4 5 5 5 , 5 t 8 8 5 s i 9 4 8 8 6 5 5 , r r f s 5 5 5 s s 8 7 j 8 5 4 8 k A h h B h k f 7 l l h Y Z i n n h s k v b V N P V h S S m b P E i m 2XzXpXpXiX].Q.;X[.;X XN.uX6XpXXX| ` Z V U { W L P ^ ^ | @.P V L.zX3X].;XuX-X;XI.t.a.T.t.x.k.q.d.Z.d.P.f.0.M.k.0.0.y.).t.4.i.0.a.u.4.u.g.,.y.f.Z.A.M.t.t.d._.(.'.t.0.m.0.a.A.9.1.S.k.q.t.Z.S.3.a.a.0.k.s.<.m.F.[.#XC.|.4X[.IXy.m K ( m ;.6.I z.nX[.=X*XW.d.E.I.a.Z.g.f.a.d.`.I.m.g.N.t.r.0.t.s.u.r.r.OXa.j.w.t.`.t.S.r.,.1.S.f.d.q.m.D.d.C.a.q.y.S.r.r.x.3.0.d.a.a./.Z.y.%.B.XX9.p.,.y.E.$Xm.j.P.iX6X6XpXmXR.V ^ J L o.V L / J J J V E ! U 2.eX%X9XE.gX=XP.|.4X6X&XAXfX8.m L M m m N C / b v N C m V v k C k k h b N v b s f f 7 l i i h k t 5 b D 7 d 7 8 s s 4 5 5 l d 7 h l 5 j f s 5 , s l 9 5 5 5 w , s z + 1 8 t 6 , 4 4 5 4 , 4 s 8 5 1 6 1 > 5 d 8 , > * r 8 5 3 ; , 6 , > , ; , 4 5 , 1 e , , 5 5 , 5 1 1 5 1 ; , 1 5 ; ; * 5 ; * @ * , , , ; 1 ; . ",
"@ @ @ @ ; > ; $ @ > * ; * ; > ; @ 1 ; * , ; ; , , * 6 r 5 w , , 4 w d ; ; > + 5 g , 5 , 6 4 , , 4 8 ; , w 6 6 1 = 5 8 t , * 5 5 , f 5 1 , 6 8 s 7 4 r r 5 t 4 i 8 4 5 5 8 5 f 7 7 f k r f s s d 4 i B 5 s s B 8 k s k h V C f 8 s C k s k m R B _ V s N N V m v L V B C M h ` BXpX$XpX-XQ.L.^.=X*XC.{.[.=X6X6XBX$.V Z k [ { U [ m V m  .J P J 2.mX%XE.:XN.[.4Xg.M.d.0.d.`.k.4.1.t.p.j.R.9.V.m.N.h.a.`.s.4.r.0.P.t.0.p.W.1.$.1.p./.E.j.h.Z.(.d.t.0.h.d.M.9.p.j.w.a.a.g.A.g.u.0.!.C.B.r.r.d._.V.t.d.fX4X[.$XBX%.U / ( U  .{ ` z.wXuX~.N.[.P.N.d.{.!.Z.a.k.e.F.M.I.1.'.t.t.s.4.u.T.t.g.q.t.k.j.t.q.t.m..XZ.q.%.0.d.k.d.C.j.m.0.0.S.y.9.s.,.3.h.k.k.q.p.t.N.d.t.M.a.<XB.C.E.W.P.N.4X6X6X9XcX!.{ Y ' U V P / L / / U [ V O._ v a.vX8XhX;X[.&XkXaX*X^.[.tXzXnX{ p k J  .P v / V V L k h K _ A h b N s s h b M s 7 j 8 r f h i l s s k l 4 5 7 i s k 8 , t f 4 4 d r 8 8 8 8 4 d t ; 4 t 5 , B s , 6 8 4 5 , ; t g 4 , 5 8 8 5 4 ; * 6 , 4 1 , 5 , 5 , 8 9 , $ ; , g , 5 ; ; 1 5 , ; ; , , 1 5 6 5 * = , 1 ; , , , 5 , , ; ; w 1 @ > , , * * 2 * . ",
"@ @ , ; @ ; ; ; * ; @ o ; ; * * ; , * 1 e * 6 1 * 6 , 5 , 1 , 8 8 4 , ; ; ; 1 f 4 = 5 , , 5 5 , 6 4 1 1 4 4 , ; * f 4 6 , , 5 0 5 5 8 5 * 5 d s g 5 8 5 5 6 4 l x 4 i s r 5 t g 7 s V g 8 7 7 9 9 r r 8 s s f 8 f s s h V C f 8 f h s f n h m i n / L C b V V P Y V b N v ` .XzXQ.}.uXE./.,XC.C.fXN.@XvX=X&X-XvXy.h _ / V ` ^ J J / V o.J Y  .` !.7X=XI.m.nX4Xm.:XM.a.B.d.B.S.r.u.`.a.%.N.W.V.d.d.t.B.T.t.k.S.h.y.q.p.V.A.r.0.b.%XC.V.q.g.P.d.0.x.x.k.T.t.t.p.0.a.!.W.j.a.t.r.C.V.C.0.0.t.I.j.I.N.7XP.N.fXeX%.U @.` $.L =.>.i.|.=XiX$XC.E.M.g.!.g.B.e.I.t.p.W.k.p.M.t.a.k.r.1.a.a.t.3.S.M.C.B.1.M.d.(.F.B.s.1.t.a.d.N.f.q.0.9.B.k.f.a.r.u.1.0.M.k.s.1.m.E.0.,.j.C.C.d.d.Z.C.-X=X[.&X6XwXr.J V Y / J K U J  .L L X./ K ~ m U.gXcXwXdXE.Q.=X=X3X&XeX9X=XgXeX5.a V / A m P N V V v V P i V k b C f k N s N P f 7 f 8 s s f h B h l s r F 8 s k b r d s 8 5 t 5 4 t l 5 8 l 8 , * , w d 4 8 s ; ; j 7 8 t 5 , 5 7 5 , 5 6 1 , 1 , 6 4 5 5 , t ; ; 6 * 4 ; ; 1 5 5 = 6 5 , , , * ; , * 1 5 , 5 ; * , 6 ; > ; , 5 5 , 6 , 6 , 1 $ ; * , > * @ ;   ",
"@ * * @ $ o @ ; ; ; , , > @ @ > 5 ; ; : @ ; 6 1 @ > @ = 5 ; * 9 8 * ; ; , 5 8 , , 4 s , , 2 , 4 , ; , e 5 5 4 , , d , 4 9 6 5 1 5 4 , 5 r 8 4 * , , 7 4 s 8 , 5 5 5 l f r 7 4 5 5 7 i 8 5 s f 8 j 4 8 l 7 8 8 7 f l s B i n k C s k n 8 V v h C i v L k V L / P V v E N | BX=X^.;X^.[.Q.^.{.C.a.P.7X7X;X&XE.bXGX|.J D ^ ] Y V L U @.J J L  .[ V 2.nXsX,XE.$XE.P.E.j.V.C.d.I.t.j.j.p.g.t.Y.q.0.k.a.k.t.t.t.s.A.3.t.f.Z.9.k.M.Z.d.a.!.<X4.g.p.d.M.I.d.M.A.1.0.a.a.A.a.M.g.t.a.S.m.p.d.B.a.9.j.C.P.D.C.;X[.^.9Xh.J [ >.$.*.:.b 7.-XzX-XQ.m._.I.j.B.d..XZ.p.a._.m.B.M.A.d.C.A.g.Z.3.a.0.s.t.b.W.a.j.A.0.e.p.)._.0.a.y.k.B.q.,.g.d.g.k.y.t.y.0.a.r.t.0.r.g.M.d.M.m.d.q.E.qXI.{.^.[.^.6XU.$XR.u.^ Y J m ' / V ^ L N L L @.J B =.BX&XP.^.wX;X%X].aXcXsXP.&X4X8XxXaX-.b h C m m m b b P ( V m v ) k k h b k D C f B k k S 8 s f s n 7 s f j i l 5 7 i 4 j 4 8 t w 7 8 4 5 w l r , g 5 5 4 8 4 4 w w 5 4 4 5 d 6 , 1 6 w 5 , e 5 * 7 4 ; , 8 8 , , @ * 6 , 6 w 0 ; e , 1 e 5 , , 5 ; ; @ , , 5 1 1 @ ; , , , ; > 6 6 ; * @ , 4 * @ > ; ; @ ; t ; ;   ",
"o ; @ ; ; o ; > 1 * ; , * o > ; , ; @ ; ; 1 , 5 > ; ; , , 0 1 , * 6 1 1 4 4 6 ; @ , 8 5 , ; ; t 6 * 4 , , 4 6 8 8 , ; 8 5 * * , , 9 5 8 8 7 G 5 , d 5 t s s 5 5 4 4 s 7 8 j 9 1 5 d t d 5 f b i k t s s k s f x i 8 B l s k k b s S k h N A n P m h L k P V N k N Y U -. XpXuXqX*XQ.^./.E.N.V.j.$X$X-X~.Q.7X[.bXL.W 9  .^ V / L L V V / W J V n I !.=X|.C.$X6X;XE..XZ.d.q.B.d.W.M.3./._.j.3.s.k.9.k.3.1.S.q.$.s.T.t.p.%.s.V.V.m.y.a.Z.Z.A.0.a.C.C.!.d.Z.M.1.0.W.W.w.g.k.d.d.j.I.M.1.k.y.s.k.E.[.;Xj.%X&X=XnX7.m / 8.} $.=.m 5.mXxXP.N.C.m.V.N.t.t.M.W.p.B.a.p.y.3.d.t.a.m.W.D.g.k.t.r.M.d.d.E..Xj.d.M.a.a.k.a.a.k.y.q.0.t.A.C.G.G.t.h.t.9.B.a.3.,.q.p.k.M.C.!.B.Z.m.m.Q.V.^.uX^.^.$XzX7.U ` o.J J J J ^ [ m V ( / J  .l U XX*XP.$X|.;XiX$X&X7X^.P.[.*XiXsXlXvX;.p h V ~ ^ V V L V P U k b P m h A k A s h s h v k f s 5 B f 8 s f h f k 5 d i 8 r t j 4 4 k l 5 5 8 j 5 7 x 8 8 5 8 f 1 5 t 5 , w 5 5 w ; 6 4 5 5 ; * > 4 8 8 ; , 6 4 8 1 > * * ; t 5 4 , ; 5 6 * ; 1 , w , 4 1 1 ; * , , @ ; 1 * 9 1 , ; * 1 6 * > 6 ; @ , , 6 * * 5 ; $ . ",
"o @ ; @ $ $ @ o @ ; ; , , @ * ; ; @ @ > , * ; * 1 , , t 4 2 6 6 , 1 6 5 , , 6 5 ; , , , 1 * , t 5 8 5 r 5 , 5 4 5 9 , t 1 , 5 8 d 4 6 4 8 t 4 8 9 4 5 5 8 8 f 5 9 7 5 s j r 5 d r 5 6 j 8 i f 4 8 f f f s 8 l s f h k k h k N k s n s C s b n A m v L v / T V k v v $.XX=XE.Q.%Xj.N.~.E.j.Z.C.[.iX/.!.N.[.3X}.XX$.J B [ V L / m  .K L :.` U Y L J r.zX=X^.[.-XE.a.a.a.d.t.y.0.a.B.t.C.k.a.Z.m.t.0.4.r.1.c.x.u.p.d.s.x.x.t.j.m.a.0.p.d.k.g.I.m.a.t.n./.b.S.y.9.W.W.s.0.Z.V.j.M.a.q.k.t.r.u.0.g.d.<X/.W.aXpXmXi.T ..} } I U V i.NXpX$X^./.d.P.N.y.r.t.a.C.j.r.j.d.t.s.M.k.0.M.e.e.g.t.u.A.t.b.!.V.W.:XB.4.1.a.j.0.u.M.d.4.k.p.d.g.t.q.t.r.t.M.0.1.u.k.j.r.t.a.3.Z.!.M.d.V.%XaX[.P.&XiXfX] V  .[ U ] ..J L U J ' Y J V J F I R.mXdX-XP.P.P.[.qXP.;X4XE.|.U.uX$XaXmXr.m B ~ V L / v m L V v h V P C h h s k N i 8 n h n 7 N s s l f s s j 4 d f 7 8 8 4 f 7 4 d f 5 s t 8 t 5 4 8 f 5 4 f 5 , 4 , 1 6 6 z 5 w 5 , , 4 5 4 t 5 4 6 > > , , , t 6 , 5 5 6 7 , , * 5 , ; e 9 ; , , 5 , , * , 1 5 * y 1 ; 5 1 ; * ; 6 w 4 @ ; 2 ; 6 * @ 6 ; @ ; ; . ",
"* @ ; @ @ ; , # o $ o @ > 1 @ @ : ; ; , , , ; ; ; 1 s 8 , 4 @ * , ; 1 6 , , 4 * 5 4 ; , 5 9 5 5 4 r 5 t t * o e 5 5 w , , 9 5 j 5 4 1 ; s t , s s 8 6 ; 5 4 l i s t 8 h n , t 7 h s , s s 7 g f d s 7 r s s 8 s n h h s h V N f l l k B m h m A L L b s A ..L L v J oXpX;X<X_.{.L. XC.A.M.Q.Q.pX6XC.t.*X6XpXkXs.U } N J ' ' ^ ' U m ) / ^ [ K P J H fXsX=XE.].!.C.S.f.d.B.f.,.1./.Z.p.d.Z.E.C.a.u.u.d.s.$.4.N.d.P.s.4.p.r.3.s.T.p.d.Z.k.0.C.m.0.u.a.;XN.a.a.'.a.p.P.B.!.m.a.I.0.3.m.y.1.t.0.a.a.P.eX7X3XuX-Xr.U ..M L >. .v i.mX^.[.E.wXQ.t.M.N.W.A.u.d.XXd.y.t.B.0.4.2.2.u.f.<XN.k.a.1.p.:XC.m.(.#XW.0.u.q.M.u.,.A.m.3.x.t.f.h.j.k.t.4.0.d.g.1.u.x.m.t.9.d.f.d.b.Z.Z.!.$X[.6X[.sX$Xb./ ~ k J ^ ' L ( N L J ] / ( A V C K r.}.gX[.L.a.P.a.C.~.[.=XiX-X=X X4X8XxXFX;.l n m J V N A N A ^ K v m n s d d V k r d S k f 6 N B 8 l 9 5 k r 4 f h s g 5 d k f 5 1 ; k b 7 4 ; > 2 6 s f , d s s 2 > w 1 5 7 5 5 5 , t 5 r 5 8 , > ; 2 * 5 1 , 6 5 = 5 5 , 7 @ 6 6 5 , , 5 5 2 ; , 5 , 5 6 ; , w , w 1 , * * > > * 4 4 r 5 - ; * 1 > @ @ 3 ; @ 3 . ",
"@ @ O $ ; ; ; o $ ; , 3 ; ; ; @ 2 , ; ; 1 ; ; * * , 7 ; ; 2 * 4 5 @ 4 , > @ ; 1 , * , ; ; 9 5 5 8 0 t 5 5 ; * 1 , d 6 5 , 5 6 , 8 6 , 5 7 f j 5 5 s 1 1 r f s 5 t 4 w B s 8 t , 5 h 8 r 5 8 B h 8 f 8 l n n 8 l s d b P s j k s h h v P D f b v m V x ( J V b M 3.aX6X[.}.{.C.~.7X&X$XV.~.d.U.fX~.b.3XxXpX_.:.w l A ..D m L :.[ v J +./ _ D V J @.h c.sX$X^.=XaXaX-X^.E.d.3.3.k.B.$.5.m.C.p._.d.0.0.S.0.4.R.t.t.4.%.5.a.u.S.9.a..Xd.t.T.k.k.k.k.g.I.W.c.1.$X;Xe.e.W.Z.u.u.a.'.0.R.R.r.h.a.q.a.B.W.^.4X*X^.{.4.V D P O.U  .M 5.fX^.$XC.D.C.t.T.Y.I.t.j.0.d.d.t.4.u.1.5.W -.r.t.q.A.k.p.s.0.5.%.s.0.,.k.`.d.0.u.k.A.,.w.C.d.g.t.V.<Xx.u.3.0._.M.u.u.k.a.a.k.4.y.m.m.I.#XdXN.d.:XQ.dXY.I ^ ` m ..X.J J ' ] L Y V J / n Y U c i 8.NX=X=X~.pX=X#X!.W.^.aX8X7X$X=X;X=XxXcX~.I C V L V P V V V k N V h A J V V Y h g t r b m t t 8 l s s c s n k 8 7 t 5 8 s d 5 9 5 t s , s 7 7 l 7 4 9 1 w , 5 8 5 4 8 8 9 - @ 4 7 i , @ , 8 8 * 1 u ; 1 1 ; 6 4 , 6 ; , 6 i 5 0 > $ > 4 * , , , , , * 5 ; 7 5 4 2 $ > , 3 6 ; @ ; 1 , , 5 = 2 1 > , w , @ , >   ",
"; @ $ @ ; ; @ @ ; ; , ; @ ; > ; * @ > ; ; ; ; , 6 , , 5 , > ; 5 5 * 4 4 ; 5 ; , , , 1 ; > , , , t , t 5 y w , * 5 , , 4 4 , 5 , 5 5 4 5 g 5 , , , 8 4 , s d r 9 , t j 4 9 4 9 8 8 s f r 7 s 7 B s d s 7 8 8 8 f 8 k h S i h P V h P V v h V V P V N P N A S m -.XXdXuX$X$X{.!.P.^.^.&XW.%XN.-X%Xm.=XpXvXeX` s L T m V V `  .' m X.L V J L V Y L ( k U &X9X*X[.}.*X=X$Xd.!.I.S.S.t.r.u.u.p.q.!.k.s.t.r.1.r.h.0.a.f.r.0.C.9.q.p.P.k.a.y.1.,.a.0.9.B.k.g.a.1.C.^.m.).p.g.a.t.d.A.0.0.0.0.u.9.h._.g.p.P. XN.*XNXr.m V ] W `  .J %.aX$X[.%X^.Q.f.g.0.j.N.B.A.q._.M.u.1.u.t.5.5.r.XXa.a.f.u.p.9.M.a.y.p.f.t.M.a.1.u.a.d.3.k.k.d.m.k.3.g.4.d.T.T.a.q.s.0.k.4.h.t.c.d.M.F.j.!.*XN.{.~.$XwXi.U Z Y P L Y V L / ..m Y L m X.m m L E h m y.eXnX9X[.*X/.C.C.N.dX4X&X*X[.P.6X[.8XaXoX` f B V V ^ P b C V V V v A b b K s C h i B m h n S f 9 l s r k s j 8 5 s f j s 8 r d 5 4 s l f 8 5 8 r w 5 d 5 * 6 8 5 t 8 r * , t t w 5 ; : w 8 1 , , * ; 5 , , 5 t , , 1 ; 8 d * 1 , , 6 , , 5 6 * 4 4 , ; 6 5 ; @ - ; , , , > ; > 1 * 6 , 6 4 * 1 * ; ; , @ > . ",
"; o $ @ @ @ $ @ @ ; ; > ; o @ ; * , * ; * @ ; 5 6 * > , , , , , , 0 5 , 8 d , , , 8 , 1 1 @ , , t ; , ; , 6 , 5 , , 4 1 4 , 8 5 5 6 4 , 6 6 , r , 8 8 G 8 5 d 8 5 d s = , t 8 , 5 f z d k f k f 8 f h n f s l i h h m c v v V n k v / A V P h n k P U b C h %.!.=X8X6X-X$XQ.^.j.m.1X[.C.$X,X[.~.}.AX&XY.| h L | | T h ` >.m V v ( X.m J  .U ^ L / V m r.BX=X6X[.{.[.{.P.eXB.r.,.t.<Xz.4.r.d.Z.d.q.S.a.S.d.0.4.p.T.h.s.g.9.y.a.N.0.3.k.0.a.I.g.1.p.t.m.(.V.Y.M.d.m.k.F.%X[.V.t.m.V./.P.4.0.f.d.N.Q.C.N.[.dXvXr.U o. .W 7.;.J s.dXuXaX$XW.d.d.j.j.B.g.p.0.M.a.p.M.3.S.h.u.%.$.S.Z.q.k.3.a.T.W.C.f.t.I.a.0.0.r.y.t.p.M.N.,.k.~.1Xy.0.B.~.p.k.t.j.p.a.S.t.4.%.OXT.,.d./.l.>X[.P.N.iXNX;.Y ^ V ^ L Z Z P m m ' W H P V ' ^ ) U ^ U m 7.>XpXE.Q.V.;X~.b.C.Q.=X}.^.;X&XE.[.8X9XoXM s N H V L V ~ k m v b b V P s k v L V h l V N s d d s f s 8 5 7 r h s 8 9 s s 5 t = 9 5 5 s s , , t 7 4 s 6 , 5 t d 5 5 , 5 t , 1 5 5 , 4 ; 1 5 , 5 5 1 1 w 4 4 5 1 5 , > 5 5 ; , , = , 5 6 4 4 8 * 5 6 9 1 1 ; 1 6 , 5 , * > , , 5 , 1 > , * 6 1 @ @ > * 1 >   ",
"$ @ @ ; ; ; $ @ ; @ * , , @ @ @ > ; * , ; > @ , 5 ; , * e 1 , ; 5 , , 5 5 5 ; 5 , 5 > 1 , , y 5 , , 5 ; 1 5 , 5 * 9 4 1 , 6 8 , 8 , t 5 4 , , , 4 f s f 5 5 d , 8 8 8 6 1 8 r 7 7 8 5 5 r s k f 4 s s j 8 h h i _ k S B m K P 5 A m V A k N C A m V o.j m y.eX=X6X$XaX^.C.E.E.P.!.E.E.h.-X^.C.;XzX9XoX{ C _ v m >.[ Y ^ / H / V L K ~ O.m V L J P Y L H T.aXiX&XP.^.6X^.Q.t.t.f.k.y.j.u.%.t.d.t.f.g.q.d.d.3.x.t.3.q.k.q.k.Z.d.N.t.0.k.M.p.M.M.s.y.T.q.m.m.0.,.m.I.p.I..XN.a.s.T.C.g.P.a.u.T.3.j.`.m.qX~.E.wXr.U o.' P &.J m c.$X$X=X^.V.A.Z.`.t.j.g.h.t.S.s.9.a.k.g.Z.a.s.0.a.B.h.u.%.j.a.g.C.g.t.A.T.t.1.p.9.f.a.M.h.r.m.d.'.u.1.m.:Xt.h.XXa.g.y.1.a.u.y.g.4.1.M.%X^.C.E.{.^.#Xa.m J [ / ' m ..V L / N J '  ./ V / J K V ` :.V m 7.nXvX~.m.~.>X;X[./.aX$X&X=X4XP.$XlX$X8Xs.H M m ) U U L k N C b V V h b C v / P s s h v 9 t s 7 i A 7 8 f s k B 8 5 i l s l 5 t 5 5 s f , 1 , i r s , 6 w , 8 9 9 5 8 4 ; @ 8 r 5 8 ; 1 5 , 5 w * ; 4 7 6 * , e ; , 8 , , * e 6 @ , 5 6 4 5 , w * 5 * , , , ; , , 2 , , , 4 6 1 * ; e ; @ 1 > > ; * ; ;   ",
"@ $ @ @ @ @ @ @ ; ; @ ; * * > * ; @ ; , , 1 * 4 9 1 5 ; * , 4 4 , , 1 5 * 5 * , , 4 1 ; ; 9 , ; * t 5 4 5 5 , 4 4 5 4 , 5 t 5 , 5 9 5 5 8 5 t 8 8 n 8 4 8 4 8 5 5 d t j 9 8 s s s f s , 6 f 7 f f 8 r s j v K k f 5 9 s C v b B A m k k k k v L ' b b H 4.>XFX6X=X[.#X$XE.^.>X^.$X7X=X*X6XE.^.cXaXt.$.L V C k Y ' L X.V k A V V / J A C k P o.U ' X.U K 5.;XuX=X*X-X^.N.m.j.W.I.g.t.<Xk.a.s.a.M.M.k.d.d.k.t.S.Z.a.d.0.0.S.q.A.p.q.`.p.b.V.p.k.q.g.B.a.S.t.k.d.d.a.y.9.q.0.0.4.0.!.p.3.a.q.0.a.0.d.Z.|.$X[.>Xr.U K Y ^ | Q b 7.wX$X7XC.^.E.d.I.k.9.k.f.0.s.t.0.M.a.p.p.9.t.h.k.4.%.0.d.u.4.j.j.B.M.0.9.q.S.k.k.S.0.4.a.z.m.j.t.%.u.h.t.3.3.w.d.0.3.q.4.9.s.p.P.XX~.#X^.E.vX[.-X).W J / K J ^ J U U U J / P / T Y V b h N Y P P ( J m r.fXuX=X;X{.=X[.$XQ.-XdXP.P.E.-X=X=XuX6XY.I 8 ) L L Y A m S m Y k i V N h s f n S j C i 7 k f s C f s l i 4 s 8 5 8 7 5 G r 5 6 6 7 r 5 ; t d , r , 9 1 * , , , * 5 5 1 6 t 8 5 4 2 5 5 9 , 5 , 4 , 6 , ; ; 1 , , 4 w , 1 1 1 > , , 2 ; , e 1 @ ; 1 4 , ; > 1 , * , = 4 5 ; ; , ; ; ; * * ; 1 , - , 3   ",
"@ O ; @ > @ ; ; @ @ @ , , ; ; ; @ 1 ; ; , ; 1 ; , , , 1 , 5 , 5 ; 1 @ 1 6 * , , 5 w > 1 1 6 1 * 5 s 6 4 , 1 ; , 9 5 6 5 6 5 , d t 4 * , 5 f 7 4 5 x 7 t r 5 t 5 4 , 7 s k i s s f 8 s 5 t 9 r f k h 7 f k v V s s 9 g k V k n N v V V b k h k k N V h l.BXU.=XuX^.C.C.dXmXP.a.-X=X^.;X8X^.;XhXaXY.| V ( N L V L N V m A N V V K K Y b k V ' J U J V W N W C.dX[.9XQ.~.{.*X^.[.m.<.a.p.9.Y.t.t.t.0.q.2Xd.t.h.t.d.C.B.q.2.h.m.A.d.d.C.p.d.).t.h.'.d.q.A.x.,.M.'.u.,.t.w.,.f.3.p.a.p.'.0.t.B.%.R.'.d.P.^.}.;X>X1.` ' ^ *.V :.L $.wX$X7XC.C./.j.I.h.4.0.g.S.4.0.a.k.p.M.s.).N.d.k.,.3.A.~.1.f.k.p.B.0.,.S.x.3.1.a.r.%.y.t.0.j.j.d.A.t.r.0.w.$.3.).p.d.T.k.-.s.j.%XQ.C.iXE.7X}.P.;Xr.U X.V V V P L / U ^ U ( N s m  .U A _ L / L V ] L S v h.cXsX}.6XE.$XzX^.E.{.^.U.$X$X^.^.aXcXGXl.m k N P v m b r V K V C C V C k f k k i s i B k s s k s s k f t 5 7 s g 5 4 8 d 4 , , 8 d 5 5 5 5 5 t w 6 , t t w , t 6 5 , 5 5 5 4 4 ; 5 , 4 5 , 6 6 , , 5 0 6 , * , 8 5 , 5 1 @ , * ; ; , 8 4 , ; , , 8 0 ; @ ; 1 , 1 1 6 ; * ; , 5 @ 1 , > > , , @ , 1 . ",
"@ $ , @ 2 @ ; ; @ ; ; , @ ; @ @ ; > @ # @ ; * @ @ ; > ; * * 1 1 , 1 @ w j 4 5 ; > 5 * 5 5 ; > 5 9 t , 5 4 5 6 , ; 5 9 4 5 , , 5 5 , 5 @ 6 j 4 5 * 4 r ; t t 5 5 5 5 i k b s r 5 8 t g k s 7 l s 5 s h k s 7 k b N b V b f m A N s b V V m V b t 6 W s.hX7XP.vXaX-Xd.Z.E.*XP.E.D.C.qX%X}.uXuXaXa.{ U V N J / ' / L Y k J / L ' m V m N Y J J U ) L U :.C V 4.BX=X6X$Xm.P.-X$X<XI.r.s.q.g.j.s.1.d.B.t.k.0.k.y.t.j.p.a.G.M.q.m.M.d.I.k.d.0.%.0.Z.).q.q.C.p.d.k.u.w.x.9.c.S.a.`.).s.3.S.x.1.a.h.M.W.E.m.C.%XmXwX4.U / ' { W / m r.dX;X=X^.E.C.d.I.0.a.y.0.k.W.B.t.q.Z.C.d.j.a.a.q.a.T.B.u.p.g.k.OXs.,.a.).u.H.u.1.y.q.9.0.A.z.f.d.d.p.d.B.M.4.r.R.m.E.s.r.4.h.M.~.^.iX^.m.N.L.zXBX` N A P N P Y V V Y / L N Z V L ' J P k k N ' J V ..J V m i.nXxX;X^.$XwX].m.N.6X=X6X[.;XE.E.4X6XbXQ.I s A V K P b C v V N k k n n S h k h A b l g 4 s n i h s s g r G 4 5 F j 4 8 7 f 8 5 8 7 0 , , t i 4 5 t 4 * 6 5 w 5 4 5 4 ; 1 , , 4 5 5 w , 9 6 , ; 1 > , 5 5 8 t j 5 ; > t 8 , 9 @ $ 5 4 8 w @ = ; , , , ; e ; 5 ; 1 @ ; > ; ; ; * 0 ; ; @ @ ; ; @ >   ",
"; * > @ ; * * * ; ; $ , * > ; ; ; ; ; o @ 6 6 ; o > 3 , , 5 , * , , ; , 5 4 ; - * , 9 , , > * 8 8 ; 6 , 4 , 5 , , 5 ; 5 t 5 5 * t 8 l ; > 5 s 4 ; 5 6 6 6 8 5 t 5 8 8 S 8 s g 5 5 8 8 s 8 8 s l s f n B r f N b m L J s h V B A P ) k L ..V s f J oXiX6X^.E.E.^.[.N.!.C.d.C.qX^.a.C.^.[.pXAXI.U B k S J J ^ L J U V A ^ ^ L L J A P N L } :. .V V W W V P m 7.mXpX=XP.N.-XC.m.p.M.A.).d.0.s.w.k.Y.a.4.t.y.,.a.S.p.d.M.C.q.t.q.t.M.a.k.s.r.k.g.q.q.a.F.Z.M.s.$.0.d.d.3.3.a.V.E.B.4.1.t.r.t.g.j.d.~./.E.Q.Q.eXr.I X.o.' J [ J u.dX^.~.|.d.M._.q.4.r.z.B.4.s.'.Z.p.m.d.m.W.p.0.w.m.k.0.-.g.a.0.u.t.y.a.a.,.5.c.,.t.M.y.s.1.,.g.B.,.z.B.a.p.a.y.t.d.C.0.0.0.I.<Xm.$X7X^.7XE.$XdXr.V A Z K m Z U V h Y V V V P U J L V V V n h X.X.v ) L V f r i.hX3XaX;X!.8X[.{.}.3XQ.[.7X*XL.N.$XcXcXXX{ U V v k V Z k V v k n N i N b R b M i t d 7 k l k j 5 s 8 k s 4 4 8 f 5 4 G f 5 d 8 7 8 5 1 5 l , d 9 5 , 5 4 , t 4 9 8 ; > , ; t t , 5 , > 5 * 6 , * 5 5 8 5 , d w 2 * = t 1 1 ; ; 5 9 d = 1 , > ; * , 6 , @ 5 * @ * ; * ; ; ; , , ; ; , ; ; ; ; ;   ",
"@ ; $ o $ @ ; @ ; ; * ; ; * , > @ ; 5 @ ; * @ * ; ; * ; ; 5 , , 5 8 4 5 , , , , 4 4 s > > ; 5 8 8 ; l ; ; 1 , t 4 r 4 5 , 5 , 8 8 5 7 t , , x 8 , 6 4 e ; , 5 4 w r s n 4 s s 4 s j r d w 5 s n f s 8 s s h s h k i l k k k h l k N h J J N f W W.-X;X[.P.m./.P.N.C.d.<XC.E.7XE.$X7XmX6X3XI.I k b ~ @.V V m T +.L h D Y v J K A k k ' ' L ' J P V / ' V A R J !.iX;X;XE.^.^.C.^.[.h.-.a.3.0.N.Z.k.1.x.t.0.p.g.t.a.a.y._.k.3.r.s.0.q.y.t.d./.C.I.a.r.x.t.0.y.0.h.k.S.p.3.p.4.4.T.p.1.0.t._.k.M.I.E.^.iXN.P.<X-.J } P Y ^ W I u.wX7X=X~.~.m.B.B.d.d.B.d.S.r.3.t.!..Xg.s.d.q.k.p.%.r.t.a.f.3.t.t.V.M.s.r.r.r.u.s.r.1.t.1.4.h.d.a.1.r.k.I.j.0.u.%.t.j.a.S.d.m.=X$X<XP.Q.iX=XhXz.v P m V R U  .[ L V U K V V P Z m V Y v f V b v Y I v P V V b m z.bXpXQ.[.C.~.8X7XU.C.-XaXpX=X!.m.P.hX9X5X%.m S K T Y C V C N k s k D l 5 v n l i N k s 8 k n 8 x n k r x f 4 h s 8 4 6 4 8 5 t 5 4 5 5 5 t 4 4 7 5 t , 4 w , , , , t 8 0 , 5 , 5 6 4 , , , 1 1 , @ * , ; 8 7 5 1 5 * , 4 , 2 , 1 > ; 1 , 5 , 4 6 1 * 5 , 5 , ; , , , , ; ; * > , , , ; * * ,   ",
"* @ o o @ @ ; @ ; @ ; ; * @ , 1 > ; , @ @ ; , ; 1 > 1 * * 8 5 * , 4 1 6 1 1 , , ; 5 8 ; , ; * t 4 4 f 5 * 4 , , , 9 5 9 , 6 4 w 4 4 5 5 5 , 4 t 4 7 5 4 5 w 9 8 8 5 s d 5 l s 8 r f 4 7 7 j i i f 8 , 8 n n 8 B B 8 k k h C C k k V v Y k s *.{.=X$XE.[.-XE.!.>Xj.^.h.[.P.d./.P.&X=X=X6XXXW k S A L ^ h Z C V / m k k v C P V V P V L L V V T V V ( U J V P A 2.qXiX].[.qXQ.$X#XE.a.R.M.t.d.k.a.3.4.0.t.k.z.0.a.z.s.d.t.g.!.XXd.t.g.a.t.p.E.#XN.0.0.u.a.,.u.B.q.B.d.0.I.'.4.%.a.W.f.y.r.A.t.m.d.N.aX3XC.fXeXr.U / / Y ^ U I 4.!.=X&X~.<XC.t.0.j..X0.0.0.1.0.u.d.d.a.0.u.4.M.a.r.4.d.s.3.1.S.A.d.g.a.0.q.,.4.1.u.4.r.4.t.I.d.3.u.4.3.k.a.a.t.0.0.t.'.q.a.~.E.aX|.P.=XpXaX.XJ k ( H L Z ^ U J ^ J ~ / V N v P V m V k k P V n Y :.^ Z J X.~ s T y.wX7X8XQ.V.[.dX!.a.^.=XiX&XV.M.!.}.gXbXeX1.J N Z ~ / L b s n k N v k f k n k h N k s 8 s k s s l 8 f k s g j f g 5 8 8 6 8 r r 5 ; , , 5 4 w 9 8 , 8 r 4 5 1 * 5 9 8 , 8 4 , , 5 t 5 ; , 4 , ; > , 2 # 7 s , , 5 6 ; 5 7 , 1 * , 1 * 1 , = 5 , 2 ; ; 1 ; * 1 1 6 5 , ; , 2 @ ; , ; * @ 6 ;   ",
"> @ O : ; $ o ; , @ ; * 1 ; @ @ * , , ; ; ; ; ; * 2 1 @ , 5 , 1 , , * 1 5 * 1 ; , 1 ; , 6 , 0 5 , 6 , 4 9 t 5 * 6 , ; , 8 , 8 , 8 5 5 8 4 ; , w s 8 r , w 7 8 0 , f r , w t 8 7 9 8 > J V 8 s 7 f s s j i f s 8 h h m P h b Y J V v L F s -.W.7X^.Q.^.N.!.^.N.E.P.m.{.E.^.*X$X^.[.3XlXz.{ k l V U ~ Y L L V h k A [ m V _ s N N ) ) V m ~ L U :.' P V J / L P Q Y.aX&X7X*X*X/.[.E.P.).I.m.<XV.0.d.d.k.a.B.q.,.M.j.q.`..Xp.t.k.0.m.F.N.a.b.C.Z.B.,.h.r.S.p.r.a.p.p.p.x.R.0.k.k.3.0.q.I.0.,.a.g.w.k.,XQ.%X=XE.r.V C / +.J =.J 7.BX[.C.<XC.a.d.q.p.y.t.C.k.m.k.r.t.g.!.~.'.s.1.B.S.0.3.t.i.r.s.3.0.d.p.d.A.x.3.1.x.4.,.c.j.p.r.f.k.r.0.r.2.p.T.t.0.0.r.a.C.|.*X/.C.$XpXzX-X4./ A V ^ o.V N V v K / V m b m P V P C A L / m _ k V ` [ k C W ^ J i v z.GXlXgX*XQ.Q.4X[.7X}.{.Q.%X%X~.Y.*X&XmXvXy.v l r C V V V N A K h N A s s N S k r i l s 8 s 8 5 5 s i 8 f , 5 f 5 , 5 5 s r 7 8 9 , 8 t 5 5 , , 9 5 4 * 5 g g 4 4 , , l 5 , , 4 w 1 w , 5 5 , 5 1 ; @ 5 , , 6 8 , * @ t 7 , ; > , , 5 ; 1 6 * , , , > , , , ; ; , , , , > @ * ; @ , 1 ; ,   ",
"@ @ @ * , @ O @ @ ; ; @ * ; @ , , ; ; @ 5 > * * * , , ; ; , , , * ; 1 , 5 1 ; * 4 , @ 5 , 5 t @ ; 5 1 8 s 8 , , 8 ; , , 4 5 5 5 t * 0 8 , , , 5 8 4 , t 8 4 9 5 , d , ; 5 w 4 r r 5 , Z V 4 8 g d s s b b s 8 s k b Y Z n s A J k h V k ;.{.#X^.*X,X-XN.P.%Xm.C./.V.7X!.Q.;X[.E.[.LX[.W b N b P H m P V Z T P k v U U V V v P V v V V V N ~ J `  .L h ) ` J V V | |.aX&XC.%XV.N.-X-XN.V.N.C.p.a.R.d.<Xt.q.S.h.q.t.Z.P.d.A.h.p.m.W.%XV.:XP.m.m.A.d.t.t.0.j.k.0.s.y.<.r.a.p.k.9.s.T.`._.u.1.A.M.n.d.C.%XQ.^.Q.4.V _ o.` ] ;.L 5.dXzX$X[.:Xa.!..Xq.a.!.:XM.S.p.t.s.B.E.C.d.t.9.s.M.d.<.3.j.k.0.u.y.B.d.Z.t.3.,.w.k.0.3.w.).g.9.p.d.C.j.a.0.u.p.9.k.u.0./.fXN.[.Q.V.;XsXzXs.v s L  .U V V C V b K V h N A v V m m m m V U A ( V A V L ' b ) U [ V n m l.bXxXaX/.d.aX9XQ.4Xl.j.^.&XC.P.P.;XsX=X=Xr.N d S j Z ^ V k P k A v t k v N s f f k f k j f 8 5 d d r t 0 5 r B t g 5 f 8 4 8 4 4 s 8 9 , * 5 5 , , d w 4 s 7 5 1 0 5 , 5 6 , , 8 * = t w , , , 5 5 * ; 5 6 ; , @ o 4 r ; 2 , , 5 1 : + ; , ; , 5 ; , 1 , , ; ; 2 , @ , 6 ; ; @ , 6 * * . ",
"@ @ @ ; $ @ @ ; > @ 1 @ o o * 6 * @ ; , , > ; 5 5 = , , 5 , 1 * , , , , , 1 ; , * 5 1 5 , w , 1 , , , 8 1 , , 7 7 6 s 1 , w , w , , 6 , , 8 , 5 t = , 0 6 , 5 d d r 8 l 7 s s r 6 t s 5 4 r r 8 , 4 f s B f i B n C b h S f s k b j 7 4.nX=XD.m.*X*XL.Z..XE.%XeXp.C.fXk.j.^.#X=X7Xk.L h V V ' ! K L b N V :.U L b L / L C m v P L V N ( V V V K m ^ J b J =.V f m y.iX$X=X^.m.!.Q.&X&Xm.C.M.1.r.r.w.p.1.9.'.V.q.B._.p.,.d.a.g.A.p./.p.Z.m.j.d.d.'.k.a.k.g.x.1.1.S.u.w.B.k.d.a.k.M.T.1.k.N.r.h.A.m.%X[.P.*X>X4.J U U  .=.J v -.Q.pXzX~.E.m.m.a.B.h.k.j.5.%.d.t.,.z.a.t..XN.0.,.<.B.).0.k.t.g.k.1.w.u.3.4.,.g.W.q.y.4.9.3.t.z.k.g.g.j.d.p.f.1.h.B.p.E.=XsX&X%XQ.;X=XuX].U V L U ^ A P ..v V [ V / V V P b P K v h m P J V V J X.B k K P N s L ( A h J c.uXpX*XC.[.Q.Q.6X[.{.N.-X$XC.=XaX$X=XbX4Xr.Q i d N V v N b k A V B h h h v C s s n i s s s l f 7 s r 9 9 7 r 7 l 8 t , 8 t 6 , 5 , 4 , d d 5 , , 4 r 4 = w 5 d t 1 , 8 6 5 5 5 , ; 5 , , 5 5 , 5 * ; , 4 5 , > 1 1 , , 1 ; y 5 , ; * t t > @ ; , ; ; , 1 ; ; ; , @ ; , * ; ; , , 1 ;   ",
"; $ ; @ O @ @ @ ; ; 5 $ @ ; ; ; * ; 3 6 @ @ , t , , - ; 5 1 6 ; 1 t 4 1 t , , 6 , 4 g 5 8 , 5 , 5 t 4 5 * 1 1 r 7 r n w 4 ; 5 , , 8 t 5 5 t 4 s 8 , 5 6 5 5 8 7 5 4 f h 4 s B 9 4 f h , 6 d s f G 8 8 s 8 f B C h v s k C k s f n i { {.pXaX4Xj.[.=XC.a.N.W.E.].l.qX[.p.a.%XvX6Xk.m l S L W ^ m V K k P b V J m P V k V L C M V P V v m Y K n ~ V J :.k U >.V P Z W N.7XaXP.:X,X~.=XiXQ.d.Z.t.$.1.w.0.s.0.h.q.F.d.w.d.w.0.p.m.p.p..XW.t.a.'.p.q.k.Y.a.f.p.S.1.1.g.B.q.).q.M.a.q.g.t.w.D.W.h.a.g.C.$XQ.*X=X.X7.W L L U W W J 8.qX;X~.D.m.).q.1.Y.0.0.a.5.r.4.T.u.1.d.k.M.W.d.u.t.I.a.z.Y.M.d.Z.0.%.u.3.x.1.g.'.u.1.u.P.0.d.0.t.s.4.B.j.p.t.z.y.a.~.^.aX=X[.qX=XzX6X4X2.m @.' m M h P { V K J J V Y m L V V C V v V N C J J m V s k v V ~ Z / L J L h M N.wX^.}.~.~.#X;X7X&X^.qX$X=X6XsX;X~.[.lXnXJ.v j v V h k s k k m N v B m k m M h s i n s i s s t f 8 5 d r 7 , s f 8 * > , , 4 4 5 7 5 8 8 r 5 , , s y , , , s s * , 5 4 , , w 8 , , 5 5 , ; , 8 , > 5 , 4 5 , 8 , @ ; e @ 5 , , 3 6 5 ; > @ ; , ; 1 , ; 1 1 1 , > ; 1 > 1 ; ; ; ; ;   ",
"% O @ O % ; ; @ @ * , @ @ @ > @ @ > * > * ; 1 , * , 0 , * 5 , , 4 8 4 , t , , * , 5 5 ; , 1 w * ; , 6 9 , > ; 1 ; , 4 s s * 6 5 4 4 5 5 5 5 5 8 4 4 i t , w f 5 , t 5 4 7 s s 4 8 f s 6 w r s r f 8 9 F s s j 7 s A B h h P A F s 5.XX$XC.&XL.fX4X/.E.P.Q.C.j.P.Q./.N.{.Q.7XwXz.m J R b b J P P m J m V L v P s v P Y s C Y m h V n b P N X.V v m v V J Y L V U N v | fXdXN.%X[.Q.N.~.^.F.E.B.z.u.a.k.a.t.M.k.B.1.%.x.u.B.,.T..X`.g.q.Z.M.a.g.g.d.j.g.r.z.s.a.k.9.0.3.0.t.T.a.j.`.s.5.V.a.y.g.d.~.-XwXN.$XqXu.V / @.U ^ :.m 7.BXE.D.#XF..Xt.t.d.d.B.d.N.T.4.s.'.0.u.q.1.0.W.t.f.T.1.1.q.B.p.d.r.$.T.0.%.,.4.t.0.3.r.g.k.B.d.k.k.f.Z.a.0.k.B.q.p.;X~.$X$XQ.$XC.9XBX4.m b V V V ^ L V U m m V K V ' m A s h N b k b b b U m m v L X.b V P L T v m K k k H $.9XmX3X%XE.^.Q.=X*XP.^.N.P.E.=XP.E.iXsXwXx.H i n C L b n S k h h h B n i B r r d l k s f f 5 s f s 8 7 w 5 4 , 8 t 8 5 5 t 7 ; 5 5 , 5 , 8 5 , , 1 ; ; y 4 , 4 w , , 6 5 , , 5 5 * , 5 6 0 6 d 5 , 5 1 , , ; 5 , @ 5 7 8 = 4 , 4 1 @ ; 6 6 ; , t * @ , 5 5 * , 1 - * , * , 6 ; * . ",
"@ $ $ @ @ ; @ @ : ; * ; ; * $ O $ ; , * ; 5 6 @ @ ; , $ ; , * , 5 4 , , ; ; 1 5 ; , ; ; 4 5 8 1 , , ; 5 5 * > @ ; 1 @ i l , * t 9 6 , 4 i 5 = 8 w w 8 > 4 i k t ; d 1 > 0 s 8 i s 8 s s r 8 l j i s h h s 8 j l f i ' l m W ( z i x.aX=X!.E.~.4Xj.N.Q.U.!.W.!.>X-Xh.!.FXxXsXj.h 8 E 8.b f b b P L Y V V Y k S D k V U j k ) k N k k b k N J W T P k B [ V k V o.J A m y.cXpX;X=X[.j.[.7XC.^.C.g.I.r.m.N.a.k.t.3.u.u.0.9..X,.s.d.m.V.d.C.p.q.r.k.!.d.Z.%.1.s.a.m.t.a.c.,.S.N.t.t.y.,.5.A.h.g.M.d.V.;XL.*X-X=X4.h B X.W k L V 7.XXE.qX;XE.N.M.k.t.p.`.C.~.E.Z.4.y.p.a.s.c.0.d.d.a.,.s.S.t.1.b.B.S.k.t.a.y.u.| W x.0.x.0.p.m.C.l.0.q.q.t.a.T.n.a.Z.7X*XC.=X,XV.%XdXh.J B / K [ Y =. . .o.V B b b L L V m _ b v k 8 k b C m V _ V m K b k / W ` V n C ~ Z R m h.pXlXaX%XQ.E.*XE.E.7XQ.!.I.3X^.&X^.[.6XnXK.M 0 S ^ J n k f F s s C f l 9 8 d 5 5 s 7 5 t d k 8 8 B r 5 g 5 8 f s 7 s 5 4 8 ; 1 6 ; 6 5 5 8 8 t ; , , w ; < k 5 ; ; 5 8 , @ 5 5 1 3 5 t ; o h i 5 , > , 5 , t 4 ; , d 7 ; , ; ; 2 o 5 6 @ ; ; 4 * ; 2 1 * @ w , @ * > ; * @ * 1   ",
", ; + ; , @ o ; @ @ , 1 ; @ ; ; ; , * * 1 * * 1 , 5 * , , @ 1 , , 4 , 7 5 , , 4 , , 5 ; ; ; , t 5 , 4 i 7 ; 2 = 4 8 , s g , , 8 8 , 6 * 1 6 8 l 8 7 ; 8 r , 8 8 d w t 4 7 8 r r l n 4 n 7 s s s j x j D k b N k f s j V V V b i %.aXiX=X[.N.P.:X~.^.iX^.^.C.!.$X3X[.&XaXR.K M V V c L ^ / R v m ^ V B s V J J Z k k h L P h l _ i J V V V m v V V V v C Z ^ ^ V V Y B M 8.fXuXE._.Z.E.N.&X.Xj.a.a.B.t.V.m.p.q.0.I.T.t.-.z.W.b.g.M.k.m.p.3.V.Q.1.x.G.~.a.d.<.w.0.A.d.d.j.j.k.p.9.A.9.a.5.w.F.q.9.I.!.M.{.^.dXa.m )  .=.Z E m 4.mX=X$XW.a.3.d.M.s.,.B.G.b.B.T.y.9.2.u.B.V.d.0.u.f.3.u.p.a.0.q.q.q.M.p.'.x.%.3.4.5.5.c.r.I.'.1.1.Y.c.4.s.0.s.C.^.$XiXsX/.bX~.C.mXoXh g k N V V P N k P v P V Y P k B h m Y m s B V P N C N V v V ' J V P L P B b ' U V ! b B d J 4XFX=XiX].;XuX$XE.E.^.^.{.sX].[.{.~.pXzXi.i s h P N d B J ^ R 8 s k h V s f n s n 7 8 i i , 6 t n s 7 t , r r 4 , 6 0 8 ; , 5 w , y 5 8 5 9 s 9 , , , 5 1 , 5 d 5 ; 7 9 , @ 9 8 0 ; , 5 7 1 , ; > ; 5 5 , ; 3 > , 5 , ; @ 5 , ; @ @ 5 1 5 4 7 1 @ @ ; 9 > @ 6 , > > @ 1 > ;   ",
"* , ; @ @ - ; ; $ @ ; , ; ; @ ; * ; * * 6 > ; 5 , ; ; , 5 , ; , 6 , > , , , ; 5 , 2 , 5 , , , d 5 5 , d t * ; , d 4 ; 8 w 5 5 5 8 , 5 , , , 5 i 8 4 ; s s 4 4 d 8 4 8 d 7 7 s 7 4 s 6 f f j 7 h r i 4 i b k B k b ~ k V C S h h oXNX$XE.!.{.$XP.^.Q.E.<X{./.P.|.gXlXzXz.| h V Y / m m L Y V V V / L h b s K P i N P N V h h k b V Z ..A N N A L m P L V m L / Z L ( V L U j.=XqX/.C.~.;X[.W.V.m.M.k.d.a.t.k.d.p.k.3.k.r.4.t.M.M.k.q.Y.k.k.).).,.c.M.d.T.g.4.s.0.d.t.T.z.%.y.M.g.I.B.t.%.%.a.q.y.d.m.eXP.Q.eX,./ L ` I J U K r.NX*XD.P.<XB.p.A.k.y.0.9.{.m.0.a.k.h.3.M.).A.z.3.t.A.t.0.XXB.1.4.R.s.t.d.w.1.u.4.%.c.y.0.a.0.3.S.0.1.q.d.M.t.{.#Xm.^.&X^.*X7X=X|.7.J P N L L O.b s / V m L h h b N C S b P V k V P v v A V V V m A Z P V m V N C L Y K V b Y J v %.MX=X=X-XaX9X6XQ.&X$XiX6X^.iXW.C.Q.$XaX!.W f j N k h N V k C k s l l k s i 8 j j r s d g 8 4 = s 8 , t 7 4 7 d , 8 7 s , 6 6 , , , 5 t 5 , 7 5 8 5 w 8 1 5 5 5 1 ; 6 5 5 , * 5 , 1 ; w 4 * , , 1 * 4 , , 6 , , ; * 5 5 , 6 ; 1 * * , , * , ; ; @ ; > w @ ; 5 > * * ; , , 2   ",
"o , ; O O 1 * @ ; 2 * , 4 ; * 1 ; * , , , @ @ ; , * > * , 6 1 ; * = ; > ; , 5 , ; ; 4 t 5 , , * 1 t 6 , 5 , , 5 r , > 5 4 4 8 , , e , r t , , z r , 6 5 4 s s 7 7 8 5 5 5 8 s 8 6 6 s 8 8 5 8 k n 5 8 h v B s s k k k } h B n { IX9X$X{.I.C.~.^.qXB.a.l.E.W.P.3XpXmXY.v s b ^ ..m m P Z m Z V v P ..m V m n C N v V V f n C v i P K m V S B S J J L ~ ^ v P Z P V V / U U I x.nXpX=X&XsXE.b.!.%XC.q.9.s.l.N.'.s.0.t.k.a.,.$.4.h.t.9.a.Z.h.u.4.k.h.0.u.r.w.u.S.k.1.4.s.5.5.g.a.t.a.r.0.m.0.u.x.d.P.;XhXm. X X%.` ~ L ^ ] U J 4.$X#X^.N.N.(.^.E.d.0.0.u._.d.3.p.d.p.Z.m.t.q.0.a.k.B.f.3.W.3.w.y.a.t.0.k.p.y.u.3.g.B.p.p.N.a.0.k.0.a.Z.0.P.^.~.,X%XC.P.uX[.*XNX1.v m V J m V v k A L M W b P A k C h s f k b V Z A i k m h V K P P k v Z m E P b h V ( U A ' ' K i U .XbXQ.Q.3X&X=XQ.P.$XqXE.C./.N.Q.*X;XaX XU B C i Y m h S n k s s f f s n 7 4 t g l z 1 8 i s t 6 5 d 7 f 4 8 r r 4 s w , 8 1 1 e , , 5 , = 4 5 w t * 1 5 5 5 , , @ > , 5 , , @ ; 1 ; , 4 5 1 1 4 , > * , 5 8 ; @ > 8 @ ; $ * , ; ; > * ; @ , , 5 ; ; * , 2 @ 1 ; ; , 9 5   ",
"@ * > o $ > , ; @ @ ; , ; @ ; , ; > > @ ; * * 1 * ; , , , , , , 1 1 , , ; 1 1 1 = 6 7 ; , 8 4 , * ; , , , ; , * , t , 5 4 5 t 6 , , 5 8 8 , , t r 5 8 e * h B f t f r 5 t f i 4 8 8 j 4 d z 4 k S 8 8 D s s d s N V N J h F h 1.yX=X[./.0.F.$XE.Q.a.j.r.4X*XN.FXNXr.U R B ^ ] m K ( T V m P P k V m V V N b h P b A k 7 m K h V b v J m m h s v _ V s m b v m ' U m ( U L Y T |.uX=X&X;XE.m.!.^.^.W.m.a.y.9.g.A.t.f.0.t.s.4.4.u.g.S.a.0.a.p.0.u.t.0.0.4.k.t.0.0.p.p.t.%.{ u.G.p.u.A.s.S.a.y.u.t.!.~.P.[.>X.X4.m ~ T +.^ V Y 4.wXaXE.[.%X~.W.j.9.r.I.t.y.a.x.t.d.t.a.d.g.0.a.s.0.g.x.3.0.r.0.a.Z.k.u.k.a.4.t.k.0.d.b.p.a.k.u.p.G.a.M.{.^.7Xm.E.-X$X^.4X6X9Xh.U V X.Q V V ) s f Z V v T s b S h P N 8 B A k V _ n s B b C N h n V m k C k k v V b V L ` v Y U k P V {  XmX$X^.;X^.[.7XiXE.^.Q.Z.b.V.^.=XuXaXU j B b V V f s N N h n k 5 h k f i 7 8 7 8 ; s n s , 6 5 4 s 9 6 1 8 f t 5 8 , , 6 ; , , w ; , > 6 1 , 5 5 , , 4 , 8 6 * , 8 7 , , 1 , , 1 , 8 8 ; 5 ; 1 > * 5 9 0 , 1 * 5 @ , 1 , 1 , , , ; ; ; , , , ; o 4 , ; @ * ; > 4 , ;   ",
"; * ; @ $ * @ @ $ ; ; @ @ O ; > @ * ; ; , , 5 , ; , 8 , * , 5 , ; 1 j w ; 5 , = w 6 r ; , , 4 w 1 * d 8 , 6 > 6 , , 4 , 5 , 4 5 , 6 d 4 , 5 5 , t 6 8 1 5 b i r , = 8 7 f D 7 i s g s 7 f k k 8 7 x s 8 s h b b n V M v A l p r.7X-X*XC.E.Q.m.y.j.P.[.V.9X$XaXNX2.m n ) N L [ m ( ( U s R K m V f k N h s / v m R s R P h k n B k h J Y Y _ P b h i k m V P m U L P V V J / s 2.,X*X=XI.W.-X^.[.-X~.j.d.a.p.d.a.g.q.0.I.T.%.s.f.t.z.r.%.q.W.j.1.u.s.9.h.V.p.1.x.S.d.'.a.u.k.a.a.S.y.q.r.Z.t.0.q.B.eXQ.^.Q.,X4.m ) ' ^ U K v 5.}.uX-XQ.fXm.0.s.h.d.m.d.r.q.M.s.f.u.4.Z.M.t.t.p.0.3.3.0.1.f.t.a.p.g.3.3.%.z.4.x.9.,.T.k.t.0.3.0.B.m.C.m.~.^.E.qX=X=X$XD.zXeX| k N K m V P C D b m K h P N b V m m K b A V i s l i N F f B h h m m / v s k A P / L L V ^ T v ~ V / Z s T qXbX=X[.C.{.*X;XP.N.-XC.C.C.[.=X$XLX*.i n b v v N h k N N b m n s 8 s s s 8 r h 5 8 8 d e , 8 j s 5 5 , = 4 6 - k s , 6 , 4 8 t , , 1 , , 5 , 8 , 6 8 5 5 , 0 5 4 5 5 , 6 5 1 , * t , * , , 6 ; * 2 ; @ ; , ; , ; , g 4 @ ; w ; ; 1 , 4 , * ; * * 6 , * * ; 3 * ; 0 . ",
"@ * o $ o ; : @ ; 1 ; @ ; @ O ; $ * * 1 1 , 4 * ; 6 t @ ; 4 , , * @ d 6 , , 5 l 8 * , 1 > ; , 5 5 6 5 8 8 , = 5 , , t 5 , , 6 , ; 8 r 1 4 9 8 8 9 4 4 5 , 8 j 4 8 d 8 s j s s s s 7 N 4 l h 8 j f i f s n h v k A b K J C l M Y.pX6X=Xj.>X/.E..Xq.N.;X4X=X6X.X7.Y m n m J V T Y / V ^ k Z V v A f s n h V V L m b 7 h b s N B h V P m V V h v V m V P P K U X.V b K P X.U U +.m W N.=XU.^.;X[.E.Q.E.j.I.MXP.a.3.k.a.q.0.a.q.k.q.q.4.u.'.f.Z.C.j.B.0.t.T.d.Z.S.1.,.Z.m.a.s.3.t.9.p.a.q.r.t.a.'.g.q.eXE.N.^.{.1.V S U U ^ Y N 2.eX$XD.d.p.m.M.r.k.p.m.P.u.0.9.).s.$.B.j.q.y.u.0.0.x.4.q.d.t.B.h.e.k.k.t.4.XXs.1.S.y.,.r.4.s.).j.a.j.~.Q.qX[.C.7X6X;X6XdXP.%.' k V V V K m k i V ( J v h v P V v N m V h B k v v s B k h k N B n m K C n h b m v m J V L / v n P [ Z N m U XXbX=X&X~.^.E.~.*XE.~.wX$X-X7X=XNX2.h n B b C N b A V N h l h 7 f f 7 D i s N h 8 4 8 8 s d 5 5 t 6 5 g 5 5 = t 8 1 1 6 5 8 5 5 6 , , , 4 8 5 , 6 , 4 , 2 4 , 5 g t , , 5 6 5 , w , * 6 , , , 1 ; @ 2 0 ; , 5 ; , 4 = ; ; 1 , 1 ; 1 5 6 1 @ e 1 1 1 , > > @ @ ; 2 . ",
"$ @ * ; @ @ @ $ * @ ; ; ; * ; 1 * 1 ; @ , > * 1 ; 5 * ; 2 ; * 6 w , ; @ 5 1 * t 8 , , , 2 ; , 8 5 ; ; 5 7 8 t 1 * 8 , t , 5 8 , t 5 5 , , g 7 5 , t 5 5 4 4 t 8 s j 8 5 f = i j 8 5 n r t h s k h r k R n 8 D b m b 8 J B B p h.gXuX=X*Xm.C.:XN.!.d.E.4XdXeX2.m m m Y ( J J U / m J b N m V o.A N h b m P k b b m i f N b k k s b C h n s s N V m V A h L K / V L / P V m J 8.n v 4.qX=X^.iX7X%X~.Q.B.m.d.k.a.t.M._.d.0.M.k.u.1.3.u.q.k.r.Z.d.n.M.3.k.q.e.).3.u.1.c.t.0.w.5.k.`.C.p.u.k.h.a.a.t.d.N.^.*X*X/.x.L m J U L U V 2.fX^.V.(.m.W.Z.q.t.a.k.t.4.y.p.m.d.j.T.0.k.0.H.4.,.).A.a.G.t.9.0.h.).d.d.V.C.0.1.g.XXm.0.0.k._.j.a.d.,X{.-X[.m.%XE.~.zXNX8.J m / S A m n A N m P V V k s m V s 8 B N i n C k m / i s V ..N n s i n m s V V m V ~ m V V K Z ~ P k k N Z V h U XX7X&XaX=X^.^.qXE.C.Q.j.W.7X6XmXi.m V Z C V l B n b s s j f s f r 5 4 i d 4 V F , , s s 4 , r 8 8 5 w 8 4 h , 6 2 * t , , 5 5 l , 6 5 , 8 $ 4 t 5 ; 1 ; 5 = , 5 * * , 5 , w 1 , 1 ; * > ; 6 , 5 , , ; 2 6 6 5 5 , , 5 ; @ > 5 ; ; , ; 1 o 6 3 @ ; $ > > > 1 ; ; . ",
"@ ; ; @ @ $ @ 3 @ * , ; = , ; , * 1 , , * o > ; * 5 > ; , * * 6 , , ; , e ; > 5 , , 8 @ , , 5 6 , ; ; ; , 7 s , * 5 1 5 5 5 , , , , 6 , ; 6 4 , 4 , r , z 8 , 4 8 8 f 7 t 5 d d 8 7 8 f 4 i 8 k s 8 f k k r f b m 8 k V B l i h.bXzX^.C.E.W.W.d./.~.P.&XQ.N.U V U Y ' Z ~ m } / N P k V V ^ J h N C s v Y s f k P N r m k n s h A h k N k n B V K v B P V V T J ' V ' / Y V R / Z U 8.uXsXQ.~.iX$XP.P.^.d.).a.p.Z.j.p.r.u.0.1.s.S.s.9.5.%.3.0.p.t.p.s.g.d.a.0.p.u.%.u.3.u.x.4.Z.W.0.s.y.1.4.p.!.B.N.I.*X$X&X4.v _ L ` ^ Y ' 2.].sX}.!.Z.j.j.`.g.0.4.t.0.y.S.e.D.(.k.r.h.a.0.u.,.a.g.M.t.p.s.<.a.0.4.Z./.D.q.R.g.t.M.p.3.T.a.0.eX*XE.$XN.^.^.C.V.[.yXy.n S m A s V h n A b L V b A i l V _ f w i f s s k h L P A f k V V v B s l f s V V v b A X.V P k k P V V S ) J L Y n I XXaXaX^.=XN.U.j.t.C.E.j.l.C.4Xi.h N N V V f i b h B 5 d d h i 7 l j s 4 t k f d , f 7 5 5 s 5 5 5 7 8 7 n , 2 > ; r 5 , , 4 d 8 ; , 5 , $ 4 r 7 , 6 * , 6 , , ; 1 4 8 , 5 * ; , w * ; ; 5 , , t t 1 ; , , 7 6 1 * ; 5 1 @ @ > 5 * ; 6 * ; * @ , ; ; @ , , @ 2 . ",
"* * ; @ ; * @ @ $ ; ; $ @ , , ; * * 1 , , ; ; * * , 5 ; ; 5 1 , > ; , ; ; * 6 5 1 , 5 4 , , 6 * ; 1 ; , 5 4 , 5 , ; - 5 , , 8 4 4 4 8 i 8 , , 4 i 5 s , 5 5 4 d 8 , , r t 5 4 8 k 8 8 i j t 8 b k 8 r 8 l s l h f s m S n z m l.cX~.Q.;XiXE.!.h.a.[.$X7X].u.{ J L V m / Y V / L L v V P k [ U n n m k h m _ V h A k k k C ) V k k s i h v S A h A R h k b h v L V N V b m Z L ^ ' K U P.,XP.^.-XE.E.1X$Xm.g.W.~.V.t.p.k.t.a.z.r.3.0.t.0.q.4.u.0.h.u.w.E.l.0.f.).b.k.s.0.0.3.s.t.0.$.,.A.f.t.T.d.t.a.j.N.;XeX3.b P U Y ` K T -.|.=X[.<Xj.t.p.f.<.r.A.g.j.j.3.0.q.k.4.3.u.s.S.M.<.s.0.0.9.0.0.1.M.p.4.).V.B.k.f.B.).3.t.N.p.d.a.E.$X&XE.^.E.E.^.&XfXy.H Z S k b L m V b P V V m V V v B r s V b s B B s b k s 8 n k k i i C v B s f b h V b k B A m V / b A A n P U ..[ ( / m 8.wX^.Q.#XC.h.C.q.P.P.^.=X$XfXR.v k h B k V k N i A s 8 s k B i 8 j f 7 B 9 5 b s s 7 5 8 5 5 8 t l 4 , , * 8 ; 6 5 8 8 = 5 8 ; e * * r 4 o @ 5 5 , , ; @ 6 4 8 t @ @ g 6 2 * , 6 ; , w 5 ; , t 4 ; ; > 6 5 , 5 t , 1 5 5 ; ; 5 , * 1 , 1 1 * 5 * , , , 1 * ; . ",
"@ @ @ > ; @ ; $ ; o ; > ; ; @ ; 1 * 1 , 6 1 ; , 1 ; 5 ; , , , , * , t ; * 2 , , , * 5 6 1 5 4 , , 4 6 , 5 6 4 5 5 1 , , 5 4 4 5 w , 5 8 , 5 5 t d , 5 9 = ; z 8 , z , 8 s 8 9 8 s 5 s 9 9 d s f r t s s f s C B 7 k ! Z b G v I.bX[.].7XN.V.k.h.~.%X-XC.[.oXW v / L m ' ' ..L V ( K L N V V L k A A h m V h h h b n S f h h h s k h s n v k s B N n s h n _ v V C k V U X./ L U +./ K U z.%X;X#XE.].~.^.-Xd.p.>X^.d.d.a.t.k.a.q.a.4.a.s.g.0.s.z.,.,.u.d..Xt.0._.Z.d.q.k.a.t.s.0.1.,.u.g.q.q.t.s.a.N.j. X;XP.2.J /  .J U [ K W {.aXE.E.$XZ.B.1.s.B.a.n.h.f.0.u.w.%.,.,.4.t.t.z.c.3.w.4.q.d.w.w.t.).0.s.t.d.t.0.).d.0.N.j.q.`.F.^.4X*X~.N.W.*X=X7XY.J m k f f n Y L h k b L P h / V b k 8 f m P N h h n h D f 5 l 8 s g B n i h s b V k k C i S n n L / Z b k m m Z P ^ L V m 8.eXP.Q.[.k.j.`.C.N.^.7X$Xm.oXK.v K h s k V v k n s A k s k 8 d r s k 8 k f d s 7 7 w 8 r 7 8 4 5 t d 5 d - 4 t 0 4 d 8 t 4 6 , * 5 6 6 , 1 1 1 * , 5 * 1 5 8 6 , > @ t 1 @ , t 4 * , 6 ; > * 4 t ; * 1 , 4 5 , , 5 , * 5 , , * 1 , , ; , 4 , * ; > , * 6 @ ,   ",
"$ @ ; @ @ @ @ > @ o ; ; ; @ @ , 5 ; 5 , , ; ; , ; * , , , * , , , , 6 , ; , , , , * s , , * 5 5 , 8 , , 5 5 5 , = t s 2 4 s f , , * 5 * = t 4 ; 1 4 , 6 s 4 , , 4 f 7 t r 7 B , , d l t 5 f s 5 r f f F s N P n s S m m k G k z.nX$X].&Xm.I.u.C.qX{.%X~.^.@X$.m A Y ^ L ( V v v V ..v m V b m k h V P N V m m k s k Z k v h S s n V V s N b b s f k B / V K v b N M '  .` ' V Y Z J Y V ' Y.dXiX-X*X*X^.$X,Xq.j.%XZ.g.t.0.1.M.XXd.t.0.p.t.a.k.t.s.N.n.d.m.a.t.,.0.q.M.d.k.0.,.3.s.y.t.9.1.4.0.B..XdX$Xm.^.>X-.I / L >.$.[ n | fXsX;X;X^.d.d.a.k.a.Z.Z.0.1.a.k.,.$.5.u.3.f.1.,.{ 4.A.t.g.d.t.p.t.a.u.,.B.j.a.S.0.t.h.j.3.m.,X~.[.&X~.|.!.Q.=X7XoXJ m @.P h N ~ N P V v h A V h b n k n L S 7 B P P b s s n l S k n C f V n 8 f B k l B s h A V B S b V A v Y o.b V J [ V ~ K u. XU.*X=XI.y.~.;XE.eX*X{.&X<XOXV V C b s f V N n 5 r l 8 s 5 t 4 s N s s 4 i d 7 5 5 9 7 i s 8 , 5 7 , g 5 9 4 * 8 9 * 4 5 t 5 , 5 4 8 @ 7 5 0 , 5 5 t ; ; , ; * 8 5 , 1 1 * , , 5 5 , ; , 6 , , , 1 , 1 , ; ; * * , * ; , 5 ; ; > ; 1 , , 1 @ @ @ * > 5 @ *   ",
"@ ; ; $ @ $ @ @ @ @ @ * @ ; * 8 4 > , * ; o > ; @ ; * , ; , ; , 6 , * , t , ; > 5 , 5 1 9 , ; r , 0 , 6 ; , 4 5 , 4 7 ; , 8 f t ; ; 5 ; ; 4 9 * ; 5 5 5 8 d 5 4 5 h s w , t l 5 5 4 i 5 8 n B 7 8 k h n s v P k k f K V b j f y.4X#XqX^.*XI.p.E.d.N.C.=X*XoXW m ..L U V m L P V V m K V V N m V B m v N h P V s s h v 8 n h n s h V V i P A m B k s v m V V V m N ( ^ H J Y b V L V O.A V U T.mX[.V.=X=XQ.[./.[.C.d.V.T.d.r.u.V.m.q.u.c.,.d._.,.S.<Xp.f.V.b.k.&.1.Z.).p.y.q.k.0.x.a.h.f.0.u.S.d.g.~.7XE.~.<X3.V n P H *.` 8 -.-X=XuX4XN.B.p.B.k.p.k.a.q.a._.p.1.x.0.s.S.a.,.4.%.s.B.P.p.s.p.a.s.3.s.a.B.C.p.t.j..Xj.d.N.*XQ.P.$XE.C.9X~.$XmXz.T v Z V W L V m k b P m P V k B n h k k V k r 9 h v M f s k s h h b k i m v f s N A 8 f f s P b s h k L k Y J Y V ^ :.Z A C m x.fX&X[.C.N.p.^.1XP.C.N.Q.6X[.R.J h C m b g k v R h f k h 8 d l 8 f s 8 d j d 5 i 5 5 5 4 s 8 5 , 8 5 , = 4 t , 5 d , * 4 , 4 4 5 , 8 t , s 5 * t j 7 , , ; ; , , 4 , , ; ; , 6 , , , , > , 8 , , , 5 ; , ; * 6 5 * 2 1 , , ; ; @ ; @ 1 , * ; @ @ > @ 1 , * ; . ",
"* @ O @ @ ; ; $ $ @ ; @ @ > * * , ; @ ; > @ 1 , , , @ 4 , > ; ; * e , , 4 , * ; w > ; , 5 6 , , , , , 5 ; * * , 1 ; * , 5 * * 5 6 8 , 5 t , 5 g 5 5 5 5 7 4 6 5 4 8 5 5 6 5 5 w 5 4 k s i s 5 8 s v C h h k k b h h v m j n V z.nXiX%X*XP.E.W.W.a.^.^.&XLXI.$.J P V P X.V m / V m / L C b V Z m C n h E h k s h _ n V 8 C n k s h i k b R i i L Z s P h V h N V L J m J L ( ) P P / / m P m J I.mXaX;X%X&X=X=X/.m.C.D.B.m.I.a.0.k.t.u.x.3.h.m.k.t.q.a.2.x.V.S.c.5.9.t.%.s.S.T.1.0.k.4.t.m.%.a.M.9.;XQ.=X6XBX%.N _ Y M ] ..b -./.$X;XL.0.t.d.d.w.0.Z.0.p.d.d.M.d.'.x.4.4.1.s.3.t.h.%.4.1.q.r.M.u.d.`.P.d.).a.q.I..Xm.^.!.^.^.^.fX[.P.=X6X7Xi.v S V N V v K U / Y V V v C n b f k v v i k B k f 8 v P V h n s C h s C B N 8 n s h n s k F 8 B v m n P N Z P T V V P A k C V m z.mX=X*XB.^.{.s.a.6X;XE.[.^.*Xz.U ..P v m f h n s h F h s s l x j 4 8 t t 8 d s 7 5 , w t d 8 5 4 5 5 5 = 4 s 6 * ; 5 6 t , 2 9 4 5 g 1 , 8 , , 4 t 5 4 6 6 , * 6 5 ; * t > 4 6 6 * ; 5 5 4 , ; , 5 1 , @ * t , , , 5 e 5 6 ; @ 2 2 o > 1 * , * 3 : @ , , @ ,   ",
"@ @ O O @ * $ o @ @ @ @ 1 , , @ @ * o @ * , 6 1 * 5 * 4 0 * @ ; * * ; , 5 * w 5 * * > ; 4 4 , $ 6 9 6 * 1 , 6 w , w 1 ; 5 1 6 , 4 8 4 8 5 5 , 7 8 5 , 5 d , , 1 5 6 , , 1 , w , 8 f f k h 8 8 f s f h s B n i B B k h J l D m h.nX3XP./.N.[.(.t.M.$X#XE.NXXXW C k L V V L V P P N P k h v P V h s k b b 8 8 N v b h s i k b 8 k f f s h V k s v L h n k N B k V m b D C b k m m V V L J V P T U k.vXuX^.$X=XpXC.P.-X1XQ.C.N.P.t.k.w.9.,.0.a.d.A.3.u.0.%.u.h.0.,.3.4.s.t.s.3.q.'.k.r.c.j.I.h.t.s.C.I.m.$XE.XX$.v / Y E J V V c.:X[.E.P.M.a.t.w.4.h.I.B.I.d.d.Z.d.0.t.%.2.x.u.q.j.M.w.%.u.s.&.s.k.9.V.d.p.I.g.t.C.V.iX=XN.Q.;X$XN.^.=XbXuXY.h B L L K k l k m U P m b i v s f 8 h L V V 8 f V v 7 f m m h s h k f s k h r n C B r r k b f s k V P N V V L b b N k V k N K ^ m 2.LXuXC.x.D.fX0.4.E.[.{.^.=XNXB.J m N C V c h D h m k k d s s h s d 8 7 9 8 8 k s 4 5 9 8 6 , 5 , , 8 8 5 8 4 7 , ; ; 7 5 , * 9 4 5 5 ; 6 5 6 5 , , , 1 * 5 8 5 5 ; , 5 9 ; 4 , , 1 1 = , , w , 5 5 1 1 ; * 5 ; , , 5 @ , 1 @ * * @ * @ ; @ , 6 ; o > 1 = @ >   ",
"; * @ @ @ @ ; ; ; @ ; @ $ , ; * > ; ; > ; ; , ; , 1 > 4 5 5 , 6 6 * , , 1 @ ; 4 , 4 q 5 , 1 ; * , , 5 5 1 ; , , , 1 6 5 6 , g , 5 , 4 , ; 9 8 5 7 8 9 5 7 , 8 5 4 , 6 8 8 , g 4 4 n 7 , r d 8 k S j i s 8 j 7 b C b n V f f v y.aX[.E.C.^.^.Q.m.E.Q.^.}.*XXXI b X.L V V N K V P h v A m ) L v s n k V B l N ) n h k 8 v n s n B k d n s f n n S h L m C b C N h k V R N P P v m L N b m U ' Y m v s.vX[.[.=X$XC.*X{.C.~.^.C.fXm.j.y.h.d.j.w.4.r.q.R.s.t.q.u.t.4.0.t.0.h.k.M.f.9.9.1.5.y.t.k.Y.q.d.W.[.E.%XI.-.J J K L +.Y m c.MX{.E.d.m.M.t.t.k.a.f.M.m.d.t.d.k.1.0.1.4.u.3.q.s.3.x.r.$.1.B.A.k.d.m.`.d.a.W.!.%X$X[.{.;XQ.^.[.j.[.vXBX2.P N V ..P b N / V k V V K k k P V b B k p k j f h V K s s s s n k k s s k k s s s n s d f s B k b s s B m m N s N b P P Z S P m k m i.dX^.C.k.C.P.E.I.3.a.Q.C.[.vXXXU k C N N k b s k s i B s 8 f i s 8 8 5 s g 5 8 7 s s 4 9 7 5 5 t , 5 5 5 1 , 8 9 $ @ f 5 6 5 , 0 5 4 5 > = , * , 6 , 6 , @ * , 1 , * 5 * * , , 6 1 * , ; * 1 6 , , @ * ; * * ; , 4 , , 6 * @ 1 , , 6 ; 1 ; ; ; , ; > @ , $ > . ",
"@ + ; ; O @ ; , , @ ; ; * > @ * 5 ; , , @ ; > - ; 5 1 * , > = , ; , 0 ; * : @ 5 f 8 , 8 5 5 6 , 6 1 , , , 4 * 5 , , 9 1 4 4 5 @ 5 5 4 @ 3 4 4 t , 7 8 8 t 8 9 9 8 8 8 j 8 8 r g s 8 9 1 ; 8 h h s 8 d 8 d f i b V m V m B j s h.mX;X{.~.:XE.,X/.j.k.Q.L.,XVXI L [ J V b m V A V n b V m N v b N b k v s k v v b g l k V m k k i b 8 8 t j h h n r ~ v h v h b B k N N V J J / L P P P d L U J G j v j.sXpX$XC.Q.aX^./.Q.;XfX$XC..Xu.s.d.!.u.%.s.y.,.k.I.h.%.5.r.c.0.y.a.g.g.S.t.s.w.3.%.-.,.,.t.N.^.zXC.wXMX$.v ) P J ' U V 7.^.E.1X(.C.m.S.t.k.t.,.3.s.u.p.k.s.z.k.4.u.1.t.s.%.%.r.g.=.%.d.C.m.g.f.p.y.y.E.-XC.7X3XP.=X~.$X[.-X=X8X,.v z B / V M N J W Y k C n B k s v K b b B k 8 8 f m m A s 8 8 s h k h A h s k N m P P 4 8 f 8 A M b f s _ h b V 8 B V ( V K ( V P ~ J S.&X^.dX7XwXC.[.N.).oXm.}.[.$X_.V V Z i V k b i D F r x k s f j f f 8 8 d l 5 6 , s N k 8 t 8 r 4 4 , ; 1 , 4 i j ; ; 9 , 8 r , 6 t 8 5 @ 7 w * , 1 , , t ; u @ ; 5 * 0 ; 5 , 4 , , 5 1 ; > * 4 , * 2 ; ; > $ > ; 5 ; , * * 1 @ ; 5 , , = @ ; > > ; o $ , @ O   ",
"@ @ ; O O $ @ ; ; * 1 , , , ; ; ; 4 > , ; ; ; * , ; * 1 1 , , , * @ , @ ; , 4 , , 1 , @ ; ; 1 6 , 1 @ @ 5 ; , , > , 1 1 ; 4 s , , , , , 5 1 ; 4 , , 5 ; , s l 5 * s 9 5 5 5 s s 4 8 k r 8 t 8 f k s h N N s r x h k n } B t p !.bX[.sX[.m.W.b.m.{.$XiX=X1XR.U k Z N _ / ' V b X.J k d V L N v h m P 8 f 8 V C k r s f B s h i , l f t m T 7 j _ i i n V P b N P A v N n l k h V N V ' W K A V U ' j j &.XXsX$X>XN.`.uX-X$XQ.[.6XQ.L.t.t.t.a.t.$.5.x.c.=.u.p.q.S.4.3.s.3.1.G.V.t.k.t.p.p.s.-.t.A.m.N.C.^.$X:X$.V ) P Y L ` H r.1X$XE.^.C.g.d.<.t.).j.p.m.d./.N.3.u.u.u.k.t.t.z.-.5.1.5.x.s.4.4.a.Z.m.p.m.C.$X#Xm.*X7X/.|.*X=XlXvXJ.n d P J ( A N N V P V C b C V V k S f k k s b v A V s 8 V k s 9 t s r n h i 8 5 B h N s f j 5 r s s S k b E V k V V m Z k S V L K A k m h J.wX$XsX$X=XQ.a.B.N.%XE.;X=X7X'.v k N c l ^ J p n k n i h k n 4 s f k 8 k k j > e r 5 8 5 , 1 1 , j 8 5 5 f 8 1 5 i s 5 , 5 5 5 ; ; 6 4 ; 1 2 ; 4 d = * s , > , , 5 5 , , * 4 ; - e @ = ; , 5 ; > , 5 * 5 1 , 1 * 9 , ; 5 ; 6 * ; ; ; , , # ; ; 3 $ ; 5 9 , @ . ",
"; @ ; @ o @ o * ; ; $ ; , = ; ; * 5 @ , ; @ ; > ; , 5 > ; ; 1 * , 2 , , ; 1 5 , ; , 5 > ; * 5 * , , 1 , , ; , 6 , , , 5 5 4 , t 8 , 5 , 5 5 5 5 , 6 t 5 4 4 5 6 , 8 8 5 , 1 t f j 7 l w 9 8 4 s s d s N h 8 s S n N b J b z p j.aXaX&XP.$XQ.^.W.7X&X=X=XnXR.m h ) k b V U Z k P V N h v P N k n N C b s f C h h n l k f 7 b A k k k 8 S h 7 t l 4 N N k N N v b k k R h k L ..S s m L Y V n N @.' A m J $.N.fX$XD.P.-X%X&X;XP.Q.{.oX).a.,.t.a.2.1.w.,.1.%.u.k.w.1.y.t.0.%.M.h.Z.h.0.s.a.t.S.g.d.W.P.C.{.Q.MX$.J o.V J U ` U x.|.$X$X/.b.).a.M.A.q.m.T.M.k.d.a.T.t.,.t.a.0.w.s.r.4.1.-.1.3.a.M.C.P././.{.m.$X$XC.|.E.[.P.dXiXqXs.W m b Y V m Z P V V V k v M V N V k s h k k h N k h b s k C h i i f k 8 l b s j 8 h s f l h k h i l k 8 C V h h b h V S P V Y b _ m P K Y V x.7X[.$X~.Q.P.m.m.j..XV.^.=X*XS.m A N l s N ~ h l l 8 s B r h l 8 8 l 8 g 7 9 5 6 5 t 4 j 4 5 , , r r 8 , 4 t ; 5 g t = , t 4 4 8 , 4 5 9 ; , 1 , 5 , , 7 ; ; 1 , 4 0 , 5 8 , y ; * e 5 1 5 5 , ; * w ; , * , ; > , * , , , , * > 1 , > ; ; * 2 ; o @ , 1 > $   ",
"@ @ * ; ; @ @ o @ $ ; , * , , ; * > @ , 6 @ @ 2 * ; 5 o - 6 @ * 1 6 , , ; * ; , ; 5 5 ; ; 5 , ; , 6 4 t , * ; 9 5 ; 9 w 5 4 5 5 9 d 8 * , 1 5 8 w 9 , 5 5 5 , 8 s 6 5 5 5 , 5 , l s 5 1 8 9 8 h f 6 8 s h 5 5 R b k C v k d h l.nXaXN.P.fXQ.P.V.=X&XbX;XnXR.h k k V L L V M h k b K h k b h N r f b Z h 7 s B p b s 8 f h i V B 8 v h k l 8 j 8 v P s 8 f s b b m h s k C b n l _ ~ b V X.V Z R k L ' ' V m OX$XlXiXQ.$X3X$XC.^.P.N.m.N.B.a.q.M.h.,.y.'.p.%.3.R.p.r.k.k.y.q.3.k.a.1.x.N.C.M.t.k.m.;X[.m.!.eX2.I L / } V T V c.eXm.iX=XV.Z.a.).k.k.V.m.g.s.1.,.m.a.t.r.0.u.&.%.u.B.u.4.E.a.q.I.:Xd.[.P.;X[.^.$XE.~.$XiX$XbXR.{ M v L ` C k N k v V V V B b V b 8 l k n N h h k N h s B n s f s h b f 8 8 k n s s B s h 9 s n h k k s n s k n k B s s V h v U U V h b V b L U i.fX3XP.E.^.j.-X#XN.L.m.&XC.!.R.m k f C h 8 s k c f 8 l g n s d r g 4 6 8 s 7 8 8 5 w t 4 8 , w r 8 5 5 7 , 4 , , 1 , 4 5 * ; s f 7 5 , , 9 5 ; 6 , , w , ; , , , , 1 5 5 w * t w , 6 1 5 ; ; 5 5 ; ; ; * , , 1 ; * 1 , ; , 4 , , ; * @ 5 , 5 ; ; @ ; ; @ 2 ;   ",
"; ; ; > ; ; ; @ ; $ o * ; ; * ; , @ @ , ; @ @ @ , , ; * ; , , 1 ; , , ; 3 , @ ; , , * ; , t ; 1 , , , , 5 , 1 , 6 , 4 8 , , 5 , 9 5 , 5 e , 4 , 6 5 8 4 , g g 4 8 7 4 t 8 5 , 8 d t 4 d 8 f k s 8 , 5 f S S 7 C m h m J F z i z.vXC.^.*XE.P.P.%X*XN.&X6X=XR.V V V V V Z V A B h k V Z C C B b i f h h h h s h N n r s l V h n f 8 n P h s 7 h B b i f r f k n N S h h h m b k h V V J V ^ T _ h m ` L b B i J z.7X9XaXsXC.Q.P.{.;X;X7XE.m.2Xp.t.a.t.d.r.a.a.s.0.u.u.a.k.r.u.w.4.3.1.t.d.f.p.B.G.a.wX[.j.!..X-.U @.K ' ^ ` m 5.BX$X~.;X#Xm.d.t.p._.!.F.k.t.p.s.s.a.x.y.r.i.u.%.u.s.1.5.-XE.p.P.~.C.P.-XmX].C.C.$XQ.[.=XGXL.I V C b V ..k s _ M _ ~ V L f b A n k k h D B s P N s f g h h f j s h h s s n k s h V b 7 k s 7 S s 8 j k k l f s B s h E v k / P J O.m Z P E P v y.|.}.=Xm.P.{.l.P.C.P.>XQ.D.|.R.m i k b K N s k i r f 7 4 7 s s k j 8 5 j 8 8 6 6 5 t , 8 6 5 8 5 5 , 7 8 8 7 4 t * , 7 5 ; ; 8 i 7 y 1 , 6 5 , , * , 5 ; 1 5 5 d * * > 0 , ; = 4 t ; * 5 1 , , , , $ ; 5 ; * 6 , , , , , 5 , 6 , @ @ ; , , 5 * ; , > ; * * @   ",
"@ @ o > ; @ @ $ $ ; ; * > $ @ * * @ o ; > ; , ; ; , > , ; ; 8 ; @ ; 6 ; @ , , * > ; ; > , 5 , > 1 , > , 8 , , @ @ , 8 ; , , 5 5 5 , 4 5 5 , 5 5 4 = 5 8 4 5 s r 5 5 6 j s 8 4 d r 4 s s f f j 8 s r j n 8 c m L V v m L C l i i.dXaXaX[.Z.;X-XQ.C.Q.&X6XqXT.U V B L N K m A h P P m m f b V b 8 R n s s A s s g g s k k h 8 k 5 4 f s n k b n N k i N v k n k s k k b V V f h Y J h m U J v N ( ^ J L V / P i J -.U.=XsXE.[.-X^.$X=X[.=XV.W.m.W.t.q.I.u.3.j.h.1.3.4.3.S.4.0.u.0.4.k.C.1.3.t.M.Z.d.W./.[.&X%X3.m ) L V >.;.m 2.4X=X~.V.m.j.Z.Z.M.d.0.N.f.3.b.d.0.&.%.q.c.1.y.h.u.u.B.3.(.;Xm.;X;X%Xh.{.6XN.I.N.$X=XpX^.u.| U A h b V A N A V v k V b U N V s h K V k s 8 i M B t t 8 h i B s n n 7 8 l k f 7 f C h s f n i s l 8 4 N B s k s s k V v C N R C i ' J Y m P P v x.mX&XP.iXiX/.y.t.C.m.!.N.$XnXx.m Y V b h Z h m P N k l f r s s f 7 g 8 j i 8 6 1 5 l 5 4 5 w 8 4 5 5 6 5 8 4 5 6 6 5 4 6 > , , , , 4 6 5 , ; , , 4 8 1 , , , 5 , * * , , , 2 , , ; 5 6 ; , , , , , > ; 0 1 1 , ; 6 * , 6 5 * , ; > ; 2 ; @ , * * , > @ * ; 3   ",
"* @ @ @ @ @ ; @ * ; > > > $ ; ; * > $ ; ; ; , ; ; , > , 4 1 * * * ; @ > * , * 2 ; > , , 1 , , * * y 5 5 4 5 0 ; > w s @ 6 , * 1 , 1 8 5 * 5 8 8 5 4 * 5 g 4 , 6 w 5 5 i s 8 d t 5 r d 7 i 5 f s f F 4 s 8 s V A V V P m C l h Y.mX=X7X%XC.-X~.Q.-X&X$X[.vXBXU k Z L m V A N V Y m m V h i k k s N n i s h s B 7 4 k 8 s k k F j 4 8 i i i b b k 8 f k Z V s l k s N h P N f s Y / m i U >.V V Y V b U J } / V v m $.z.aX-X6X=XaX[.Q.&X7X[.$XQ.!.t.p.m.k.a.a.I.p.0.r.S.s.a.0.c.4.0.a.Z.u.3.0.t.d.(.C.E.[.$XqX0.m ~  .U U ] m i.fX#X[.~.d.Z.t.t.k.0.3.c.k.a.V.d.4.7.4.0.3.g.j.C.g.3.m.-Xd.m.^.Q.C.^.E.m.$X=X{.P.=XaXeX3.J N ^ b v M m k b P m b V h m / h h C v P V l i h h h h 8 8 n C s n 8 k s f f i 7 i s r N k s f k i i t j r i h l 5 g h A ) n h m v A A Z L J Z V m h K.LX$X=X[.E.N.h.m.!.[.j.P.=XnXr.J @.V b n N ~ h v N h s s j 8 s s s d 5 8 f s , , r r r 5 4 5 t , 5 j t , 5 t s , 5 5 , = ; 4 5 6 , 1 6 1 5 , e 0 4 t ; , , 5 , ; 5 w 0 , ; , ; 2 , , 5 1 6 , 6 6 , * * 4 ; * , , 1 * ; , , ; o $ ; ; * ; ; @ ; > 1 , @ > 2 ;   ",
"$ @ ; ; > * o @ ; @ @ @ o @ * ; + o @ $ ; , ; ; > , $ , , * ; @ > ; , 5 , ; ; e ; , , , ; ; 5 1 , , 5 , ; , , 1 * , , @ 2 5 9 , 1 * 5 , 1 6 , 5 4 8 , 5 8 w 6 5 w r 5 9 5 5 4 r 8 t 5 8 5 s 8 s s i s 8 f k k s h k P J p l J .XzX=X;X^.^.-XQ.BXE.*XiX=X=X_.J Z k K ^ V S V m b s ) S f j l s B k s k 8 8 s h b A f 4 j v h k l s B f s 8 h v t 8 l 8 b h r f s k C i k k V P m h A b n B L V m A m L T V n ( ` V C R 5.|.aX$X=X[..XQ.$X&X3X[.~.C.B.g.P.a.M.t.T.).m.a.g.p.q.y.0.t.I.f.2.t.k.m.n.P.^.{.E.[.eX%.` Y o.;.L L I u.eX$X;X~.b.!.Z.0.u.s.s.s.A.g.p.t.0.B.I.).i.0.d.B.m.m.V.7Xj.P.E.V.*XE.%X/.$X3XlXaXP.Y.$.h h P ' V V L N N k h P L L V A L l h B N P N s n b k f f V C k C d s k 8 h b G r 8 s k s 8 s h l s i k s A k k s k n s 7 4 n h B / h k C ~ V m X.m V v z.>X$X;XC.d.W.%XB.B.E.^.^.~.dXR.v C k s b 5 B k h s r s i 5 f f , t t 8 8 , j l 5 s d 4 j 4 7 t , w 8 r 5 * , 6 1 ; 5 , , 5 , 4 , , , 6 * ; , 5 5 , , 6 * 8 5 @ > 4 = > ; 4 ; * ; * , * 5 1 ; , , t 8 , 6 $ @ 9 t ; ; ; @ @ > , 6 4 , 1 @ @ @ > > $ ; @ @ , $ . ",
"; $ @ ; ; @ $ ; ; ; @ ; @ * ; 1 ; @ @ ; , * , , @ , ; * ; ; > ; , ; , , , ; 2 5 , 5 1 ; , , , * , , , 5 5 , , ; 5 , 4 @ 1 , 6 1 1 6 6 t , ; , w 4 , , 5 5 4 8 4 , t 5 s 8 z , 4 s 4 e 5 8 9 4 5 8 f B s n n s f k N l V P d v !.sX=X$XuX$Xm.C.*XP.;X6X=XaX_.V B s V ^ v C P Z C f k k s s b k i s B C 8 t l h b A i s k s k f 8 l k s g s k b 4 l d 8 B s l s s k h s s f m V i s A m s b m K P v h Y ' Z A M ^ / n N M { !.wX{.Q.Q.m.{.].&X&X=X7X[.W.{.E.%XC.d.0.d.a.p.t.t.a.3.f.`.C.k.t.t.d.t.C./.-X#XqXXX$.W T J Y / L W x._.D.~.C.q.D.Z.m.1.4.a.t.t.p.p.A.I.d.t.p.m.k.E.P.Q.qX^.}.P.W.%XP.E.aX[.=X3XaX=XNXr.U h F L Z X.( b N N k S A m k N m s h D s v v s l 8 C m i 8 k h V k 7 5 h n k h i h s j k f s r f k m s f f 8 i h h h s h l s f f s j m V N k v ~ V k n V m K.eX^.=XfX&XQ.N.L.N.~.C.*X#XwXR.m C C b N r 8 s b n l l s s l s 7 4 5 s k 5 5 f 8 5 , , 8 8 4 4 8 5 5 5 t ; , 5 5 1 , , 5 d 4 5 4 6 , * , , 4 * 1 5 , 5 , 4 5 , , 5 w * ; 4 5 1 , 6 5 = @ 6 , @ > 6 , , ; 2 ; * ; ; e ; 2 1 * , , 1 * 1 ; , * ; o @ 3 1 * ; ;   ",
"$ @ o @ * @ o @ O ; @ ; @ @ , , , * , ; $ ; , * o ; 1 ; 5 * > 1 ; , ; ; ; , * ; @ 5 ; = , , , * ; , 5 , > 5 , 5 , , 6 t , , 6 , 5 7 6 , 6 6 1 ; , 5 , 5 4 4 0 8 4 5 t r s f 4 8 ; 5 5 , d t 8 8 t s l s n v b k n n V B V i m Y.=X$X~.[.Q.^.fX;XP.{.&XpX3X>XW N K C m ^ U m f x S P N N k k n k h i 5 b l 9 8 b k s x k k h s r d t f h B n 8 s f l 9 j i i f l B s s C h s k b b V b s m v m V V V N V m J m m V Y v V m m 7.Y.7XpXpXQ.%X[.$X*XP.#X$X^.~.$X,Xp.m.<Xm.a.j.m.V.d.d.a.Z.k.d.t._.d.C.m.I.E.$X,X4.b P U E N ^ J 7.!.~.^.d.W.Q.V.j.d.C.j.S.a.B.C.N.B.r.t.a.!.N.D.;X-X-XC.U.Q.E.P.*X^.vX;XuXsXqXz.J h k V ' Z V k ..L s s C b k b A A s n i N k s k k k s N h k i f i n s N k h n 7 k f 8 f i k n 7 f h s n v l d 4 l B k f k m P N s 4 k k s k V k V L Y O.V A v c.XXP.$X6XP.Q.a.j.!.N.C.E.6X;Xc.m v P h V h C k n C i f i B k s G d s f j 6 , 8 d , t 9 8 8 5 5 8 5 1 , t e 4 t 8 6 6 8 5 ; , 2 5 t 5 * , 6 6 1 1 , , 4 1 5 t , * 5 1 ; 1 5 4 , , 1 5 , , , 5 , ; , , * 1 @ ; ; @ , , @ 2 , , , > @ @ > ; , , ; 1 ; @ @ ; 1 > . ",
"@ @ o @ @ o @ > o @ > @ @ > ; , 1 5 ; @ > > * > * @ ; 5 1 @ ; , ; ; ; @ @ , 6 1 * , ; , 6 , 5 6 5 , 1 * , , 5 , * t * 1 ; , 5 , 8 7 4 , 4 , 0 1 , 4 5 5 8 6 , t , 7 l 8 , 5 f d 4 w 4 5 d w 4 r l 8 8 s s h C s k k m v h d V XXdXC.-X$X[.Q.Q.d./.P.&X&X-XMXW v k L / ^ / v f C s V b m s k B l s s s s 8 7 d h b h k h 8 s D f 7 7 8 s b h 9 s j i s k , n A i 8 f B A v s f N A h n V _ P s V L L n h ) N Y V L ' J ' P V m I h.vXsX6X7X{.{.Q.N.^.*XE.^.wXN.L.I.C.j.d.!.*X*XP.P.a.p.d.0.a.W.~.m.E.U.&XE.qX7.h C [ J L ' K i.mX=XP.j.1X#XE.B.P.!.j.a./.N.y.L.d.N..XE.E.C.^.^.~.%XP. X-XiX~.^.[.aX=X6XY.-.h s t C N J V P K V V V s k k m V b b h n C b b n l s k b b V N s s f f 7 B n n F 8 V h 4 r h h f 8 l h s f k 8 4 j s 7 s f s k S s l f h C s s N m v C V V v V V c.z.P.7X^.|.C.|.P.L.a.j.{.aXE.x.m L Z x k V m k h k n l s h A 8 8 s 8 f r t 4 5 4 8 4 4 9 5 t , 5 4 5 8 , 5 4 t r 5 5 s 4 0 1 , ; , 5 8 5 , 5 , * 2 5 5 1 = 5 w 5 1 , 5 9 5 6 * 4 , ; , * , , , 5 , * t * @ 2 ; ; ; , ; @ , , , > @ @ ; > 1 , * 5 , ; ; @ * * . ",
"@ ; ; o O ; * , ; @ ; ; $ , ; ; * 2 @ , 2 ; @ , 2 8 @ , , 3 * , , @ , 1 ; * , 6 , * * , 0 , * 4 1 1 1 1 , , , , 4 , 8 > , , 4 5 1 , f 6 5 5 6 5 , 5 5 ; d w 5 , 5 8 t 5 5 9 8 4 , 8 8 r 8 5 4 , s s s f 7 j h s C _ D b n z m I.iX^.=X;X~.a.k.d.[.%XiX=X9X_.v N h V U k k b V ..m s h b A C n 4 r s f s f s v s r B k k s r r f 8 i i f 8 f l l 8 s i s s f 7 s s f f N P s s b V m C N N f k ) V m P m Y k P Y J U N  .[ / N N m $.y.[.nX6XN.E.^.}.E.P.~.6XP.;X$XD.uXU._.W.^.-XQ.W.F.C.a.P.<Xd.N.:X|.^.=XmXr.J E >.{ m L m 7.,X=XQ.{.%X~.F.P.7XQ.p.`.NXj.P.qXE.P.fX^.Q.*X[.~.P.wXqX Xd.$XuX#X-XMXR.2.J b P P m V V ~ n Z K p V V V b N V A i h A k C k b k 8 8 s s 7 f f k C f r f s 0 4 8 j f 7 l 8 f s 7 7 j 7 f s 5 f N A k g 7 8 s s l s h N C v n m A b b m m V Z L i 8.eX=X^.Q.W.m.U.I.t.d.!.C.~.-Xx.p h l S b L L b s s h s s 7 8 f h s j 8 4 r 8 8 5 s s 5 9 8 f 5 5 d 5 8 r 4 4 5 5 5 4 4 8 , 5 t , ; 5 5 d 1 9 , , 6 w 6 1 , 1 ; ; * @ 5 , , > * 6 1 , ; * 5 5 4 6 , * 6 , , , * @ ; > 6 ; , ; > ; , , > 1 * 1 ; * ; , * ; ; 2   ",
"; * ; > $ @ ; ; ; ; ; ; ; $ ; * > @ @ 2 * @ @ ; = , $ , , > * 1 , , , , ; > , * 5 4 1 , , 5 5 , 5 , ; 5 5 , 1 4 4 t t @ 1 , w , ; e 5 7 8 4 4 5 5 6 5 5 * 5 , 6 5 8 8 5 5 5 7 j w 5 w r 8 8 s g s f N s g f k k v h f h L z p B.4X=X=X].|.a.d.W.&X[.E.=XnX_.m k k P L k l n V J V B V b k h B s f d h s k h S 9 5 l b f l l 8 r N s f F s 8 h h k C b j l 7 8 P C i 4 k k s l s N _ h i f f v V V V J m V n h Y L L P / J J V Z A C J { oXNX[.=X$X;XV.7X*XP.^.E.N.Q.iXP.L.W.d./.;X&X#XQ.P.E.N.I.E.m.*XQ.=XdX2.m ) L ;.} ) m r.^.;X*Xj.-X$Xj.C.=X3Xg.I.Q.!.*X;X/.E.E.$X;XV.P.!.E.=XE.$XU.^.aX$XN.$.J f d n X.U  ./ A k f P N E O.V Y m h V N b N n l 8 h k s f d f s x 5 4 h A C 4 l s > d f 7 s g k 8 j s r g j i 8 r 4 h V h 7 f s g f s g 7 h k v k N A N v V P m L T C h c.qXuXQ.P.C.Q.l.j.a.M.!.a.[.7XR.v s A s N m k h f f i s d 8 5 k h f 8 r r 5 r , i f r , , 5 8 5 5 G 7 5 s 8 5 5 * , d 5 , , 4 5 6 ; 1 , 7 1 , 0 w , * , w ; 1 5 4 1 5 1 8 , , > * 6 1 @ ; , 5 1 , , t , 6 t * , ; ; ; 1 5 ; > , , , 1 ; 5 ; ; 1 1 @ > ; , , ,   ",
"o @ O @ : > o @ * ; @ ; ; ; 1 * @ @ @ ; ; ; > > @ ; ; , @ @ ; , * 5 , * > ; * ; , ; ; @ 5 , , , t 5 , 5 5 ; ; ; ; 5 5 ; , 7 4 ; , 6 , 6 8 5 6 5 5 5 8 5 * g 5 1 4 6 5 4 4 l s 7 8 8 , f t i 4 j s s k 8 B f B m C h h m k z v _.aXaXW.N. X!.;XP.d.Q.~.6XdXY.J v C P V k k k v h k B b n 7 k k h n 7 8 s N s 5 5 8 B B 5 8 B f 4 8 l s 7 s r 5 i h b f r s h C s s B B 4 t j s k k h N l k _ v Y k v V v C A C J m b n ^ J V / Z L P ~ s U 7.h.dXmX=XzXaX~.B.P.Q.~.W.E.E.P.^.%X^.E.j.N.&X*XP.[.wXW.m.qX[.4X[.4.Q A J } { =.;.x.:X$X>XE.Q.^.~.P.{.%XW.j.uX7X=X6XE.%X[.iX[.N.~.^.V.^.iXmXBXR.7.J J k h l j h J m J v k v B N h k h k B n s k v m n k n s f l h S 8 s x l 8 j h h 4 j F k t s n 4 6 B h f d 8 r 5 l s s j 8 n s i 8 k s s 7 f s 8 s n h C s s m L V P N N m N h ;.qX#X^.~.C.j.y.t.N.P.I./.;X;Xx.m N C k C s k C h k B l f 8 d f s g r s s 5 1 w i r 8 5 5 s 8 5 = 5 d 5 t 8 7 6 , ; , t , 5 5 , , y , , 8 > 1 , , 5 5 @ , * 1 5 , , 5 * , , e ; * , 6 5 y , , > @ * 5 ; * ; , t , * * 1 , , ; * 6 , , @ , ; - * 5 @ @ > , * @   ",
"o @ O o ; $ @ @ @ @ : ; o ; , > ; ; 1 @ ; > @ * ; ; , ; ; ; * , 6 , 5 , 1 ; @ 1 5 @ ; * 6 5 5 * 4 6 5 5 , > @ w 1 * , 6 * , , 6 * w 1 5 4 , , , , 8 7 5 5 r 5 * 5 6 t 5 g k h 4 6 d 5 8 7 g 4 5 f l f s k s h N P k P b s u v Y.vXQ.^..Xj.^.zXQ.m.XXN.[.fXOXm V P V Z Z N N h f N k s N S f 7 v S 7 C v s 5 , j k i 8 , 5 i s 7 7 f 7 s s g 8 8 k 7 4 8 s m A 8 5 k h j 8 s h n k f b r h h V C N k C N n m m P k k h U U E C V J U Y n b M J 2.L.}.bXbXE.W. X[.-Xj.B.W.^.=X*XE.,X.X!.{.E.=XdX^.V.*X&X|.%X{.4.J A Y J U { I h.fX].&X^.^.^.=X-Xm.m.mX$XN.E.{.%XP.%X[.~.^.P.!.7X9XfXmX[.4.W n G G A V N V J P C C A X.V b V P k s s 8 s x k b n f r k k s s s B f i h 4 s n s i 8 j s f r 8 i i 5 7 n 7 w t 8 8 l 5 8 h v l 6 5 l k 4 B 8 l s l s s k n 8 l B b L P b m S b h 7.NXE.[.iXN./.'.3.I.~.N.j.=XfXz.T V N n k k s b s 8 B j i B i 8 s s 4 s h , 5 f 5 , y 7 5 s 4 , 5 6 5 4 4 1 7 7 4 , , 0 t , , 5 , , 5 5 5 * 1 2 , 4 5 * 1 5 , , 5 6 , ; 1 , 1 @ @ , 1 1 , , , * , 5 w ; ; ; * 5 6 ; * e , , , * 1 ; ; @ , @ * , 6 > @ ; ; @ ,   ",
"@ ; @ @ @ $ @ $ > ; O > ; ; ; @ ; * , ; ; , @ @ > , 1 * , > @ * , * , @ > * ; > ; * 1 , ; , 6 1 ; , 1 , ; , * ; 0 6 * 5 4 5 5 5 , , 5 , 5 4 6 , 5 5 , , 5 , 4 5 , 5 9 , 6 4 8 s 5 4 s d , s g 8 i 7 s s s S m h h k ~ V k z h XXiXC.^.*XP.-X-XE.j.j.Z.[.fXR.v m m V ~ L h L b 4 i k h 5 s i n m S i f 8 5 5 j f k 8 4 k s 8 f 8 d 9 4 G f 4 f 7 C s d 7 f i h r t k 8 f f 5 j f f f h r f b V s P A s C P V s k Z S v V A b V P T ^ Y X.k V P m J 5.r.Y.XXwX;X^.*XN.eX^.$X~.P.P.[.W.~.a. XiX$XP.N.*X^.^.Q.nX4.h ) ' J L J h i.NX^.Q.W.=X-XL.[.P.j.=XdXa.P.^.m.[.qX~.~.~.^.%XBX_.s.I m N m L C M C E U J m K B k s m N V L L v r l R B f B s B h h n k V M f 8 f s l B 8 8 n f n n 4 j s s f 7 d 8 s i t t 8 s 8 5 i 7 k g 8 9 l n s 8 8 x 5 s B s 5 f k S b k h h v P C k v c.NX~.C.!.E.qX_.j.!.C.j.I.Q.*XoXU A s 8 l f s b V k s n s i 8 8 8 8 8 , 4 r G 7 5 5 , r 5 , 7 4 5 8 8 w s > 4 5 , 6 9 , 1 ; * t , = , , 5 8 1 * ; , , * 5 5 , * * 0 , ; > , 1 > * 5 * , 0 , , ; , , , , @ 0 * + , 1 * ; ; , > @ @ ; 1 > 1 2 * 6 @ $ , , , ; ;   ",
"; @ @ @ ; ; + ; * * # @ ; ; ; O - @ ; 5 , > ; @ , , 1 @ ; ; @ 2 ; * , ; > 1 ; + * d 5 , 1 , 5 * 2 1 , * ; 2 5 , 6 , = 8 5 4 1 ; 1 5 5 ; 8 7 s 5 * , 5 t , 6 t 6 5 6 , ; @ $ 5 , 5 f i d t 4 7 w 6 7 n 4 8 S v s S k h V l B J I.=X^.Q.[.C.P.^.m.~.W.[.$X*Xi.h ! L K h h P K N K A n h 4 s k P v n k 8 f w 7 h s 5 8 9 ( h 9 4 s j 5 6 5 4 9 b v s 8 r s s d t f f n k h h s l k s N b 8 8 C C m h C k h V V C s k A h V O.h n Z P / V U ` X.k f j l k { y.pX;X$X^.&XpXpX[.{.W.P.E.[.[.u.C.$XQ.`.{.P.-X^.=XvX4.V R J :.^ P d W qXsX3X-X=X^.C.%X,X;X~.=X<XQ.!.=XpX*X[.bXsXuX[.y.$.I j q B b W ` J s k A V b B 8 v L N V V b V P f h U L v f 8 C Z V m m H P d 1 f s f f g 8 7 V m k d 6 8 5 f i 8 5 k d , 4 C i 8 4 j G h 7 h h s i 8 r s 8 w t s h s 6 P v s l j h C V V h h 5.dX;X$Xj.1XN.d.!.d.P.N.Q.[.^._.H S g j j 5 f V s f i s f r 5 t l f x e 9 p h s , 5 r 1 5 , 9 d 5 t 4 9 m > * 6 , , 5 5 @ ; 0 4 , , ; ; > 4 , ; ; e 6 4 * , 5 , 2 @ > , , ; ; 5 5 , , ; , , 5 1 * > , , ; , > ; 2 ; ; , ; @ ; ; > 4 4 , * , ; ; @ , , , * * 1   ",
"@ @ @ @ ; $ o $ @ ; @ @ @ , 3 ; * * ; $ @ @ * , > : > 5 , , , > : @ , , > 5 , @ ; @ 3 > , 5 7 5 * ; 5 * 1 5 4 8 t , 4 # ; , 4 6 6 , 8 ; O ; t 8 , ; 5 > > s 7 s t 9 5 , , 5 7 , 1 w 8 h r , t h v v f 7 k h f l s l V k g G T W.$X[.~.%X_.Z.h.>X^.^.P.^.BXs.v k j S V m k s s k Z R s m C B i s f s 8 t s l h h h f C 8 d 8 r k f w f 4 r g t 4 4 f r s s 5 r f s s h i f k k f l v k N l l r l b b h F h V ^ N N N n V S k C m V Z k N m ' U } / m V A h i E } c.c.8.8.x.fXdXsXsXzX=X=XpXsXuX^.^.^.pX}.[.eX&.m C ^ ' V ..H i.9X$X$X[.Q.vXpX6X$XpX=XuX^.=XlXzXmX,XOX=.k D l i V L V k V V m C k N / P f b J J A f i k g r C b n d f f f g r s j S l s 7 l t B h B 5 1 l s 4 t u 5 v h 5 9 s f d 4 5 B f 7 9 7 b s 4 f 5 9 s s 5 s f b i s b C s g S k v k t f V L P S A h m x.fX[.Q.;Xk.j.m.N.{.^.m.C.P.!._.I v B h b f s k x k f d r 5 d f i C 8 4 1 t * 5 d , 6 , 5 5 8 6 5 , , w 1 7 5 ; 1 8 7 4 ; e > 6 1 1 , ; , i , - * 9 4 ; , s 8 = 3 ; 5 5 9 ; , 8 5 * ; 8 ; 5 , > , 6 = , 1 , 5 1 , > > , , 5 > @ @ ; ; , , $ > 5 , * - @ , * > . ",
"@ @ ; ; * $ @ @ $ @ > ; ; * @ @ @ * @ > * ; > , * * ; 5 , , 1 ; ; ; , 1 @ , 5 ; 1 ; * $ * 1 , 1 @ ; 5 , 5 5 , , 5 , , 1 , 1 ; 1 6 5 5 , 1 1 * 5 d @ 5 * , r t 4 8 8 t 5 6 5 5 5 5 4 s s r 9 s r s k n h k s s s i k K h s z h y.wX4XC.E.p.j.d.fX[.E.;X^.BX7.m D h k E b Z ~ k s b k l V f 8 h D 4 5 8 s f f f j l 8 B 5 s h h 8 s t t j 8 s i l l f r f s b s 5 r h s j s k k 7 f s h s h s f f s b h i n N V m b C h N m Y V b A / L N h L ..Y N V L ( L K J m |  .J m J $.y.y.).4X.X|.eX{./.*XeXdX4X7X;XBX{ m _ X.^ L P h c.yX#X$X;X[.*XdX[./.eXwX|.XXXXY.h.t.%.{ J v v V V V Y Y C L k C k h V v V N k ) V S i k G B 8 L m b s 5 B f 4 f k h h h b 8 k s s s n 8 5 8 l s 8 5 4 f k d 8 f j 6 * s f s 8 6 8 s B s s r d 8 s l 8 8 b f f B k 7 n k f N n g h L P k V R i V c.qX^.^.;XP.P.{.U.C.C.j.P.C.<XS.m M x N V h s s B k j s f 4 f j 7 s 5 t 5 5 8 s r t 9 6 4 4 t t * 4 6 8 , 9 6 ; 1 4 5 , , * = 6 5 6 , , , 8 g , @ t 6 * 5 5 8 , ; 9 , 1 , ; 1 * ; 1 1 , , , 1 @ * 5 5 , 1 > , , ; @ ; , 6 ; ; @ - ; @ , ; ; , * > * ; 1 , 1 u o ",
"; $ ; ; $ @ ; ; @ ; ; ; @ ; ; * ; ; ; > * @ > ; ; > ; @ ; 2 * , , , ; ; , * 1 5 = , * , ; > * ; > , , 1 1 , * , , 1 ; 9 , 5 , * * 4 5 f r 5 , , d , > , = 6 4 , 5 5 5 8 5 5 6 j s 4 5 9 8 s r g 4 7 k h f f s l k N v J b j h R.7X^.~.=X%XZ.d.P.[.].=XV.eX5.h V V k S b m V s n h k h N f f 4 i f s 8 S s 7 5 8 8 r 5 5 8 k m d 8 s f 8 8 s h f f t 8 j n h k 5 d n 7 s f s s s d 8 n 8 b h s r f N n s k f k V b N h B h J ~ 8 A P m J L h b B V Z ( V ( J ^ S h U U Z ( V v M } +. .7.7.x.z.N.XXXXoX<X.XMX| J L U :.U ' i 6.MXvX4XBXMXR.z.z.x.8.5.{ { J k h U U V T V V A S b A A b V P C k V V s v P k B s A N k s k v Y v C S i n l s s b h h h V f C t 7 8 k f s f l f 8 8 t w 8 S 4 l r 9 d 8 8 8 8 5 , 4 f j 8 5 f 7 k F t j 5 f s 5 s s k 8 d s h k v D S b b k n J J.BXD.~.V.m.C.N.C.g.a.C.{.m.W.B.J 8 d s V h C j s h h l n s f t * 5 5 r s 4 8 s s 6 , 4 5 , 8 r 5 t , , i , 5 8 7 , 6 9 t ; 5 8 8 5 ; , 5 4 8 4 , 7 * , , ; ; , = 5 ; ; > $ * ; ; , , ; 5 5 1 @ ; * * , * $ ; ; , ; ; > , ; > ; 2 > @ ; @ ; , @ ; 1 , * , * , . ",
"; @ $ ; $ @ ; ; @ @ @ ; ; ; $ @ @ @ @ ; , ; @ ; 5 ; > @ 3 > ; 5 , ; , 1 5 > ; , , = , 5 1 * , , 1 * , , ; t 5 ; , * ; 5 , 4 6 5 5 s d 4 5 1 4 5 5 w , 6 w d 5 5 5 1 4 j 7 5 5 9 8 4 r 5 5 k l 7 d w f v k i 8 k A N h V _ l h _.[.D.%XE.(.E.B.j.P.].&X#X/.7.J P L m N m V N k n s S b h s j f i l s k h s j r 8 f s 6 r 7 s f s 8 k h i d f 8 8 8 r s 5 7 k B s f f s s 8 l i j 8 s s 8 f n n r s V m k s 8 k k k b C n s h C k k P m Z V Z n s M P m Y ^ V A k N / A X.L C P V J h b U h v J W ` V ` -.Q ` U L h m Y J Y P L | 2.$.` { W J J m h V n m A C B f B A v P m v v k C v n m n k m L N h P V b s s k v N k s v V k 8 s s b 7 l n n h A k s s s h s 5 8 k b 8 5 5 j f 8 4 * f r 8 7 i l 4 4 5 r 8 8 4 r s s r 8 f i 4 4 i 8 s r 5 s h f r 7 s k S Z h h n V N N v c.W.C.E.j.[./.N.N.2Xm.I.P.E.W.'.U s t r s k h 8 s s k l 4 h s 4 6 t r r s z , 7 x 5 , d 7 r 8 r 8 5 5 w , w 5 5 8 , 4 8 5 6 8 5 = , , 1 8 5 1 , r 6 8 , , > * , 5 , 1 ; @ 1 ; @ > , w 5 ; , , 4 * * ; > , O O 1 4 , > ; , , 1 * ; ; > * : 2 > > * , ; @ ; , 2 . ",
"@ @ o o O ; $ @ o ; + 1 ; @ ; ; * * ; @ * ; * ; > ; * ; * ; , * , @ ; , ; * ; * ; 1 1 , 5 4 5 , 5 * , , ; , 1 ; ; , + 2 ; * t 4 1 , d * * 5 9 , 1 , ; ; , s f t , , r 5 , t 8 * 6 5 5 d 8 5 d 8 8 5 f v S f 8 n V 4 v V l j V XX=X=XL.t.B.W.j.N.j.Q.C.$XmXR.V h m Y m h P #.h k s k J f i 8 f B s s h h 8 t , h k 7 9 s d 6 5 5 f 4 k s 5 f 4 s g s n w 8 j 8 s 8 4 s g 5 l 8 f j s i r k f n k s i V v k B m h b b m v B k k C h B S A V V A V ~ V s J V N B k P k V V V m v P ' T k X.K P P V L  .` Q U v V M N K / C s V V K v m V T V k b b V ) ~ K A C h A K A n C N m V V V N B b N V m s N P s 8 f v C f 7 k m l s h V f s B k i k s s 8 l s d 7 s k 8 t 5 i s 7 8 5 d s , t w 8 t 5 j n s 5 t 8 5 8 s g r s d r 8 f 8 8 t i f s f 8 f i f 8 f A s h C K Z i P b V m c.|.^.^.a.C.N.W.a.).p.W.E.E.{.'.m k x s s A b k s s k r s l r 5 d 8 5 5 8 5 4 5 5 4 5 7 8 d 5 7 r 8 4 y ; 5 , 6 , 8 s * ; 8 8 , , 6 5 ; - , 5 , 4 1 4 , e 5 5 , 6 ; ; 5 * w , 5 , 1 @ , ; t 5 , * ; ; ; = $ ; , 1 1 2 * 5 ; ; ; * ; > * * $ @ ; , * $ @ 6 > $   ",
"; o @ @ o @ > @ $ 3 @ ; @ @ @ , 5 @ @ 1 @ @ 1 ; @ ; > ; * ; ; * > , , 1 * , 6 > * * 5 1 , 5 6 5 5 , ; , 6 1 5 , , 6 8 @ 1 1 , 5 , * ; 1 ; 5 5 , 5 , 5 * , 8 5 5 5 5 8 8 5 7 s 5 5 d i t f 4 8 l s 4 r h N i l C b 7 f J f 9 v {.$XfX/.m.j.!.m.P.C.Z.[.D..Xx.v i h v V P N s h A k s N g f h l g 5 h B f 7 y 8 l f 8 6 v s , 9 8 j f f f 8 4 j s 4 7 s 5 8 t 8 s j r l w 5 s h f s f l r s 7 i n k B h B i v P N s k V V P 8 k n A j f n m v m b v V V m b B f N V v N A ( L P J U  .h L V m / R 8 / P V V _ V i k V b O.N L Z ..N k B P K A C m J J K v V / m V / B s k m V V P b h f s C P n k _ V 7 j B C v x 7 C M f 8 s C h b s s s l f 8 d 8 4 r f h i 8 5 j j 9 s s 5 7 8 8 d h , 8 8 r 8 r 5 l t 4 s f i 5 8 , s G 9 , j 7 8 f s r s l i h k f v n j s V V m h C k i x.BXP.{.P.p.h.R.0.0.N.!.*X^./.s.^ h l n s k S S 8 s l d 8 s n 8 8 f d f 5 5 r , , g 5 8 7 4 5 , y 6 5 , * r 5 , 5 8 8 ; , 5 5 t ; , , , * 1 * 5 , , , ; , , = , , 1 ; , 1 ; , w , ; ; 5 * 5 1 ; 2 ; @ 1 9 @ , , , ; @ , ; ; 1 6 , * ; ; , @ ; ; ; @ ; ; * * @ . ",
"- o @ ; @ @ ; ; $ ; @ ; @ @ ; ; ; @ > @ ; ; ; > , ; ; ; * , > * ; , * ; ; , t * 1 5 1 @ @ ; ; * * 6 ; , ; ; 1 8 5 , , , t 1 ; 5 6 1 , 5 5 5 1 , 5 5 8 5 t 4 , 8 8 9 7 7 t 8 4 f s l 8 1 , s f , 9 s f k f k k f i k S V S d N I.-XC.{.m.t.I.N.p.C.(.[.D.XXc.v P n h K m A V m h b s n h s k 7 r s k f 4 5 B f 4 9 t 1 h h 8 s 8 7 8 5 r f s s l 8 r s , 7 d 8 f 8 8 i 4 d f k h s l j r l 5 s B 8 s s F n k S h B C S m m S h V N k m A m N b n 8 K Y s n S V s P R V P P k N V P U C ( v V ' P h Z N N K P b h m m N ! b k k m Y ) b P h V P ~ N h Y V L / k m / h h k m P h b V v f V P h s k m h C n h k k f 8 s s r f d r i C 8 f s 7 d j 8 7 s f s i r t f s 5 5 s i d s 5 s i s 8 r l 8 8 4 8 r , 6 5 G s s 4 8 8 t , 5 F i 4 8 h k 8 9 f b v N i j 8 B N s V b h s J R.<XV.E.C.j.N.y.t.Z.Q.E.P.C.eXR.m s s h P s 5 j f k s s 8 i r d 7 8 t d d r 5 , w w 4 r 5 , 8 * 1 5 4 4 d w 4 5 8 * > 1 , ; 1 ; , d , , t w 1 6 , , > ; * , 5 t 5 5 * , 1 ; ; = , * > w ; ; , @ ; , * , e 4 8 * , > > , @ @ ; , , > @ ; > 1 > ; ; * @ ; * > >   ",
"* @ o 3 > @ @ ; * @ @ ; ; , ; ; @ * , @ ; > @ , 1 @ ; $ * 6 , ; ; , , ; , , 4 ; , 5 1 @ ; @ @ @ 1 , ; ; * ; ; 5 5 , , 8 5 * > ; , , , r 9 , 5 , 5 d 5 9 5 5 4 4 5 5 8 5 5 1 , s 7 4 7 - , h k 9 5 f l d 5 k k h s B r V L 9 v  XzX#Xm.$X%XP.k.P./.V.$X#XBXc.p N m K m v N V V 8 s f s k n 8 8 8 s h s s 8 8 s 8 w 5 t x k B s 4 d 5 8 r s f 7 f s , 8 d 4 8 8 8 s 8 d r 8 8 j j f 8 5 k l s j s s s l r k N C 8 s A 8 m b B N k h _ b V k B l 4 f k A n h V V n _ m C P k S f k k v P m V O.^ V V / U ` ' V J h [ J P v P n V U J Y P A _ k h R v C A P N s h k C n C L m h 8 k A b N L k k C s P _ s h C k k h B l s d f s 8 D s s f 5 s f 8 j 8 s d k l 7 f s 7 5 8 h k 8 7 g 8 7 f f h 8 s 4 , g t 8 t r 4 7 d 5 s r 6 9 4 f h 7 r B B 7 8 g i h P d f f B s l V C k i m u./.E.^.#XQ.h.a.Y./.E.a.W.Q.^.T.v f B h M s t s s s l l s f 9 8 5 5 4 t t 8 8 , 5 5 5 , w 5 , , , d 7 4 4 , t d 8 > ; , 9 , 5 * 6 1 5 , 5 ; 5 * ; , 1 ; 5 , ; , ; ; w 5 > $ ; ; * , , 5 , * 1 , , , 0 = , , 5 1 @ @ @ , ; ; * @ ; ; @ ; ; ; , @ ; > , 2 1 3 2   ",
"; @ $ $ @ @ ; * $ $ ; o * , @ @ @ * * $ $ , 6 > o ; 1 ; * 1 ; ; @ ; * 5 5 * ; 5 , 5 ; , 1 ; 6 * * 1 ; , , > , 1 * , , , 5 1 > , , > , , 1 , 5 , 4 1 , ; , 1 w 8 , 5 5 8 9 5 5 4 7 8 5 5 8 t t s f 5 t j i 4 g k 8 d l ' K s v !.$X;XP.Q.[.C.m.M.Z.m.#X^.,Xc.b k / m h L V k 8 g 8 8 V h S f 8 r s s s B n 4 4 r d 5 f 6 , S 8 4 g 5 s 4 8 s s 9 d 8 f , t d 8 r 5 , f 5 9 h s 5 t f h r t t 8 s k 4 5 b b k s k k k h h v i k V C A h h k s k b P i k P R h s m V s s b V b P C b b V ( m Z v ~ V V V m ~ V P } ` L k J [ v M P b v m V C v V k k N V Z h P N k h S h V V m N k k h C h N v k P V s k R h 8 t s k k f h 8 7 8 j l r 8 7 N B r 8 j s 4 s n i i d , , g w 8 8 8 8 , t 8 8 4 8 s B 8 6 5 , 6 t , , , l f 5 5 7 l 8 d s 8 h f 8 w j k h V i s k s k h l n k l v ;.>X^.[.^.r.p.m.P.k.r.k.W.g.k.MXW i j s f n s f s 5 8 s s r 5 t t d s 5 9 1 t 8 4 1 5 g 8 @ 1 6 t 8 4 ; , * 5 7 4 5 , t ; * 6 9 , ; , ; @ = , ; , 8 5 , , , 5 * , 5 ; ; 2 , 5 4 * * 5 ; 1 @ @ > * , 2 * ; @ o , 1 @ ; ; > ; ; @ ; ; @ @ * * 6 1 , ; ; ; @ > :   ",
"; ; $ @ @ ; * @ ; ; @ @ ; > ; ; ; , ; @ * , , * ; > 1 ; ; ; ; * , ; ; 6 , 1 2 * 4 ; ; , * ; ; 1 1 , 5 ; , * * 1 , , , , 1 @ 1 5 5 * , , 1 ; ; j s , w r 9 , , l 8 5 5 4 8 6 5 t 5 8 s 5 5 9 s f r 5 8 d 5 8 f f l d l h C G v MX=XiX%X^.C.C.V.m.m.N.^.^.%Xu.M Z V h P P m B f s 8 s P h 7 s 7 8 f f s h s f 5 5 7 l r , 9 s 7 8 4 t 5 g r 5 4 5 l f k , 5 8 8 , , d f 5 4 s f , ; j v t 7 l s s s f 8 C b s s S k h b f B s k h N s n h C k k Z v b P k N k n N V _ k s C V v V A N M ) V A h A P P V V n _ m L V V m v Y P P h s N N P s A ~ N s B v N k h n V ( k h m v v N f c s k k D B s b h r f s 8 l 5 f k s 8 s S n d 8 i f 5 f n h f 5 t 8 s s 7 j 8 8 5 4 6 8 , 7 g t 5 5 8 d d 4 7 k k 7 d 5 1 4 d 8 , t 8 , , s 8 4 t s 9 s f , g i k s n h N D 8 k B n s V A h 8.eX$XE.N.a.I.M.a.t.a.j.C.a.j.XX` s f s r b f h s t f s 8 f d 8 , 8 5 8 5 * 4 g 4 ; 6 t 6 6 1 5 8 8 6 ; 1 ; , d 5 6 * * > * 6 7 5 1 @ 1 ; 7 5 , ; 5 , , ; * 6 6 5 , ; , 1 * , 6 6 , > ; , ; @ ; , , @ ; > > ; , * @ > ; , @ @ ; ; ; ; ; > * * ; , > ; @ - , *   ",
"* @ @ @ @ $ @ o @ ; @ # @ * ; @ @ * * 1 , ; @ ; 5 , @ ; ; 1 , , 1 ; @ , 5 ; @ ; , , ; ; ; , 1 5 , > @ , w , , , 5 5 , , , 5 6 ; t 4 8 5 5 ; ; t s , 4 8 t > * r s 4 8 4 t 6 5 8 = 8 7 1 9 s s 8 8 j f 8 5 f C v k f i p D F v Y.-X^.t.{.$X%X/.I.m.C.P.^.fX7.i N b k A h v n f N s k 8 b k 4 B l s 5 8 , s s s 5 4 G 5 f i 7 s 7 d 9 4 8 r 5 4 8 s 5 s j 4 5 j t s s 8 s s 4 d j 8 f s B i t s s 8 g f j s C k s f k V s k h i v f 8 n k C h b E h h K 8 N _ N i b P k h h J V h S ~ V s k N P A m K ~ P i h V h h S k k h f N V P i N v V b C n i P K k n s V U K n n S B h l k m h M l k s C n k D k f f n h n s 8 s j f s k s k B r 4 , 8 s 7 r 5 5 g s 4 , 5 j 7 4 5 t 7 8 4 d , 5 8 d 0 4 s 8 , t 9 5 6 5 5 8 7 k 4 r g * 8 t 8 , l k r l k k 8 s n N s k b A N m V N i 8.Y.P.%XC.E.B.{ r.m.'.a.l.!.^.T.W k f r 5 k V N j s 4 z 8 8 f f 7 4 g g s 8 r , , 4 5 , ; 6 4 4 6 , * 6 8 , ; ; 5 t , ; 5 5 5 5 w > 5 , 8 , 9 t , 1 ; 1 ; ; 1 , ; , 6 , 5 o > > * 6 1 ; , t 5 ; > * * ; 1 = * > ; * ; > 6 @ ; ; * * , > ; 4 , ; ; 1 , , , > 3   ",
"@ @ @ @ $ @ O @ @ $ ; @ ; ; @ $ @ @ ; 1 ; @ ; 1 , , , * > ; , , , , @ ; ; @ ; , , , ; ; > ; , , @ @ 2 , * 5 t , 1 t , ; 5 8 9 ; , t , , 5 , ; , y * , 4 9 6 = j d 4 8 8 t 4 , 8 5 5 7 , 7 8 8 8 d s s 7 l k k 8 h C h m k 0 h Y.^.C.Z.I.P.m.j.P.P.[.{.=XBX7.7 s n h C k n V m h s B h j h k b k i 8 g 8 f 8 i t 8 8 7 s s f t s 8 4 9 8 4 5 r s 8 r s l 8 5 i k h i 4 s k 8 5 s s 8 8 r f 8 s B 8 5 4 j 5 s B i s s C h s A v s B n k s k s k S s b M S k m i V Z m V A h M X.n h v V s l Z V b i V Y v v ) P C N C b f s d h V K V k k P N C i C L J s f S s A v i x i h f s v P s R s i k h s 5 s r d r h A f 5 l h 4 5 k k s s i 8 t 5 8 B j 8 t 5 8 8 d 5 w l s j 4 7 8 s 8 r 6 6 , 4 t , 4 8 y 8 8 5 d , 8 d 5 i f f 5 4 5 5 6 , f s f s s l r s s b N h k h h E  .S 8 ;.eX#XP.a.m.a.-.2.E.[.C.I.Q.~.I.W m _ s f f s s 8 8 8 9 8 f 8 i r r 8 7 8 s 5 , ; d t , 1 5 5 d 8 ; ; 9 i t 6 @ , 6 ; 6 , 8 , ; ; ; , , 4 , 5 w , ; 2 6 e > , , > ; , , , @ @ * , 1 5 * 1 , 4 = ; > 2 , ; e , * ; , * * ; @ @ ; ; 1 , * > 1 > @ o , , ; @ @ 6   ",
"@ @ @ o @ $ o @ @ @ ; @ ; @ @ $ ; @ ; ; ; @ ; @ * ; 5 * > , , ; @ ; , ; ; 1 , * , , , ; ; , , , , * ; * 6 * * , * ; , 5 , ; , , @ 4 , * ; 1 , , 6 , t , t t = 4 t 6 7 , 5 4 , 5 z f t s 8 4 8 s s i s s l 8 l s k n V h B 8 N XX-X#X:Xa.j.N.j.j.W.j.[.$XmX7.h S s k b s k Z V 8 t r h s s s s i 8 8 t l i s s t 6 5 s 5 8 , 4 r 5 8 r 8 5 8 r r 8 5 5 5 5 i i k i 8 4 8 8 B s 7 5 r 5 e t 5 k f i s s 8 s r r s n k s s f B i n h n h F s m P s f k s N h k n x h b A h h b s f s v C V b h h P h m P V h C C h P V k h S k P m h A s k s h E n n n i k k k f s n h C s 8 n i i F s k s h k s d 8 h f 5 t i i h l 7 l s 8 r 7 s s 8 t 5 g f 4 f d r r 7 s s 5 , , t f 8 t 7 f 5 t , w , d s 4 9 d * r g 8 s s 8 t ; 5 t 8 s s 8 8 8 n 7 5 5 d 4 r 8 5 b N k k h n k h V s m u.fX=XV.d.m.N.c.%.m.C.d.N.N.M.:X%.5 B k b f s s h s s x s k k 4 8 f 8 , 5 4 t t 5 5 5 6 8 ; , s t 5 8 8 , ; t 5 5 4 5 6 0 t 5 ; @ 5 t , 5 , * 5 4 ; , ; ; 0 * > 3 , , * @ ; 1 , > ; , ; , , , @ > ; 1 , , 5 ; ; ; ; @ ; ; ; 1 ; $ @ ; 5 1 o - > ; * @ @ @ @ ;   ",
"$ @ @ $ O @ @ ; $ @ ; @ ; * ; ; * @ @ @ @ , , ; > @ ; @ , , ; $ ; e , @ > 5 , , 1 4 , * @ 8 6 ; 1 5 @ , 9 > + 6 , , 4 * , 1 1 , , ; t > ; 6 5 , 5 ; , ; 5 4 5 , * 5 s 4 5 5 4 5 5 8 5 h h d 5 s i s s s s f l s s 8 h i C g U XX$X~.P.g.S.).C.a.N.k.-XE.,X5.h k s N N h k h N f 5 7 k k C f 8 t 4 5 7 7 i s 4 t , 4 f ; 1 6 t 4 8 5 d 9 , 4 5 4 7 r 0 1 f t s 5 7 j t w 8 i n 5 t t 5 , 7 G i s f s s 7 f 8 5 k N f l s B 8 i A h h A s 8 ~ V i n s k b B s S 8 s n k N b n k f l B C P n c B v M n n P B , B L h h B v m P A h A n s s s h v b 8 f f N m s l 8 s P P k l B s i s 7 i r k h l 8 l B s 8 G d g 8 i s s s f s d 8 s d 5 s h s 8 8 4 9 s f B i 5 d 4 4 7 5 5 8 l , t , 6 5 f f s 4 9 5 5 4 s s f 6 , , d 8 f s s f f C s s g 6 4 s l s r h s i N v k f 8 i l h 7.*X#XP./.W.E.k.4.l.L.!.I.4.Y.eX$.9 , N m x 7 f h f s s 8 h x 4 8 5 8 5 t 5 f 7 5 , 5 , , 5 5 , s l 4 , > , , 5 t * t 5 , , , 1 1 5 y ; ; > , 4 1 > * 1 > t , * * , , 1 ; 6 , ; 1 ; * ; ; ; 1 ; , , ; ; , $ * , * $ + , , ; , , > @ @ 1 * @ ; ; ; ; @ @ @ > >   ",
"@ @ o $ ; @ @ $ o o ; @ @ * @ * , @ $ $ @ ; * @ 2 1 ; > 5 > * * , * > , 5 * ; 1 , ; , > @ , , 2 , , 1 , 1 ; , , , 5 9 ; , 5 , 1 8 , 1 5 6 w , * > 4 , > , , * 6 6 4 r 6 , w 5 s 8 r w 8 s 5 5 f 4 f r 5 8 F s k l x n N k 8 v _.=X=X$X!.A.a.a.!.N.d.C.C.,Xu.i f k N b k h s s s r k i r f f t d 8 8 s s s f 4 t 4 r f 5 5 4 g 9 7 d 5 5 t 5 4 8 r j 6 t 7 f s 8 6 g d 5 5 4 8 l r 4 4 5 f 9 5 8 g 7 5 s k r s k 8 8 8 g s s v b k k f s S f 8 k S 8 n k k n k h h r k n h b k s B f h v k f B k N k _ P b N P b k i d k v s 8 k v k k S n s b k k j j C k s 8 k f b s 8 f s s i k f n r f k k k f s f j s 8 5 4 i f s 8 r 4 8 9 9 t , f 7 7 d 8 1 s i 5 7 8 s l g 8 d r 4 5 5 d 5 5 8 4 4 5 d 4 4 g 0 s k i s 8 , g 7 , d s r 8 8 7 8 , t f r s s 8 s n h l k s s S f h S h ;.4XQ.~.N.t.a.N.h.B.a.Y.k.a.m..XI 8 t r v f k f 7 8 l 8 8 f 7 d r 5 5 t 8 w 5 8 5 * 1 8 5 1 1 4 = , * 1 6 8 , 9 5 * 5 8 5 , , 8 t , , e , ; , , , 5 1 , 6 , , ; ; , 1 1 , 5 4 @ * 1 1 @ , * > ; , , ; * * > 1 , , > ; , , * * 1 , * ; > , ; * * , > @ * 1 ; 1 . ",
"@ @ . @ ; ; % O $ @ 2 $ o O ; @ 1 1 ; $ @ , 5 @ > * @ ; ; , ; , , ; @ , 5 o $ @ ; ; 2 @ > 5 , * @ > 1 , , , 5 , 5 t 4 $ * 9 8 , , ; @ 5 8 , 1 1 5 9 6 , w w 5 4 r d 5 6 * 4 j 8 6 , 4 d s 7 l 5 d N k l 5 f b v n s 9 k f d m T.=X[.E.C.~.T.I./.V.m.M.6XeX8.i l f f b h g r S s h h 8 5 s s k r 5 s k 8 5 s f 8 5 g V s B i 7 5 7 5 5 , 4 8 8 s 8 5 8 b 8 i 4 , 6 w 8 f 8 5 d h N 8 s k k 5 g , 5 6 8 k v C k r 5 g r g f m m s , f 8 8 F r t k V C n s r i C P n B j d s V P h f k s f s b v B N k h h J J V f t t w m j 6 5 A s s r s b n h k 8 k s N s l x h b s 8 s l 5 d C N s n g f N s h i l d i i = 8 g r 5 8 r t 4 t t 7 s 9 s t 8 9 6 ; r s 5 , d 8 4 i 8 5 t 8 6 5 i s 8 4 5 1 , 5 t g 5 , s 8 s f r 5 7 k 5 8 5 5 6 5 5 t j h B v v s 8 f C s k h k h m v V k i -.`.C.V.k.4.y.l.`.B.j.m.P.;Xb.{.$.4 9 d k k k 9 5 t w w 5 g 4 s 7 t 5 t 4 5 t 5 t 5 5 , 5 , * t 6 > > , 5 f 5 5 , t , , 5 * 5 s 4 , ; 1 ; , 6 5 1 = 8 ; 4 , 5 , > 5 , , 4 , 6 ; ; , 6 > ; ; , ; , ; > 1 ; @ @ = t ; , 2 , 1 ; = 5 * ; 3 ; @ , 5 ; 3 * @ 5 * ; . ",
"@ @ @ o o @ ; * $ ; ; @ @ ; * ; # @ ; * @ > @ * 5 > o $ @ , 1 , , , ; , ; 1 ; , 5 ; ; , 1 ; @ ; 5 8 , * 1 , , 8 5 , ; 1 , , t 1 ; ; * ; 1 , t 6 , 5 7 ; ; ; * 5 w ; 5 8 7 7 0 5 t 0 , r h i g : 6 f i k d 6 s S V s g k 5 2 v `.;XQ.C.m.j.1.s.I.N.:X#X~.{.5.V k k k f s s s s k F i s s B s 8 5 8 s 8 s 8 r , , d n 7 ; 5 5 7 8 7 r r e ; 8 x ; 1 8 9 6 1 d w , s k 6 , t r 4 5 r s i 5 w 5 n V 8 , t f s k 8 s r k f k h J A 5 6 s N s d 5 k N k s C l i s n r d n B f f l f l 8 r l h v C C k 8 b m N f s s B n h t V n P v s s k s g 5 x k V n k h k n d f n v p i k B 8 f C k 8 5 s k 9 i s f 5 i f 5 , 8 C k 5 , s i h i d s s 1 1 5 5 t t w , 7 5 g 0 4 7 8 8 4 i 7 6 5 8 s 8 9 5 5 7 s 5 8 4 5 s 5 5 , , 8 8 7 ; , 8 r 5 8 y 8 5 5 , 7 f s s g s f s r 8 G d h s j 6 ] XXm.N.t.C..Xa.4.y.B.r.N.m.m.<X$.5 G 7 l r 5 5 d s l f 7 s i 4 4 6 s x 8 8 , 9 8 7 , > ; 6 s 8 , : ; 1 5 ; , , , 6 , , 4 @ ; @ * 0 5 * 5 r t ; 2 6 ; 1 ; ; ; 9 4 6 , ; 5 , * $ ; 6 , 5 ; $ 2 ; ; , ; 1 ; 2 ; , ; > ; 0 5 6 ; * 5 @ ; * , ; $ 5 ; ; $ ; ; @ @ . ",
"@ @ @ @ o > ; * ; @ * @ ; $ @ ; * * @ ; ; ; * , 9 , * ; , ; , 1 , * * ; @ 5 * , * , ; * , 1 , > * , , 1 * 2 @ , t ; ; t , * , 1 ; 5 * , 5 5 5 5 ; ; 5 5 , , 6 6 , , , 5 9 5 4 , 5 4 g 4 t 8 5 4 5 8 s 8 j r 4 h N k k m l 9 v Y.6X-XW.N.B.B.B.a.t.g.D.N.BXc.m k P B h B C n s i k s s f f s s j s B 4 s k t 5 5 8 i 8 5 4 6 9 d 6 4 w , 5 4 8 r 5 t 4 i 5 8 w , 8 n f r , 6 5 r l 8 l 6 , t i n C d s s 5 8 8 x d s s j 7 k n , 5 d D 4 f f k k N s i k C f l 7 8 k C h s f h h b S h B n s h f S f N V k s s l h V 8 k k b S n s n h i s S 8 B k s i s k r i f k S l s s s s n s s f 8 l f 8 s B 8 s l 8 5 j f f 6 8 k j G 5 r r 5 r 5 4 5 9 8 5 5 6 8 , 5 t 8 g r 5 r 9 4 8 8 5 5 8 9 5 8 d 5 5 7 5 5 , r t , w t s , 8 8 d 9 5 5 t , 8 x s , s l i s f s l f i n m m B g ` eXE.P.F.k.g.j.h.0.Z.I.j.).T.z.` 5 g s l r f k s 8 8 r 5 l s 8 s 5 5 r 5 8 t 5 5 8 5 ; @ , , 6 5 , , 5 t ; , 8 6 5 , 6 , 6 > ; 6 , 5 * 6 5 * * , 1 , , ; , 5 5 * 6 d ; @ 1 1 * * 5 5 , 5 ; ; * ; 1 ; ; , * 1 , o ; @ e > , @ ; , > 6 , * w , @ * @ ; ; 6 ; ;   ",
"> @ @ $ ; @ @ @ @ $ , > @ o @ * 5 ; @ @ ; @ ; 5 * , 5 $ , , ; @ , , $ ; ; , , ; @ 6 , 1 , 1 ; ; * * * , ; ; ; 6 , 5 5 ; * * 6 9 , 4 * , 5 4 ; , 1 , ; 8 5 4 6 ; ; 1 1 , , * 5 6 5 1 8 5 , , 7 k s 7 s f 5 t s s i s h b C j m x.U.1X).j.t.!.C.t.j.d.*XC.XXc.h A h n s s k k k 8 k s k k s 8 7 n f 8 , f s w e 4 8 r , 8 s t 5 1 1 * r t d 8 5 8 9 8 7 7 s 8 5 4 j 7 8 8 s , ; t 7 5 i 6 6 5 5 4 S f l 8 r j s f 7 r f f s 5 4 N k , 7 s k k 5 8 8 s i h N t 8 n n k s v h j s v K n h i f C s f l 8 r v V h s s s b V s n f 8 f l n D A N b s n 8 n k 4 s f s s 7 s f 4 d s 8 s 4 k s 8 8 k 8 s n 8 x 8 i f 5 4 t , f i 8 1 4 8 j 5 f f 8 5 5 8 4 d 5 t , 4 t 5 , t ; , t , 8 1 , 4 7 5 t 5 , , 5 r 5 , 8 s s 8 4 6 8 5 r 4 5 5 4 i s 5 f f k 5 7 s s s s 8 j d i n C v S i | MX^.E.C.0.7.Y.d.a.N.C.j.h.3.r.| i w i r 8 i k n s 8 9 s g 8 g 8 w , 5 4 8 8 ; 1 d s w 5 1 5 * , 5 8 t , 8 , , 1 , , 6 1 5 5 , 1 * , , @ 5 5 7 5 ; , , 0 , , ; 5 , , , @ ; , 1 , ; ; * , 6 , ; ; , 6 ; , ; @ ; ; @ ; ; > ; @ ; , ; * ; @ ; ; ; @ * > @ , 3 ;   ",
"; ; ; @ $ @ o @ ; $ , @ o * ; > * * 6 ; ; ; ; * * ; , ; > ; * ; + 5 1 , ; , , ; o y , ; , 1 , , 5 6 ; ; 5 ; ; > * , 1 1 > 0 = , , , * 5 ; 5 , , , 6 , 5 6 , , * 5 5 , 4 z 5 , 5 8 4 5 5 , 6 f n k 7 f s r d r k S f l v f 9 v T.-XN.t.p.a.C.j.k.k.P.!.~.MX;.i b v h n f f f k C k s i s 8 f 8 r 8 8 d 8 r , 8 d d 8 1 f 5 5 4 7 5 5 j 5 5 5 9 8 8 r 8 f 8 r r s 8 8 * 5 g 5 , d 8 s s , 9 x , 5 l 8 s 5 8 f s 8 d 8 f h 8 y 4 k B 8 4 l n s 9 t 5 r l b B 4 8 k i s 8 A V s 8 k k s B j s h s 8 8 h B h N h B s s C b f r g 8 s f i k h h k B k 7 s k t f r s n f 5 s 9 8 i k f d s f g 5 k 8 f k i 8 8 f f 8 d t , s s 8 , 5 4 r 5 8 7 r r s d 8 5 * , t t 5 8 5 5 t , , 7 d 5 8 8 f 6 8 5 , 5 4 8 r 8 8 r f r = , 8 8 5 5 5 5 7 d j 4 8 9 f r s f d F r 7 f d x h h h s 8 5._.~.P.d.a.x.B.q.P.j.j.t.I.M.I.;.5 t j f k k 8 D d 8 w d , , s 7 4 w w t t r , ; 8 5 6 5 , 6 1 4 5 6 ; * 8 4 ; ; 1 , * , , 5 5 1 5 1 8 5 ; 5 9 8 e ; 5 , 5 , @ 6 ; , 6 @ 3 * , , ; ; * , 1 * , * , 6 ; , ; ; @ * ; @ > ; ; ; @ * > * ; 1 @ 1 $ @ , ; ; , ; @ . ",
"; ; @ @ $ @ @ $ @ O @ $ @ , ; @ o ; @ @ @ > @ ; ; @ + @ $ ; * 6 , * ; , , , * > @ 1 ; , , * * 5 4 = 1 @ 5 , , ; * , , 5 5 7 5 , 2 ; 1 , 1 , 6 4 4 9 , 4 , 5 , , 9 , 5 5 t 9 4 j 8 , s 5 t s d 0 5 f s s r , 8 k n h n m j 9 v I.;XV.B.P.m.N.k.r.y.M.^.$X<X:.i P ) k k N k s g f s s j d s C n 5 , 8 j , 1 8 8 l , 5 8 8 ; 8 s 7 8 t 8 r 5 r 8 , t 5 , s r , 5 r r 1 5 6 , 8 k 8 5 r n l 8 s 8 t 4 8 t d 9 g i f l 8 4 N s r n , r f g j f 5 j 8 5 l 5 k h g i f k S s i N 8 8 f 4 B f f h N s f s h Z h 5 s k s 9 4 8 f 8 l s v i s n 7 s k s s i 4 s 7 i 9 i f k A b t 9 D v 4 y 5 t f s j 4 s t t r 7 f 8 i f 8 4 f 8 8 8 w s d 9 4 @ t 5 s , w x t 5 6 1 , 8 d 5 d 4 = , 5 f 8 1 d 8 5 , , 5 , 8 , 8 f 5 4 d , 5 s , , 4 5 r 8 4 4 8 d d , 7 s f 5 s s 8 s 4 s l m k f , { !.W.E.B.C.m.j.a.y.t.B.a.a.{.<X$.4 y d h i D 5 4 t r 5 5 8 8 5 t 4 f 8 5 5 6 5 , * , ; ; , 1 , 1 > ; ; , , 5 , ; * 8 6 , 5 , , * 6 , 4 w ; , , , > ; ; , * * , 5 ; * , * 6 , , ; ; , , > * , t , * > 5 ; ; 2 > @ 3 ; 1 , ; $ , , @ % ; > @ ; @ @ ; > @ ; * @   ",
"@ @ * O O @ ; o O $ $ o @ , : O @ $ ; @ @ 1 ; @ @ @ > * $ * * , e 1 ; 5 , > * , ; * 2 * ; 1 > 1 , , * ; 5 , 5 @ , w , 4 5 , 1 6 , * , , * 5 4 , , ; ; w 5 , w 8 4 , , 5 5 8 4 t 5 5 0 5 4 4 5 t 4 s s 8 j r 4 i n k d h s z m Y./.N.a.N.!.I.B.r.t.d.C.#X<X8.7 h k 8 s v h 7 d f k 8 8 f i s f 5 w n 7 4 t d 4 5 , j s ; 1 s r s 8 4 9 d 8 s 4 , 8 8 6 7 8 t , 4 s 4 t 6 @ f k 8 r 4 r k 8 s f 6 , f 5 r 5 5 7 8 h 7 5 k s f x t j l s 7 t f s s i f 5 r 8 l h 8 s i s s l 5 d 6 5 f r s k C k f r h N r 8 l k s 8 8 s g s f h k h n k f 5 l k n d 5 s g 8 s s r r s k 8 , b m s 5 , , 4 d 9 s 8 7 t 8 d r s f 8 i 8 4 , 4 r s 8 8 d t 6 5 ; w 8 8 4 4 8 6 5 , 5 5 , 8 t 7 , 4 f f 5 7 , 5 5 6 , 5 d , 8 8 5 ; t r d 7 ; 5 d s r 5 5 8 8 s w 5 8 s d 5 4 l f x , 8 k p k l d ;.).N.N.4.N.a.t.B.f.l.t.j.0.C.!.5.s y d k 9 8 8 G 5 8 8 7 s g , t s 7 8 s 5 , 8 g ; 1 ; > , , * 6 ; 1 5 e 5 5 1 ; ; , 6 5 t , , ; * , , 4 > ; ; 6 * 1 , , , , 5 , @ ; > ; , ; , ; , , 1 ; ; * > 0 ; ; @ $ ; @ @ > ; * , 5 > @ , > @ @ @ ; ; 1 @ @ @ * @ , ; ;   ",
"@ @ @ $ @ $ @ @ * > ; ; @ $ ; @ $ @ ; 2 @ - * * > ; @ 1 $ * 1 ; * ; @ , ; ; 5 , 1 , 2 ; * 5 5 > @ 1 * 5 5 @ > * 5 4 ; 5 5 @ ; 0 5 , , 6 , 5 5 > @ = 2 w w , 5 t 4 , 4 5 5 , 8 5 @ 5 t s 5 7 , 8 f , 8 4 r d 8 s s t r s r d m z.a.m.h.a._.h.a.t.k.B.m.V.'.8.k h s s s V P 8 g s f f f f s 7 8 5 4 l t s s 8 t s 8 5 t g r 4 6 6 , , 4 s s 8 5 w 5 4 1 i 8 4 8 8 s 5 j 8 5 , 6 s k k 5 6 5 r 9 4 l B , l r 4 d i B 5 8 d 8 s 8 4 s 8 8 8 g l 7 h f 8 k t 5 8 l f 5 f 5 k n r j 8 f s s j 8 8 k g s j g j h n k i s k k v h f f x s k 7 x f s i j t 6 l w 5 s s l 7 8 5 s 4 s s i x f s k s 8 8 B l 7 7 5 t 8 t 8 r 8 i 5 5 8 l s r , 8 g 6 , , 8 i 4 4 6 5 d 5 , 5 5 9 r 8 g 8 4 5 5 5 , 5 4 7 9 s 5 r 4 5 4 r 6 t 8 , 7 f 4 t t 6 9 s k s 8 d 8 5 8 l s 8 f g 4 f l k k f B 5.!.#Xa.S.N.a.j.d.a.M.I.N.!.r.k.` 8 5 l v 5 8 s d f r i 5 4 r , 4 5 r 5 d i t ; @ 1 t 5 5 ; d 5 4 5 t 1 2 5 , t t , 1 ; * ; * y , , 6 1 1 * 1 = 6 4 5 ; , 1 , ; , ; , 1 1 4 * $ , 5 , 6 , , 1 ; , * ; > ; @ ; ; 2 $ @ ; ; ; ; @ > , ; @ , , ; @ ; @ @ 2 , * >   ",
"@ @ O @ @ @ @ ; $ @ @ * @ @ @ ; @ ; ; > * ; ; ; > $ $ @ * 1 ; * ; * * ; * , ; , , , , ; , * ; ; * , 1 4 5 ; > ; , 5 6 6 * @ , 6 , * ; , , , , > $ , * 1 , * 5 , , ; ; , w 4 8 e ; , , 5 w w 5 8 s s d s 8 s d n 7 , l k 8 6 m OXY.g.I.a.0.k.k.a.s.a.XXV.P.5.h k B s k k n h f s k s s r f 4 t s 8 8 5 i s 7 4 f s 7 , 5 , 8 , 5 5 9 = i s 6 , 8 7 , ; s f 5 5 5 1 r 4 s f 5 * 5 s 4 8 , w , 5 B s 9 8 i f r f s f r s 8 t 8 8 4 8 t F 8 4 8 8 l s 8 8 d 8 f f r s k 5 s s s f i f k h w 4 l k i 8 f , k h 7 f R i k 8 h n f 4 8 g 5 i s s 8 t 5 5 5 8 8 7 d 8 8 8 f 8 s l G 5 i k s 4 s f 4 7 l 5 f s , d 6 * 8 5 8 f t s , 5 8 t 5 s 5 * 5 5 s s 7 5 5 5 8 r 1 * 4 , , 5 d 4 4 w 5 5 4 t t 5 8 5 = 8 5 t 8 4 8 , * 5 5 d 5 6 1 = 4 5 8 g f 7 d , l i C s 8 5 8 f f k s N 7 T <X=Xa.t.j.j.C.k.M.d.'.y.E.!.u.v r x h 8 s g h 8 r d r 8 r 8 t 6 5 , 5 4 4 8 6 * 6 5 7 , * d 6 6 8 , , 1 , , t 5 , , > , > 1 0 , 6 ; , 1 , 1 , * 5 6 ; * 5 1 ; , , * ; 5 , $ ; ; * , * 5 , , ; @ > * > * ; , , ; ; , ; ; ; , @ * , , ; > > @ ; ; @ > , @ @ ;   ",
"@ @ @ @ O @ > ; @ @ $ * O @ ; ; @ ; ; o @ 1 > @ > ; ; $ ; , > ; > ; * , 1 @ @ 6 t + , , , @ 3 5 5 , ; 5 , 5 > @ , , ; ; @ , 0 4 5 5 * ; 1 , > + w 5 , , 6 , , 5 5 , 5 4 8 8 * , 5 6 5 5 7 8 j 1 6 f f s 5 s f s n 8 8 v 8 e C z.eXM.y.0.A.W.N.N. Xa.l.C..X6.p C f s s k k k f 8 f l 4 s 7 8 r 8 f 4 t j r 4 i d , 8 5 5 t r 5 5 4 t d t * t s 5 d g 6 8 r r , s 8 f 8 r 8 9 7 5 , f t 5 s 8 8 9 5 , j 4 f s 5 r s s n d r r g 9 5 g 7 5 8 S n i S k 7 5 t 8 s s f f s s f k 8 l d 8 s s 5 s k n s i s 4 4 k C r 5 k s c s f s 8 5 l 4 8 8 4 B 8 4 s P g 5 5 g s 5 r 5 i b f 5 w G s d d 5 r f 8 s s 4 5 5 s 7 f , 5 5 5 8 j 8 , 6 6 9 , 5 t 7 4 y , = b B 5 6 t 8 9 , r s = t 5 , 5 1 4 5 4 4 w f 5 y j s 8 w @ 0 5 s , 5 5 5 t 4 4 t , 8 8 s 8 w , 8 t = s s l 8 f k k j 6 J !.^.N.E.m.d.W.d.u.a.p.a.N.oXu.v 9 g k e f 8 8 t 8 9 8 5 4 7 4 4 t , 8 7 , 5 1 , t 6 * 9 8 * , , ; ; 8 t , , 5 5 8 , * > > * * ; 5 5 , > 5 , 5 5 1 , , 0 4 t @ 2 3 * , ; , ; * ; 5 6 > 5 ; ; 1 ; * ; 5 ; , * 1 ; ; ; ; ; ; , ; ; @ * , , 1 @ @ 3 ; > ; @ ; ; . ",
", @ @ # O @ ; ; @ ; $ o o > ; @ ; ; $ ; ; @ * ; ; @ * ; ; ; ; ; , * * * * > @ , ; ; @ , , @ , ; 1 6 * 5 5 , > @ * 5 ; 1 * * 5 w = , * , ; , , 5 8 * 5 * 9 4 1 , , 9 5 , 8 d , 5 , 6 4 t 5 9 j 6 4 8 s 4 8 s s f 8 4 t v s r 8 $.!.h.0.1.Y.`.p.m.Z.W.t.;XoXm i C s s 8 s k 8 s s 4 f 8 5 t 7 5 8 s d r 5 4 5 5 8 , 5 5 * d 8 s r 8 f 5 8 , 8 d 5 5 d , 8 , t 1 t 5 5 s 4 8 4 t 8 t d 5 5 i f s 8 5 t 5 8 r , 5 5 5 9 f s 5 , s s 8 7 g 8 d 8 8 5 d 7 8 5 j 5 f r i 5 l 8 8 r r s r s k s 5 l h k k 7 l w 4 i N 8 d f n k 7 s s s 8 s r t d 5 , s B 5 7 h s 5 4 g t d r 7 j 5 4 8 8 B 5 i 8 f 5 s C h s 4 , t t 5 , , , 8 8 5 8 8 5 5 5 5 8 t 6 * t 5 , s 4 t 5 = , , * 5 t 5 , 6 , 5 6 5 5 , d 7 * 5 5 r 5 , 5 , 5 t s , t 5 8 4 , d 5 5 9 8 8 5 w 5 5 f j s l 8 i k h s r d m '.;XQ.!.XXa.d.s.%.4.B.P.C.I.u.h 5 l 8 , s f s , 5 f 7 6 5 t d 5 5 5 5 5 5 5 ; , 8 8 1 6 5 , , , ; 1 t 7 , ; * , 5 t ; , , , > * * , , , , , * , 1 * 5 @ 8 8 * , 1 ; , > , * * ; , , , 5 ; @ ; ; 1 6 1 , 1 * * > ; ; ; > , 1 ; 1 ; > > ; ; * @ @ * $ * > 1 >   ",
"* @ ; @ @ ; @ o o @ ; @ @ ; @ @ ; $ ; ; ; @ o ; ; ; ; ; , , * > * 1 , ; ; > @ , 5 ; o , , 4 1 > @ > 5 , , * ; 9 , 5 ; 5 , @ , 1 1 , , , , , , 6 , , 5 1 , 4 5 , , g 6 , * 5 8 6 , 5 8 8 5 4 5 5 4 l 7 5 t l s 8 7 t 5 s s 8 r V i..XE.s.r.k.d.B.p.!.D.fXz.7 5 8 k k s s f r 9 8 s f r 5 t j 7 f d , 4 4 r 5 * d 8 9 4 6 5 t 8 4 w 5 , 5 d r , , , , 8 t 5 5 , 9 7 8 9 5 t d 7 f r 5 8 5 8 5 9 5 , j 4 5 8 5 5 t 7 d 5 4 8 t s s 7 s 8 d 8 7 d 5 @ , 8 , w r g 4 r f s s r 8 8 5 8 f f 7 l j 4 8 s f r 8 l s i s 4 s 8 5 4 s s 4 r 8 s 8 t 8 , s f 5 @ 8 n s 4 6 t f n 8 , 5 t l r 5 , h l 8 , r f 4 k B s 5 8 r 8 d , 5 8 5 , t 4 5 6 d 7 , 1 e , , 5 , ; w , 5 , 5 1 @ , 7 8 4 , 5 5 4 4 , 6 w * 6 4 , 5 , , t 5 8 5 5 8 , g 5 , t , 1 5 ; , 6 5 f 8 5 5 l f 8 s s b s 8 G m y.<XB.d.u.k.t.k.4.k.d.m.C.<X8.7 8 s 8 f f r 8 s 8 f 8 5 5 w 4 t 5 , t 7 , 8 6 4 , , d = @ 5 1 * 1 , 7 , , e * ; , , 1 1 * ; 2 4 5 , , 6 , , ; * 1 , 4 > , , w , , , , , 5 , ; ; ; * ; ; ; ; ; @ 5 , 1 * ; ; * ; ; ; > ; @ ; , ; ; ; ; * > , @ ; @ ; ; @ * *   ",
"@ @ $ ; @ @ @ @ ; $ @ $ $ @ @ @ @ @ @ * ; ; $ ; ; , ; > , ; > ; , , > * , > @ * 5 * > , , 1 , : + ; 6 , ; , , , , , ; 4 5 ; ; ; , 5 , , w ; * 8 4 1 , 6 * , 6 , 1 w , , ; , 4 4 6 1 1 8 w , , 6 8 d 5 , 1 s l s 8 t 8 s f s l 8 U R./.a.0.W.N.N.N.N.#X_.{ 5 y 6 r k k s s 8 4 d 8 l 8 5 5 t 8 t , * , 4 5 5 5 8 j g d 5 5 9 5 5 6 4 4 , 5 8 7 6 5 1 5 4 5 , 6 t 8 g r t 5 5 , 7 f d 8 4 9 5 , g 8 5 8 5 s 7 8 g 8 8 * r d 7 4 f k f 8 8 8 w 5 , 6 y 7 l 5 , 8 d r t s 8 5 6 5 7 B 7 5 8 n d 8 d r r 4 s s f f f f 8 8 t d s g 8 r s 8 s 5 5 w 8 8 , 6 s s f s 5 r 7 l 8 , t 8 r 8 1 9 s 7 4 8 8 t 8 n s 4 , 5 g 8 5 ; g 8 4 , t 8 6 4 8 8 , 6 r 5 5 8 5 t , 6 y , 4 5 , , 8 f 7 5 t , 9 6 5 , 5 5 6 , , 6 t 6 t , 6 z 9 5 r 8 G = 5 6 , 5 ; * , r r s y 8 f 8 8 x 5 b k s F s v s..XW.3.k.d.x.h.I.d.m.,Xz.V 8 h k i k s 8 f d 8 5 4 9 t , 4 t 5 5 w s , 4 4 , 5 4 8 , 1 @ , 8 , = 6 9 * 6 ; ; t , ; w * 1 4 , 5 1 1 8 ; 5 > * ; , , , , ; 5 7 6 1 * * , ; , > > @ ; > 1 * ; ; ; ; , ; ; 1 ; ; ; ; ; ; ; O ; ; @ @ * $ > @ , > ; * @ @ $ :   ",
"@ @ @ @ @ @ @ @ @ ; @ $ ; @ @ * ; ; ; ; ; @ $ * ; ; 1 , @ * ; ; * ; , , ; ; > > , ; 1 @ , , , @ @ 6 * ; 1 5 4 * , , , ; , 5 , 1 , , 5 > > 1 1 4 8 * 1 , , 5 y , * 6 , 6 5 1 , d 8 * 5 , 1 , 5 5 4 4 5 4 t , 5 i g s h 9 f f 8 , f ;.Y.'.C.^.^.b.W.*X*X>.i j 6 s B 8 d 8 5 l f 8 4 4 8 k g 8 4 5 5 8 t 5 5 1 d * 4 t f , , 5 5 4 4 , 5 5 * 5 6 8 6 ; w , 6 8 8 5 5 5 , = * 7 f 4 t 5 8 9 4 6 8 5 d 5 8 6 d g 4 4 s g 4 l 8 , 5 8 8 5 j 8 5 9 5 l l 5 8 k s s B 8 5 4 s 8 l x r r 7 5 f s s s k , 4 s d n s 7 8 8 5 s s f 8 8 8 8 d 8 4 8 s 8 d 5 t 8 6 ; s f 7 f 8 4 4 7 l f 7 5 f t g f 8 6 d 7 7 r g t 5 w 4 i 7 4 5 , 5 d 5 5 , , 8 5 5 5 w 4 = 6 4 4 j 7 t , t 5 5 r 9 t 8 r w , , 6 , 1 , , 5 5 8 7 8 8 5 6 4 w 1 4 t 5 , t 7 5 5 5 d d 8 t 8 = s 5 g f s 8 f l k b v 8 h 4 h K.XX~.E.t.0.N.N.~.>Xr.m 4 s f s k k 7 r t 8 4 5 d t 8 4 t 5 5 ; 5 s ; , , 6 w , 5 6 6 ; , 8 , * , 4 8 , ; , 6 5 , 5 , , 5 , * 1 > * * e , ; , 2 * , * ; , 5 * ; > 1 * * * @ > ; @ * * 1 ; > ; , ; 1 ; * ; 1 ; > ; * 3 ; ; > > + ; * > ; @ @ @ ; ; ; * ;   ",
"@ $ @ @ ; o @ $ * ; @ ; * * $ ; * @ @ ; > o $ , ; ; * o ; * ; ; ; , , , ; @ ; 5 , o = > ; ; ; 1 6 > * @ , , , @ ; 1 5 > > , 0 4 6 4 8 @ @ 6 5 * 5 8 1 , , 4 , , 5 5 , 4 8 6 , l 7 * 5 , 1 w 7 d t g 8 8 r , 6 4 7 f v d 7 k 7 d 5 7 =._.P.^./.M.'.Y.,.l 9 f i i k s d 9 5 4 B j 4 w 9 h s 5 6 5 8 d 8 t 5 7 8 8 6 8 7 , 1 5 4 d t 1 5 5 , 5 4 5 9 , , t , , 5 8 8 * , e 9 s s 5 * 5 5 , 8 8 4 4 5 , 4 5 5 8 8 d 8 s s 8 8 5 6 5 8 8 , 4 G t 4 k i 4 5 i f 9 4 7 f 4 8 s h 8 s w 5 f s 8 8 s 8 8 9 8 8 4 d 7 , 5 t f i 7 5 r 4 r 8 , 5 d s s 8 8 8 s s , w l 7 8 8 w 9 8 s s 8 5 d 8 5 7 4 , * s f 4 4 t , 5 5 5 8 6 8 1 1 t t , , 5 5 5 6 , 4 d 4 1 5 s 8 s 4 * , 1 8 s 7 4 , , 9 , , ; 1 5 5 5 t 6 5 s h 8 4 5 , , ; 7 8 1 6 5 s s r 8 s s 8 f 6 5 i * 5 t r 5 d f 8 s b k S g s p 4.7X%XMXB.d._.R.4.v t , 5 r 8 k f 5 r t 5 8 5 l = d d 4 , 1 * , 4 , , , t 5 , , 5 5 t 6 , , , 6 , t 4 , 1 1 5 5 , 5 , > 1 > @ @ , > * 5 5 > @ > 5 , , , ; 6 * * 1 > ; ; 1 1 , ; * , 1 * > ; * ; = O @ * 1 1 ; ; 3 , * = * ; 1 @ @ ; ; $ @ @ @ ; > > @   ",
"@ o % $ $ @ @ ; ; o @ @ @ ; @ @ @ * ; ; > @ ; ; @ ; * > > ; > ; @ ; * ; ; @ @ 1 ; ; , 5 ; ; ; t , @ 1 ; * * * ; * ; @ ; * @ , , , , * 6 ; , 5 , , 5 1 5 , , , 9 5 * 4 4 6 1 * , 5 4 t e 1 t t 4 , t 4 4 j t 5 f s 4 8 c l i f f s r b v U 2.c.8.J m 4 8 g f s n i f k l f 8 8 8 s d 8 8 5 ; ; 8 8 8 , , 5 , , , 4 , , t w * 4 7 5 5 6 t 5 * 8 s d 4 d 8 8 5 , 9 5 , , 6 d 5 * 6 t t , , d t 5 8 t 9 f , , w 5 w , , s 4 4 w t , 4 s , , 5 8 j 9 4 d s 8 8 1 , 8 l 9 s 7 8 d 8 5 5 g 4 d 5 k j 8 t 4 g 8 7 d 7 s g 5 8 r g r 5 f r t r 8 , 8 8 g r j s , 8 r r , 5 9 r * 8 9 5 , d 7 6 8 t t 8 d 8 = 9 7 8 5 6 5 5 4 8 6 1 ; * 5 6 7 4 , 6 8 , 8 t 4 5 w 5 7 7 t , , ; , 8 6 , 5 r 6 6 8 5 , t 5 1 5 @ 4 d , 1 5 8 5 d 4 w , 1 5 5 5 4 , , 0 4 w s 5 s 5 r 5 8 7 d 8 7 s r s 9 s k 5 8 h W c.c.=.| m s s 9 5 d s s 8 r G 7 r 8 0 9 5 8 , * , s , 6 w 6 5 r 6 5 * ; 5 * 5 d * , 5 6 1 1 = 5 5 , , @ * , , 1 , * , , 5 , 9 , * 5 @ ; 6 @ , 5 , ; 2 2 > , > , ; t * * 6 1 , ; ; * , > @ , O ; ; , > , ; * ; , * * * ; ; ; @ @ $ 1 ; ; > ; @ , . ",
"$ @ O o @ $ ; @ O O O , ; @ ; O . % ; o @ > @ * * * > 1 * @ @ , 5 1 * ; ; # # 3 , 5 , , , , , , * , ; * o 2 ; t , ; $ * * > ; * ; 1 , 9 5 4 6 6 , 4 ; 5 ; * 2 * ; y 9 * 6 5 * ; 6 d 1 7 5 , 1 ; t , , d s 8 n k r 4 5 r j h s r k d z , 8 i 7 8 4 q 2 i s N 9 k B 8 h h s 8 4 j k h n d , 1 , 5 d , 1 6 = = y ; * , , 7 t ; 6 1 5 t r 8 8 7 5 8 7 r s = 8 4 5 5 7 t 6 5 7 , 5 5 4 s 8 r 5 7 t , 8 s 4 , 6 g 7 5 * y 5 1 5 5 5 f s f 5 6 5 r 6 3 1 w V 5 , ; 6 s k 8 f 5 6 4 1 d 4 9 , f 4 8 4 5 t , j f 8 9 t 4 j 8 t 7 5 8 f f 8 8 s 5 , 9 5 r 4 ; s 6 4 j f 1 1 5 9 5 2 1 7 8 9 4 6 i 8 s s 5 , w j s g @ ; w 7 , t 4 6 > * d 7 , 6 , , t 5 * w 4 5 @ ; , g t , 6 , > , 6 = , , , , 5 4 i d , ; 6 ; 1 w * , 5 s r 4 4 6 * , 8 , , t , : ; ; t r 4 i 4 8 r s j 8 5 s d r 5 k m b f q & 3 8 m V 4 6 g r s s 5 n n 6 t r 8 l s 4 0 4 d 5 > , x 4 s i 4 t 8 , , y 5 * ; 8 5 , 3 0 = ; ; , 1 1 * ; > ; ; > ; , t 1 1 5 , i 5 @ $ @ ; 6 ; * , , w * ; , * $ 0 , , , @ , ; 1 @ , 1 > * * , O ; @ @ ; ; ; @ ; ; @ @ ; ; @ @ O * , 1 1 ; $ * > >   ",
"; $ @ o @ @ * @ $ ; o @ > @ - ; ; * ; * @ % o @ * @ # @ ; , , @ - ; ; 1 ; @ ; * , ; : , * , ; > 6 1 ; ; ; , j 9 1 , , ; * ; , 9 g , ; > ; , ; , , ; * , > > , 5 , 1 0 6 , s s > @ 1 d 5 ; * , 4 s , @ 5 t 0 5 6 4 k k , d 6 5 w g d g 5 s 6 5 d f n k s d t 5 s k i s f r 4 f r 7 4 6 , 8 f 4 5 1 , e @ 2 w s 8 4 9 8 , 0 4 4 4 5 5 , ; 2 , 4 f s 5 t 8 6 d 5 5 5 5 8 6 , , l 4 , , , 5 6 ; , ; t , 6 z 7 4 w , 5 i i 8 5 t y * 8 r 6 e ; 5 4 9 f 6 5 7 4 4 1 0 5 8 N 4 5 g s , 5 d j r 4 t 8 s 8 , 6 * 5 d 5 w , 4 s s 5 > ; f f 7 6 8 * 6 , w l f r 2 5 5 5 ; , 8 9 8 7 4 t 4 1 5 8 5 s 9 w r , 8 s > ; 8 s s w , 1 8 j 1 * 8 7 8 , 5 5 , 1 > ; ; 2 8 8 h j 6 * t , 5 8 5 , * 1 5 4 8 8 8 8 5 1 1 t , ; , t 8 5 , r 5 s 5 , 5 7 w 6 , 5 , 1 @ , g 5 ; , 8 7 k s l e ; 5 l 7 x r s k f g 8 s i k D 8 8 f l 8 s 8 t s 4 s d 5 e 4 8 s 8 1 , 5 , 1 ; , 5 > : @ 7 d ; , ; > 6 4 t ; @ 6 : 1 5 5 , 5 9 5 s 5 * < 1 * * * 1 , s d , > , ; , 5 @ o > 1 @ , 2 1 ; ; 2 * 4 ; > ; @ 3 * 1 * @ ; $ , 5 , ; ; , ; > ; ; $ @ ; * , 6 O : @ o o ; > ;   ",
"@ @ @ @ * $ @ O ; @ ; @ @ ; @ ; 3 @ ; ; @ @ @ ; ; @ * * * , > ; @ 5 @ , ; @ @ 6 1 * ; 1 , * ; ; 5 , ; 1 , ; , , , , ; > * ; > ; * 1 , * ; 1 5 * > , ; 5 9 , , w t , 1 > , 8 4 ; , t 5 6 6 5 z 5 g , 5 4 0 5 , 8 l f s 5 8 5 4 5 , 4 8 d z 5 w d s s 5 k f f d s f 5 d r s f 4 8 t , 4 8 7 g t , 5 5 , , , 1 4 5 t g 6 6 t 5 j 7 5 4 5 , ; r 8 4 5 , t 8 , w 5 d 4 , 5 5 5 w s s 5 1 , 1 5 5 5 5 6 , 4 5 7 r 6 , y 5 4 5 d 8 4 5 6 5 5 , 8 d 7 4 5 5 5 6 s f 4 , , 8 f 5 1 8 8 8 8 6 , t 5 s 4 n j 5 8 4 d 8 s 8 5 d t 5 7 8 4 , 4 d , 6 5 5 4 4 8 5 8 , 5 r 8 = t t , 7 4 6 6 5 r 8 t 5 4 8 4 4 r r s 6 = d r ; 5 w , 8 i 4 5 t 5 5 , d 7 6 ; e ; , , 5 4 h r , , t 8 , 6 5 6 > = 5 5 6 6 8 5 , , , , 0 , 4 8 , 1 , 5 5 , , , j w 1 t 5 * r 5 , 5 5 8 7 r t f i 8 5 5 , 7 f s t 7 l h f 8 r f s 7 s 4 t f f k s , 8 8 t 8 5 8 w 4 s 7 5 5 , 6 5 5 t 1 5 1 * * 6 4 , 6 1 1 1 , * 5 1 1 @ 5 5 5 ; 1 5 ; , 6 , , , 1 ; @ , 1 8 5 , 6 , * , 0 1 1 , , ; y , * * ; ; @ ; ; * @ ; @ * y 2 ; : @ * ; , 3 > @ @ * > * ; @ @ > @ * @ $ @ @ * 2 ; ,   ",
"$ ; @ ; @ o % @ @ @ ; ; * > @ @ @ @ o ; ; * 1 ; @ @ 5 , ; @ % ; ; 1 * $ ; > * * * @ 4 1 , ; , ; @ ; , 5 5 , ; , ; , > 1 ; > > ; * , ; * 8 , , ; @ , , @ 6 1 , ; @ * ; , 5 , * 5 t 6 ; @ , 4 g , u 5 d 5 6 5 ; ; 5 5 f g , 5 r 5 8 g r 8 r w 8 s f 8 5 k 8 7 r s d 5 4 8 i s 4 8 8 5 , f 7 , 6 8 7 w 1 r 5 5 5 , 5 5 , , , 6 5 8 8 8 8 5 5 8 4 = 1 6 , 7 8 5 5 5 , 5 1 5 5 , , d 7 t > , = , d , * 5 f 8 5 5 5 4 w , , ; * 9 8 6 , 9 5 8 4 r 8 5 4 d 5 > 5 9 5 , * g t 8 5 8 8 f 5 = , , 5 , 4 f g g , 4 t 8 8 8 8 8 w , j f j w 5 5 8 4 8 t r 8 5 5 4 r f 5 4 8 t 5 5 s s t 1 f 7 * ; 5 5 5 r 8 4 s 8 s 4 , > @ , 8 8 1 4 4 8 > @ 0 6 r 8 5 2 1 , 6 4 6 @ 4 6 > , ; 5 1 * , , , , 5 6 , * 4 , > , 1 * 5 r d 5 * > 1 1 @ @ , 8 , 6 , y 5 , s 5 5 > , 9 8 7 8 7 5 t 4 4 4 8 , t 8 k j 7 5 n s s k s 7 g r 5 8 s 8 t j s 6 , 1 5 4 4 4 , , , 8 5 , ; 6 4 ; 5 , 6 , * t , 5 1 @ > , 5 6 ; , 4 @ 6 ; ; > ; @ * , 5 @ > 1 ; 1 , @ ; , 4 * 1 * , 4 , ; > ; $ , , , , @ @ $ ; @ * > = , ; > @ @ @ @ ; ; ; @ * @ @ @ ; ; 5 ; @ @ ; @ ; @ @ ; , * 2   ",
"$ @ ; @ @ @ o $ ; ; @ * ; @ ; O @ 3 @ ; @ 1 , ; * ; , > * @ * * ; ; ; @ @ 5 , * ; > ; ; ; 1 1 ; ; 6 ; , ; , 6 ; , 1 1 , * @ * * 1 , , 5 1 * , , , , 5 @ 1 4 , , , 1 5 5 , ; 6 6 4 4 , 5 , * 4 , , * ; 5 8 5 , w 4 5 8 s 5 8 g 5 , 4 s f s 8 8 s f 8 d l r d s s 8 w 4 f k j 5 8 4 , , s 6 , , 9 t , ; 5 5 4 8 , 4 5 , > , 5 , , t 5 t 5 5 5 t y , , 4 d 5 , 8 4 ; 5 , 5 5 6 w 4 t 5 1 , g 8 5 5 8 5 5 f 8 , d 4 , 8 t , 5 g s , , 4 8 8 4 5 4 w 5 4 s * 5 j w 6 5 8 8 5 , 8 8 s t 8 8 0 6 5 g 5 , 9 d 4 5 t r s 8 7 7 , f 8 5 4 8 s t 5 5 , 5 t 5 , 1 8 t t 7 8 * * 5 f 8 * * t f 8 5 , 6 5 7 8 8 f 4 s d 4 5 e * 8 8 > 4 9 , 4 , , * 5 s 5 , * , w 5 5 , 6 1 1 5 5 6 5 , 1 , 1 1 , , 5 1 , 6 6 6 , t 5 4 5 8 , , 6 , 5 , , 5 5 , 9 5 1 , , , t * 6 8 t 8 d 7 , 5 l 8 f g 5 5 f k 4 t s r 8 h r d 5 5 4 g f h 5 , s f , ; 8 5 w 8 5 y 6 5 w 5 , , , 1 , ; 8 , ; 1 , * , 6 * , 5 , , , ; ; * 5 > > 1 * > 1 , , 2 @ 1 , 4 , ; ; , 6 5 9 > ; , 5 ; @ 5 @ 5 , * 6 , ; , , 2 > 6 , , * ; , ; ; ; ; ; ; $ 5 ; @ @ , * 5 ; @ ; @ ; > ; @ , * ; 1   ",
"$ @ $ @ O * > * @ @ @ @ @ $ @ @ ; ; @ ; ; @ @ @ ; 1 * @ ; ; * 1 ; + ; ; ; ; 1 1 1 * ; @ ; > @ , , * , * @ 1 6 ; @ * * @ ; , 9 0 , 5 , ; > , , , 1 * 6 $ ; , = 1 , , 4 4 w > , 8 8 4 ; 5 4 5 5 , , 5 , 1 5 8 5 G 1 4 , 8 s i r 1 8 8 r k f i 4 t 8 r j 4 5 8 r d f r 7 f 8 , 8 8 8 5 5 d , t d 7 8 = 6 ; , t 7 , 5 d 8 9 , > 1 @ , 5 ; 5 * * , * 5 5 > , , 4 8 y 1 * s ; , 5 , , , , 1 8 , 6 7 5 j 4 @ 5 d 4 t 6 , , t 8 s 4 5 4 t 5 4 , , 5 5 5 5 4 7 5 d , , 4 4 s r , t l s , 5 s k , 5 7 4 , 5 8 7 9 8 5 t 8 , 8 s 8 8 ; , r 5 8 9 4 5 w 4 , t 4 5 , , 8 , 1 , s , t 5 , 5 , 4 t 6 5 t 8 , * 5 5 5 w 8 5 4 5 , t 4 1 5 4 , 8 d 1 5 0 , 5 5 1 1 5 4 7 5 = * * 1 5 , 8 5 , > 1 5 * * 5 g , ; 5 j = 0 , * ; 5 t = 4 5 8 f 5 5 5 1 6 , 8 5 * > 6 s s 5 * 4 r j 6 = 5 8 s , 8 s s 7 5 t 8 8 s s , 5 n k 8 d d s 8 9 , f 8 8 5 5 d , 4 6 8 6 8 = 5 w , 1 5 , 5 , , 6 , ; , * 8 8 ; ; 1 4 o , j 5 ; ; 1 , , 6 @ + > , * 5 4 , 5 @ ; : 1 * > @ @ ; > ; ; = 5 , ; ; 8 4 , 6 > > @ * 1 ; > , e * @ ; ; > @ > , > * ; @ @ > ; @ o , , @ $ @ ; 5 ;   ",
"@ @ @ O @ @ ; @ @ @ O @ - ; @ > * @ , ; * o @ ; , * ; @ @ ; ; * * 6 * @ ; * ; * ; , ; ; * > ; , ; * 5 @ > , , ; @ ; 1 > > , , , * ; , * @ 1 5 * , ; 4 6 ; , 5 4 8 8 , 5 5 @ , t 7 , 4 * 5 5 * 1 2 , 6 5 , 8 9 4 4 4 8 1 8 n 5 ; y 8 i s r 8 r 8 5 r s 5 r 7 7 5 l k 8 8 5 9 5 5 8 t 9 w * 5 5 8 8 5 e 1 , 8 8 7 5 5 s d 5 , * 6 , , * 1 , , , , 8 w @ , 5 8 8 5 ; 1 5 ; ; t 8 5 5 0 4 t 5 5 5 4 l t , e r , , 5 4 4 8 7 4 , 5 5 5 d 8 6 , w 5 = t G 5 s t 5 1 5 5 8 d 4 5 5 5 8 5 5 5 w s 6 , 5 5 s 8 5 5 4 , 5 w 8 i s w 1 1 s 8 7 r s t 5 , 5 5 8 g 6 , 8 8 5 , 5 1 4 4 9 g , 6 5 * t 5 7 6 1 , 5 5 5 w t 4 t , 6 6 8 * , 4 5 5 , 6 6 , , 5 , 5 8 , g 4 8 6 5 0 4 , s 7 , ; , 5 , t 5 5 , , 6 , w 6 ; * * , t 8 6 4 5 d 5 0 * , 5 6 4 , * * 5 8 t , > 0 , 4 w 6 , r 4 5 r s r t t , e 4 s w 6 , B 7 s s 8 5 5 s 5 9 5 s 8 w t , 4 4 , 5 , 6 , 6 , , , t , ; 5 4 ; , > 1 5 6 * ; 1 d @ > 5 5 ; , , w , ; e ; , 6 , 5 , , 5 ; @ @ ; 1 * ; - @ 5 5 @ 6 1 , ; ; , 5 ; 1 @ @ ; ; 1 @ , , ; * ; @ $ @ > ; ; * @ ; ; , ; > $ @ , ; @ o ; * ; ,   ",
"@ @ O ; @ * $ @ - * @ @ @ ; * * @ ; , @ > ; * ; ; @ ; ; ; ; ; * ; 1 5 $ ; $ ; > , , > ; , @ , , * , , * 1 1 ; 1 ; 1 * $ , * , ; * , * , , , 1 ; ; , , , 5 6 6 , 6 4 @ ; 1 0 5 4 5 , 6 * 5 5 = , 4 * 5 5 1 5 4 * 5 5 5 6 5 5 , w t 7 d d 7 5 5 5 r l 5 r h s d r 4 5 s d 5 8 g 8 , 5 8 r t ; 1 9 5 5 s 4 t , , , 5 5 , 8 w 6 , s 8 5 1 5 s j 8 5 5 4 ; 5 5 w 5 , ; 6 5 ; , 4 l 0 ; , , , 1 5 7 4 6 , 6 4 4 4 1 , , , s , , t 5 5 = 5 8 5 r t 8 8 f 9 5 4 1 5 , 5 4 0 ; 5 5 5 4 5 d , * s 9 ; 8 5 r 4 , 8 7 t , 5 g , 1 5 5 t 8 r t 5 1 , 4 5 4 d 6 4 h 5 6 5 * 4 1 , 5 , 5 r 5 5 6 4 > , 5 8 5 6 4 , 8 s 7 , 1 1 1 t , , 8 5 6 9 , 6 8 5 , 8 5 * 1 8 5 ; 5 4 9 , 5 5 8 8 w ; 1 1 5 , 6 , , 5 t * @ r 8 6 * 6 , , e , , , 5 , , 4 6 4 1 , 6 l 7 8 8 * 4 t t 5 , 5 5 0 6 4 d d 7 j 8 r s 5 4 t s r 5 5 8 g s 5 , 4 8 s 8 ; 6 , 8 5 8 8 d 4 4 4 5 * = , , 5 t , , 5 5 , * 5 1 * ; ; 4 6 , * 5 5 , , , 5 8 @ @ 5 , e * ; 6 O @ 1 ; > * , @ ; , 2 * , 6 , = @ * > ; > * o * ; ; ; > ; ; 1 @ @ , ; > @ @ , $ * @ 2 , > > @ @ ; 1 $ ; ; ; > ; * ,   ",
"@ @ @ @ $ o $ @ ; ; ; ; o ; ; @ ; ; @ ; ; @ ; ; $ @ * ; ; @ @ ; ; * , @ * * > ; ; , , , , , ; > ; ; * , , , 5 ; ; > ; * ; , 1 ; ; ; @ , 6 4 ; ; ; , * , 6 4 , * 1 ; ; ; , 4 5 , 6 6 , , t 4 5 , 5 1 , 5 , 5 6 4 6 t 5 7 5 1 5 5 8 8 4 9 , t 5 f s 7 5 7 j s 5 w , , 8 4 , t 4 5 w 5 , 5 8 5 1 , 4 , , 8 8 , 1 1 , 1 1 8 , , 4 4 5 5 , t s 4 4 6 5 5 , , * 5 , 1 , , 5 ; 6 9 s 5 1 , , , , = 8 w , ; w w , 1 6 5 , 5 4 6 , 5 5 , 6 t 5 5 5 8 4 5 , 4 7 1 5 , * t 5 8 6 , , y 5 , 5 , : 7 d 6 8 5 4 w 6 8 8 5 8 t f t , 8 w 4 4 8 t , , 6 8 g 7 5 , 7 f * 5 5 5 0 5 5 , , 5 t 4 5 5 , , ; 1 9 , , 6 8 r f 8 5 , , , 5 5 1 6 6 , , , 4 6 5 ; , 5 , , w 8 @ , 5 5 5 6 5 5 4 5 , ; * , t , ; 5 , 4 > > , t , , 8 , * > * 7 > , , 6 4 t 5 6 5 4 l s 5 5 , 5 * 4 9 6 5 t 5 5 9 r 7 4 f 8 4 r 5 t 9 = s d ; t t 1 w 4 4 j 8 d 5 6 , , 5 4 4 5 6 t , ; ; 1 0 5 ; , , t ; 1 6 6 4 , , , 1 , 4 1 * 5 , > w 5 , ; * 3 0 , 1 ; @ , ; > 6 * , 8 , ; , 1 , ; * , ; , % @ 5 , ; $ ; 2 * ; ; @ @ , ; $ ; ; ; ; @ ; @ ; ; + , ; @ @ ; @ , > . $ @ @ ; ; , 4 . ",
"@ O @ O O @ @ @ ; o @ O o ; ; @ @ @ @ ; > 1 , @ @ @ * @ * ; ; ; 1 * ; ; ; @ > @ ; ; , $ * ; * , ; ; , > 1 8 6 ; @ 5 , 5 , , 1 , * , , 4 8 = > > , > , > ; ; * 1 1 5 5 * , 5 4 = t , 5 1 , 6 8 , ; 5 r 4 , ; @ , d d , 5 8 8 5 5 d d 5 r w s 8 7 8 4 9 , 5 s 7 4 t 4 7 , 8 d 4 4 r 8 4 5 8 1 1 t 6 1 * , 8 , t w 5 5 0 r 5 5 1 > , 5 w t 5 5 , , , , , d l 4 , 6 6 w , , * , 5 1 * 5 ; s 8 # @ 8 r 5 ; 8 4 , 5 4 5 8 = s l 9 , 1 5 1 5 , , 5 4 5 5 , 6 8 t , 8 8 4 5 d , , r s d , , 1 t 5 5 d 5 4 6 5 * w t 4 5 5 w 5 w w 6 4 r 8 , s 5 8 8 t t 7 7 9 8 r n s , 1 t 6 , 5 w 5 , , , ; 1 , , , , , 4 5 5 4 r t 5 , 1 5 5 , 5 5 , 4 7 , 1 @ , 9 t 5 4 4 s 9 4 6 , @ 6 5 t 8 * @ ; , 6 8 5 5 6 t 5 > ; , * , d 4 , 4 5 5 , , , , r 7 , 5 1 1 t 8 4 * 5 i 5 t y 5 w , 4 r 8 8 8 d ; , r 9 8 s 5 w , t , 5 , , 4 8 g , 5 w 5 5 8 5 t 5 = , 5 5 5 4 , , 1 ; , , 4 , 1 * t 1 = , 4 , * * 5 , 4 , 8 > , , , , ; 6 , 5 , 1 , , ; , , * , ; ; , o $ , , , > * 6 * ; , * ; ; , ; @ $ ; ; ; ; @ 3 > @ > ; 3 ; * , ; ; 1 @ @ O @ @ , ; @ ; ; @ ; @ $ >   ",
"; o o @ $ @ @ @ @ @ $ # @ ; 5 ; o $ ; ; ; @ , @ @ ; ; ; : @ * @ * ; , ; ; ; @ @ @ > , > @ > * * ; * 1 * ; , * ; * , 4 5 , * , 5 * , 1 , , 5 , > ; ; , ; , w 5 * , t , ; 6 , r 5 ; , 8 5 = 4 5 1 , , 5 4 w ; ; 6 5 6 , 6 4 7 t , , s 5 5 5 , 8 8 9 r 6 5 4 5 d 5 5 4 z 7 4 t 5 8 5 5 , d 5 5 4 5 5 4 ; 4 r 1 , , 6 t 4 5 4 , 5 5 ; 5 s 8 , * 5 6 t , 8 8 8 ; , 8 5 = 6 1 ; , 5 5 , , 6 7 t * ; t 4 0 , w 4 , , 5 t 7 8 8 7 r 4 , 1 , 5 6 9 6 5 , , ; 1 4 7 5 8 8 4 5 4 , 6 t 4 r 5 ; 4 4 4 4 , 5 6 , d 4 , 5 6 5 5 4 6 4 , d 5 5 f 5 d 7 8 , , 4 s 9 , 6 5 k s 1 ; , 5 w 4 4 9 5 , 9 5 7 5 ; z 8 5 4 1 , 5 f 4 4 5 ; , 1 6 t 5 5 t 8 , 1 , 4 5 4 , 4 6 9 5 , ; t , 4 y , 4 w 1 , ; , 5 8 5 , , , , 1 , * 1 6 4 f g 6 5 5 1 , , 8 8 8 5 5 * 4 8 5 y 5 n 5 , 8 0 5 8 t 8 5 d 4 6 , 5 5 8 7 t r d 4 w 5 5 , , 8 s 5 ; 1 , , 1 , 4 5 , 8 6 , , w , , , , 1 1 , 8 , , , , 0 5 5 ; 5 ; 1 > ; ; , 5 * ; , 0 6 * ; @ 1 , ; @ , , , , ; 1 $ ; , @ o ; 1 * @ ; * , , , ; @ , 1 , @ * ; , ; @ ; @ 5 ; @ @ o ; > > 2 @ , , ; O @ @ @ ; @ > $ ; * ; ; 1   ",
"o @ o @ @ $ @ @ @ ; $ @ ; ; * ; $ ; ; ; @ @ * @ > > ; @ @ ; * o @ ; ; ; , ; o 2 , ; , > 1 ; ; ; ; ; , , ; * > , ; , 1 , ; * 1 > * 5 * @ , 5 ; ; , 5 5 > , 5 , = 6 , ; , , * , 5 5 ; , , 6 , e , , , , , t w 5 1 5 > 1 5 , = 4 , , = 4 s s 6 t r 7 f i , 5 , , 4 8 9 , 4 r 8 w t 4 = 6 , * 8 5 7 8 4 t ; 5 w 4 , 0 , 4 5 , , 4 4 4 = 8 5 5 , , , = 6 ; , 5 * , 5 8 , 8 5 y 6 , 9 5 5 6 ; , f s r , , , d d 5 1 , 5 5 8 , * t 8 8 , , 1 4 5 5 , 4 g w > 6 5 * 1 1 , t , ; 5 , 4 4 w , ; , , f t , 1 , 5 6 , > , w 8 1 5 t , 5 8 8 4 , , , , , 5 * 5 l 4 ; , 9 5 1 ; 5 1 , , , d 5 , , , , 5 ; 8 j 4 , ; 5 5 4 9 , ; 5 * 1 ; = 8 5 ; ; 5 1 5 d , , 1 ; , 4 , , ; 5 6 , 6 ; * g 8 ; 1 6 , ; , 9 4 1 , , , 5 1 ; ; , 1 ; 1 , , , , 8 , 1 , 8 4 5 , 1 1 , d 4 5 7 5 , 6 w , t t , 5 1 t , 1 8 5 4 8 s 8 7 t 5 r d 5 , 6 5 5 , , , * * 5 4 5 , 5 4 , t 1 ; 6 > 1 ; ; 5 5 , * , ; ; 0 1 , * 5 , , 6 , 5 ; 0 > > > ; @ * , * > , ; , ; * 5 @ * t 5 6 ; , * 1 ; , ; ; ; > ; 5 ; ; ; ; ; * ; @ @ 4 * @ ; > ; $ > @ o ; , > $ $ @ , ; o ; @ ; $ @ o ;   ",
"@ O @ $ @ @ $ @ o @ @ @ ; $ o o @ * o @ ; ; > @ * , @ ; ; @ ; ; $ * * ; ; @ o ; 1 1 , ; @ * * ; 5 1 , * > , , ; , ; @ > , 5 > @ , 4 5 * ; 1 * , * 5 , 4 ; @ , t w * 1 5 ; , 6 ; , 5 , ; e * 6 , 4 9 , 5 5 4 * , t ; , 1 * , 6 , t e 9 8 f 8 4 8 r 5 s , 1 5 , , 6 8 5 8 8 * 5 6 8 5 0 6 1 4 t 8 5 , f = , , 4 5 0 1 j , ; 5 = 8 g , t w 4 , 1 5 4 4 , 5 4 t 1 5 d 8 , 8 5 5 6 4 4 r , 1 5 s s 5 t 6 , * , 5 4 8 , 5 , > ; 5 i s t ; , 5 4 * 6 5 8 4 9 * , 5 , ; 5 8 5 5 , 4 z 5 5 6 , t , s r , 4 5 4 w , 3 ; r 7 , d 6 5 5 4 9 5 5 , , , , 5 d d 4 6 ; 1 5 5 , 5 , u @ 1 5 9 , 1 * 2 5 , , 4 d 5 , , 5 5 4 5 1 , 5 ; 6 , ; , 4 , ; ; 4 t 8 8 6 , @ ; 0 0 , w 6 , , * e , 5 4 = 5 5 6 e , * 6 4 1 , 6 5 , 6 - @ 1 ; 6 6 5 5 5 5 1 * 6 5 7 4 ; , * ; * 1 5 9 8 , ; 5 , 8 4 5 , , 5 , 0 f 7 , 6 , 4 8 5 5 8 , 1 5 , 5 r , 5 > , t j = 1 ; @ w 8 , ; , 5 , * ; 5 w = 1 5 1 ; , 5 1 * 5 4 , 1 5 1 1 , * @ * = ; @ , 5 * @ ; > > @ @ 1 ; 5 8 , , @ ; * 1 , ; * @ @ , , @ ; > ; ; @ > 1 @ @ , , @ ; > ; @ ; > @ o > ; @ @ 6 ; * @ @ @ ; $ : > >   ",
"$ o @ @ @ o o ; @ @ + ; ; @ @ $ @ , o @ $ ; ; @ * * * @ ; * > @ @ ; ; ; @ ; * ; 1 ; ; ; ; 6 , * ; ; 1 * @ , , , ; * , @ @ ; ; * , , ; 1 ; ; * 2 * 5 ; , , @ ; > * * , * , 5 1 * @ , 6 5 5 * ; 1 5 5 , 8 5 , , w 6 ; 5 1 5 4 4 5 6 , , 5 8 t , 1 5 5 8 , 5 4 , 6 = , w , 5 6 8 = 0 d , 4 s 5 , , 5 1 5 , > , = , 4 5 , , 5 * , , 6 t , 1 ; 5 5 5 y 4 8 6 , 9 4 , 8 8 * s t , ; 5 , 5 , , 6 4 4 4 6 > 5 6 * t , 5 , 5 , 6 6 1 5 5 r 4 w , 7 , , , , 4 f ; * , 1 r 7 , ; j f , 5 5 8 5 r , , 5 5 5 t 4 5 5 ; , , 5 5 d 7 ; , s , 8 t 6 , 1 w , , x 8 5 s , 5 6 8 4 8 = w ; ; t 4 ; > 2 , , = 5 8 @ , , , , 5 , 5 j 8 4 4 4 , 1 , j 7 5 ; , , , 6 6 , 6 5 4 6 , , > * , 5 , 6 , , 5 , ; 5 w , 1 6 1 , 5 8 4 = 5 5 1 * ; , t t ; 1 ; , w 6 5 5 ; , , 6 5 5 5 , , 4 8 5 , 1 r 5 6 6 4 d , 4 8 8 8 * 6 ; 6 4 8 t = , t 4 5 t , 8 , , 5 6 = 1 ; ; t 5 = 4 5 * 8 1 ; 5 4 6 @ ; 5 1 4 6 > @ 5 * , 5 ; * * 5 > 6 4 4 5 > ; 6 > 1 ; ; ; ; > * ; , @ @ 6 , ; > , , ; , 5 5 ; , ; ; @ @ > , ; ; , ; @ ; 1 ; ; ; @ 1 @ ; ; ; @ @ ; * o @ @ o ; @ @ 2 , ;   ",
"@ @ > * @ @ o ; @ @ @ ; ; @ @ $ @ 1 @ @ @ * $ @ ; @ * , ; @ * ; @ 5 ; ; @ > * ; @ ; @ ; * , , > @ ; , ; ; , , , * * 8 ; @ * @ 5 1 * 1 , , 1 , , * 1 ; 6 , ; @ $ @ , 1 5 5 , 4 , * ; , 4 , 5 5 , , , 1 1 t 1 ; 6 5 , 5 , 4 5 8 5 , 4 6 , , d t , > 6 , 7 j 4 t 1 5 , 4 ; ; t 4 , , 8 5 8 f 5 , , y 1 6 , , 1 6 5 w , : 5 8 , 6 > ; , 6 ; @ w 4 * , 5 8 4 = 7 4 , 1 7 , , , , @ , 1 , t 8 6 5 , 8 5 @ 5 t 5 5 1 6 , , f 4 5 6 * * , r 5 8 d 6 > 5 , , i w t , 8 f 8 , 5 5 s 5 * 5 7 w 5 , 4 5 0 8 5 , 6 6 , , 8 4 , l i > 5 t 7 6 4 , 8 8 , 9 t 5 8 8 4 ; 5 5 8 r t = 8 , * w = @ ; ; 5 , 1 0 ; , 5 , , 5 5 1 , 4 f 4 f 4 6 5 5 t 7 4 6 1 2 ; 5 5 , 8 , 5 w , , > * 8 4 5 @ - ; , , , * 5 6 , * 5 , , 4 ; , 5 8 w * , 9 , , , , 1 , 8 4 , ; ; 1 , 8 * , 8 t t * 6 s 4 8 7 5 5 5 5 g d t 5 j 5 , , 5 9 6 8 j , , r 8 4 , 5 6 5 5 d 6 , * 5 , , = 6 5 1 5 8 4 @ , , t * 5 4 = 5 , ; ; , ; ; 4 ; 5 * ; ; , 5 5 = , , o , 8 $ * * , > O 1 @ # @ , 5 , ; $ 6 $ ; 5 , ; 2 > ; @ @ , 5 @ @ > ; ; @ ; * ; 2 ; ; @ ; 1 * @ @ ; @ ; @ @ o > @ o ; @ $   ",
"$ o @ o $ # O @ $ @ 3 ; @ ; @ @ o * @ ; ; @ @ ; ; @ o * ; @ ; 1 ; @ , > , @ * > ; ; ; 1 * ; @ 1 ; * * ; ; ; 0 1 1 * * @ $ ; ; 4 6 ; , * > > 1 , 5 @ , ; 1 , 1 ; 1 9 ; ; , 5 8 5 * > , , , , t 1 , > , * 1 , , 6 5 5 5 , * 6 8 , , 8 d , , , 5 , , w 9 5 4 = t , 8 8 , 6 5 8 4 5 8 4 1 5 4 8 5 5 , , 5 t 8 1 , , , ; 2 5 9 6 8 , 0 * 5 5 6 @ , 5 , ; @ 4 6 4 6 > ; w > ; , t 8 , t , 5 , , 6 5 5 5 t 6 , 5 ; 5 6 5 5 6 4 6 8 = 8 1 ; , 6 5 , 5 6 5 5 4 * w 6 4 , 1 , 8 1 * , 5 1 , , ; 5 5 ; 9 5 5 d 8 ; , 5 4 4 8 8 8 5 5 4 8 5 5 , , 4 8 , 6 8 9 8 , , , 5 t 7 5 5 , 5 5 6 , * 2 * , 5 1 * @ t z , * 6 5 , , * 5 6 , , s , , , , , 4 , 1 * , 1 6 5 = 5 5 ; , , t w 5 , ; 1 , , 5 1 , , , > * , w * 6 * 5 5 5 = 1 , 4 , , 4 w ; * 5 * , w ; 6 4 4 , , , t , , 1 t 4 8 , 6 4 5 , 4 , 4 ; , 4 w 5 , , , 4 w 8 , d 8 6 4 5 , , 5 5 5 = , 4 5 5 1 1 , , 5 * * 6 5 , * * , * * , , * ; , > 4 , , > , * * , , ; , 5 , @ * , ; , , , ; @ , ; @ ; * , , , 6 6 ; + , , ; > @ ; ; ; ; @ @ @ * ; 2 > @ * > * ; @ > ; , ; ; ; ; ; > ; * * 2 > ; ; * >   ",
"@ o @ @ $ @ o @ ; o O @ $ $ o * ; @ ; @ ; $ o * , , 1 @ $ % @ ; ; @ 5 , * $ $ , 5 , 4 , * > $ @ > @ $ ; ; * ; @ ; 1 @ , ; ; , , , , , * ; @ , 7 t * 8 $ , , 4 5 4 , @ o $ , 8 5 , ; * 5 5 * , 5 , , ; 2 1 ; 6 , , 8 1 > > 1 5 6 5 9 7 4 t , 5 , 6 5 5 , , d 6 5 4 8 4 8 8 5 8 4 8 5 2 , , 4 , 9 4 , 4 7 5 5 * 5 , o , 5 4 5 5 4 9 * , 8 5 ; 2 6 , , X * 4 w , o > , @ 1 5 4 s , , 5 * > , 4 0 ; - , , 1 > * , , 8 w @ 5 6 , 4 s 8 1 , w , , 5 , 8 8 1 # * 4 d ; ; 8 w 1 > 5 4 5 ; ; # 4 8 0 , 5 5 , , 6 w 5 s r 8 , 6 8 4 1 , 5 5 5 6 5 8 @ 2 9 4 8 1 * ; 6 5 ; 6 t 4 4 , 5 0 , 6 9 ; 5 1 ; 1 t 4 8 , 4 , , > ; 5 w 1 5 8 , > ; @ > 8 5 5 > * * 1 ; 1 1 @ ; 5 5 4 4 t , , 8 8 4 , 5 , ; ; : , 5 4 , , ; , , 5 0 6 3 ; ; 5 8 6 ; - > - 6 4 , , y , , 9 1 4 9 8 ; * 7 4 1 5 4 5 1 5 , ; > ; t 5 7 t 1 4 5 , , 5 8 5 5 8 4 , 5 ; @ 5 , 1 , 5 * ; , 4 * ; 1 , , , 5 ; > 6 5 , 5 , @ @ 5 , r , , ; 5 5 1 6 ; @ , 4 = , 5 $ 1 , , 5 2 , ; * 5 4 * @ > 8 , * ; @ @ $ * * 3 @ ; * ; > ; o @ * @ @ * 2 * ; ; ; 3 @ * ; ; * @ ; @ @ @ ; ; ; * @ @ ;   ",
"@ @ O $ ; o # @ ; ; @ $ @ @ @ O % @ > > o @ , 1 @ $ > , @ @ @ * * @ @ * ; ; ; ; * * o 1 * - ; @ ; * ; , , , , 5 , 4 * 5 ; * > ; * , , , ; > > ; * 4 @ * ; > * = 6 , 5 , ; = 6 6 * , > ; 4 , , ; 2 , ; t ; , y , * 1 , i d , @ 6 , , 9 6 e 1 , ; 1 t 4 > ; 5 , 5 w , , , 6 4 0 , 1 5 ; i 8 ; > 7 , , 4 ; , 5 5 4 5 ; , 5 ; 1 1 6 , > 5 , ; 5 7 , ; t 1 ; 5 4 ; 5 t t 5 5 8 = ; > > ; , 9 , 6 5 , 1 > , 6 5 9 , 5 8 8 5 5 t 5 ; 5 4 4 , 3 @ 5 4 , > ; * 5 5 9 5 ; 5 d 1 , , = 6 5 , 4 5 0 5 4 8 5 1 * 4 s s = t d 4 , 8 4 w , 6 6 5 8 5 4 4 4 r t , 4 , 6 ; * , ; > 4 > 5 4 8 t , * 5 , 4 w , 6 1 , , , 1 ; ; 6 8 0 ; ; 1 ; ; > , 5 , 1 w 5 > ; ; * , , , ; * 5 9 0 ; 1 t * 1 6 , 1 , 5 5 , , ; > 5 8 g d 4 , , , 5 = > 8 8 s 5 1 > 1 , 5 w ; ; > , 5 w 1 5 s 8 1 ; t h 4 , , 5 , 1 4 t , * w 8 , 9 5 , 5 5 8 t * , 5 5 ; > 5 , 8 6 ; 1 6 5 , , , , 4 , ; ; = , , ; 6 > ; ; , 4 1 ; 5 5 6 * ; 1 , 0 ; ; , , ; ; 5 4 * , ; > > , 2 5 ; , , , ; @ , , ; , o 5 ; * ; 1 $ $ @ 5 * ; $ O @ ; ; > ; 1 ; ; > @ ; @ o $ ; @ ; > # o > $ O # $ - ; $   ",
"* @ O @ ; @ o o > @ o @ $ @ o o o $ @ ; @ $ @ ; ; @ $ 5 > ; ; @ ; ; o @ , , * ; > ; ; , , @ @ ; ; ; > 5 5 * ; ; , , ; , , , ; , @ 5 , * * 1 , ; , 1 , @ @ > ; , 6 ; 5 5 , 1 5 5 , 4 5 6 , , 5 , 4 , , , ; 5 5 6 , , 1 7 8 5 , ; 1 5 * , , , 1 , ; 4 5 8 , ; 5 4 5 , 5 , 5 , , 5 1 4 5 9 6 , 9 5 1 ; 5 t , , t , , ; , 6 5 , * 5 = * 5 ; , 5 6 5 4 6 5 1 1 4 w 5 , 4 * 1 t 1 5 5 , * 4 1 , , , 4 5 , ; , , , , 5 , d 5 4 5 , 6 5 , t 5 @ * w f r = , 8 5 , , , , y 1 , t , , 4 , 6 6 5 4 4 6 5 6 , 5 , 8 5 , 1 r 5 , @ r 8 , 6 , t w = 8 8 5 5 5 r , , 7 , ; ; $ * 6 ; , 5 , 4 , , 5 , 1 1 , , , , 6 5 ; * 5 , 5 e , , ; , 1 , , 6 1 8 5 * ; * 1 5 , ; 2 ; * 9 , 5 * , 9 5 5 ; ; 1 5 1 > , 2 , * , , 5 , 5 , 1 , ; , 1 8 4 t , * 5 6 ; , 5 ; , 5 1 5 5 , * 8 5 4 8 5 g 5 , 5 6 ; , 5 8 5 5 g = , 5 r 5 1 5 4 z , * 5 , , 5 5 1 8 , , 5 1 * , 5 2 , w > = 4 1 , , , , , ; ; 6 , * ; 5 1 ; * , 1 e ; ; ; ; , * ; 1 1 1 ; * > * ; * , ; 1 3 ; , , 1 * ; * * * ; > , ; @ @ o 3 ; , * @ 2 ; ; , * ; ; * @ @ 2 * @ ; * @ ; @ @ o ; $ o $ o : > *   ",
"@ @ O @ ; ; O O ; o o $ ; @ $ @ ; @ o ; * @ $ ; ; > @ ; * @ ; > @ @ ; * * , * * $ @ , , 5 * @ , , ; @ ; , * $ * * * 9 ; ; 6 ; * , * - ; * 5 * ; 5 1 ; > 1 ; @ > ; > 5 * , > 6 5 5 , 6 , , , 8 4 t 6 , * 6 , = 7 y 6 , 4 4 5 6 , , 5 , 1 5 , ; 6 , 6 , 7 d ; 1 ; 1 1 ; , , , @ , 5 5 5 o @ d 5 , , , , 5 5 , 1 , , , 4 > * 4 5 5 , , , 8 5 @ ; 5 t ; 9 , , 4 8 5 * , , , * * 9 5 8 , 8 ; 1 ; 5 5 0 , , 6 ; ; 1 6 * , 5 5 , 5 6 4 1 , , 5 , , 1 t r , 5 8 t 4 8 , 5 , 5 5 6 1 , , 8 ; 5 5 , 5 5 , 5 5 6 = , 2 * @ w 8 * d 5 , 5 ; ; 6 5 8 8 * , 8 8 4 0 r r 5 ; , , , 5 * 1 , , 5 5 0 5 ; , ; 5 1 1 1 5 1 * , 5 8 6 ; 5 ; 6 t 7 , ; , 1 , , , 5 , * 1 , @ $ 5 , ; 1 6 , r 9 , > ; ; 5 1 ; 1 t 5 * ; , * 4 , ; > ; 1 , 4 4 ; $ ; 6 , 8 5 ; > 5 5 ; * 0 = 8 > ; 5 7 j * * 6 8 ; 1 t 4 5 , 8 4 1 , 8 5 5 6 1 1 , 4 * , , 4 j 4 , , , 4 6 5 * ; , ; , , , ; 5 5 , , ; , * , 5 5 , ; > ; ; @ ; ; 4 * @ O > > * ; , 1 ; @ @ ; ; 1 ; > @ @ > > $ * 5 , o ; ; $ 2 ; @ 1 ; @ 3 5 ; $ @ o , , @ > @ * , @ o ; ; ; @ ; ; ; ; ; * @ ; > @ @ @ * $ $ 1 * . ",
"; @ @ O ; @ $ @ O ; > ; O $ * ; @ @ O > @ ; ; $ @ ; ; @ ; ; @ @ ; @ * 1 @ @ 1 , @ $ * , * ; @ ; , , @ ; ; ; ; ; , * 1 ; $ 1 , ; ; > @ ; ; 5 5 1 ; ; ; $ ; * , 6 @ , 5 ; > @ ; 5 , ; , 1 = 2 , 5 8 ; , , ; * t 5 , 5 4 1 t 4 , , > , , 1 5 ; ; 6 4 6 5 4 0 * , * 9 1 $ 5 5 1 , , 8 , ; ; 5 4 5 1 * 4 5 , , * 2 , , 5 4 > ; 5 8 4 w , 6 w , ; ; 5 5 , @ , , w , 5 5 6 7 6 , , , 7 w 5 5 1 , , w , 1 , 5 , ; 1 * = 6 * , t 5 8 4 , 5 1 5 1 6 ; @ 5 5 , , 5 6 , t * 5 t 5 4 4 , 1 6 , 5 , w t * , ; , , 4 , , 5 * , 1 5 8 4 , 1 , 5 , , , , 5 , 5 , 5 w 5 4 5 7 8 4 t , 8 5 , ; > , , 1 5 , 6 , * , 1 * ; , 1 5 5 8 , * 5 * 1 4 5 , @ 5 1 , 6 y 5 , ; ; 5 2 @ 4 , ; 1 w 9 5 4 , ; > 1 , ; 1 , 5 , ; 1 > 6 , , , , 1 , , 5 ; 1 * * t , 4 8 * ; 5 , * 5 w > 5 6 , ; 8 j 5 ; 5 t , * , 7 5 5 t t * 6 8 4 , r ; , 6 8 6 6 5 f 1 5 , , 1 , , 6 5 ; ; 1 , * ; * 6 5 , * 1 , ; , , 4 ; ; ; , ; 6 ; @ , , * * , ; * * 1 * ; > * , ; 6 , ; > ; , o ; ; 5 , ; ; ; > 2 * ; > @ > ; 6 ; : $ o , , @ @ ; ; 1 > @ > ; ; ; * @ @ ; * ; @ > ; ; @ @ > 3 @ $ ,   ",
"@ @ ; o O O @ @ O $ , - O o @ ; $ @ ; ; @ @ @ @ @ @ + @ 3 @ , $ , 2 > 5 ; * @ $ ; 5 ; ; @ ; ; * ; ; @ * ; ; > ; @ , ; ; , * 1 @ @ ; 5 * , ; , ; @ * ; $ ; 8 8 1 , 5 * * 1 , ; 1 ; > ; ; , 5 5 , 5 * , * 5 5 , , 4 , r ; , 9 , * , 5 5 * ; ; , g 5 4 r 6 5 6 5 t 4 , 6 , , , 5 5 , ; * , 7 4 , 9 6 8 t , , , ; , 1 , , , , , * ; 1 - 6 1 ; 1 ; 6 1 > , > , 5 ; 5 , , r 5 , , 5 ; ; ; ; 6 t 1 1 4 , , , 1 ; 5 6 5 5 6 * ; , 6 4 5 5 5 d * > 1 5 5 > * 6 ; ; * , 5 5 , , 9 s 8 w > * 8 ; 5 , 4 t , 6 5 5 1 6 5 4 5 ; 5 8 9 , 8 , 5 1 5 = , 5 8 5 , ; ; 6 , * 4 8 5 8 5 4 5 5 ; > , , , , 4 5 4 , 4 6 5 1 , 5 1 , 4 4 5 5 , , 4 4 ; > , 5 , 5 , 1 ; 2 ; , 6 , , 5 , , , , , 1 6 , @ > * , 4 , , , , , * 5 5 5 6 4 5 , 1 1 , , 6 6 * , t 5 5 1 , , 5 , ; ; * , , * 1 8 7 , 4 8 * * , 5 * , , t , , , 5 , 4 , , t 8 5 , r 8 o * 8 t 4 , , , 5 1 * ; 5 , 1 5 , , ; * 5 1 * , 5 4 ; ; ; , ; * @ * @ ; , t , * , 5 1 ; ; 5 t 1 , ; * * 5 1 ; ; ; ; 1 1 1 , * * , ; $ > , , @ ; 1 ; @ @ $ > 1 @ ; @ ; @ ; ; @ ; , @ ; > ; @ @ o @ @ @ ; $ @ @ , > >   ",
"@ @ @ O O O O O ; @ ; o @ ; ; @ @ ; ; @ @ ; * ; @ O * ; * @ ; ; ; ; * @ @ ; ; o ; > ; @ @ ; ; ; ; @ 1 * * @ > ; @ , = @ ; * ; > @ * 0 5 , @ * 2 , , , $ * , , , ; 5 ; , , 1 1 ; * * * ; ; 4 5 ; ; > * , 5 , , 1 6 ; , @ , 5 4 6 * t s 1 > 1 , 8 5 5 r * , 5 , 4 , t 5 , 4 4 5 * @ ; w 5 5 5 , 4 5 7 , ; 1 1 , , 5 5 > , , 1 , , * @ 6 2 1 , 4 ; @ ; , , 6 , 1 t , , 5 ; 5 , 1 * > , ; , 5 , , , * , ; ; @ , 5 5 , 8 , > * , 5 , , 5 l = @ ; 6 , * t , * 6 , 5 , * 5 5 8 r 5 5 , ; 8 ; 1 4 4 t , 6 5 , * 5 , 8 5 6 5 9 s 5 ; * 8 5 5 t 5 , t 4 , * w * , , 6 5 t 5 4 4 5 5 * @ 6 6 , , w 4 5 t , 5 5 4 6 1 * ; * 6 5 , 5 6 5 6 ; ; 1 , 6 6 @ ; * 5 , 5 @ , 6 5 , , , ; ; > ; , 5 1 ; , , 5 1 ; 5 t ; , , , 5 6 5 5 5 = 8 * , , 6 1 5 9 , * 5 1 5 ; ; , , 6 5 , 1 5 t 6 5 , 6 t 5 5 5 , * , 5 , ; 6 1 , 1 , , 4 5 5 8 8 6 ; 5 5 , * , ; , = , 6 , , * 6 6 + > , , , , , 4 6 @ > 1 ; ; @ 8 5 # @ , 6 ; 6 ; , * , ; , , ; , 1 * ; > @ , ; ; @ ; @ * ; > ; ; ; , ; ; ; ; ; * ; @ : @ @ ; @ @ ; ; ; * @ ; 1 ; @ > ; @ % @ $ @ ; @ ; @ $ $ @ @ O   ",
"@ o O @ @ o O O $ @ O @ ; @ @ # $ @ ; > ; 3 ; * @ $ ; ; @ ; @ > ; @ ; ; @ @ 1 ; @ * @ ; ; $ o @ > , 6 1 * @ ; ; > , 5 , > * * > * , ; 5 , ; ; , 1 , 8 , ; ; * ; ; ; 5 , , , * , , , , 1 1 4 , , 1 6 4 , * , 5 , @ , ; @ 2 4 , , * 0 6 , , 5 , , 6 4 5 6 , 1 1 8 4 , 5 * ; 6 , , 5 , r 7 6 , , t 4 , , 1 ; 4 5 , , 7 ; @ ; , 5 , 1 1 , ; 1 5 5 5 5 4 8 , 5 5 1 , * , * ; , 5 5 , , 5 , @ , 4 w ; > , , ; @ , 6 * ; , 5 1 , , t > @ , 4 g , , = 4 5 8 , > 8 5 5 @ @ e s , ; ; 1 , , , , w , , 5 , , 4 5 4 , * * 5 5 1 6 8 d 5 , 7 8 ; , 0 5 , , 1 1 5 , 5 6 * 5 , 5 5 6 , , , , 6 , , 5 ; ; , 8 8 , , , ; , 6 1 = e 1 , ; 1 , 1 5 1 5 ; 4 , , 5 1 4 5 6 ; , 5 1 8 5 ; > 1 2 ; 5 5 * ; ; , > , , * 9 1 > @ 1 , , , , * 9 8 5 , , ; 2 ; 5 ; * 6 4 , , ; 6 5 , 6 ; w 8 9 ; ; , 6 , * * 5 5 5 , = 5 , , 5 * 5 5 , , 8 , * s f t > o 1 , 6 ; , , , , 5 , , ; 4 , > ; , 5 5 > , > , @ ; @ , , t 1 , ; * @ * , ; 1 ; ; $ @ * ; @ , ; * ; > * ; 5 , ; e > ; * > * ; ; ; ; @ @ ; @ ; ; ; ; ; , > ; > @ ; * > ; ; @ * @ ; @ o % O * > @ ; @ ; ; @ * ;   ",
"@ @ @ @ @ $ @ o @ @ O ; o @ * @ o @ o @ @ @ @ ; ; @ @ ; @ ; @ * @ , @ ; @ @ ; * > ; ; * ; @ o : @ , , * 1 > @ , 2 * , ; @ * > , * * ; , , , , , 6 , 5 , * > @ ; > @ , , 9 ; @ w 4 , 4 ; , , , * 5 , w * 5 5 , , > , 1 5 ; , , , 6 * , ; 5 , 5 , , ; , 5 5 * ; 1 8 , 6 5 * 6 9 , ; 1 5 , 5 , , 1 5 , 6 , * 5 ; 6 , , 1 o 6 4 5 , , 5 , 1 ; ; * 5 8 , 5 , , 1 * 1 5 1 - d 5 5 6 * 5 5 d @ ; , , ; , 6 5 , 3 > , , , w , 5 4 8 6 @ 1 6 * 5 4 4 6 y 4 5 ; t , 7 6 2 ; , , , 1 ; * 5 8 5 , ; 5 9 5 * , 5 s * 1 5 , 1 * , * 5 5 , 1 5 , ; 1 , 6 , ; , , 4 * 8 6 @ @ 0 7 , , > * 6 4 5 5 t ; ; 5 , , 6 , 5 5 1 , 5 , 6 5 , , @ 1 6 ; , ; , 5 , * 0 4 8 , , * w , * , 6 5 1 , , , 5 , , , ; 5 * > * , 1 * , 2 1 ; , * 1 4 , , 6 8 5 5 , * 5 4 5 , * , 1 5 * , , 1 5 , , , ; ; ; , 5 5 , , 5 5 > 1 8 8 ; , 5 , 6 ; > ; 5 5 * 7 7 , ; @ , , * ; 5 8 5 , , 5 , ; 5 5 * ; 1 @ , , * ; u 1 > ; , ; ; @ ; * * 2 , , , , ; @ ; * ; ; : @ ; ; ; ; ; , , , @ , * @ @ ; ; * , ; > o O * 1 , , ; ; ; ; * * @ 3 ; 2 @ @ 1 ; ; * ; , @ > * ; * @ @ @ @ ; @ * @   ",
"$ @ $ @ O o @ @ @ % @ O @ $ ; @ ; @ @ ; > ; @ @ $ ; * @ @ ; @ $ $ * ; ; $ ; ; @ @ ; $ ; ; @ > + $ ; * ; ; @ ; , , 1 * $ ; * 5 > @ ; ; ; @ 5 , , , , @ , ; , , * , @ > , , 4 4 @ 3 > ; 6 , , ; @ ; 6 ; 5 5 , , 6 ; , ; 5 5 5 1 ; ; 8 ; , 5 , 6 4 4 ; ; > , 7 t > * w 6 2 , 4 8 4 ; , 1 , 5 , 1 @ * 9 5 ; 1 5 ; , ; 4 > 7 8 8 s 6 @ @ * 5 5 , 6 ; , ; , 5 w ; , 7 8 , 5 t 8 7 4 ; 1 , , , 6 , 1 5 , t , 7 d 4 1 1 , , 5 , 4 8 4 , , ; 1 5 5 , ; e , , , w 9 , , , 5 5 w t 8 5 , , 8 , 5 > ; t w @ ; 4 , , t ; 6 t , , 8 1 5 6 , ; 5 5 5 g 8 t ; ; ; , ; 5 5 ; 1 4 , ; , , 1 1 0 , , 1 , 5 4 5 4 1 ; , 1 , 1 5 1 5 6 ; > t 6 , , 1 ; , 1 e 5 5 > , 8 4 ; ; 5 , 5 5 , * , ; * , 9 * ; , 6 ; * > * 5 5 1 1 , ; ; 6 ; ; , , 1 , w , * ; > w , > , , ; 5 1 ; 5 t * 5 5 , 5 5 5 ; @ ; 1 , , 5 $ ; 6 , 1 , r 4 , 6 ; * , w , 5 , ; s , * @ > ; 1 ; * , , 6 ; 5 ; ; ; * , , * 5 5 + 5 4 , $ ; ; , ; , 5 ; @ * @ 2 @ * > ; @ ; @ @ > , 5 > 1 , 6 1 * @ > , , ; @ ; ; o ; ; , @ > , ; ; @ > > @ $ @ * $ @ , , * ; @ @ @ @ ; > * o @ ; > @ * > @ ; # $   ",
"@ @ o @ O O @ @ $ o @ O o ; $ @ $ ; ; ; ; @ @ $ @ ; 1 ; ; @ @ @ @ ; ; @ ; ; @ @ @ * ; * 6 > @ @ $ , > * , ; ; 5 , * 1 $ ; ; , @ * 1 ; @ 1 , ; ; e , ; 1 , 1 ; ; > @ ; , t s , @ ; 1 > , , * * ; * , ; 8 4 = 6 6 @ * 1 5 , , 5 ; , 6 > 6 , 4 , , 5 , > , , r 4 5 1 * , , * s 5 ; ; , 1 , 4 5 5 ; 5 9 , , 6 1 * , ; 6 $ 5 d 4 6 , , ; , 8 s * @ * e , 1 5 , ; 5 4 5 , , w 4 5 6 > @ , , 1 , e 4 , 1 5 , 5 4 5 1 * 5 , s 5 , 5 6 7 , * 5 5 t , ; 1 5 ; , * , 5 , 5 , w , 4 4 t 5 , 6 6 5 ; ; 6 , ; ; , 4 6 6 * * , , 5 , , 5 , 6 , ; t s s 8 , ; 5 , ; * 5 , ; , , 5 , 5 * * , t 5 , t 5 , d , , 1 ; ; , * 1 , , , , ; ; , , , , ; , , ; 4 4 ; * 1 , 5 6 5 ; , , 5 , , , 1 6 , 7 , , * t @ , 6 , 1 , , 4 6 , * ; , > , = 1 6 , , 5 * @ 8 ; , , 8 6 , , 1 4 5 , > * 1 5 8 , > 1 , 6 5 t 5 ; , 6 @ , , 6 , w , 1 ; ; 1 6 , 1 , t = , 6 ; ; , , > ; ; , , , ; @ , ; , , , 5 1 1 1 ; , ; ; * 5 * , 5 > $ @ * @ * ; @ ; ; 1 2 > ; , , @ 5 1 , , * ; ; ; 1 * ; * > > * @ 2 @ @ * ; > @ @ $ @ $ * @ $ ; , * ; @ ; $ @ > @ @ @ @ @ ; * , 1 > @ @ @ +   ",
"o @ @ @ @ @ o o @ @ @ $ @ ; ; ; O @ $ @ ; $ @ @ ; @ 4 , * @ @ @ @ @ @ ; ; @ ; , , 1 ; 1 ; ; @ > > * ; ; ; , * , , ; @ 1 ; $ @ , 4 , * * 1 * ; 1 , ; ; 1 5 @ @ ; 5 , , 1 , , * ; ; , ; ; , , , > , 1 , ; , 5 ; ; ; , , 1 , 5 ; 1 1 4 > ; 5 4 5 5 , 5 * , 6 8 , ; 1 1 , 5 , 6 , @ @ 5 1 5 , , , ; 6 4 5 5 , 5 g 9 5 @ 1 , , @ @ , , 5 ; , w r 5 , 1 * 5 , , , , > , 6 6 > * 6 , @ @ t 9 1 ; 6 , * ; 5 , , , ; 6 , 5 8 s 8 , , 1 6 6 6 5 5 5 , ; 5 , , , * , w 1 5 0 , $ 9 4 4 y ; * , 5 5 5 , , , 4 , 6 * 1 5 4 * , 5 5 , 5 8 5 5 5 6 4 4 8 , , * 8 8 * 5 , 6 , , , 5 9 5 , , , 4 , , 5 , ; , , 1 ; 5 * 4 w , ; 6 8 ; , , 8 1 , 5 6 6 ; 5 5 ; + ; * 5 , 6 , 5 , ; ; 1 1 ; ; @ ; * 2 , ; * * , 1 > @ 1 , , 5 5 5 , = , , , 5 @ 4 , 6 6 , 1 , , 5 5 5 , 6 0 1 , 1 ; 6 6 , , 5 t = 6 * 8 ; = 6 , , , , ; ; 5 , , , , , , t > ; 5 , , 1 ; , , 5 * * 6 5 ; ; , , 5 ; , * ; * * 5 ; * 5 6 * , ; 1 5 , , 5 > * , 6 6 @ > ; * * @ ; ; ; 5 , > ; ; > 2 @ o 2 2 * 1 , ; , ; @ @ @ * * $ @ > ; ; , ; @ @ o $ @ ; ; @ ; @ > @ ; ; ; @ ; @ ; ; ; @ @ ; @   ",
"@ @ @ @ @ $ @ @ @ ; @ @ @ ; o * @ @ ; o @ ; * o @ @ * ; ; ; ; ; ; @ @ , * @ ; ; , , @ ; , * , , > * , ; ; ; * , ; * @ 6 1 @ ; * , 5 , , ; ; , * , 1 @ ; @ @ , , , , ; $ + ; 1 ; 1 , 1 ; * 6 , , , * * , 6 ; @ > ; 4 ; > * 5 5 , , 5 ; , * , z = , t 1 , 4 4 5 * ; 5 , 5 , , * , 1 , 5 9 , ; 5 , , 4 9 , * 5 8 5 5 * * 5 1 > @ 5 , , ; 1 , 5 9 , , > 4 , , 5 1 ; * 4 5 ; * , , > 5 5 4 ; , 5 5 5 ; , 5 ; 5 , 6 5 8 5 4 8 5 * ; 5 4 8 , , 6 4 , 4 5 5 , 5 0 4 , 4 5 6 @ 6 5 * t 5 > 6 , 5 5 ; , , t , , ; * 6 r , t 5 5 t 4 4 8 1 ; ; , ; 1 w 5 6 5 4 , 5 4 7 8 1 5 1 4 8 4 6 ; 1 * ; 5 5 > , ; , 1 , 1 , 8 , , 1 8 ; 1 5 6 , , 5 4 , 5 , 1 1 , > ; @ ; , , 5 5 9 5 ; 1 ; w > * > ; 5 @ t 1 , ; * * 5 5 ; * 5 4 5 , , , 4 , , 1 4 9 , > 5 , 1 , * 4 5 4 > , * 1 5 , 4 1 , , 1 , 6 @ 1 ; , t , , 1 1 > , ; , 6 1 ; 1 ; 5 * * , 4 , > ; 4 5 , ; 1 5 5 ; ; ; 6 1 , 5 , * > ; ; ; ; , 4 * 6 * , 1 , 4 , ; 1 , 4 , * > ; ; * @ > > * 1 ; @ , * @ ; ; > ; * 1 @ ; , ; > o ; > ; @ @ @ @ @ , , ; > $ @ $ o ; 3 @ @ $ @ @ ; ; 1 @ $ $ o o > @ * $ ;   ",
"$ o @ @ O o @ ; @ @ @ ; * @ @ @ > ; @ $ o ; 5 @ o ; , $ @ ; $ * ; > ; ; ; ; o @ ; @ ; * @ ; ; * , @ ; ; ; 1 , ; , ; ; 4 5 ; @ ; ; * ; * ; > , @ ; ; $ 5 ; ; 1 1 5 @ @ 1 , ; 1 , * * ; ; * , , * , 1 , ; > > > > , , , , , , * * , 5 1 6 * 5 * , , 4 4 5 > 5 d , 6 6 6 , * t 8 , e @ 6 6 , * , 4 4 , t 9 , , = , w 5 * , , ; 1 , 1 5 , , 1 ; , , 5 , * , , 4 6 ; ; 5 4 , 1 2 1 e 5 * 1 @ ; , 4 , ; , 5 , ; ; , , 4 4 4 @ 6 1 1 * ; 5 ; 5 , 5 5 5 w 4 * , 5 6 5 , @ , , , ; 5 e 1 5 5 , 1 5 ; , 1 6 ; , e = t 5 1 5 5 ; 5 d , , > > 2 , 5 6 5 + w 6 , 8 5 1 4 * 1 > @ 5 , * 1 5 ; ; 6 , , ; , 1 * @ ; 1 * ; , 1 1 ; , = , , = 5 5 ; , , @ ; , , = 1 , 5 , , = , > ; > , * , 1 ; , , , @ ; 1 , , ; 1 1 , , 1 1 ; , , , , 5 1 1 5 1 , * 1 , = , , ; ; , 5 , 1 , , ; , 5 5 , @ , 5 ; 1 5 , 5 1 6 * , 1 , , , ; , 6 * , 6 = t , 5 , > , , ; * , , 1 = 5 * w ; 1 ; * * 5 , 1 , 1 > ; ; 5 * 2 > @ @ ; , * , ; @ 1 * * ; ; 2 @ ; 1 , 1 o @ * 1 , , 2 * ; ; @ * @ ; ; ; ; @ , > , ; > ; * ; ; @ * , > ; @ * ; @ ; @ 2 @ @ @ @ ; @ ; @ @ ; > @ ; @ ,   ",
"@ @ @ @ o O o o @ $ @ @ @ @ ; @ ; ; @ ; @ * 1 @ o o ; @ ; @ @ > * @ , ; * ; o @ @ @ * $ ; * > @ $ @ ; @ @ @ , @ ; , * , 1 ; > ; @ ; ; $ @ ; , , @ > $ , , 5 ; * , > - > 5 , * , , ; ; * 5 , , @ ; 5 5 * ; > * ; , , 6 5 ; 1 5 5 , 6 ; 4 5 1 + 1 * , , > = , 1 , , , 6 , ; , 5 , w ; 0 * 5 1 , 5 8 , , 1 , , > e , 5 ; 5 8 , 6 * , 8 9 ; , 1 * ; 1 4 * 6 , , 1 ; , 5 8 4 6 , @ 5 , > , @ > * 1 ; 5 5 , , * * 6 2 , * w $ 1 5 5 5 5 , , 1 , 5 , 4 5 , 6 5 , , ; > , , 8 5 , , * , , = 5 * ; ; 5 , * 6 , 5 8 , 1 5 , , 1 4 5 , 1 1 ; @ , , 5 , > ; , > 5 ; , , , 1 ; ; 6 ; 1 6 , , > , 1 ; ; = t 6 o ; , > $ ; , ; ; d 9 5 t , ; , , ; ; 5 , 1 4 , , w , , y ; , ; * , , , 6 1 * * 1 1 4 @ ; , 5 1 ; 1 * ; ; 2 , , 5 ; , ; ; ; , , * , * t 4 , , 1 ; , , , 5 , , ; 1 5 5 5 1 > ; * 5 4 4 @ ; 1 > ; ; 1 5 t , ; 1 ; , , , 8 , 6 ; ; @ 6 , ; 5 ; ; ; , * = > @ * 3 @ ; ; ; * , , * , 6 > @ * ; ; ; $ @ * > @ ; ; ; 6 * * ; 1 , * ; ; ; ; 1 = e * $ 1 ; @ > @ @ $ * * > > * @ ; ; @ * > @ ; @ ; ; ; @ * ; ; , ; @ @ @ ; ; o 3 ; > ; @ * $ ; @ ;   ",
"o @ o o @ $ @ @ @ @ $ ; o @ ; @ @ @ @ ; 2 ; @ @ > ; ; 1 ; @ $ , @ * * @ @ ; , * @ $ * @ , * ; ; > ; , ; > @ ; ; * * , * , > * > ; ; 3 $ @ * , , > ; @ , * , , @ ; 1 , * @ 2 4 5 6 6 ; , , @ , 6 , , , , * ; , , , 5 * , 1 , 5 ; @ 1 1 6 5 * ; , , 4 * ; , , , 6 , , , ; > * * , , , ; ; 2 , 6 > , 9 5 * ; ; ; > , , * , 4 > * , 1 , 4 * ; 1 6 6 5 ; ; 7 5 * ; , 5 6 * , 5 6 6 5 6 , ; > 1 , , 5 , , , , 5 , 1 ; 5 6 6 > = , 5 ; 5 4 4 6 $ ; 1 5 6 ; 1 , , 6 * ; e , 4 4 , @ 1 5 5 8 0 , , ; 1 4 5 , , 5 8 , , 6 1 , 0 , t , * ; 1 5 , 5 6 , , t , * , 5 1 > , , , 1 > ; , 6 , 6 , 5 , ; 1 ; , 6 6 > 1 5 6 5 , * 2 > 1 > 1 , , * ; , 1 5 4 , , 1 , 1 ; = , , , 6 , * , , 1 * ; , 4 , , , 2 ; * ; , , ; ; ; ; , , 5 , * @ y 1 + ; > ; , 6 1 , 1 5 1 ; , , , 5 6 * * , , 5 , > , , 0 5 8 * ; 1 = 4 5 , ; 1 , , 0 ; , 5 * @ , ; , ; , ; , @ 6 ; ; 5 1 ; , 1 ; > , * ; , , > @ 8 5 , @ 1 ; ; ; 1 * ; 6 , > 6 @ * ; 5 , , 1 , * @ @ 1 ; ; * , * @ ; ; ; 2 * @ ; ; @ o ; ; , $ ; ; * @ * @ 1 > ; @ ; ; ; @ o @ ; @ @ @ @ > o o ; > * @ ; ; , o :   ",
"@ O o $ $ o # ; > o @ ; o , * o # @ ; , , @ O @ ; ; @ 4 * @ + ; 1 * : O @ 1 = ; ; $ * ; , ; ; ; ; , ; , ; @ * , 5 * 1 ; @ ; @ > = ; * ; $ $ * ; ; @ @ 1 , ; * ; ; , = ; $ > , t , , 4 @ @ > - ; , , * 5 > > @ 5 5 ; - @ , , , @ ; 5 * , , * w 5 7 8 , , ; ; e 5 , 4 5 , * ; ; ; , > @ , * * ; , 4 f d , @ ; , , 5 , 1 $ @ ; ; ; 5 1 > ; 6 8 7 5 , , 1 i 9 , 1 , 5 5 5 @ ; t 4 * w 5 * 6 5 8 5 ; @ , ; 1 , * , w = 1 5 5 9 * 1 * 6 4 4 > @ ; , = 1 * , * 5 t 4 ; 5 5 5 , 1 @ 1 5 4 d @ 5 t , , 4 , 1 , , , d 1 , ; ; 6 5 , * * 1 , 8 t 5 , e , 4 , , - 5 , ; ; 5 8 4 1 1 , 5 , 1 , 4 1 5 6 o , 9 7 , * 4 5 4 5 , ; ; @ 1 @ 1 5 * 5 1 , 5 , , 6 1 ; , , 1 , ; , 5 5 $ ; * , ; 3 1 , 0 , 1 * > > ; ; @ , 5 , @ ; * = ; * ; , * 2 ; ; , t ; ; 5 , , , , > ; ; * 5 , * , , 5 , 1 @ > * ; 2 , 5 5 f l , @ > , , , 5 , , 4 ; @ 3 > ; , 6 ; , , , * ; , ; > 1 8 6 ; @ , > @ ; # @ 5 i , > ; 1 , + 5 , 0 , 5 ; , , 1 ; * , 4 4 5 ; : o , 5 > 1 ; ; , @ ; * 5 ; 5 , ; ; @ $ - ; ; @ ; ; ; $ ; , ; ; ; ; ; $ o O @ $ , 6 @ @ @ ; @ @ ; + > ; @ , * @   ",
"O @ @ o @ 3 @ o $ ; @ @ @ @ @ $ @ @ + 2 O o @ @ @ ; ; , * > * * > @ % O O @ * , $ @ ; o > * @ ; ; ; ; , * @ @ ; , * > @ O 1 ; ; > * @ ; 1 : , 6 , 6 , - @ 1 * * * > @ ; ; @ ; , ; @ @ 4 4 , 4 4 , > > 5 5 1 2 ; * 1 * 5 1 ; > 1 , , 5 * $ 6 , , y , * ; 1 : ; 6 5 ; 5 5 1 5 , 5 w * @ , , * > ; ; * 1 2 o 4 s , 1 > ; 1 1 , 1 * , 9 , > 1 4 9 , > 5 f > * > , 4 , @ ; @ , , 3 - ; ; 4 * ; 6 , 5 5 1 , , 1 ; ; , * ; 2 4 , , 5 > ; 4 6 y , ; , @ ; 5 6 2 * r 5 > ; * 0 5 1 ; , 6 , 5 1 w * 4 , 1 * @ 1 ; ; > @ , 5 1 $ d t * 5 e ; ; 1 1 , 8 8 ; > 6 1 , 5 , @ 1 = > 4 4 6 , > t , ; @ w 1 @ $ # @ ; 0 > ; @ , 5 , ; w ; , > @ ; 5 , 6 9 , * , 1 @ * 4 6 1 * ; , 1 , ; @ ; 6 4 ; , , 5 > ; 5 , * * 0 ; , @ * - * 5 , ; , , , , @ * ; * 1 , r 5 ; 2 5 1 , 5 5 , 1 , , 8 , : > , 4 ; * 5 5 9 * ; 6 , , 5 5 > 1 @ , , , @ ; > ; ; 2 * , @ @ @ @ > 4 , ; > * 1 ; * * 3 @ ; y 4 , , , , 5 - ; ; 1 , 1 ; ; 5 $ O @ , 1 , ; @ @ $ ; ; O $ o @ : @ * , @ @ ; @ @ @ ; @ ; > > @ $ @ * @ O $ @ 2 ; @ ; , * > , ; ; ; ; @ ; ; , ; @ @ * 2 O O @ ; * ;   ",
"@ ; o @ @ o @ o ; ; @ o @ $ @ @ o @ $ ; @ $ @ ; @ @ ; * * @ ; ; @ ; $ @ @ > ; , ; ; $ @ * > * > 1 ; ; * * * @ @ > * $ ; @ ; @ @ ; > ; ; ; ; @ ; $ ; ; ; ; ; 1 ; ; , ; 1 ; ; 6 ; ; ; $ 7 5 * , t , ; > , 1 , , , ; , , , * @ * , 1 , 5 ; 1 ; ; , 5 * 1 , ; , @ * 5 , 5 , ; , , ; 1 5 - w , 5 1 * 1 1 6 * * , t , , @ , , , , , * 5 8 ; , , 5 , ; 1 e 5 5 , , , 2 , ; ; * 6 * , , @ 1 6 5 , , 5 , = , 6 1 , , , , * ; 1 1 6 , 5 * , g , 0 * 2 1 ; 6 , * ; * 5 5 , ; 6 5 , ; , 0 = 5 , 1 5 , 5 1 ; * 0 * , 1 3 * , t * * = ; ; 6 , 1 1 , , = 5 t * 5 , 5 * , 1 @ 5 , , , , , ; , 4 t , $ = * 1 , ; 1 2 5 4 , ; ; 5 5 * , @ 5 ; ; , 5 , , , ; > , , , ; 5 , * ; , * 1 5 , 2 * > 1 , , , ; ; , ; * 5 ; , ; , 1 , > ; * , t ; , 1 6 : ; 6 , , , , , ; 6 , * ; , 5 4 * @ 6 , , * * ; 1 1 > , , , , ; > , , ; , 1 , ; , ; ; 5 , , ; * * ; , ; ; ; @ * , ; @ ; , 2 ; ; , , ; @ * , , * ; 6 ; * ; @ , , , > @ , * @ ; , * ; @ @ ; ; ; ; * @ ; $ o ; ; ; , * 1 @ ; @ + : @ ; @ * o @ @ @ ; $ ; @ @ * $ ; @ ; > @ ; ; * @ $ o @ ; > @ ; ; o @ > ; * ,   ",
"@ @ O O O O O @ @ o * O o @ $ @ $ @ o @ ; @ ; ; @ @ @ $ ; @ @ @ @ 1 @ , ; ; ; ; > ; > 5 * * ; ; ; $ ; ; ; > @ @ ; ; ; > * ; ; @ o @ ; ; @ , 1 2 @ ; @ 5 , @ ; 1 , ; 1 * 1 @ @ 1 ; 2 , , , ; ; , , , * , , * , , , ; , ; 5 t @ ; , 5 $ , , , * 4 6 @ , , 1 1 1 @ * , , , , , , ; , 6 8 , @ @ ; , w 5 , 4 8 ; @ , , 4 5 , > , , 6 , * @ , 5 , , * ; , @ u 4 s 6 * @ 4 8 5 > , 4 4 * ; > 5 4 * , , 6 , > > , , , , , 5 , * 5 1 w 5 5 , * ; , ; , , ; ; 5 , 1 , , 9 , 6 , , , 5 5 , 5 * , , , = ; 5 t 1 , 1 ; > , 4 5 1 8 ; > 1 , , 1 ; 5 5 6 * 1 ; , , 4 * * 6 , 4 t 0 ; ; 1 , , 1 w 1 ; , , 5 5 8 5 * , 5 4 , * ; ; 5 * 4 5 ; @ , 5 > , * * ; ; , * , ; , , @ * 1 1 ; 5 1 * ; * 1 * 5 ; t 1 @ > , 6 , , , 5 5 , * $ 1 5 ; ; 5 , ; @ 1 , 5 5 @ @ , , , , @ - 4 t , * 6 ; 5 , , , , , 1 * ; ; , , @ 1 , , @ @ 1 5 1 * , 5 4 i , , @ ; ; > ; 2 1 * 1 ; @ , , ; * > 5 ; * ; @ * ; ; w ; @ , , * ; , * ; ; ; , 5 1 , @ , ; ; 5 * o $ 5 * , ; @ $ $ $ , 1 , ; @ @ ; > ; ; @ ; * @ ; * * @ @ @ @ ; $ @ ; @ + # ; ; @ O $ @ ; o @ ; > @ > @ @ 3 ; ;   ",
"o o @ @ O o @ % @ $ ; O $ @ @ o @ @ O O @ @ * $ @ @ * O @ ; ; @ @ ; @ , , @ @ @ @ ; ; 5 , ; @ * @ ; * * ; ; ; @ @ ; ; ; @ ; ; 2 1 * ; $ @ * , , @ ; 1 * ; ; @ * , , , , 1 , ; ; * ; * ; ; 6 ; * 1 , 1 1 ; ; , , ; > ; > , 5 , , ; , @ > 1 ; ; 5 1 ; * 6 5 5 1 , 1 , > 5 , , ; ; ; ; , > > ; ; , , ; , 5 8 , ; * 4 9 5 , * 1 , 4 5 * @ 5 5 * > > 1 ; o , , 4 , @ , 5 8 , @ 1 5 t 5 * 1 , * ; , ; , , , ; ; , 1 ; , * , , , 4 , , , * ; ; 1 ; , , 6 ; 8 , , 6 * 5 d 5 ; , 6 , , 5 , ; , 6 5 , 1 5 , > 5 6 * , 6 , , 1 5 , , * , t , * 4 5 5 ; > > , 1 , 6 ; * 5 6 , , , * ; 1 5 , , , @ 5 * ; 5 8 5 * , 1 5 ; > ; ; e , 5 ; @ 5 , , ; 5 1 ; ; * , , , , > 1 ; , , ; ; , ; ; ; ; > * , ; 5 * ; , ; , , 1 ; * , = 1 1 @ , ; @ , 5 , , @ , 5 ; $ @ 6 * ; 1 , e 5 * @ > 5 * 5 w , , , = , 6 ; 1 6 , * , > , 1 * , , @ ; , , , , 5 6 * e , ; @ , , * , ; , , ; ; ; * 1 @ ; ; 6 1 @ ; 6 @ ; ; @ * , ; * @ ; ; ; , ; * ; @ > @ 6 5 ; @ , 1 , , * @ @ * @ * @ o ; @ * @ $ o ; ; @ @ > , * ; @ - > @ @ @ @ ; ; @ * ; o . ; , ; O @ ; @ @ > @ @ ; ; ,   ",
"@ @ @ @ @ @ @ @ @ @ o * $ o @ ; ; * ; o @ > @ ; $ $ * O @ ; ; ; ; @ ; * ; @ ; , ; > ; @ @ ; @ @ * > ; * ; ; @ 1 , @ 5 @ * ; , > , , * * @ > , * , @ ; + ; ; , 1 * * $ > ; * , 1 * , 5 * ; > , , ; ; ; 6 * > * ; ; * * @ * * , , , , 0 ; ; , , , $ , = 5 , ; , 5 , * 1 , , , , ; ; , ; , ; 5 , , 1 ; , 1 4 4 e * , 5 ; * , 1 6 ; 5 * * ; 1 ; * > ; ; > , ; ; ; , 6 , * , 5 ; o * , 5 , 2 > 6 1 ; ; , 1 * 1 > , @ , 5 , , ; , 6 5 + 1 , 1 , , , , t 1 4 1 t t , , e = , , 5 , 4 , 5 1 , * 1 > , 5 4 * 5 4 , , , 5 ; , * , ; @ 1 > , , , , 1 ; * , 5 ; ; * 5 ; o 4 > , 5 * , @ , 1 1 5 , 5 ; ; @ ; 6 , , , , ; * @ * ; > 5 ; 5 5 1 * ; 5 4 8 0 ; ; > > , # ; 5 5 @ ; , ; ; , 6 , ; 5 ; 5 5 4 5 , ; * ; 1 ; o ; 4 6 5 , , y , , 5 , , @ , @ ; 6 ; * ; ; * r 5 , ; 5 = * 0 8 , ; , 6 , 1 u * @ , , , , , @ , , 1 , ; 1 1 ; - o @ 6 , , 5 6 , @ ; 4 * ; 6 > ; * @ ; ; * ; ; @ * @ * 1 * ; ; $ @ , , $ @ ; > $ @ * , > @ ; @ ; ; , ; , ; @ , , @ > , ; > @ @ , > , > > * ; ; o ; ; ; * @ ; ; ; @ $ ; @ : @ * * @ ; o > > @ ; @ ; ; @ $ ; $ $ * ;   ",
"o @ O @ @ ; @ o O @ @ $ @ * @ ; @ @ @ $ o ; ; @ @ * * @ $ $ ; ; @ ; @ @ ; > @ @ ; @ > X $ @ @ @ * @ * ; ; @ ; , * ; @ * ; , * $ * > @ > ; $ * ; 2 $ ; ; > , ; ; * ; ; * 1 * ; 2 , * , , 6 > ; ; > ; ; , , > @ ; , , - , @ * 1 > @ , 5 , * 1 , , , ; 9 ; , , ; 5 , @ , 1 5 1 * 1 * , > , 6 * , , , > * ; 5 , , ; ; 6 1 ; , , , * > ; 1 * > ; * ; @ 2 * , 6 @ @ , , 6 @ , w ; > ; , , 4 , @ * 1 > ; , 1 , 6 , @ > 5 5 * ; e ; = 1 * , ; 5 5 5 ; 6 , * 1 * , 6 , , ; , , , , , , 5 , , 5 , , > @ 6 z 1 4 5 , * 5 1 * 6 2 5 5 ; ; ; , 5 , , , > * 6 4 ; @ , , , 1 6 , + 5 5 5 * ; 1 1 5 6 , 5 ; o $ 5 e * @ 6 > @ 1 ; @ > , , 4 , 1 , 4 5 5 8 , 1 ; @ * , @ @ , 5 * ; , > , ; 1 ; , , ; 5 , 4 4 1 * $ ; ; o : > 6 , * * 1 , 5 5 * 5 ; ; , ; ; 1 5 * ; ; * 5 5 ; 1 1 , 2 5 , , > 1 * , , 5 , , w , ; ; * > 1 , , * ; 1 , , @ > * * , , 0 6 1 ; 1 ; 1 , * o 1 , - @ 1 2 * ; , , 6 ; @ ; ; , $ ; , , @ ; 1 ; o o ; , ; ; @ ; @ * @ ; ; @ ; 1 1 * > ; ; $ @ > ; ; > @ ; , * ; $ ; , > $ o 1 $ @ @ ; ; ; ; o ; ; @ ; @ @ @ o ; @ ; ; o @ @ , o ; 1   ",
"o ; O O o $ O o @ $ # o o @ ; @ @ o o @ @ ; @ o @ @ * $ o ; @ @ @ $ @ ; ; @ @ @ ; @ @ ; > * @ @ @ ; @ * 1 ; + , * @ 3 ; ; ; o @ @ @ * ; * ; @ @ @ ; ; ; ; ; ; $ , 1 , * , ; ; ; > > * , , 1 ; , , ; * * 1 , , 1 = ; < 1 ; > ; @ o > ; ; , ; ; , , ; 4 * * 1 ; , ; ; , , , ; * 1 , , > 5 7 @ * 5 4 5 ; ; * , * ; * ; 1 , , 4 , 9 , * 1 ; ; ; 1 ; @ t , 5 1 5 ; @ , 8 2 ; * 6 , , 6 * 0 ; ; , 5 , ; ; ; 5 w 4 * * , , , , 4 > ; 5 6 5 , 6 , ; * 6 5 , 5 1 * 8 5 ; 1 1 * , 1 , , 6 * 5 1 8 5 ; @ , 1 ; , ; > * ; 5 0 , @ , , > ; 4 4 * , 1 , * , 5 6 , ; 5 * , 5 = , , ; ; , 1 * ; 5 ; > ; 1 1 , @ * @ , , 6 ; ; e 1 ; @ ; , @ , * 5 5 1 , * , , , , 6 , 1 , @ 1 6 , * ; 5 4 , ; 5 1 + @ @ , * ; , 2 ; * 6 5 * > , @ * , * , 5 5 ; * 5 @ 5 1 $ @ 5 5 = 5 * , ; , * > , ; 1 = * ; ; 5 , 7 > 5 , * > > ; * ; 5 , ; , , * , 5 5 ; 1 , * 1 * ; ; 6 ; , , o ; 1 * * > * ; @ 1 ; , ; @ ; , ; 1 @ ; ; 6 1 , * ; o ; ; ; , * ; * ; ; 1 1 o $ 2 @ ; ; @ ; ; $ @ * 1 ; @ @ * ; @ $ $ @ @ @ @ @ ; O > @ ; $ ; > ; @ ; ; 3 @ @ ; @ ; @ > @ @ $ o , ; @ ;   ",
"O # O # @ O o ; @ @ o $ @ @ ; @ @ o @ @ $ $ @ @ $ @ @ ; @ o @ $ @ @ @ ; ; @ @ ; $ @ @ ; @ ; ; @ @ ; ; * ; > @ > 2 @ ; ; > + > * @ * * 1 @ ; ; @ ; ; @ ; ; , > $ $ * * 5 , ; > * * , @ 1 * * , , ; * > , 4 , 0 ; * , , , * * ; @ @ @ ; ; > ; * 6 , o * ; , @ ; * @ 1 , ; ; > , , , , @ 5 , @ 1 1 0 5 5 1 ; > * > 1 5 5 , , 4 9 = , ; ; , @ , , > ; ; 6 > * = , @ * 1 , * > 8 5 , 5 > * 1 , 6 4 * 1 ; ; , ; , 6 > @ 1 , 4 , ; > 6 ; 5 1 5 ; * ; 1 , , 5 , * , 5 @ ; , , 5 ; , , , , 1 @ 8 w + ; , , * > * 1 e , 4 1 , , 6 , ; 6 , , 5 ; 5 , ; , , , ; * , 5 5 * 6 t = @ $ 1 , 5 , * * = 1 ; , 6 , ; ; , 5 4 ; ; ; @ ; ; d 1 > * , 4 , ; @ ; > , 5 0 1 , 4 > @ ; , , , , 4 5 , ; , 6 ; ; > ; ; , ; 5 , * 5 * , , ; @ > ; 2 ; , 1 @ , 5 * , 6 @ o , 5 0 6 $ ; , , ; @ ; ; , 1 ; 2 1 , , 8 ; * , 1 o ; , ; , , ; , ; * ; > 8 , ; ; 2 * ; $ @ > > @ 1 , o , ; ; * ; , 6 , @ , 5 * > ; ; ; ; , ; @ ; 1 @ ; , ; ; * ; > ; > 5 $ * ; @ @ * ; @ ; * @ @ ; @ * > * @ @ @ , ; @ @ @ > O o $ ; ; * ; @ @ $ $ @ ; o @ ; @ @ ; ; @ @ * : o o > @ ; @ O $   ",
"o O @ O @ @ o $ ; ; o @ @ @ $ @ o o @ 1 * o @ $ @ * ; $ ; @ ; @ @ ; @ @ @ > @ @ ; , @ 5 1 @ ; ; * @ $ @ ; * @ @ ; * @ , @ @ > * > @ @ @ > ; + * ; ; > , * ; @ @ @ ; @ 1 * * , e * ; ; , 6 * * * ; @ 2 , ; @ * 0 4 5 $ @ 5 ; * > , , * , 5 @ ; > @ 1 - 5 ; * ; 5 5 * , ; > ; ; , w , , @ ; 5 * , , , , > ; 9 8 ; 1 ; 5 1 @ @ , @ > * * , 1 > @ , 5 , ; ; > , 1 * ; 6 1 * , ; > , > , , > ; ; ; 5 , , * * * 6 ; @ @ ; * 5 5 1 @ , , , , d 5 , > ; 6 5 , > * 6 1 5 * t t , , 5 , 4 , ; t @ , ; 6 1 * 5 , , 5 $ ; 1 ; 5 1 > > * ; , ; * , 4 6 1 , ; , ; , * 6 w , 8 5 * 5 5 1 , , , 5 t 4 ; 1 , , ; 1 , ; ; , , , * > 6 ; , , 5 ; 1 , > , 1 , * * ; ; ; 0 8 5 4 * @ > * ; 1 , ; ; 1 1 @ ; $ 2 0 , * @ * * > > ; 5 , ; , 6 1 * * , ; , 5 1 , , ; ; , 5 $ ; # , 1 1 ; o @ , , * ; > ; 1 , , > , , ; > , 5 2 , * , ; @ 1 ; , o * * > ; 1 ; , * , , , > > ; > ; ; > > * ; 1 > 5 5 @ > ; ; ; > 1 , , * * ; , , ; @ > 1 ; ; @ @ * @ @ @ @ o ; ; ; > 5 @ ; ; o > 2 > * @ @ ; ; @ @ ; , ; @ @ ; $ ; ; o @ ; > @ @ $ , ; @ # $ @ o o 3 O o ; : @ > - *   ",
"o O @ @ o @ O @ @ @ @ $ o $ ; @ O @ ; @ @ @ o @ @ @ ; ; @ o > $ @ ; * * ; @ o * ; ; O , * ; ; > - ; * > ; ; 3 ; @ ; ; , * $ > = 1 @ ; * ; * ; , ; > ; , , ; > @ ; ; ; @ ; ; , , * ; * * > ; > 1 * ; ; ; , ; ; 6 , 5 @ , 5 , > * 1 5 ; , 6 3 @ 1 ; @ > , ; ; * , , 5 , ; ; * ; , ; * ; ; , 5 * 5 , 1 1 * 6 5 4 1 * ; , ; > $ 2 ; ; $ , , ; @ * 5 8 , @ ; 1 * * > , 5 , ; ; 1 , * @ 6 , ; ; 5 , , * * 5 t 6 @ @ , ; ; 6 , 5 , @ , 5 , t 5 * w , ; 1 , 8 * , , * , , 5 5 * , 4 5 , @ , , @ , , , 3 * , 1 5 5 , ; ; @ 5 1 ; ; * 5 t * * e 5 4 , * 1 , 1 4 ; , 5 , 4 6 * 5 , 5 1 , * 1 6 4 @ e 1 , * ; ; ; , , @ 5 > @ * , * * ; 1 @ @ ; , , 5 ; e , ; ; 4 1 , , 1 ; ; * , , , * @ ; ; * ; @ , 4 * 1 2 2 @ @ ; 5 , ; ; * * 1 * ; ; ; > ; * 8 5 > ; > ; * @ @ 1 = 5 @ @ > , 1 * ; > 1 * * 1 ; , , , 1 , , * 0 , 1 ; ; , @ , % > ; ; ; @ * 4 ; ; $ ; ; * ; , @ @ 1 , > ; @ * * , ; 1 ; @ ; ; @ ; ; @ > , , 5 @ @ $ ; , ; @ % ; , ; ; ; @ ; > ; ; , ; @ ; ; ; @ * , ; ; o ; > @ ; ; @ o $ @ - , ; @ ; @ @ @ o ; > @ > @ o ; $ ; ; @ $ @ ; o * , -   ",
"; # O $ $ @ @ @ @ $ O ; , o @ ; , ; @ @ $ ; $ ; * ; @ @ @ ; @ ; @ @ @ @ @ @ ; > * * > @ @ > > o O > ; ; * + @ @ ; ; @ , ; @ ; 5 ; $ @ @ @ 1 1 , ; @ @ ; ; , 1 ; ; ; 1 * ; $ @ @ , , > ; * @ , t , , @ ; , ; ; : @ * @ 3 * , , ; * ; , @ * * > * > ; ; @ 1 , , > $ > 1 , , , ; * ; > * 1 5 * 1 ; ; , ; * * * 5 , ; , 5 * > ; , , ; ; 1 , 1 , , ; * , , * 1 , @ , 1 , ; 6 @ * > , , 5 ; 5 , , > @ , , , 5 8 * ; t 4 , t = 4 * 1 e * , , ; ; , 6 1 * , ; * t 5 @ - o d ; , , ; ; , ; 1 @ , 5 , , ; 3 ; > ; , 9 5 ; ; , * , , * > ; 5 5 , , * , > , , ; 5 1 * = , 5 , 6 * , 5 1 > > 5 ; * ; ; , , 6 1 ; * 5 5 ; * , , w 5 * 1 ; ; @ * > @ 1 6 1 ; @ * ; * * 1 ; , * , ; , ; ; > @ ; > , , ; , , , , ; ; * ; , , @ 1 ; ; ; ; , * ; ; * * ; , , @ > 1 = * , ; t , , * , 1 @ @ , 5 * * * 1 1 1 * , , , , 1 , , 5 * @ > ; @ t @ * e * @ ; ; 5 * ; ; * , , * 1 , @ 1 1 @ ; * , 1 ; ; $ $ ; 1 * @ ; , @ ; ; * ; ; * ; ; , ; 1 $ ; 1 ; * 2 ; $ @ ; @ ; , ; ; $ # > @ ; ; ; o ; , > @ ; * @ @ @ . , ; ; @ > @ ; @ @ @ @ @ @ @ ; @ , ; $ @ @ @ @ , @ o   ",
"@ @ @ @ ; @ o o @ @ o ; ; # o ; ; ; @ O @ @ @ o @ ; o @ @ ; ; @ @ @ * @ O > , , ; @ * O @ ; ; o @ @ ; ; @ > > ; ; ; @ 1 1 @ @ ; * @ @ > ; * ; ; ; @ @ ; ; ; * 5 , * @ ; , @ > 2 , ; ; $ > 2 ; * 5 ; @ ; * ; @ @ @ @ ; o ; , , ; @ ; ; @ $ , , ; ; 2 * > , 4 , 2 > @ , 1 1 1 , ; ; ; > 1 ; * , , * > @ ; , u ; ; ; 5 1 , * @ ; 6 , ; ; 5 5 , , , ; ; 5 5 , 6 @ 1 1 1 1 , ; , * 8 5 , @ , 5 ; * 1 5 , ; , , , , , 5 5 , > , , 8 , ; , ; ; 6 , 5 8 5 5 * 5 ; , , > * 6 ; 1 , 2 @ ; 5 5 * 6 5 , * * 1 @ * ; 1 , , ; ; , * 6 , ; , @ , , * > 5 6 5 5 1 , * > ; 6 * , ; , @ t , * @ > * ; 7 1 ; ; 4 > ; ; * , , ; 1 5 , ; , * , @ 1 ; ; 1 $ @ @ ; , 1 ; ; > , @ ; @ 6 5 , 1 ; @ ; * * ; , , ; * , ; ; @ > ; , , @ @ , , , , @ ; 6 > ; 5 , ; , , ; * , 6 1 1 , ; * 1 1 , ; ; ; * 4 8 * ; 5 * ; ; > * , , , 1 1 , @ > @ $ > 4 $ $ 6 , , ; @ ; @ ; ; ; , = , 1 ; ; 2 * ; * , 6 > o $ $ @ 2 , 1 : @ ; ; @ ; > * ; ; ; * ; ; ; @ * 1 @ ; , , @ ; ; $ @ * , > * # 2 * o @ ; * @ ; ; o ; ; 1 > ; @ , ; * ; ; @ @ ; @ ; $ @ $ > ; ; * ; @ $ O ; ; 1 ; $   ",
"@ @ @ $ o o O o @ @ @ @ @ $ o ; * o @ ; ; ; @ o @ @ ; @ @ @ * ; , @ ; o # > @ ; , @ @ ; * @ o ; > * @ ; @ ; > ; @ ; @ o @ ; @ @ @ @ ; ; , @ ; @ ; 1 * , @ * , ; @ * , , ; ; * * * > 1 , ; ; 1 @ @ ; ; > 2 @ ; ; ; ; , 1 1 * = , ; * 1 @ > , * ; * , , ; , , , ; , * * * , ; * , > ; , * ; , , ; * , * ; , > + - ; ; , ; ; > * , , , , ; ; ; , 1 * * * * * 5 , ; ; , , , , 1 * , * , * , , ; * 6 , , 5 > $ 5 , * 5 , * : @ 5 , @ 1 , 5 , , , , ; 1 t ; 3 , 6 5 ; ; ; ; > ; , ; ; @ * , , ; * , 6 2 @ , , 5 ; , , @ , , 1 * * 5 1 ; * * ; 1 1 , , * 1 4 ; ; , , 1 $ > ; * ; 1 , * @ 5 , , ; 5 , @ * ; ; ; 0 * 1 ; ; ; , * > > * ; 5 ; > e ; 1 ; ; 1 ; ; 5 e ; o , , ; ; ; ; 5 5 * * ; ; ; ; 6 ; ; ; ; ; , ; , @ ; 5 * , * , 6 , , , , ; 5 , @ ; ; , , , ; * ; 6 @ @ > , @ ; 4 8 1 * * 5 , 1 ; 5 5 , ; ; * @ ; 1 ; @ ; 4 ; ; ; 5 1 ; @ o ; ; ; * @ ; > , ; + ; ; , * * * @ @ 2 * , * ; * @ > ; ; ; , ; , @ - @ > ; , , * @ > 3 ; ; 1 ; @ ; ; @ ; * ; * @ > ; $ @ $ ; * ; ; @ ; ; * ; @ ; @ $ @ @ @ @ @ $ @ > @ ; @ @ ; ; @ o * @ @ # @ * , ;   ",
"o @ @ @ o @ @ ; > o $ * o @ o $ @ o @ ; ; @ ; o $ @ o @ : $ @ @ * ; * o o > @ @ ; $ ; $ * @ . ; 1 @ @ o * ; @ ; @ ; @ % @ ; > @ - * * , , > @ @ ; , 5 @ @ , ; @ ; * , ; $ > @ ; * , > , @ ; 1 $ @ @ , * 1 * ; * 5 , @ = 0 , ; , 6 , , ; ; , ; > 1 ; * , 6 @ ; , 1 ; , 1 @ > ; ; 1 ; 5 @ > 5 1 ; ; 1 4 5 @ ; > > ; ; , ; 1 , ; ; ; , 1 ; @ ; , 4 6 ; ; ; , 5 1 ; , ; , ; * , ; > , 5 0 ; ; * , 5 , ; 5 - @ 5 , * ; 1 5 % * , 9 ; > 5 , , 4 , ; ; @ , 8 ; ; 6 5 5 ; @ ; * ; , ; > ; 1 , , > * * , ; 5 , ; ; , 2 , ; * 0 $ > 6 * , ; * * , , ; , > ; 5 5 ; , 1 , ; @ ; 1 @ ; w , * > y * , , 5 ; * ; 5 1 , , > * ; ; > ; * 1 ; @ 1 5 ; @ 1 * 1 1 , , * ; 1 1 , ; ; ; ; , ; 5 4 4 5 $ o ; , @ ; ; , > @ ; ; 5 6 , 1 , ; ; 1 * ; ; 5 , 1 ; , , ; 1 @ ; ; > , 1 * , > > 5 * 2 ; , , 0 * ; , 5 1 @ * 5 , ; > * @ + 5 e $ @ > ; ; > , ; , * @ 1 , , ; @ > @ * > ; @ * , , @ ; $ ; * , 1 * 1 1 @ > ; @ ; ; * @ ; @ @ ; $ @ , , $ o @ * * ; > @ ; @ > ; ; , , , ; ; 1 @ @ o ; @ @ @ ; ; @ ; @ * o @ @ $ o ; > o @ ; @ @ @ @ ; > : o > ; ; o $ , ; @   ",
"@ @ ; @ @ o @ $ . @ $ @ O $ @ o o @ @ $ @ ; $ @ ; ; o @ ; ; @ @ * * @ @ $ ; @ @ > > o @ > * $ @ * @ @ @ * * @ ; $ * @ > ; @ ; * * ; @ ; @ * ; ; ; * , ; ; @ ; @ 2 * @ @ ; ; ; 1 1 > * $ @ * ; 1 6 @ , ; ; $ > ; ; , ; * ; * , @ , , * , > * 6 ; ; ; 6 , @ * ; 5 , , ; 1 , 6 1 * ; ; ; , 5 * * $ ; y , * ; ; , e 2 * , , , 5 1 , 1 , , , ; ; , , 5 1 @ 4 6 , * ; 1 ; , ; ; , , ; 5 1 1 1 ; , 1 * 6 ; 1 1 ; ; , $ @ * ; ; , * , , , , ; , * , , 5 ; 5 , e * @ , 0 6 5 ; 1 1 , 7 ; @ > ; ; , 6 * ; , 1 5 1 , * , ; e 1 ; ; ; , , , 1 1 , * 1 , 1 * > , = ; * 5 , ; ; > * , ; , * 6 ; @ 1 6 1 , @ * 1 = 1 , , > ; , , ; ; ; ; * 2 * ; , 5 , ; 1 , , ; ; , ; , 1 , , ; , , * 6 * @ @ @ ; ; @ @ * * 1 @ , , ; * * * * * @ ; ; * ; , , ; 2 * ; * 5 * * ; , > ; 1 * ; 1 ; * > 1 ; , , * @ , , ; , @ @ ; , , 1 5 , ; 5 , , , @ , 5 * ; ; ; * , ; ; ; ; > > * ; @ > ; ; ; * * ; ; , ; * @ , 1 6 > * ; 1 @ @ 2 ; , , * ; * @ @ , ; * * > @ @ ; ; ; * ; ; > > * , @ @ ; ; > ; * ; @ ; ; + @ ; $ * ; ; @ @ 3 @ $ ; ; $ @ @ ; > @ ; @ @ @ o @ @ @ * ; ;   ",
"@ O @ @ @ @ @ $ . @ @ @ @ $ @ @ @ $ $ X o @ @ @ @ @ o @ @ * ; $ ; $ @ @ @ @ @ @ @ * o o @ @ > O ; ; ; > * ; ; @ * > , * ; # @ ; ; @ ; @ O , , ; @ O : ; @ ; * * , ; ; @ > ; @ 1 * @ , @ $ ; * * , @ ; @ > ; 1 2 @ > O ; @ + 1 ; ; > $ ; ; * 1 , o @ 1 > ; 1 , , ; @ @ , 4 4 , 1 @ @ @ 7 4 ; > $ , 4 5 @ $ > , 5 , * > , 6 , * @ , , 5 5 , , > @ ; 5 @ , 4 ; * 1 1 ; , ; @ ; , 5 8 , , 5 ; 6 ; * 5 @ , s 9 $ ; , w ; * , > , 1 , 5 @ : o ; @ , 4 5 ; # 5 , 3 ; * * 4 * , * 5 8 ; * ; @ @ 5 5 , > , , , * 5 6 5 * * ; 1 , * ; 1 * * ; 6 , ; ; ; , , @ 6 > ; , 2 @ @ 6 , , , @ ; 5 * @ @ , 1 ; + 5 , * ; 8 8 * * t 4 * , 3 @ , , , ; , , , $ * 4 @ ; > ; O @ , 6 , ; , 2 * , ; % % ; ; 1 ; ; > * @ ; , ; 5 ; , ; * : ; * 5 , ; , ; @ , ; 5 , 0 * , ; , ; 1 ; , , ; > @ ; ; , 6 , $ > ; , ; , , > @ ; w ; , , > @ , 1 @ ; 4 , @ ; @ @ ; , ; ; $ ; ; @ ; , @ 1 1 @ @ $ @ , , = ; @ ; ; , ; ; * , > o $ 5 1 5 4 , @ @ ; @ ; # ; 1 ; @ @ 1 o @ @ ; 1 @ @ @ ; $ : @ ; , ; @ ; @ @ @ ; ; * $ , 6 1 ; @ ; @ @ ; @ @ $ ; @ > @ @ @ 1 @ # @ @ @ , * 2   ",
"@ @ o ; @ o @ $ o @ ; O O @ @ O o @ @ @ ; O # ; @ @ @ ; ; ; @ $ @ @ @ ; ; o @ @ $ @ O , ; ; ; 1 * o @ @ > ; ; ; * ; X ; @ @ ; > $ @ ; 1 @ @ ; O o , * > ; - > ; ; ; , * @ @ @ ; ; > ; ; 5 , , * > ; o ; ; ; ; @ @ ; @ > ; @ @ 1 1 ; ; , ; ; ; ; @ * , ; 1 @ ; 1 , , , * , 1 $ > ; * 5 , , 7 7 2 O ; ; ; $ 5 6 @ @ 9 * ; ; , , $ @ 6 , ; 5 5 9 @ @ 5 ; 0 * , * 4 8 @ ; * 6 > ; > , * 5 * , ; ; , , , , , , , 5 6 @ * 4 4 4 9 , ; 2 5 , ; ; * , 9 > * ; 6 @ , 5 $ ; 5 , 8 w + : , , , 1 ; , , ; o ; 6 1 ; 1 , 6 @ $ t > 5 1 ; 1 * 4 4 - ; ; 2 @ @ % > @ 5 , @ , 7 8 ; $ @ @ , , , , , , , 5 4 5 5 4 ; 1 * 5 , 6 > * > * ; 6 , , ; 2 , > @ , 5 , 1 ; ; 5 , 1 * * 6 , , , 1 $ ; * * 2 ; # 5 ; @ , t 4 , e @ O $ , ; e ; > , 5 ; O ; ; > @ $ $ 2 , * ; ; ; @ ; ; ; , , @ > 6 , * ; * 1 , O , ; , ; , , , , , , ; @ ; 1 @ ; * $ ; ; , * ; , > @ ; ; @ > * ; ; , @ * > ; * $ 2 , 4 5 @ ; * @ $ $ ; ; O % ; : @ $ $ o @ > - @ @ @ % $ ; 2 ; o @ > O o @ ; @ , @ @ ; @ ; @ @ ; ; $ O @ , , . ; , ; @ @ $ * , $ ; ; @ @ ; ; @ ; ; ; o % @ @ * ; @ $ . ",
"* O o o @ O @ o o ; @ O $ ; ; $ O @ @ ; @ @ * ; @ @ @ @ * @ @ $ O ; @ @ ; @ @ ; * ; @ > ; O @ ; > * ; @ @ ; ; ; ; @ O ; , ; @ * ; $ @ ; * ; ; O @ y ; ; , * @ ; * , , @ ; 1 , * ; ; , * ; 1 * , ; @ @ , @ ; ; @ * * * ; @ @ > ; * ; , * ; * * @ > ; , @ 2 ; 1 , , * ; ; ; ; ; @ > 3 t $ , 5 * 5 @ > @ > ; * ; > ; e , > * 6 1 ; ; 6 , , , 5 5 @ @ 5 , ; * 6 6 * , 5 , , @ ; * , , 1 ; 1 ; ; 1 , 6 , , 1 1 ; * ; ; @ 0 1 , , 5 , 1 , 5 * * y , 4 * * * 5 , ; , ; @ 1 5 * e 1 * ; ; , ; $ $ , 1 > ; , 5 ; 1 , 1 ; > , ; , ; * 1 , 5 4 @ * 1 ; ; * $ @ 1 ; @ 5 5 , > ; ; > * ; 1 5 * * 3 ; , , , , 1 , 1 , 1 5 * * > ; ; , , ; 1 ; * ; ; , , , * 5 1 ; * @ 2 ; * 5 4 ; @ * @ * 1 t 1 * O , ; @ , 1 ; ; , , @ , , @ @ 1 ; ; , , ; * ; ; ; o @ 1 , * ; ; ; * , ; > 1 ; ; , 8 , ; 3 ; , , o ; , ; ; ; , , 1 1 ; ; @ ; , ; ; > ; * 1 y ; @ * * > ; ; > * @ , , , > * @ * , ; * ; 2 , > @ * * @ @ 2 1 o @ * @ @ $ * @ @ * ; ; ; @ > ; * ; ; o * @ @ @ > $ @ > ; ; @ * ; @ @ 3 @ @ ; * ; > ; ; ; ; @ @ $ @ ; @ @ $ @ ; > @ ; @ * ; o @ @ 3 @ * ; ;   ",
"@ @ @ o @ o O @ @ * @ $ @ @ ; $ @ @ ; @ @ @ @ $ @ @ * # @ ; ; $ @ @ ; o ; > ; * * , ; @ > @ @ @ @ * @ @ ; ; ; * @ @ # o ; 3 o ; 1 O * ; ; @ * * ; @ 1 ; ; , ; ; @ 5 * @ ; 5 > ; @ @ * , @ $ ; ; @ @ ; , , o $ ; , , ; ; , ; > ; ; @ ; @ * , 1 * , * 1 ; ; 1 , ; , @ ; @ > , , * > 3 @ $ @ 5 , 6 4 ; @ , 6 @ @ , ; @ , ; * ; @ * , , * 1 , * ; 1 ; ; , ; 1 , 3 @ ; 6 , 5 @ * , t , ; @ ; * ; , , 4 ; * ; 1 * > ; , , ; ; 5 ; ; ; ; @ > 1 ; ; @ , 6 , , , ; , 5 @ @ > ; ; * t , ; @ 1 1 , * 1 , 5 , ; 5 , = ; * * ; , 5 ; , , @ > ; > ; 1 w ; , * , * e @ > 6 * o # > 1 , , ; * , w , ; ; > ; @ , , , ; * , ; * , , 1 ; , , @ , , 4 @ , 1 * , , = 1 @ , , ; @ @ 1 , > * ; 5 , 2 6 @ 5 ; ; ; ; , ; ; ; * , * ; ; ; , 1 * ; ; ; , ; @ , ; * , , , 5 ; $ > 1 , , * ; ; * * 6 5 ; $ ; ; * * 5 1 * > > ; , ; ; ; ; ; * ; * , @ ; * > @ @ @ , 5 ; * @ * * ; 5 @ @ * , ; ; * 1 * @ @ @ , , * ; ; ; ; @ 1 $ ; , * ; $ ; , ; ; ; ; @ ; * @ o @ , @ ; @ ; > @ ; $ ; $ o $ @ ; @ @ @ @ ; @ @ @ 3 @ o @ ; @ ; @ @ $ o @ $ $ ; ; @ ; @ ; @ @ @ @ o : > ;   ",
"@ o @ o @ O O o o @ @ $ @ ; @ O @ O ; @ @ o o @ ; $ @ o o ; ; * $ O @ @ @ @ @ ; > @ ; o @ ; @ o @ ; ; * ; ; , , ; @ ; @ @ ; ; ; ; @ > ; @ ; , , 1 ; ; @ ; ; , * ; ; ; > ; ; ; @ @ ; , > ; ; * ; ; @ @ > 1 @ $ @ , * ; 6 5 * , @ ; > ; 1 , * > ; * ; ; > ; @ , ; , , 6 1 * * , 1 ; @ @ @ ; @ , * , , ; , , ; $ , , @ , * > @ ; , , @ , 6 ; ; * 1 , ; , 1 5 * @ 3 5 8 5 ; * 5 5 1 ; @ , o ; 1 ; 1 ; > 1 1 , ; ; ; , * @ , , ; ; ; > 1 * , 5 ; , ; ; , 1 * ; , , , 1 > @ 1 , , * ; ; * , , , 2 , 8 1 ; 5 t * 5 1 1 > , 4 6 , ; * * , ; , ; , , > @ , * * ; ; , ; @ @ @ ; , , > 1 , , * , * @ ; > ; , , , , ; , 1 ; ; > @ , , @ ; , , @ ; * > > 1 , 5 > ; 1 , ; ; ; * ; ; @ 9 , ; > + * , 2 , * 5 * ; > * ; , @ > 5 8 * ; , ; ; ; @ ; 6 > 1 , ; , , , @ ; ; ; 1 , > ; 2 ; 1 ; @ * @ > 1 * ; , , ; ; ; , * ; ; * > , , 1 , @ @ * * @ > ; 1 , ; ; , > ; $ 1 ; @ ; @ ; 3 * 5 * $ ; @ * 1 * * , ; > @ @ ; ; ; ; @ ; @ ; , ; $ @ * > $ @ @ * > * ; @ , @ ; 1 @ $ o $ * @ ; ; o 1 6 ; @ $ o ; ; ; @ @ ; ; $ @ ; ; o $ @ $ @ ; , $ $ ; ; o o o o ; ;   ",
"@ # $ $ @ $ @ O @ O @ @ o O @ @ $ @ * ; @ ; $ @ @ @ @ $ @ @ @ * @ @ @ @ ; * @ @ @ @ * @ * , ; @ O o @ * $ @ ; , ; ; ; @ @ @ ; o @ ; * * ; @ * @ ; ; $ @ ; * * 3 @ @ @ ; ; ; ; ; ; ; ; ; ; ; @ $ @ > ; * @ 3 @ ; > @ * - * ; ; @ @ 1 ; 0 6 * @ ; , , @ * ; ; 1 , 6 * ; , , * , ; ; @ 1 , , ; 5 @ 3 , ; ; ; , * ; 1 5 1 ; > * * 5 5 * 6 ; ; 1 , ; * , * , 4 ; ; ; * , 1 * , 5 , @ @ ; w , * , ; ; ; ; 1 > @ 1 , * , * * 1 > ; 1 > 1 5 , ; , @ > > ; ; 1 , ; 6 ; 0 , * ; , > , * , 1 * * 5 5 @ ; ; , * * ; * * * > ; * , 5 5 * > 8 5 @ w , * , ; ; > , , o @ , , 5 , , ; @ ; 1 , @ o 1 5 ; * ; ; ; ; , , ; ; ; ; * ; * , 4 , * 6 ; * , , ; ; @ ; ; @ 1 $ * , 5 , ; ; 1 1 ; ; * * 1 , + 0 ; ; , , @ @ ; ; , $ @ ; 1 1 , > , ; * ; @ $ ; @ ; > * @ , 5 ; , ; @ * @ @ , , ; * ; ; ; @ @ , > @ ; 1 , , ; @ 1 > @ * ; ; * , @ ; 1 ; * ; , ; * , 5 , ; ; * @ @ 1 ; @ ; , , * * $ ; 1 ; * @ @ ; * @ , ; @ ; * ; ; @ ; $ ; ; ; ; * o ; ; @ ; 2 ; @ o @ $ @ @ ; * % ; @ ; @ ; $ @ @ @ @ @ ; @ @ ; ; > ; @ @ ; $ @ @ ; ; @ ; @ ; * O # X @ o ; % ; $ @   ",
"; @ o O @ @ @ $ O O * $ @ O @ ; @ o @ @ ; @ @ @ o @ $ ; @ @ @ $ @ @ @ ; ; @ $ @ @ $ ; O * > $ @ O @ ; @ @ @ > ; @ ; ; ; ; * @ $ $ $ @ @ @ : ; ; @ * @ @ > 1 @ , * ; $ $ o > @ @ @ ; * ; @ * > ; * * ; @ $ ; * ; ; ; ; o ; * 2 ; @ , > * , @ ; > @ 1 + ; 1 * ; ; * ; ; , 1 , = ; 1 ; > , , , > * @ , @ , 1 ; * ; @ , 1 ; @ > , ; , , , * * , * ; ; , % 7 5 @ ; 1 ; 1 @ 5 6 @ > > * 1 ; * , , 1 @ @ * * ; > , , 6 , ; > ; * ; , , @ * > , , 1 ; + > 1 $ 1 , ; * , , @ @ 5 , > ; , 1 > ; 5 , , 2 @ , 5 * @ ; > ; * * * * , 1 @ * 5 = ; , ; 1 ; * , ; * > $ ; * , 5 , ; ; @ * 1 ; ; O 1 , > , * > ; ; ; * * , , ; * , , , , 6 , , @ @ , , > * ; 2 ; @ , * @ * 5 5 ; @ , ; ; ; $ $ ; * ; ; * ; , 5 $ @ * , ; @ > * , * ; > 6 , ; @ @ @ * @ > @ @ 3 ; , ; ; * @ ; ; ; , , , ; ; ; ; ; ; , @ ; ; ; ; > ; ; * ; ; > @ ; @ * ; 4 ; ; > > ; @ ; ; ; , , ; - ; ; @ @ ; ; ; ; ; , $ ; , , ; o $ * @ * ; ; @ @ 2 @ ; ; ; ; @ @ ; @ ; ; @ @ ; ; ; ; $ ; @ @ $ $ @ 1 O @ o 2 @ ; > ; ; @ * ; @ ; $ ; @ ; > $ ; @ @ @ o > $ @ ; $ @ @ @ $ o @ $ @ o * o $   ",
"o o @ o o @ @ $ @ $ @ O @ o o ; @ @ @ @ > @ @ $ @ @ @ $ @ @ @ @ O @ @ @ @ @ ; ; ; @ ; O o @ @ @ o @ > ; @ @ 1 @ ; ; o ; ; ; ; @ @ @ $ @ @ @ $ @ @ ; ; ; ; , * ; 1 @ @ > , ; @ @ * ; * ; ; * 3 * ; ; ; > ; ; * 1 , ; @ ; * 1 > * , ; * ; * @ @ * * > o , ; o ; ; ; - ; $ o 5 5 * ; > ; ; ; @ > 1 , , ; ; ; * , > ; * * 1 @ ; 5 , * 1 ; ; 5 * @ $ * > ; 4 ; ; ; , ; ; @ 5 @ @ ; 1 4 , > @ ; 1 , @ , ; 4 , , ; , , ; @ 1 , , 5 , , ; * ; ; ; , = * ; > , , , o ; 6 1 ; * 6 * , ; ; ; > > , * , 1 * 3 * * 1 1 1 1 , 5 , ; @ ; 1 , > @ @ ; * * @ * 5 5 @ 5 : ; , ; , = ; $ ; ; > @ ; ; ; * @ ; ; * * , * * , , > ; 5 1 , ; @ ; , @ ; ; ; ; ; ; * 5 , ; @ 5 ; * , , ; o @ ; * ; ; @ * 1 , * 6 * ; 2 @ ; ; ; > ; @ 5 @ @ @ ; $ @ e * ; > * , , * ; ; ; @ * ; * ; , ; ; > ; ; , , * ; ; * ; @ $ @ ; @ @ @ 1 > , ; @ @ @ * , 1 , , * ; ; > ; ; @ @ ; ; @ @ ; > ; $ ; * ; ; @ ; ; ; ; , ; o ; * ; ; , 1 ; o * > ; ; ; > @ ; @ @ ; ; ; ; $ @ @ , @ > 1 ; o $ : ; $ @ , ; * @ ; * @ 3 ; * @ o $ ; @ @ @ @ ; ; o * @ @ ; @ @ @ o @ o ; ; @ $ 3 ; @ ; ;   ",
"O O o O @ o $ o @ ; o O $ o O @ @ @ @ o @ @ @ @ @ $ @ @ @ @ ; @ $ @ @ @ @ @ @ @ * @ @ $ o * > > @ @ * ; @ ; > @ @ ; @ ; @ @ @ @ : , @ ; > o @ ; ; @ ; ; @ > , ; @ * @ * > ; ; ; @ @ ; @ > ; o ; ; > $ , * @ > ; * ; o @ @ ; * ; , ; ; * ; , , , 6 @ @ 1 ; $ $ , , ; ; > O > , ; ; @ 1 ; o * ; ; , ; ; ; $ , 5 , @ * 2 1 * ; t 1 > , 1 ; 1 * > * * @ $ ; ; , , ; , @ O > ; > @ , 5 , ; > ; ; ; , 2 1 , , , * 1 , , ; ; , , * ; = 5 , * @ @ 5 6 @ ; ; 5 , 1 > 6 5 , , ; 1 * 4 6 ; @ @ > ; * * ; ; 1 * 1 , ; ; ; , , , , @ * , , $ @ ; 5 ; ; ; > , ; ; 5 @ , 1 , > > @ , , , ; @ * ; > ; @ ; ; @ , 1 ; * * , > * , ; ; ; o $ 3 ; , , ; @ * ; ; * ; 1 * , > ; 6 , @ ; 1 ; 1 , @ > > , ; ; 1 ; ; @ > ; ; ; 1 5 * , ; ; > , @ * 6 , 1 ; ; , > ; ; * ; @ @ @ ; , * , e @ @ 1 > @ , 2 , * ; 1 3 @ 1 * @ , , * ; , ; > $ ; , O ; 6 @ ; ; @ * > ; $ 1 ; * @ ; ; ; > * ; ; , > @ ; @ @ ; $ @ > 5 * @ , * @ o @ * ; ; ; @ @ ; ; @ @ @ ; > @ @ @ 1 @ o ; * ; O @ ; ; @ > * > @ $ @ ; ; * * ; @ @ > @ O 2 @ @ ; @ ; O @ ; ; o $ @ @ ; @ ; @ o @ @ , @ :   ",
"@ @ $ ; o o O @ ; $ $ . # $ @ @ @ O @ $ O O @ $ @ * O @ ; @ @ @ @ @ > @ @ @ o * * ; o ; o @ : @ $ ; @ # o > * @ O ; @ o ; ; ; @ * @ @ ; @ $ @ ; ; , 1 , ; $ * , * ; > # O ; , > ; $ : ; @ ; @ * , , @ * > @ o ; , ; 4 @ ; ; ; , @ , ; ; 1 ; @ ; @ @ > ; @ ; ; @ > 5 1 , 1 @ ; * 1 ; ; 1 1 ; ; @ > ; , ; ; @ , ; @ > , ; , 5 ; 5 , * ; , , ; ; , 5 ; , , ; , , , 1 @ @ $ > 6 * @ @ > * ; , ; 2 ; , 6 ; ; , * > , ; 5 @ , , , , @ > ; > @ , 6 , @ ; ; , 1 9 * * 5 1 * > 2 @ ; t 6 @ $ ; 6 ; , ; > * ; , 1 ; ; * ; $ 1 , 6 * , ; * > @ , , 1 1 ; * * , @ 1 , @ > > ; @ 1 5 , @ @ ; ; , , ; ; * ; , , ; 1 ; ; $ ; ; , ; ; ; > @ > ; @ ; , ; > ; ; * ; ; , ; ; ; ; , ; $ , ; , , 1 @ @ > 1 , ; , @ o 3 > ; 1 ; ; O o @ ; * ; > ; @ @ @ 1 ; > ; ; ; ; ; ; , ; * ; ; > , ; ; 5 , @ ; 1 ; , 1 O @ , ; > ; @ ; ; , ; ; ; @ @ ; , , ; ; $ @ * ; * * ; @ @ 5 , , * * > , @ @ > ; ; ; ; ; ; ; @ , @ ; ; ; > @ @ > @ , ; , ; @ > $ $ , > ; @ @ > @ ; $ @ @ ; * ; @ 1 ; @ * ; ; ; @ @ $ ; @ @ $ @ > $ $ @ $ @ @ ; * O ; > ; o ; @ O o ; ; @ O o @ 3 $ ;   ",
"$ # @ o # . @ $ ; @ ; . O $ o @ @ O @ o @ $ @ @ @ ; @ ; @ @ ; ; @ @ @ ; ; $ o @ ; ; @ > $ . O o * ; @ @ @ > @ @ @ @ @ o - ; ; ; - @ @ ; ; @ @ @ ; ; ; @ @ o @ 5 > @ @ @ @ @ * ; @ ; * * > ; ; ; , , @ ; * ; ; @ ; 1 ; @ ; , 5 , @ 1 1 @ , , ; @ : @ @ * * , ; ; ; 1 1 , * ; ; @ , @ , ; * * ; * , * > ; 1 * , * @ , 6 ; , 5 5 , , 1 1 , * * 1 5 * * ; * ; > @ , 5 @ ; * ; , 1 ; ; @ , , ; > @ ; , , ; 1 * @ ; > , * * ; , 9 1 @ @ * ; ; * , 1 * ; 1 , , , * ; ; ; > ; : @ , 8 * ; * $ ; ; = , @ @ , , ; > @ @ ; ; 1 * * > , 1 @ * ; @ > , , > ; * , * ; ; ; , ; ; ; , , * ; > $ ; 1 = @ 1 @ , 8 1 ; , , * + @ ; ; o ; , ; , ; ; @ ; > * @ ; * 1 @ $ 4 @ @ ; 2 , ; o , 1 * * ; @ @ ; > ; * ; 2 @ O $ * * ; ; $ 3 ; > @ * 2 , ; @ $ ; , 1 ; * ; ; ; * * 2 ; , ; @ ; ; ; , ; @ @ > , , , * ; @ @ * ; ; 1 ; , * > ; ; @ ; ; ; , ; @ 3 > * , > @ @ 3 > @ ; @ @ ; ; ; > ; ; ; * @ * , , > > - * ; * ; > @ ; * ; 1 , ; ; ; @ > @ * ; ; * @ , , ; @ @ * * * # ; , * > ; @ @ @ ; @ ; ; @ @ @ * @ ; @ @ @ o 2 ; @ o ; @ O @ @ $ o + ; : @ o * : @ @   ",
"; o O @ $ o o o @ @ $ o @ O O ; > ; ; @ @ ; @ o o @ @ @ o @ @ @ @ ; @ o @ @ $ $ ; > ; * > X @ > ; * > @ @ @ O @ * @ ; ; * @ @ o o > ; @ > ; @ @ ; @ , ; ; * ; > * @ ; @ @ @ , 1 * , ; ; > @ @ 6 * @ ; ; ; y 4 @ ; > @ ; @ > ; ; ; ; 1 @ ; , , > ; ; @ @ * * 6 ; @ @ * 6 * ; ; ; 2 ; , @ > ; ; , ; , > , , , @ @ @ 6 * , , $ > ; ; ; , , ; , * , 6 1 , @ ; ; ; = , ; 6 1 ; @ ; , , @ ; > ; ; , , 1 , * * 1 w , ; ; @ 4 > , @ 1 ; , 1 ; ; 1 @ > ; 1 , * * ; > * ; @ ; , 2 @ 5 4 , , ; , , , 4 , , ; t * > 5 , ; * @ ; 6 1 ; ; @ > ; 2 ; @ ; * , * ; ; , @ ; ; > , , ; ; * ; * 1 ; , , @ ; ; @ @ * ; ; ; > 1 ; > ; ; 2 , , * ; * ; 1 ; @ ; * , 4 , , ; e @ @ , * , ; @ ; ; , $ * @ $ > ; , ; @ ; 2 @ > * ; * * ; 3 @ $ * ; 1 , 5 ; ; @ , ; ; 2 * > ; ; @ ; ; ; 1 o ; ; , ; ; @ @ @ ; , , 1 6 @ ; > * ; , * > ; ; ; ; , ; @ * , * * * 1 > * > @ ; ; ; ; ; $ @ * 1 > @ $ ; ; , ; ; , 1 , * 1 1 $ @ ; ; ; @ ; , ; * @ ; @ @ * ; $ @ * @ $ ; , , @ @ ; ; @ @ @ ; @ $ > $ > @ @ @ ; ; @ @ ; ; @ $ @ $ $ $ @ @ ; ; @ @ ; @ @ @ ; * o @ ; : o ; # ; . ",
"@ @ o @ O o $ @ ; > @ $ o o @ o o ; @ ; @ ; @ $ O @ @ @ ; $ o @ ; $ O ; ; o @ $ o ; * @ ; ; @ ; ; @ ; ; > @ o $ ; @ @ ; * $ @ ; @ $ ; $ @ ; , @ @ ; @ ; ; ; ; @ o ; ; 1 ; > 1 * ; ; @ * ; $ o ; , > > ; @ * 5 * > ; @ 5 @ ; @ ; , > > > $ @ @ , * * ; 1 ; @ @ * * @ @ 1 @ , * * > $ , ; ; @ ; ; * , * 6 , , ; * ; , * , 1 @ @ , , ; ; , ; 6 5 ; , ; 1 ; , ; , * 1 2 @ , , @ @ 1 5 5 5 1 ; * 1 , 1 > > @ * ; , * ; * , ; ; , * , , @ , , ; @ > @ * 6 @ ; @ 1 ; @ @ O ; ; @ > ; , > * , , ; ; 5 , , , 1 ; ; , , , ; ; 5 > @ ; @ 6 * ; > @ ; , , ; ; , 5 2 ; @ > , ; * > * * , 5 , ; ; ; 2 , ; ; > * * ; , ; , 5 + ; ; 1 @ @ * * , 6 ; ; > * , 1 1 1 * , @ , 6 * , 1 1 ; ; ; $ @ ; @ , , @ * ; , ; ; ; * @ ; > , @ ; ; , ; @ ; , , 1 * * @ @ ; > @ @ 1 > ; @ * , > * @ ; $ @ * , * ; ; , @ * @ ; , * , 1 ; ; * ; ; * 5 ; @ @ 2 ; * , , $ @ @ @ @ @ @ ; @ , * @ , @ ; ; @ 1 1 , , ; ; ; ; * ; ; @ ; * ; @ * * ; $ @ ; @ ; ; o @ > ; ; ; @ ; @ * ; @ ; ; @ ; ; @ $ @ ; > ; ; @ ; @ @ $ @ ; @ o @ @ @ ; ; ; @ @ @ @ @ @ @ ; ; ; o $ @ @ @ @ o @ . ",
"@ @ O o $ o $ ; o o @ o o $ @ O @ @ o @ @ O @ @ $ @ O @ > @ o @ o @ @ ; ; @ $ ; - * ; @ @ 3 * @ $ ; @ $ ; @ - ; $ @ ; @ @ $ @ @ $ o @ > * ; ; ; ; ; @ @ ; ; @ @ ; 2 ; ; ; 3 * + ; o $ ; ; @ o @ ; ; + ; ; ; @ - ; ; @ ; , $ @ * ; ; - ; ; @ @ ; @ ; , * > $ @ * 1 ; 5 @ ; 5 , ; o @ @ ; , ; ; * , @ , @ * , w * @ ; @ 5 1 , , , ; 1 ; , , * * ; * @ , ; * , , ; , ; , , ; @ @ ; ; * * 1 @ , , * ; ; * @ > ; , 5 2 * , @ ; ; * , ; , 6 4 , ; > @ * 6 , 3 ; ; ; * 2 ; ; * * ; $ * > @ 1 , * $ * , 4 * , ; * 5 , ; ; @ * , ; * > , , ; ; , ; , ; @ ; 2 @ , 1 * , , 5 * ; ; @ 2 ; * ; ; ; ; 1 > , > ; ; , @ ; ; ; ; * * , ; ; ; ; 2 * @ > , , , ; , @ * , @ @ ; ; ; , @ ; ; ; ; ; ; > * , % @ ; @ * ; 1 $ ; > @ ; ; ; ; * ; ; $ $ @ ; ; ; @ ; @ , ; + 5 ; * 1 ; @ > * 5 @ ; * * > 1 , 1 1 > ; ; ; * ; ; ; 2 @ * > , @ @ 5 , 3 @ ; 1 5 @ @ > * * > 1 * ; @ , 6 @ @ ; ; > ; > @ @ ; > * @ ; @ $ ; > @ @ $ ; @ ; > @ @ * * ; ; * @ > ; @ @ O @ @ @ ; $ @ @ * ; ; @ @ @ ; o 1 * $ @ @ ; ; @ ; - o @ ; @ @ $ ; @ $ ; @ @ @ @ o ; @ * @ @ @ @ ; ; @   ",
"@ o O @ @ O o O @ o @ O o o @ $ @ o @ O o o o $ $ o X @ @ @ @ $ o @ ; $ @ + $ $ * $ ; @ o @ > @ ; ; $ $ @ * ; o @ ; ; @ @ ; ; @ $ @ @ ; ; @ @ @ * ; ; $ ; o * @ > ; ; ; @ @ , ; @ $ @ ; $ @ ; $ @ ; ; ; , > ; * ; ; ; ; ; ; * , 6 ; @ ; ; @ ; ; @ ; @ @ @ $ O 5 5 = , , ; * 5 ; @ ; o ; , 1 @ > , ; ; @ ; * 6 @ ; ; @ 8 , , ; * , , , , 6 o $ 1 6 * 4 > ; , * ; > , , 1 , 5 ; @ @ ; @ > ; ; 1 , 2 , ; @ ; * , , 5 ; @ ; 1 ; * ; ; ; , 6 6 @ + > ; * 5 , ; , ; , 5 6 ; ; 2 ; * ; , @ ; > * ; ; 1 ; * ; > ; 4 5 @ ; ; * * 5 * , 5 5 , ; , 5 , ; @ ; ; @ * , , * , 5 ; ; , ; @ o 6 ; ; * ; * , * ; * , , > @ ; ; ; ; > * > ; , * ; $ ; , , ; ; @ @ ; > ; * ; @ ; , , > ; - * ; ; * 5 @ , $ @ ; $ ; @ ; ; , , * ; ; ; 5 ; * 5 , $ $ $ ; * ; * ; * ; @ , * ; ; * @ @ @ , ; , e > @ ; * , 1 @ * * $ @ > ; @ ; ; > * , > o , ; ; @ @ > , @ @ ; @ * , * , @ * ; ; 1 @ @ ; > ; @ @ $ @ @ @ * > $ ; ; ; ; * > , @ ; @ @ ; ; > O ; ; ; ; > @ @ O o @ ; $ $ $ o 1 ; @ @ ; > o @ ; @ ; @ @ ; ; @ ; @ $ ; @ > @ @ @ o $ > * @ @ @ O @ @ @ $ O $ @ * ; : . ",
"@ o @ O @ $ @ O o o $ @ O @ o ; @ @ $ @ $ @ o @ ; @ @ ; * ; ; ; @ @ @ ; ; $ @ @ @ o @ o $ @ * @ o ; @ > @ @ @ @ $ @ @ o @ @ ; ; ; > * @ , ; * ; @ @ 1 @ ; ; ; * ; ; > @ ; @ > ; @ 3 * ; $ ; > ; * @ ; @ $ ; ; * @ @ @ @ @ ; @ @ ; ; > , ; ; ; $ @ $ @ O @ ; , ; ; * @ ; ; @ @ ; , * % 6 5 ; @ ; > , * @ ; 1 5 @ > > ; , * ; ; @ ; * > * * ; ; ; ; ; * ; , * > * ; , @ * ; ; ; # @ , 1 * ; @ 1 5 , ; 1 ; , > 2 ; @ ; * ; , ; * > > * ; ; * > ; ; > ; , * , , @ ; @ > ; 2 @ @ 1 ; ; > ; @ * > 6 @ ; , o * @ ; 1 ; ; , 1 ; ; @ ; ; ; $ ; * ; , * ; @ ; , > * 5 5 * $ * ; * 1 * @ > * * ; @ ; ; ; ; ; * , @ @ ; , @ o * @ @ ; 1 , ; ; * 1 ; @ $ > * ; > ; > ; > ; ; @ ; @ * 3 * @ , , * , ; ; @ ; 1 > ; @ ; 5 ; $ > * ; * $ ; ; * ; ; ; @ ; @ ; > @ ; * e 1 * ; ; ; ; ; ; * ; ; @ , ; ; 4 @ ; , ; ; @ ; 1 ; ; * ; 1 ; @ ; @ @ > 5 > ; 1 ; @ @ 6 , * , @ , ; @ ; * ; > $ @ $ > ; @ ; ; ; ; o $ ; * 1 ; @ @ @ ; * * * @ ; @ 1 > o @ ; @ o ; ; * ; $ ; ; ; , @ @ @ ; ; @ $ , @ $ ; @ > @ o $ O @ @ @ @ $ > * @ @ @ @ @ @ ; @ O ; @ $ O ; @ , $ @   ",
"@ $ @ O . @ @ o o $ $ o @ $ O @ @ o @ > @ o $ @ o ; @ * $ @ @ @ @ o O $ @ @ @ ; ; @ @ @ @ @ ; ; * @ o ; $ @ O o @ o , * $ @ ; > * @ , ; ; ; * @ @ $ 5 ; * ; * @ ; ; @ @ ; @ @ > ; ; * $ $ ; ; , ; ; O o @ , 5 ; $ ; ; @ $ 1 @ ; @ ; > @ * @ > @ @ @ * % - , 5 - # ; @ * ; @ @ 6 7 , $ , * @ * ; * * > ; * > @ , , , * $ , ; ; O @ > ; * * 6 * ; ; , @ ; ; @ @ , 1 @ @ > 1 @ ; , ; , , * ; ; @ , 5 @ * w * @ , @ O o 4 , ; ; @ ; ; ; ; @ @ @ ; @ ; 6 ; # * , ; ; @ o ; ; @ ; 1 ; @ o ; ; * * , > ; ; $ ; $ ; @ ; , @ * ; ; @ ; ; > @ @ @ ; ; , ; $ @ , ; * 4 , $ o $ 3 ; ; * 6 ; @ * * @ $ ; * o * ; $ @ $ ; , ; # @ $ ; @ ; @ 5 * o 5 ; o @ , , , * ; @ @ , > @ > * ; ; ; $ : ; , , * , , @ ; ; ; ; * * @ @ 3 $ @ * o ; ; $ , , ; ; > > @ $ ; @ @ @ , ; @ @ * @ 1 3 ; @ ; ; * > ; * , @ * , ; ; * ; 6 * ; * 1 ; * , # ; @ , 1 * * 5 ; $ @ @ , * 1 $ ; O @ @ > , * ; @ ; @ ; 1 1 1 ; @ ; > o + , , o ; $ @ , > - $ @ * ; @ o > > @ * , , , @ o @ ; , @ > ; * 3 @ @ * ; o # o ; ; $ O $ ; @ $ @ O O @ @ ; ; @ # o @ > 2 ; @ @ * $ @ o @ @ @   ",
"O o O @ o o o @ @ $ o > @ @ ; X # $ @ @ @ o o $ @ $ $ . O ; o ; @ O @ # @ ; , ; @ @ o ; ; * ; @ * ; O ; ; $ - ; ; @ ; @ @ * * $ @ @ % $ @ @ ; ; ; , , ; $ O @ 5 , , @ @ $ @ $ $ @ @ @ ; @ @ @ O @ , , ; ; , , @ > ; * ; ; @ @ , , ; @ > * @ ; @ @ ; ; = @ % o * > @ ; ; , @ o o ; , @ ; ; 6 ; @ ; ; ; ; ; , ; * ; : > , 1 ; * ; 3 @ ; @ * * ; @ $ > ; ; @ * 5 , ; 1 ; ; ; , 1 ; 3 ; = @ - , * o @ ; ; o # * , ; ; 5 1 o ; 2 @ , 6 # * > ; ; ; > , @ * , , @ , 8 4 ; 3 $ @ 5 , @ ; > , ; 5 5 1 * @ ; , 1 1 * > > ; 5 8 1 @ O @ * @ ; ; ; > * @ 4 5 ; ; $ ; o % ; 1 ; , ; @ $ # @ ; * : ; @ * , ; 2 ; 5 , , ; @ ; > ; $ 1 > , @ ; > o @ $ ; * 1 , @ 1 ; 5 $ * > @ @ ; ; o : , , ; @ ; , * 5 , @ ; @ - @ @ @ ; ; @ O @ ; ; ; $ ; * 5 , 1 ; @ : ; , * ; ; # * @ ; @ @ @ @ ; ; * @ 1 , @ @ * 6 ; @ 5 ; @ @ $ ; , ; > ; 3 ; O $ @ - $ $ o > ; + * > ; * * ; 1 ; + 6 6 ; ; , * ; @ @ O o o , ; ; @ ; > @ @ @ O > ; * * @ @ @ , * 6 * O $ @ @ ; $ ; ; @ $ ; ; > @ o $ # O ; $ o ; ; @ @ o O @ @ @ > * * ; @ $ @ O @ ; o @ * $ o @ @ @ $ @ ; @ ; $   ",
"O o o $ @ O O @ o @ # @ @ * - @ O $ @ @ $ $ ; o @ @ ; O o @ @ @ $ @ ; * @ ; @ @ @ @ @ * + @ @ @ @ @ @ * ; > o o @ @ ; @ @ @ ; 1 @ o @ @ @ $ @ ; @ ; ; ; $ @ @ ; * ; ; > @ @ @ ; > ; @ 1 > @ ; > ; ; ; > ; @ ; @ ; ; ; ; ; ; @ @ ; > @ , * @ $ ; @ ; $ * @ > ; , 1 @ 5 , * ; ; @ > @ ; @ * ; ; * ; ; 6 * ; ; , 1 * * * , @ ; ; @ @ ; * 6 , > ; ; ; * ; ; ; ; @ ; ; ; ; ; @ , 1 @ ; ; - $ @ 5 ; ; $ @ > @ $ 1 ; @ @ ; @ @ @ ; , ; 5 @ ; * , ; * > ; @ @ , 2 > @ * 6 - @ ; @ , ; * * 5 ; * 1 , @ @ 3 > ; , 2 $ @ ; , , , @ * > @ @ > 1 , @ @ @ ; 5 ; * 1 , * ; @ * ; ; ; ; , ; * 2 ; * * ; > ; 6 , * * 1 , * ; 1 ; @ , ; @ ; > * ; ; ; @ ; ; , , ; ; 2 ; 5 , @ @ , 5 @ , ; ; 1 , @ o * * * 1 > @ , > @ 2 @ + ; * ; @ @ , * @ ; @ @ ; * ; @ ; ; @ > @ ; > $ 2 ; ; ; ; @ > , * o $ ; ; @ @ ; ; ; @ ; @ ; @ @ > ; , , * @ , @ @ 1 * ; $ $ @ @ > ; > @ @ $ $ > * @ ; @ @ $ , , > @ ; o o @ ; > * ; @ @ ; ; @ O @ > 6 > o @ o , * > @ ; @ @ o @ @ * > @ $ ; O @ @ @ @ $ @ @ o @ * ; @ ; @ @ ; ; @ > ; @ @ ; @ $ ; o $ @ $ $ $ ; > @ @ ; @ @ ; ; ;   ",
"@ O @ O O O O @ o o o @ @ O o $ @ o @ @ @ o @ ; ; $ @ $ $ o @ $ $ @ $ $ @ @ @ ; $ @ @ $ @ o O # O , ; * ; ; @ $ @ @ $ * * @ @ ; * @ @ @ ; * $ @ @ O $ @ + , 1 $ o ; @ ; @ ; @ ; ; ; @ > 1 @ @ ; ; @ $ @ o o ; @ ; ; , ; @ @ ; @ @ @ * ; , @ @ $ ; * @ ; ; 1 * > 1 , , ; * 1 , ; > @ @ , 1 @ * 1 1 ; $ ; 1 ; * * * ; * ; ; * > ; * @ ; , , @ ; ; 1 ; ; ; , * @ 3 * ; ; @ ; 1 @ o $ @ @ 1 ; ; , , * ; ; ; , , ; ; ; @ * ; $ , ; @ ; , @ 1 , ; 5 1 * , $ $ @ 1 , @ > > ; , , ; @ ; 1 ; ; > = , @ @ @ , ; ; ; @ ; , , * @ O * 1 , @ > ; ; ; $ * , ; $ 1 ; @ , 5 , ; @ > > > , ; * 6 * * ; , @ $ ; , , @ @ @ @ ; 5 ; * > , ; @ @ ; ; 1 ; ; * , ; , @ @ 2 @ , , @ ; , 1 @ ; ; , , ; * @ 5 ; * ; @ ; @ > ; @ ; 2 ; * ; , ; 5 $ ; , ; > ; @ , , * * , @ @ * ; @ ; ; @ > > ; - @ ; ; @ ; ; > $ ; * ; @ @ @ 5 ; @ @ @ ; ; ; @ , + @ 5 ; $ @ @ @ ; , ; > o : ; ; * ; ; @ @ ; ; @ @ > @ ; , , $ ; > @ ; ; ; 1 > @ 3 @ @ @ o @ @ @ @ @ ; @ * > @ @ $ $ * > @ @ @ X ; ; @ ; * ; o o > @ @ > * @ ; ; $ o ; @ O o ; @ ; $ @ : $ @ o O ; 3 O @ ; ; @ * ; $   ",
"@ o @ O o @ @ @ @ $ O ; $ o o % @ @ ; ; @ @ @ @ @ @ o o @ o @ o @ ; $ @ ; @ @ $ o @ ; $ * @ X o O ; ; 1 * @ $ ; @ > ; @ @ @ * @ ; * @ > @ @ ; @ @ # @ ; ; * ; $ @ @ @ o ; ; @ > @ ; ; o @ > > @ $ ; @ > @ @ > ; ; @ ; @ ; @ @ $ @ @ * @ > ; ; ; @ ; @ @ * , ; @ o 1 ; > @ > ; , ; @ ; , * @ ; ; @ ; ; ; ; o * 5 ; , * @ > ; @ ; 5 ; > ; ; ; @ * , > @ 1 ; > ; ; ; @ ; @ ; ; ; $ ; ; ; , , @ , ; 1 ; @ , , ; > ; * ; 5 > 1 , ; @ @ 5 ; , > w ; 5 ; ; @ ; ; , * ; > > * 4 , ; @ 1 5 , , ; * 1 ; ; , , > ; @ @ ; * > > O > ; @ 1 $ * * * @ ; ; ; ; ; ; 1 > 1 4 * ; ; @ O * , 1 ; 1 , ; , ; ; * @ ; > ; o O @ ; , @ ; ; , $ ; ; * ; ; ; 1 ; 1 ; @ ; @ * > 5 , @ ; , , * ; , ; ; @ > , 1 ; * ; > > @ o @ * ; * ; * @ > > , @ * ; , * * ; 1 ; * > , @ > @ , > @ ; @ ; * ; ; ; ; 1 ; @ $ @ * @ ; @ > @ @ ; @ > @ @ @ ; 1 @ @ > ; ; > @ $ @ > , ; ; , @ @ , * @ ; o @ @ ; > @ > @ @ * * ; ; @ $ ; @ @ $ @ $ @ ; * @ # @ @ @ ; $ ; + ; ; ; @ ; @ @ ; ; @ > @ ; @ , > ; @ > @ $ @ o @ > @ $ * * $ o @ $ @ $ $ @ ; ; @ $ o @ ; o @ @ o @ $ @ $ * ; ;   ",
"@ o @ O O O o ; @ @ $ o o o O O O O o @ @ o @ o o @ # @ O # @ @ ; * % @ o $ ; O @ > @ @ @ ; * @ $ o @ ; @ $ ; 1 , @ $ @ @ ; @ o @ ; @ ; @ > @ @ ; 3 @ ; 1 o o > * @ @ @ ; @ @ ; @ : ; @ @ ; ; @ @ ; ; 1 1 * @ 3 > @ @ $ @ @ @ @ ; ; 3 @ ; , ; * @ ; ; > 1 * @ @ O @ 3 > @ > ; ; , ; @ , ; ; ; @ ; > > @ $ * ; * ; ; , ; * 1 ; , 1 @ ; , * > * , @ @ > * @ ; , , > ; > @ $ ; > , * * , = 6 , * * ; , , , , * @ 2 @ , , ; ; @ $ 3 @ @ , ; ; ; + @ ; ; , * ; @ @ ; 5 > ; * ; 2 1 1 ; @ @ , ; ; ; ; 1 , ; , ; ; ; @ $ ; ; , 1 * @ ; @ 1 , * 1 @ @ ; * @ * @ 2 > o * ; o ; u * @ % $ @ ; ; $ ; > ; ; @ 1 ; @ @ , * ; ; @ @ * , @ * ; @ ; , ; * , * ; , , 1 , @ @ , * ; * ; 5 @ $ @ ; * , o ; ; > ; * * @ > ; ; > @ + ; @ * * 5 , ; @ , @ * * ; , * > @ ; * 1 ; * ; * * , @ $ @ ; ; @ $ @ 1 - @ ; * > ; @ ; * ; ; ; @ @ o # ; @ @ * ; * @ ; , ; * > ; @ > ; ; ; > ; ; * , ; @ ; ; 2 @ @ > * $ ; @ @ @ $ @ $ , , * o ; ; @ 1 > @ @ ; $ $ ; @ ; @ ; @ @ @ ; 5 ; ; $ o o ; ; > : @ > ; @ $ @ @ > $ $ @ # @ @ @ @ > @ @ $ @ ; 1 o O @ @ $ @ @ ; @ ;   ",
"@ O O $ o @ @ @ O o o O o @ $ $ O O o O @ @ O o o $ o $ o @ @ ; @ ; o @ @ @ @ o @ ; $ @ * ; @ @ @ ; $ @ * @ $ 1 6 @ o ; @ @ @ o O ; @ $ ; * @ * ; @ $ @ @ $ @ @ @ * @ @ ; ; @ $ ; @ # , 1 @ @ @ @ @ > * * ; o @ @ @ * ; ; @ ; ; * ; @ @ > ; ; @ @ > , O ; 3 * @ $ @ o @ * @ @ , , * $ , ; > ; @ ; ; ; ; > > * @ ; @ * , * > @ * 1 * $ ; ; 1 , * * ; ; * * ; ; , ; @ ; > ; @ ; * ; > 4 , ; > , ; @ ; ; ; * 1 ; ; ; 1 0 5 @ @ @ * > 3 @ ; , , ; ; 2 > * * , , > @ @ ; ; @ ; ; ; , > @ # , 1 * ; @ ; 6 ; * ; ; ; @ ; ; ; , , @ $ ; ; , ; ; 5 , ; > ; 3 ; ; @ ; > , > ; ; * @ @ @ ; @ ; ; @ @ , > @ * 5 ; * @ > , ; @ * * ; ; , * ; @ * ; , ; ; ; ; ; , * * ; ; ; @ ; , @ ; > : @ ; , > @ @ * ; @ ; > ; * 1 , @ ; > > @ ; , 1 @ $ ; ; ; 3 ; * ; ; @ @ ; * 2 , * 3 ; @ > ; @ ; , @ @ @ ; ; @ @ ; ; ; ; @ ; > ; ; ; @ @ @ @ o ; ; ; ; ; ; @ @ @ * ; ; ; @ ; @ - ; @ > , , @ O ; , * @ @ ; ; @ ; : $ @ $ ; # > , @ ; ; * @ , @ @ * @ @ $ * 3 @ @ @ ; $ @ , , ; @ $ % o ; ; @ o @ * ; @ # ; o ; @ ; @ @ ; @ $ @ @ @ $ $ @ > ; > ; @ > $ @ @ $ @ %   ",
"o $ X o @ @ @ O @ @ o ; o $ $ @ @ @ o o $ ; o @ ; @ @ ; @ o ; @ @ O @ > @ o o $ @ @ @ ; > * @ O @ ; : o ; ; ; * @ @ # , * @ @ ; $ $ @ o @ ; * ; @ $ , @ @ > ; @ @ * @ ; @ > @ * @ @ O @ > @ ; ; ; , > @ @ @ @ $ * @ @ @ @ @ @ ; 1 @ ; ; ; @ ; @ $ ; ; o @ @ * ; ; , O ; 2 1 @ ; @ , % * @ @ * ; ; * 5 ; @ @ @ ; ; @ ; * 5 o o 1 , ; ; ; * > @ , 1 > @ , , ; > ; * ; * 1 ; o @ * , > ; > @ @ > , * @ > @ o > , @ ; ; 1 @ @ , 2 * 6 5 , * ; ; ; 2 ; @ , * ; 5 5 @ $ @ * @ ; , , ; ; > @ ; * ; ; @ @ ; $ , ; * @ > , , ; , , @ $ 2 @ ; * @ > 6 , ; ; 2 $ ; $ ; * @ 1 > ; @ ; 1 t > o ; ; 1 * - ; * e * , ; , @ ; , > , ; ; @ 6 1 ; ; 1 > @ ; ; @ ; @ + ; , , ; @ @ $ ; > * > , ; o @ @ @ @ @ > ; ; ; * ; , , @ ; , 1 > * , @ o o > ; * ; ; , ; @ > > > * ; @ * ; ; * @ > * @ : @ ; > @ @ * ; ; $ O ; 2 @ ; ; @ @ ; > > ; ; + 1 ; @ 1 ; o ; ; ; , ; ; @ ; > @ * + @ : @ ; @ o @ @ > ; @ ; ; @ o @ ; * ; # $ @ * ; @ @ ; @ @ > * ; > ; * @ o ; $ @ @ ; ; o o > ; @ @ @ @ @ @ ; @ @ @ @ ; o @ @ $ @ $ $ @ $ $ @ $ ; o @ ; X ; ; o o O @ @ @ @ O   ",
"o @ O o o o @ % O o o $ o o ; ; @ o @ ; @ O @ @ @ o $ @ > $ O @ @ @ $ ; @ @ $ @ @ @ @ @ + ; @ o * 1 $ o ; ; @ O O $ # , ; o @ $ @ @ @ @ @ @ @ $ @ $ * o ; * ; @ $ > ; ; @ ; * ; $ @ @ @ @ @ ; @ ; @ ; @ O @ ; ; > @ @ ; ; O @ ; ; o @ ; ; ; @ @ @ ; * $ @ @ ; ; > 1 @ ; * , ; @ @ > @ * ; ; @ @ ; ; ; , * ; > @ @ @ ; * 6 @ ; 6 @ * ; 2 * @ @ ; o * * ; , ; ; @ @ $ 1 ; 1 @ @ 2 ; * > @ $ * ; ; , * @ @ ; ; , @ ; > * @ 1 = , , @ 1 ; , 6 * @ ; * @ , $ * , , ; @ ; @ ; * 5 , @ @ , @ > @ 1 6 1 ; * ; , , ; @ , , , * , ; * @ ; > ; ; @ , ; @ o @ ; ; ; * ; , @ * * ; > @ , , @ @ > * , * @ + , , > ; * ; , , * @ * * @ o @ @ > * , ; @ ; ; ; ; @ @ * ; , @ * @ * @ @ ; @ ; 1 $ O @ ; * @ * ; o $ > @ * , @ ; , * * @ ; @ ; @ @ > ; > * ; @ ; ; ; @ ; - o @ * @ ; $ * * > * * ; ; @ $ , , ; @ @ * * - @ @ > ; ; ; ; ; > ; ; * ; O * ; > @ $ ; * * ; ; ; @ , 6 ; o ; $ @ @ @ @ @ ; ; $ ; @ @ @ @ 5 ; @ o @ > @ o % @ ; $ $ ; > @ @ ; ; @ ; $ @ ; @ ; @ @ @ @ @ * ; @ O ; > @ @ ; ; o @ @ $ @ o $ @ @ @ @ @ ; @ @ @ @ . o @ ; o o $ @ @ * ;   ",
"@ @ @ @ @ O o @ @ @ # ; O O o O o $ $ @ @ o O @ @ @ o @ % o o $ @ @ @ @ ; @ @ ; @ @ $ , $ # @ , ; @ @ @ O @ * ; @ @ ; * @ @ $ O @ ; @ ; o ; @ @ @ ; O @ ; @ @ @ @ @ @ ; @ @ @ @ - ; ; @ ; @ @ $ @ ; ; @ @ * > @ @ > @ @ @ @ ; @ @ @ > $ $ ; @ @ $ > @ o * ; ; 2 @ ; @ ; $ > * ; ; ; ; ; ; * > * @ ; $ ; ; @ ; ; * $ ; ; * ; ; @ @ ; ; * ; * * @ ; * @ @ > $ @ 1 * @ ; 5 ; , , @ ; @ , * ; , > ; , , # ; ; ; 1 ; @ > ; - ; , ; @ , 1 * 1 , , > $ @ , @ ; ; * ; ; o ; , @ > ; o 6 1 @ , @ ; 1 ; @ @ 1 6 , @ @ @ ; ; , * 1 ; , ; ; @ ; ; ; ; @ @ * , , , > ; ; * @ 1 > @ 1 * @ 1 ; ; $ , $ ; > * ; ; @ 6 * ; , @ 1 * @ * ; 5 * @ ; > ; @ > ; ; * * * 6 @ * * , 1 @ o @ o ; ; @ ; > ; ; # , ; * ; ; @ , ; * ; @ @ * ; @ , ; ; ; * ; ; ; * ; ; ; ; ; @ ; * ; ; , ; , ; ; ; @ @ * * @ @ @ ; @ , ; * @ ; ; > > ; * , > @ ; 5 1 ; o ; ; ; @ @ @ $ ; ; @ @ @ o * ; @ @ ; 1 ; ; ; $ ; ; ; * * 5 ; @ * > @ ; @ ; 6 ; @ : $ @ ; @ ; > 2 ; ; ; ; o ; @ @ @ @ : $ @ @ @ @ * o @ @ @ ; > o @ $ @ o @ ; ; @ @ @ @ o @ @ @ @ @ ; @ $ @ ; O o $ @ o @ @ $ *   ",
"@ O @ @ @ @ . O @ $ o o o o o O o @ $ o O # @ @ ; @ @ $ @ @ @ o @ ; $ $ @ $ $ @ ; ; @ ; @ o @ > ; O @ $ @ @ ; ; > o $ o o @ @ o @ ; > @ o ; ; @ @ @ @ @ @ $ ; @ ; @ + ; @ @ o @ @ @ ; @ o @ @ @ @ ; ; ; $ $ $ $ @ @ o @ > ; @ * : @ ; @ $ @ ; @ @ , ; ; * * , > ; ; ; > @ > @ ; , ; ; ; @ @ ; ; @ ; @ ; 5 ; O > > @ ; ; * ; ; $ ; * @ $ @ o > * * ; o 2 ; @ @ > ; ; @ , ; * ; @ ; @ 1 ; > ; ; ; , ; @ * * , , @ @ , 1 * ; ; ; ; * , ; ; , ; ; o @ , ; ; * ; @ $ ; 1 , ; @ @ ; @ ; ; ; % @ , 1 ; @ * * ; > O @ @ ; * ; ; ; @ @ $ @ , @ @ ; > @ @ > * , > ; @ 3 ; ; ; @ ; ; ; @ * > @ ; @ @ ; * ; @ @ * > * ; ; * @ @ > * ; ; , @ ; @ ; * * > > ; * , o @ , , , > @ > @ $ @ ; @ ; ; , o 5 ; * @ ; @ ; 1 @ @ ; > @ ; O ; * ; ; > ; $ ; ; ; > $ * > @ $ > , * ; ; ; @ 1 $ * ; ; @ $ * @ * @ > @ ; @ @ ; @ * * > ; @ ; > * * @ @ @ > * O $ @ @ * ; ; @ @ o , ; % o ; 1 ; 1 @ ; $ @ ; ; * ; 1 @ @ @ ; @ ; @ * * @ @ ; @ @ o @ @ , ; @ o @ @ @ @ ; ; . o ; @ o ; ; o ; ; ; ; @ * @ o o @ ; @ $ O $ ; @ @ O @ @ $ O @ > @ @ > @ O ; @ @ @ o @ @ 1   ",
"o o o @ @ ; o o o O @ o @ ; O @ $ @ O O o ; > @ o @ @ ; * @ ; @ @ @ o @ @ $ ; ; o ; o @ @ # @ @ @ ; @ @ $ > o @ @ $ * @ > @ $ 3 @ @ @ @ @ ; $ @ @ ; ; O ; ; ; @ ; ; ; o @ $ @ @ ; $ @ $ @ @ > * ; > o @ > o @ @ ; @ * > ; * @ @ ; @ ; @ o @ ; @ @ ; $ ; * ; $ @ o ; $ ; @ @ $ * ; ; * > * @ o > ; * , @ * * @ ; ; ; , @ , ; @ * * @ , ; @ O ; , , ; * $ @ 6 , ; ; ; 2 @ @ ; 1 6 o > 4 o @ ; ; , 1 @ > ; @ ; @ ; * , > * @ ; * ; ; * , @ , > @ @ @ 6 , ; ; 1 ; + ; 2 , , , ; , ; ; , , $ @ * , , * ; @ ; > @ > ; ; @ * o > ; ; > ; ; * ; * > $ ; ; * ; $ ; ; ; ; , ; , @ ; ; * 5 * * @ @ * ; , ; ; ; ; ; @ @ > ; * * @ @ ; * ; > * ; * * * * @ ; ; @ 2 $ @ , + @ ; > ; > * ; > ; @ ; ; , ; ; @ @ ; 1 ; ; ; , ; @ $ o ; , , @ * ; @ ; , * ; @ ; , @ ; 3 > @ o ; > ; * @ ; ; $ @ > ; * * O ; ; ; @ ; @ @ ; 2 ; o * * @ ; @ ; @ @ $ ; ; $ ; > ; * ; @ ; O , ; $ @ @ * ; ; ; > ; ; * ; * . o ; @ * @ ; @ ; ; , @ o $ ; @ $ 1 ; @ @ ; o o @ ; ; > @ @ o ; ; ; ; O o > > o O @ @ $ $ @ $ ; @ ; o ; @ @ @ @ $ @ @ o @ @ @ $ @ @ ; 2 o o ; o o @ ;   ",
"o o @ @ $ @ o O o O o o o $ @ o @ @ @ O o @ , @ O o , $ @ @ @ @ @ @ o @ @ o @ @ @ o @ @ @ O o @ @ @ % @ @ @ o ; @ @ * ; @ * ; @ @ $ o $ ; ; $ $ @ @ ; o ; @ ; @ @ > 1 @ @ @ @ ; @ > o ; > @ ; ; @ @ @ e @ o # @ ; > * ; @ o ; ; ; @ @ $ $ $ * @ $ @ @ ; ; > $ O $ ; $ * , * > @ @ ; @ ; > $ @ , , ; * ; @ ; ; ; ; @ ; @ > > ; @ @ $ , ; $ ; * , , @ , @ ; 5 5 * ; @ * $ ; * * * ; , 6 % @ ; * > , @ , , ; $ @ , * @ @ ; ; @ , @ * ; 5 ; @ @ * @ * 1 , @ @ * ; ; ; @ ; $ @ ; 1 ; ; , , % @ > , * ; > , ; ; * ; $ @ ; * ; : ; ; , * ; ; ; ; @ ; ; ; * + @ $ * * , ; - , ; ; * , 1 > * , ; 1 ; 2 o @ @ * ; $ * @ * , 1 > * ; , * ; ; 1 * ; $ ; @ @ > > , ; @ 5 5 > ; * ; ; @ * ; * @ ; , ; ; o @ @ @ $ ; ; * 1 @ @ $ ; ; * ; * ; @ ; 2 * * ; ; ; ; ; * ; @ @ ; ; $ @ > @ ; * o @ ; * > ; $ $ ; * ; $ @ @ @ ; o ; @ 2 2 @ ; ; @ @ @ ; @ ; @ ; ; @ * , > @ @ ; * o % @ > @ @ ; @ ; @ @ ; O ; @ ; ; @ @ @ @ ; @ $ $ ; * ; @ , ; o $ @ ; $ o @ ; , @ > $ o ; ; ; % @ ; @ $ @ @ ; ; @ @ @ $ o ; ; ; @ @ o ; O ; $ O $ ; $ o @ O @ ; $ . @ o @ $ %   ",
"o o O O @ @ o O $ O o o $ . O @ @ ; @ @ @ @ @ @ @ @ ; o $ $ o o @ > @ ; ; o O # > @ ; O @ o @ ; @ @ @ @ @ @ * @ @ @ > ; @ ; o @ @ @ @ ; ; @ @ @ @ @ $ @ @ ; @ * $ @ @ ; ; ; * , o ; $ @ @ > * @ ; @ o > @ ; * o $ @ @ ; o o ; ; ; @ > ; ; > ; @ O @ @ ; ; * > @ ; ; ; , @ * ; ; ; @ ; * ; @ ; , ; * * * ; ; @ @ @ @ ; * @ 3 > @ > ; > ; > ; ; ; @ ; ; $ ; , * ; * ; ; @ @ , , , @ @ % ; , ; ; ; + @ @ ; ; ; * , * , o ; > @ ; 1 * * @ @ ; , ; > * , @ ; ; ; , , ; ; @ ; @ @ > @ o 1 @ * , ; * @ > @ @ @ > ; ; > ; @ * @ ; o o 5 , * @ * , > @ ; > * 1 > @ ; * ; > * * ; > ; ; > * @ 4 ; ; ; ; ; ; @ ; * 1 ; ; @ ; ; ; ; $ ; ; @ @ ; @ ; @ ; @ ; ; ; * ; ; > @ 2 ; ; @ ; ; , * ; ; ; ; $ @ > : @ ; ; > @ + 1 , @ * ; , $ @ * , > ; ; * ; > @ @ ; : @ 6 @ @ * > ; @ * ; @ 1 * > ; , > @ * ; @ ; @ * ; o @ ; @ > @ @ ; o ; ; ; $ @ ; * $ ; @ $ @ ; @ @ 5 O @ * @ ; @ ; , o @ * ; $ $ @ * @ * ; @ $ @ , o ; @ ; 3 @ @ @ * + ; ; @ @ ; @ @ $ ; @ @ ; ; O $ + @ ; ; @ @ ; @ ; * 3 @ ; $ @ o @ ; @ ; @ $ ; O ; ; @ @ $ @ o O O o @ 1 $ o $ > $ :   ",
"@ @ @ O o @ o o O o o $ ; % . @ @ @ @ @ $ ; @ @ ; $ @ @ o $ O o $ @ o @ ; ; o @ @ > o @ * ; @ @ ; @ o @ ; ; @ @ @ ; @ > ; @ o $ @ @ @ o @ @ @ @ $ @ O @ @ $ o $ @ ; o > @ @ ; > * o @ 1 @ * ; o @ @ @ O ; * ; @ $ @ o @ ; ; @ ; ; @ * @ @ ; * O @ @ @ O @ , > @ ; ; ; ; @ * @ ; ; ; $ * @ @ * , , $ 5 > @ @ $ $ @ ; ; $ ; @ * , > ; @ 2 * * ; ; @ $ , $ ; ; $ * @ @ > @ ; * 1 1 ; @ @ ; 4 , ; ; ; * @ @ @ * @ > ; > ; , ; @ @ ; 5 , ; @ ; * ; ; , 1 @ @ ; ; , ; * @ $ * ; * @ # @ ; # 5 1 * @ ; @ * ; o ; ; * > ; ; ; , > @ O * , , @ , 5 @ @ ; ; @ , $ ; ; ; * , @ ; @ $ @ * * @ @ ; @ o ; @ @ ; ; * * * ; > @ ; ; @ * @ @ ; ; ; @ o ; @ @ ; * ; , , $ @ * $ @ o ; @ ; ; ; , @ * , ; O ; ; $ @ * ; ; @ @ , 1 , ; ; * @ ; ; ; @ @ ; ; @ ; ; ; @ @ @ , o 5 > , * @ ; > @ , 1 ; ; * @ @ @ ; > @ @ ; , 3 ; * , ; @ ; ; @ @ @ > ; * ; $ > ; @ $ @ @ o ; , # o , 1 @ @ @ 1 ; o ; ; @ @ @ , 1 @ o @ @ ; @ @ ; , * @ @ ; ; , # o $ @ > @ o O @ ; @ ; > ; o $ O @ * * @ @ @ @ ; @ ; @ @ ; @ # ; @ @ @ @ @ 3 $ @ @ * @ O o $ O @ @ ; * ; @ @ > @ o   ",
"+ @ @ o O . O $ $ o $ o O $ o $ O @ @ O O o * @ o @ @ O o # @ $ @ @ @ o @ ; $ @ o @ o o @ ; $ @ @ @ # @ @ @ @ ; o @ @ o $ @ @ ; ; @ @ @ ; @ @ @ * $ ; @ $ @ O @ @ > @ @ o @ @ @ ; @ o ; > @ ; $ @ ; ; o @ , ; ; @ ; @ ; ; @ * * ; @ ; ; @ @ ; @ ; ; ; $ @ ; * @ ; ; > o O * 6 o @ ; * ; @ > * @ ; @ , 1 + ; * > ; ; * * ; @ @ 5 * ; * > * * , @ ; 1 , ; > O @ * e * ; ; 3 ; @ @ > > ; 4 ; @ @ > 1 ; @ $ ; , * * $ ; , , ; ; @ * * * > > , ; ; @ ; * > @ > @ > ; 1 * , @ @ 2 ; , ; @ * , * , ; ; @ * 5 ; o $ $ @ ; , @ * > ; @ 1 * @ * , @ o * ; ; * * > ; * ; ; @ * ; $ @ > ; o ; ; ; ; ; ; * ; * @ @ ; ; ; ; @ ; @ $ @ , > * @ o o @ ; ; ; ; @ @ * 2 ; @ * , ; @ > ; , ; ; @ * ; > @ @ ; o * ; > , ; @ ; o @ * * @ $ o > > @ @ o @ ; o ; ; ; ; ; @ ; @ @ * ; @ * ; * ; ; @ @ , > o ; ; @ > ; ; * @ ; @ @ ; * ; $ @ 1 O @ ; ; O @ @ > o ; ; ; @ @ ; * @ @ , ; @ O @ ; ; > * @ @ ; ; @ , @ ; ; o : * @ ; ; ; ; @ ; > * $ @ @ ; ; @ ; @ o @ o O @ @ $ > # O ; * @ $ ; @ @ @ o @ ; @ ; ; $ $ @ o @ o o $ o @ @ @ $ @ @ o ; @ @ @ @ > o @ O $   ",
"@ @ @ O O O O O O o O O O @ @ O o o o @ $ o $ ; @ @ * @ ; ; o > @ o $ O X ; , $ . O $ @ O * @ $ @ @ @ @ o % O @ $ $ o O o o ; ; @ @ @ ; ; * > @ ; * @ ; $ @ @ o @ ; @ @ # O @ # o o O @ ; ; @ % @ ; 2 ; ; , * @ @ > ; ; @ o : @ @ @ @ @ @ @ ; , , ; * ; * @ @ @ @ ; ; O . > ; . % ; $ @ ; ; @ @ @ ; @ > , 1 ; + * * ; ; @ @ @ * @ @ 1 @ ; 5 ; , ; @ @ , ; $ ; ; * * * @ O $ ; * * * , 5 * @ ; ; ; > @ * ; > ; ; o @ , ; > ; ; > @ @ @ * ; o @ o @ @ ; * ; ; ; , ; ; , ; ; @ , 4 , ; ; @ > * , ; 1 1 * , ; @ o @ 1 , , @ o ; ; , @ @ @ @ @ $ @ @ ; > @ ; ; * ; @ @ ; . o @ 6 1 @ # @ @ $ @ , , 2 ; @ O @ , , ; > @ * @ $ ; 5 ; @ o @ @ : $ , ; @ 3 ; - . ; ; , , ; > > ; @ $ @ > 1 @ o @ ; > 1 ; ; 5 @ , ; @ $ ; > @ # o @ $ @ $ @ 3 @ @ $ o ; 6 ; @ ; o @ @ @ # @ 1 * * @ ; > * ; @ @ ; $ @ * 1 ; O $ @ : ; * @ @ o * O # + @ o O > @ o ; > ; > > @ ; $ $ o @ # @ ; @ , , @ : $ @ ; % o ; 5 1 @ O ; ; ; ; > ; o @ @ @ $ @ @ @ ; > @ @ ; > $ $ > o ; > @ $ @ @ @ > ; $ % @ @ $ ; @ $ , O o @ ; O @ $ O $ ; o $ $ @ o ; ; ; @ o o O o @ O #   ",
"O # # o @ ; ; @ O O @ o O o o @ $ @ o @ @ @ ; @ $ @ $ O @ o O @ ; @ * O o @ 3 o $ ; @ @ O O > @ $ ; @ . O % @ @ $ O o @ > @ @ o o $ @ @ @ ; o $ $ o @ @ @ O ; @ @ * ; @ O @ ; ; @ , ; ; @ @ ; @ ; 1 2 $ O > , @ @ @ $ @ @ ; * o @ ; ; @ > > @ $ @ o ; # @ @ > @ $ O > ; @ $ - * * * @ ; @ , ; * : $ @ . # @ o @ * $ @ ; ; $ ; * @ ; @ 1 ; $ O @ > ; @ , ; @ @ @ o 1 o $ @ ; @ > ; , ; ; o @ ; ; * ; ; > ; $ O @ , , @ ; ; @ ; ; @ , 4 * $ > ; ; ; ; $ ; $ * , ; ; , , , 8 , @ ; 1 @ ; , > ; ; @ $ o * , , ; o @ ; ; ; @ ; @ > ; > * , @ $ $ * , , @ 1 1 @ ; $ * ; @ , ; @ * > $ O ; $ - $ @ > @ ; ; o * = 4 , O o ; $ 5 @ @ ; 5 5 ; o ; , @ @ > 5 ; ; * , = * @ ; ; @ @ @ o @ ; * ; ; 2 ; @ $ > @ @ ; O O > 1 @ o > ; , * * 1 @ * , ; ; @ , ; ; % o ; @ ; , @ o @ 5 + * > ; @ ; @ ; @ > ; $ o @ $ O @ * @ o ; ; , , @ , ; ; * ; * ; o , , $ $ @ @ ; - 4 0 ; @ @ @ $ @ ; $ ; @ @ ; @ ; * O o $ > ; * * ; ; $ @ O @ ; ; o @ * @ o % O % o ; @ > @ ; * . ; , @ @ @ ; ; ; @ @ @ o $ @ O @ ; @ ; @ ; @ ; O o @ @ O ; , @ ; $ ; o o $ @ X * ; @   ",
"@ @ o O @ o $ o @ @ @ @ @ o $ o O O @ O @ @ ; $ O @ O @ @ o $ $ * $ $ @ @ @ o @ @ @ @ @ @ @ @ @ @ @ @ o O @ @ @ @ O O @ @ @ @ ; o @ $ @ . @ @ @ ; @ @ O @ ; + ; $ * ; o o $ @ @ * > @ o @ > ; ; ; @ o O o ; * @ O @ @ ; @ @ $ @ @ > @ @ @ @ * ; @ $ $ > @ ; ; @ @ @ @ @ * > @ ; ; $ ; ; ; @ ; @ $ ; $ @ * ; $ > ; @ @ ; * * @ * @ > ; * ; @ $ * ; , $ > ; ; ; ; ; ; $ @ @ > * @ @ > ; @ ; 3 ; ; ; ; ; @ ; * ; > ; ; @ * , ; ; * ; 1 5 o @ , ; @ > @ @ $ @ > , ; ; * * , ; , ; * * * > @ * ; ; ; ; @ * * ; ; * $ ; $ , @ ; ; ; @ * * > @ ; * , , 1 o $ , ; ; @ * , ; ; ; @ @ ; ; @ ; @ @ ; ; , @ ; > ; @ * @ > o O ; $ ; ; ; * @ * > o * 5 ; @ ; * @ @ , 6 ; , > @ ; @ ; @ ; @ * > @ $ * ; @ , ; ; @ ; * @ ; ; @ @ ; @ ; , , ; ; ; : @ @ * ; * @ @ @ @ * ; , ; o o 1 $ * @ @ ; ; $ @ * ; * ; ; @ > $ o ; ; @ ; @ @ ; @ * $ @ @ 3 ; ; @ , > @ o @ 2 @ @ * ; o # $ @ ; ; @ ; @ @ ; @ @ ; ; * $ ; @ * ; @ ; @ @ @ @ @ ; ; ; ; @ ; @ @ @ @ o ; ; @ o ; ; @ * ; ; @ @ @ $ o @ @ @ @ @ > $ @ @ $ @ @ @ $ @ O o : ; O @ > @ O O @ @ o @ @ o , @ ;   ",
"@ $ X O o o o O # @ @ O @ @ @ O o o @ o O O o o o O $ o @ $ o @ $ o @ * $ o @ @ o @ O @ @ , @ o o O @ @ @ ; @ $ o $ @ % o @ @ @ $ @ $ @ $ @ > @ @ o @ $ ; @ @ @ @ $ @ ; * o @ o @ @ @ ; ; @ o @ ; @ @ $ ; ; @ o O @ @ ; @ @ o ; @ @ @ o $ , * > @ $ @ ; @ ; @ $ ; ; $ @ @ * ; > $ @ @ ; * $ ; @ @ ; ; t 4 @ @ ; ; * @ @ ; @ ; 3 ; * @ @ ; ; , ; @ ; @ ; @ ; @ @ @ ; > @ $ @ * ; @ @ o , 1 ; @ @ > $ $ ; ; ; * ; ; @ , * ; @ ; 1 ; ; ; @ $ * , ; @ @ 1 $ o @ ; ; 3 @ + ; ; @ ; * ; ; ; * $ ; @ @ ; , , ; ; ; > @ * @ @ @ @ ; ; ; ; ; @ ; * ; , @ ; ; # * * ; * 5 , * @ @ 1 , ; ; ; @ @ @ > ; , , @ o > > * @ ; @ > @ @ @ @ ; ; O @ > @ ; ; ; ; ; ; @ . ; ; @ o > ; , , ; @ ; * @ ; @ @ * , @ ; ; > ; @ , ; * ; ; > $ O @ ; - * * O O ; ; $ @ ; * , ; , > @ @ * ; @ ; ; > ; ; ; o @ ; 3 ; + ; > @ @ ; ; $ ; @ ; @ ; @ > # @ $ @ > ; * @ ; * @ ; ; * o ; ; @ @ @ @ @ @ ; @ ; ; * @ o > $ * , @ @ ; ; @ @ @ ; * , @ @ @ ; @ @ $ $ @ > @ ; > @ @ @ ; > @ @ @ @ @ $ @ $ @ O ; ; @ ; @ o * o @ $ O @ $ @ @ @ o O o @ o o o @ @ o @ : $ @ @ o $ $   ",
"o # O o @ # O @ o @ @ O @ o @ O o $ $ @ O O o # $ @ ; . o $ @ $ $ @ @ @ $ @ @ @ @ @ o @ $ ; @ $ O o @ @ $ ; @ @ $ @ @ ; @ $ ; @ @ @ @ @ $ @ o $ $ @ @ ; @ @ 3 @ @ * @ ; ; o # o ; ; o ; @ @ @ ; ; O ; @ @ @ , ; $ ; @ ; $ # o > @ ; * @ @ ; , @ ; @ * @ @ @ ; ; * ; $ @ @ @ * ; @ @ ; ; $ @ ; ; ; ; @ , 5 @ ; ; @ > ; @ ; @ @ o @ ; ; ; @ @ ; $ $ ; ; @ @ @ @ @ ; ; @ * @ @ @ ; > $ $ , ; @ > ; $ @ o ; * ; * @ * ; ; ; ; $ @ @ @ @ @ ; * ; 1 ; o @ > ; 2 @ , , 2 @ > @ ; @ , > ; , @ ; > ; @ @ , ; , @ @ @ ; @ 6 > o 1 ; o @ ; ; , $ > @ , ; @ @ * ; ; * ; @ ; @ ; ; @ @ ; ; * ; ; @ @ @ @ ; ; ; @ * * @ $ @ @ > * ; > @ @ > 2 $ * ; ; * , > ; @ > ; * ; @ @ ; * @ ; ; ; ; @ @ ; ; @ , 1 @ o @ ; ; @ ; ; ; @ ; * o @ o $ ; * @ @ @ ; ; @ @ @ * , ; , > @ $ * ; * ; * ; @ @ $ 2 $ o @ * @ @ @ @ o - @ @ @ ; @ @ 3 ; ; $ @ @ @ O @ @ ; @ ; ; ; @ o ; * ; $ > ; @ @ ; @ @ @ ; $ $ $ * @ ; ; ; $ ; * @ ; @ $ @ * ; @ o ; : @ @ @ @ $ @ ; @ @ @ $ * * @ ; # o @ @ $ O @ @ $ @ o @ @ @ @ * @ @ o @ ; @ O $ @ $ @ @ $ % o * # @ o $ $ @ @ o > ;   ",
"o @ O o @ O @ O @ @ # O o . O X $ ; ; @ $ O @ - O o o o @ . @ $ $ @ ; @ O o @ ; $ O % @ @ ; o O O O @ @ @ O @ ; ; @ @ ; @ > o ; @ @ @ @ $ ; o @ @ @ $ $ o $ @ @ @ o o o @ @ @ $ @ $ ; @ o ; ; o @ ; @ @ ; @ @ > + $ , @ ; $ @ $ ; ; @ ; ; o @ ; ; * ; @ @ * * ; @ @ ; @ ; @ @ @ @ > # @ @ ; O ; @ @ @ @ ; ; @ ; ; @ $ $ ; @ @ @ $ > 1 $ o ; * o ; @ @ ; ; @ ; ; ; @ @ ; 1 ; ; @ @ ; > @ @ ; > $ ; ; @ ; @ @ ; > ; ; @ , ; ; * o ; ; ; ; @ @ ; @ $ ; * * * @ , 1 6 @ , ; @ @ > $ @ * - ; @ ; > , 6 3 * @ @ @ ; * , 2 o ; ; ; , ; @ ; $ ; $ * ; ; ; ; ; ; $ o ; $ @ ; ; > o * ; o $ ; ; @ @ ; @ @ ; > , * ; ; ; ; $ ; ; ; % ; @ ; ; ; ; @ o * * + * ; * ; @ , ; ; ; $ ; @ ; ; @ @ o ; ; * ; @ @ @ ; * , @ @ @ * ; @ @ ; * @ @ @ ; @ > > , ; @ @ $ @ > @ ; @ @ o ; , ; ; @ @ ; * ; @ o @ @ ; * ; ; $ @ ; * @ o @ $ * @ , ; ; @ $ @ ; * $ @ o @ ; @ @ $ $ $ @ ; * * @ @ ; ; @ . # ; ; @ @ O $ @ @ @ ; o @ @ $ @ @ ; > o @ $ @ > @ @ $ ; @ @ @ @ @ @ @ ; $ @ @ ; > $ ; @ @ @ o $ @ $ $ o ; ; ; @ @ , ; @ @ $ $ @ ; @ $ ; ; O $ o O @ @ $ @ @ $   ",
"O o o O O O @ @ $ @ O 3 o O O O @ * o @ $ @ @ $ @ o O ; @ o % @ ; @ $ @ o O @ @ @ @ ; @ @ @ o @ o $ o @ ; @ O @ ; * @ O $ ; @ ; @ o @ @ $ o ; @ @ $ ; > o $ @ ; @ @ O $ ; @ @ $ @ @ ; o o ; > O O > ; @ $ @ $ ; o @ > @ @ @ ; $ $ @ @ o ; O o @ o @ ; * @ 3 @ * ; @ ; * $ @ @ ; > o o ; ; ; @ @ @ @ o @ o @ : * 1 ; $ @ > @ ; @ @ ; * o $ > @ @ > @ . 5 > o ; o $ @ @ ; 1 @ @ @ ; * ; ; ; @ ; @ @ > @ ; @ ; ; , ; * : $ * ; : ; ; @ @ > @ @ @ ; ; , * ; ; @ ; @ * * 3 2 ; $ @ o @ 3 ; ; @ @ 1 * o @ @ ; ; @ @ , , @ o ; @ ; ; ; 3 @ ; @ @ @ @ @ , * ; * ; @ @ $ @ o $ @ @ ; ; @ O o * @ @ > @ ; ; @ ; * > ; @ @ ; ; * * @ o @ * ; ; $ $ ; > @ ; ; > @ ; * ; > + $ : $ @ - ; @ @ o 1 @ ; ; o o ; ; ; ; ; > @ @ o ; ; @ > > * ; @ @ 1 @ * * ; ; o O * @ ; @ $ ; $ * > ; @ @ @ ; @ @ ; > @ ; @ > ; * $ ; ; * > $ ; ; ; , ; ; ; @ o ; 1 @ O ; ; ; @ ; ; o @ ; @ @ @ ; ; o ; ; @ O ; ; ; ; o o @ * O $ @ @ @ > ; @ @ ; $ @ @ @ * $ o $ ; ; ; ; @ @ $ $ * o > ; @ O @ ; ; ; ; @ @ ; o @ o # ; ; @ O $ * @ @ O o @ ; @ @ @ @ @ @ o @ @ $ @ @ @ $   ",
"O @ o @ @ o O # o O O @ @ O O @ @ o o o O @ $ o @ O O @ $ @ ; @ o @ o $ @ o @ o @ > @ * @ @ 3 @ @ $ . * * @ o $ ; @ @ o o @ @ @ @ $ @ @ % o @ @ @ @ . O @ ; * @ $ o O $ @ @ * $ ; $ @ @ $ o @ o @ @ > @ # @ $ @ O $ o O ; * @ @ ; @ $ @ @ ; @ o ; > $ , * @ $ @ @ $ $ @ * ; , ; ; o ; $ ; ; ; @ ; > @ @ @ * > ; @ ; , o ; > $ @ ; @ @ @ @ $ @ > , ; O $ ; ; > $ # O @ @ @ > * @ > ; @ @ ; * ; @ @ > @ ; > > ; , * @ , ; * ; ; * @ @ @ ; ; $ @ > , * ; , @ o o ; * * @ @ * @ @ $ ; 5 @ ; ; $ @ ; , ; ; $ @ @ @ ; > ; @ 5 ; @ @ @ @ @ 1 @ @ $ ; ; e . ; @ @ > @ $ , ; ; @ ; > @ ; o o + ; @ @ @ 3 * ; @ o o ; 1 @ o @ @ 1 , @ @ ; 3 @ ; O @ ; * > ; > : * > ; ; ; @ @ @ @ @ @ ; o @ > @ @ ; ; @ @ ; ; @ o ; ; @ @ @ ; o O ; * ; ; o @ @ @ 1 3 > ; ; o @ - @ @ ; ; @ > ; @ ; $ $ $ 1 ; % # * ; ; o $ ; ; @ $ ; ; @ @ @ ; $ @ ; @ o @ ; > O $ $ ; @ - @ 1 @ @ ; ; @ @ ; @ @ @ ; , > ; @ ; $ @ ; ; o ; @ @ @ @ ; @ * $ o o * * @ > ; $ * ; @ @ : ; o @ @ ; @ O @ o O @ @ o o ; @ $ @ @ o @ $ @ ; o @ @ @ o o @ @ @ $ ; $ @ o $ @ $ @ @ @   . o   ",
"@ o @ o @ @ O O o @ @ . O O - @ @ X O O O @ o @ @ $ o o O o $ @ o o $ $ @ @ O @ @ o # @ o o ; @ @ @ O ; ; @ @ o @ ; @ # $ $ @ o $ @ o o O # ; @ @ o # o o @ > o @ @ @ @ @ $ * ; @ @ @ ; @ o O $ o o ; $ @ @ ; $ @ o O $ @ * $ @ $ @ ; $ @ ; * @ @ @ @ ; * o $ O $ @ 3 $ ; @ * $ o @ ; @ ; ; o O $ @ ; @ * ; ; O O @ 0 O @ @ * , ; @ @ @ @ @ * @ ; * $ ; @ - ; ; o o > ; o ; ; @ @ $ @ ; * ; ; % @ ; $ ; ; @ @ @ $ @ * 1 , * ; @ ; @ @ ; @ ; $ ; @ @ ; ; ; $ @ @ , ; ; o @ @ @ ; ; ; @ ; ; ; @ ; ; ; 3 @ @ ; > , @ ; @ , , o O ; 2 @ * @ ; @ ; ; ; @ > ; @ ; * ; , > ; ; ; , ; @ ; ; ; @ ; ; @ ; @ > ; $ o , , ; ; @ o > ; ; * ; * @ @ @ @ ; , @ * , @ ; $ @ @ @ @ ; ; o ; ; * ; $ @ > @ ; > ; ; @ @ ; @ $ ; @ ; @ ; * @ @ , ; O O @ $ @ @ @ @ ; > ; o * > @ o ; @ @ @ @ ; @ o $ @ * O O O @ ; @ @ ; @ @ @ @ @ @ @ ; @ $ ; * > @ $ @ > o O o @ @ @ ; = O @ - ; # O @ > ; o * ; @ $ @ @ @ ; * @ $ @ @ @ $ @ $ > ; @ @ @ ; > ; * * * @ ; ; @ @ @ o $ @ ; $ o @ ; o o ; O @ > @ o @ @ % @ O @ > ; o @ ; # $ @ @ ; o @ @ @ O @ @ @ o O $ o $ @   ",
"@ @ @ @ O O @ O O @ o @ o # o @ @ o @ O O @ o $ $ O @ @ o ; o @ $ @ > o O O o @ $ @ . $ ; @ $ @ @ ; o $ o o $ O O o @ $ ; @ @ ; @ O O O $ @ @ @ @ o % $ o * ; o @ ; O @ $ $ @ O @ ; ; O @ ; ; $ @ @ @ @ $ > + @ ; ; # @ ; ; ; @ @ @ ; $ o @ ; ; @ o ; - @ @ ; ; $ @ : @ o @ > @ ; > ; $ > * ; ; @ * ; @ $ o @ ; ; @ # ; ; o ; o ; @ $ ; @ @ @ @ ; @ ; o ; @ o ; @ ; ; ; @ ; * @ $ * ; , ; $ o @ , , > ; , , ; ; # @ * * @ O @ , , ; ; , * @ ; > * @ o ; * ; @ o ; ; - @ o ; ; ; $ ; ; ; ; ; @ ; ; ; @ O $ @ ; * ; ; * @ o @ > > ; * ; $ $ ; ; @ $ > ; , ; ; @ ; ; ; ; ; $ , ; ; ; ; 5 @ @ * ; ; @ $ @ ; @ ; @ @ ; o , @ @ : @ 2 @ ; , > > @ @ , ; * @ 1 ; * ; ; ; @ ; > @ ; , @ @ o O > @ @ @ ; @ $ ; ; @ @ @ @ * ; @ ; ; $ @ * @ ; @ ; > ; @ ; * ; + O > @ $ $ o ; $ ; @ @ ; ; @ @ $ @ $ $ @ , ; @ ; ; @ , @ # o ; @ ; @ ; ; o @ @ @ @ > o @ ; ; @ O ; * > $ @ @ @ @ $ @ ; 5 @ o @ ; @ @ * * $ ; @ @ ; * @ @ @ @ > @ X @ ; 6 o $ @ @ * @ @ o $ > @ @ @ > ; $ o % @ @ @ $ @ ; ; @ $ > @ @ @ @ @ @ @ @ ; $ $ ; $ $ @ @ $ ; @ . ; ; @ @ o $   ",
"@ @ @ o o o @ o O O @ @ @ . O # $ o o O o @ ; O @ O @ @ $ $ . o > ; $ O X % O $ @ o o $ ; @ @ $ @ @ o O @ > O O O O * ; o O ; ; @ @ . @ $ @ o o @ @ O $ @ * : @ @ o O @ @ @ $ @ o @ , o o ; @ @ ; ; @ ; @ ; @ * ; O @ ; ; $ ; @ @ @ @ @ @ ; @ o $ $ ; ; $ @ $ * @ O ; o ; @ @ @ ; @ @ $ , @ @ ; @ o * @ ; @ @ $ ; o o * ; o $ $ ; O @ ; ; ; ; @ @ @ ; $ @ 2 @ @ ; @ @ ; ; ; @ @ @ ; @ , > @ @ ; ; ; @ ; ; ; * o @ > , * $ o @ , , @ ; 1 ; @ @ * > @ @ ; @ @ 3 @ ; @ @ @ @ @ > ; ; @ @ * ; > @ @ $ ; , ; ; @ @ ; , ; ; + ; @ @ @ @ ; * ; * ; ; @ O @ ; , 1 * ; > ; @ $ @ $ ; ; * ; > 1 @ 3 @ ; ; * * ; ; @ @ @ ; @ $ ; @ @ @ @ ; * * 0 * $ @ > 1 @ $ @ @ ; 1 ; @ ; > $ 3 ; @ ; > ; ; o * @ ; ; @ @ * ; @ $ ; @ > ; o * ; @ @ @ > ; ; ; * , @ + @ 2 > - $ @ ; $ @ @ , ; ; @ @ @ ; @ @ @ @ @ $ o > ; @ > @ ; ; ; @ O ; @ % @ , * $ @ @ ; * $ o > ; ; $ @ > + @ > @ o @ o @ ; @ > > o @ ; ; - 2 * @ @ ; $ ; @ @ @ @ o ; @ # @ , ; @ $ @ $ @ ; @ o $ @ $ # @ , $ o O O @ ; ; @ O o @ $ $ * @ @ ; @ O # $ ; @ @ o @ O o $ o $ o o ; o O $ @ o @   ",
"@ $ @ @ o @ @ @ o . O O @ o O o @ @ O @ O $ @ @ @ @ ; @ O O O O O @ o @ o $ @ @ @ ; @ @ @ o @ $ @ o O @ ; @ o ; @ @ @ o o O @ ; * @ o $ @ o @ ; * ; @ @ O o @ $ $ $ @ @ $ o @ O @ > ; $ ; ; $ o @ @ O ; @ @ @ ; @ @ @ ; @ $ $ ; @ ; ; ; ; @ o O @ ; @ * o o $ * > @ $ ; ; ; ; @ @ + O $ @ * @ @ @ @ ; ; ; o $ $ @ @ @ @ ; $ , @ @ $ ; , ; @ @ @ @ ; @ $ $ @ * ; ; @ ; ; $ o @ , @ @ ; ; o $ ; o @ @ * ; @ o * 1 ; @ @ > ; ; ; ; @ ; * @ ; ; $ $ * * @ ; ; o ; @ ; * ; @ ; @ * 1 ; ; , @ ; ; @ ; @ * ; ; @ @ ; ; @ * ; ; ; @ ; ; o ; @ @ @ @ @ * > $ ; @ ; , ; @ @ ; $ # $ $ ; ; ; ; O * ; O @ ; * ; 1 @ ; ; ; 1 @ ; ; @ 1 * > > ; ; * ; ; ; > @ O $ ; * 1 * * , > $ O $ ; $ o @ 3 @ > ; ; * * ; @ @ $ @ o @ ; > o @ ; @ $ ; * @ o ; > $ o @ ; @ > * ; $ @ @ $ 3 > * ; * @ * @ @ $ ; @ ; ; @ @ @ ; , ; $ @ @ @ ; $ ; @ @ o , ; @ o @ , @ $ $ o @ > ; ; 2 @ @ * ; @ ; o @ @ @ ; ; ; ; ; @ @ > @ ; @ > @ 3 * ; @ ; + @ ; @ @ o o O 3 @ @ @ @ > ; O o @ @ ; @ o % @ $ @ @ @ @ @ $ @ @ @ ; @ @ $ o @ O O , o $ ; > O O @ * $ @ O ; $ @ @ O % @   ",
"@ @ o @ O @ @ o o @ @ O o o ; @ o @ @ @ @ @ o o @ o $ O o $ @ O % O . @ @ @ $ o @ $ o O o $ $ o % $ + $ ; o o @ @ @ O O $ @ $ @ $ ; @ @ $ @ ; ; @ @ @ @ @ $ O O @ ; ; @ @ o @ o $ ; * @ @ $ @ $ @ * o ; @ @ @ @ * @ @ ; o $ o o @ ; @ @ @ $ $ $ O $ @ , ; o @ * , @ ; @ > @ o * ; > O @ @ ; ; @ $ ; ; , * o @ @ ; ; , @ @ @ ; * $ @ @ @ ; o % @ * * ; ; o ; ; * @ @ ; @ @ @ @ ; ; $ @ @ @ ; > @ @ ; > @ ; @ * ; ; @ @ ; @ 2 * @ o ; ; ; ; @ @ @ @ * $ @ ; @ @ > @ , ; ; $ * * ; @ ; , ; ; @ @ ; * ; ; > * @ $ > @ ; @ ; ; @ ; $ $ $ ; ; ; @ @ 1 ; @ ; % ; ; * $ @ * ; @ @ @ @ ; ; o : * ; ; @ ; , , ; ; ; , ; * @ ; * ; * , 6 @ ; : o @ > , ; @ @ @ , @ @ , , , $ @ @ ; o $ $ * , @ * ; ; @ * * @ @ @ @ ; ; ; @ @ ; ; @ @ @ ; $ $ @ ; > o @ * $ ; o @ o @ @ @ o * 1 @ $ @ $ ; @ @ ; @ 1 , @ @ @ * ; * o @ $ @ * ; ; $ 2 @ @ @ O o 2 * o % @ @ @ @ @ @ ; ; @ @ > o * O ; ; $ o o ; * @ o @ @ ; ; o @ ; ; @ @ $ ; $ @ > 1 @ O @ @ o @ @ @ @ ; > @ o o @ ; @ o @ ; ; @ @ $ @ O $ $ @ o ; O @ > @ o O @ ; @ $ o ; $ O @ o @ @ @ o ; ; O o @ ;   ",
"o @ o o O o o @ O o o o % # @ @ $ $ o @ $ o o @ $ O O $ O @ $ ; $ o o @ $ ; @ @ @ $ % $ @ O o @ @ @ ; o O o $ * @ * ; # @ * o . O ; @ o @ @ $ @ @ @ o ; $ o @ @ ; @ $ @ o O @ @ @ o @ @ o @ $ @ @ ; o $ @ ; ; o % $ @ @ @ $ @ ; @ @ @ @ @ ; ; $ @ @ ; ; ; $ @ @ ; @ ; @ ; ; o $ @ ; 1 # + $ @ @ $ + @ $ $ $ $ > @ @ ; $ O o @ @ @ @ ; @ * @ $ ; ; > ; * o > ; ; ; ; @ @ ; ; @ ; * > O @ ; @ $ ; @ ; @ $ @ @ 1 @ * ; ; o @ @ @ @ ; @ $ ; 1 @ @ o @ ; ; ; * @ $ $ ; @ @ @ , @ o ; o $ * ; ; @ @ ; ; > @ @ @ ; @ @ @ ; @ @ ; ; @ ; > @ > @ @ > ; @ * ; @ $ ; $ ; @ $ > * ; > @ $ ; @ ; 1 $ ; ; * ; @ % * ; o * , O @ ; ; ; - o @ @ @ > ; @ o > @ > ; , @ @ ; ; ; $ o > $ ; , ; * * + @ @ ; : o $ ; * @ ; ; ; ; @ @ @ @ @ ; * @ $ $ @ ; * > * @ ; ; ; $ ; @ ; ; ; @ o ; @ @ O $ o @ @ * @ @ @ ; @ @ * @ $ ; ; @ @ > @ @ @ @ ; @ $ $ o @ @ o @ ; > @ o @ @ @ ; o O ; > @ $ * @ @ @ ; * + ; o * # @ ; @ ; ; @ $ ; @ @ ; @ @ $ @ $ ; > @ @ @ @ $ @ @ ; $ o @ @ @ $ @ @ @ @ @ ; @ o @ @ @ $ @ o $ > ; ; ; @ @ ; o O o @ @ $ * @ @ o O @ ; @ * @ ;   ",
"@ $ @ o O O o $ O o . @ @ o o o @ @ $ $ o o $ @ o . X @ $ o o @ @ $ @ @ o $ @ @ o o O ; @ o o O o $ ; O O @ $ @ o @ o @ @ > @ X O @ @ o @ @ @ O O o O ; o @ @ ; @ O o $ o o @ ; @ O @ @ $ ; o @ o > @ O o @ > @ O o @ ; ; $ @ ; $ @ $ @ @ @ @ @ O o ; @ $ ; ; @ @ @ ; $ o @ @ $ @ @ 5 @ o @ $ @ * , @ @ ; @ @ ; @ ; @ O O @ ; > ; @ ; 2 ; @ o ; * , @ 3 > * ; ; ; @ o @ $ @ ; @ @ o O $ @ $ @ @ * ; @ > , ; ; o @ ; @ o : @ ; * @ @ @ * 1 * ; @ # > , > * ; > o o > @ ; @ @ @ $ $ ; ; , * @ ; * ; ; o O ; ; * @ @ ; @ @ @ @ @ ; @ @ ; @ ; @ @ @ ; 1 ; > ; ; @ o ; 2 * ; ; @ @ ; @ ; * $ ; , > @ o $ ; > * @ ; ; $ @ ; ; @ $ o ; ; ; ; ; @ * @ ; , ; - $ @ @ @ % O + , ; ; ; ; @ 6 ; @ $ ; @ @ @ ; * ; @ @ ; * $ @ ; $ * ; o O @ * ; ; @ ; @ @ ; * ; * : @ : ; @ $ ; $ o @ ; @ ; * ; ; @ @ ; ; @ @ > o @ ; ; $ ; @ @ $ @ @ @ ; @ @ o > @ @ ; * o % ; o * $ @ # o ; $ ; * @ o @ @ ; o ; ; ; ; o ; 1 * @ ; > o # $ @ ; o % @ 1 ; ; ; @ @ ; $ # # o $ ; o O @ ; @ ; $ @ @ @ @ @ @ @ @ ; o @ @ o O ; > @ . * @ o o @ @ > @ @ @ @ @ @ > . ; o @   ",
"o O @ o X O o O @ @ $ @ o O O O o @ o o O @ @ o @ @ . @ O ; @ o @ ; @ @ o @ @ O # @ o @ @ @ @ o o ; o O O o @ @ @ @ O @ @ @ o $ @ o o @ $ O @ $ @ o $ ; @ @ @ $ o @ @ @ $ @ $ ; @ O @ o @ o @ ; > o @ $ $ o @ o O $ @ o @ @ $ O o ; $ ; $ @ ; ; @ > @ @ $ ; * @ * $ ; o O $ @ @ @ @ @ > * > * @ $ $ $ @ $ @ $ ; @ @ ; @ @ $ @ $ @ @ - - @ @ ; ; @ o , @ > @ @ * > ; ; $ @ ; ; ; * ; $ $ o $ @ ; @ @ * @ @ ; * @ @ ; * @ $ @ ; @ ; ; * @ @ @ @ ; > @ * @ @ @ @ $ @ > o * > @ @ ; ; * @ ; * ; 1 @ ; @ > $ ; @ ; @ ; ; * > ; @ @ ; ; * ; ; @ @ @ @ ; ; * * ; @ @ ; , @ @ ; ; @ ; @ @ ; * o * ; ; @ ; ; @ @ @ ; > @ ; ; , ; @ ; @ @ * @ * ; > > @ * @ ; * $ o ; 1 @ $ ; @ @ $ * ; @ @ @ * $ o > ; @ @ * @ @ * ; $ ; @ > @ * o ; ; @ $ @ ; ; > > @ $ ; ; o @ @ * * o @ @ $ $ @ @ > ; ; $ $ ; 1 @ $ ; $ ; ; ; @ $ ; @ > @ ; @ @ > ; @ @ @ @ ; ; $ @ @ $ $ @ ; o @ @ @ @ ; $ @ @ @ o $ ; @ * ; @ . @ > ; @ @ > @ o O @ $ @ o > > ; + o @ ; @ @ @ @ @ o @ @ $ @ $ @ @ ; o o @ ; ; O @ @ @ @ o ; > o O O $ $ @ @ O O $ @ @ @ @ * ; @ @ @ 3 o @ > ;   ",
"@ o O o o @ $ @ @ @ $ O O $ ; X # @ $ o O o @ @ o @ % @ o O o $ O O o @ o @ $ @ o @ * $ @ @ @ ; ; $ @ o @ @ @ . o @ $ $ # O o @ ; @ @ @ @ @ o @ @ $ ; ; > @ * o # ; ; o @ @ @ ; ; @ O @ @ % O @ ; @ : o - @ O # @ ; ; ; $ @ @ @ @ $ O $ @ @ * > ; ; ; @ ; @ ; * ; @ > @ O O @ ; @ O O * @ ; $ $ $ o > ; @ @ @ @ $ @ ; $ ; ; o ; @ @ > @ @ ; ; @ @ O ; @ * o @ ; ; ; > ; @ > ; @ ; ; @ @ $ @ o @ O o @ o o : , * @ , @ @ @ ; , @ @ 1 ; o O ; > ; ; @ ; $ O O @ $ @ ; o @ ; ; @ ; 5 ; $ ; ; * ; @ $ : o @ @ o o @ ; @ ; ; @ O @ ; @ $ @ ; $ @ $ ; 1 @ ; * > % @ ; , @ @ # ; 2 ; o ; > ; @ @ @ ; ; * ; ; , * ; , @ ; $ ; $ o , > o @ $ @ > * @ ; ; O 1 * ; ; ; * o 1 1 @ @ o @ o : @ o ; @ ; * @ $ @ @ @ , > o o O @ $ @ $ $ ; @ ; @ % O ; @ o o @ 2 @ @ @ ; ; ; @ o O @ ; * @ ; @ $ @ @ ; ; @ @ @ @ @ @ @ @ O @ $ * ; ; @ o > ; @ $ O @ @ $ O @ ; ; O @ ; @ @ $ * ; ; @ O O ; $ ; @ o @ ; $ O $ @ $ @ ; @ @ o @ ; @ @ o ; @ o @ O O o ; $ @ @ $ O O O * ; $ . # @ @ ; $ , ; o o ; @ @ @ o $ @ O O X @ ; @ O @ ; @ @ @ o $ O @ @ ; @ % * > ;   ",
"O O O O X o @ $ @ O O o @ O $ O # @ o @ @ @ @ @ O O $ $ $ o O O O $ O O @ @ $ O o ; $ $ @ @ o o @ @ $ O O O O O O o $ @ o ; @ @ # o $ % . @ ; @ o O o O @ O @ % o O ; @ @ o ; ; o @ $ @ @ @ @ $ O o # ; @ @ ; # ; $ $ # @ @ @ @ @ @ ; ; ; * O o O @ @ $ O @ : o o @ @ > ; * ; ; @ ; @ O @ $ @ $ $ @ * @ @ $ @ O $ $ ; @ $ $ * ; ; , ; @ ; @ @ @ ; * 1 # . ; @ o ; ; @ * ; @ O @ $ ; ; O ; * 1 $ @ * @ > @ ; * $ ; @ @ @ , * - o o > , @ $ * ; o ; ; # o ; > @ * 2 $ @ * ; ; $ @ $ @ ; ; > @ @ ; ; ; ; ; O @ @ @ @ ; = ; o ; ; @ @ ; * ; ; ; > @ - @ ; ; $ o ; $ @ > ; ; ; o $ > ; o $ , > o # @ @ : 1 @ @ o @ @ $ ; $ o o ; ; , , @ > , ; ; @ ; @ ; ; # O O @ * @ @ O ; @ > $ ; , ; @ $ $ @ @ @ @ ; @ o > @ @ @ @ @ ; ; @ @ @ * ; @ $ * > ; ; @ ; @ o * * @ o $ o @ ; * ; @ O O @ o * ; @ @ ; @ ; @ ; ; $ @ @ , , * ; o @ ; ; @ @ @ $ o @ $ @ @ @ @ ; O $ @ $ o @ o o X O $ ; @ @ ; , @ @ $ $ @ @ 3 @ $ @ @ @ O @ $ * ; > 2 @ . o $ @ $ ; O $ % o ; ; @ ; @ @ @ o @ O # % $ @ O % o @ @ $ @ @ $ @ @ o @ $ @ > O o O @ $ ; @ @ ; ; O ; ; @   ",
"O @ O o o o % @ @ O o o $ @ O O @ O o o o O $ $ @ @ @ o o @ $ O o @ @ @ @ O $ O O @ o @ ; $ O @ @ O @ @ @ @ $ o O @ ; @ @ ; @ @ % O o o o ; ; @ @ O @ o @ @ o @ ; O $ @ @ @ @ @ @ ; * $ @ o o @ @ @ @ $ @ @ @ o $ @ o @ ; @ o @ ; $ $ @ ; ; @ $ @ o @ @ @ ; > @ @ $ @ ; ; ; @ @ ; ; ; @ @ * ; @ @ @ ; $ @ @ @ $ @ @ ; @ @ $ @ $ @ ; $ @ @ ; ; @ @ > ; . o ; * @ @ ; @ ; * @ $ ; ; @ @ @ ; ; @ o @ @ @ @ @ > @ ; @ @ ; o ; @ $ ; @ * ; @ @ $ @ @ > @ X > > @ ; , ; @ @ $ ; @ @ @ @ @ * @ @ ; ; @ @ @ @ @ @ ; @ @ @ $ , @ > > @ ; @ ; ; > 6 @ o ; > ; @ ; * @ ; @ @ ; @ * * @ @ o @ ; * @ * ; @ @ @ @ , @ > > * @ ; o @ $ @ ; @ ; ; * ; ; $ ; ; $ @ * 1 @ ; > @ $ > @ O ; @ @ ; ; o ; ; ; @ * ; @ @ @ > ; @ o @ > @ o @ $ @ ; ; * ; @ $ @ @ : @ @ ; $ @ @ * @ @ @ $ @ ; ; $ ; @ @ ; @ @ ; ; @ ; @ @ @ * * ; % o $ ; @ > @ $ $ @ @ @ @ o @ ; $ @ @ @ @ @ o $ @ @ @ > @ $ o O $ ; ; @ $ ; $ @ O @ @ ; @ $ @ @ ; @ ; @ ; @ > @ @ @ o o @ * @ $ @ @ @ o o ; o $ @ @ @ @ @ $ o O ; $ o @ o * o @ @ @ @ $ @ o $ o @ ; o @ o @ $ $ @ o $ $ @ @ ; ;   ",
"o @ @ O o O o o O @ O $ @ o O $ @ @ O @ $ O O o @ @ @ o o ; ; O O o $ o o O O @ @ @ $ $ # O O @ @ ; @ @ @ @ @ @ @ @ ; O @ 3 o ; @ ; o ; $ @ o @ @ @ ; o $ @ @ o > $ O o @ $ @ @ O ; ; % @ $ o @ * @ $ @ O @ $ O $ > ; , ; @ @ # @ @ $ @ $ @ $ $ ; > @ @ @ ; * @ $ $ o O O $ @ @ > @ ; @ @ @ * $ @ * @ @ ; ; @ ; @ o @ ; * @ % o . o @ > * @ ; @ @ @ o ; ; @ @ @ $ $ > $ @ ; @ @ o @ ; , ; ; o ; ; @ @ @ @ ; @ $ ; @ $ ; @ @ @ $ @ @ @ o $ $ @ @ > @ @ > ; @ o ; ; @ $ ; ; * ; ; @ @ * @ @ * @ @ o ; @ ; ; ; , @ ; @ @ ; ; > @ ; @ ; @ o > $ @ @ > ; 5 $ * @ ; @ @ * @ ; * ; > @ o 1 , ; @ ; @ ; @ o @ @ ; 5 * * @ ; > ; * ; @ O @ , @ o @ @ ; ; ; @ 1 @ > 2 ; ; $ ; $ o O $ ; @ @ @ @ ; ; @ * @ ; $ ; ; @ $ ; ; ; @ o @ @ ; @ @ ; @ > @ @ @ @ O o @ $ @ * > ; @ @ $ * @ @ $ ; @ @ @ @ ; ; O @ @ @ ; ; > ; $ O O $ o ; ; @ O $ $ @ @ ; 6 @ o @ ; @ o @ O @ $ * @ $ @ ; @ * o o $ @ @ @ $ * @ ; ; @ @ $ O @ @ ; ; @ $ ; * @ @ @ $ @ ; o ; $ o O @ @ > @ ; @ o @ @ o o o @ @ $ O o ; $ @ o @ @ @ o @ @ @ @ O @ @ o @ # ; @ @ o @ % @ O O $ ; . ",
"@ @ O O O o @ @ . O @ O . O O @ @ @ @ O @ o o @ ; @ @ % @ O o @ $ O @ $ o O o @ @ @ O @ O O @ # O @ ; @ @ O $ $ @ @ $ O O @ o @ o @ o ; * . o $ @ ; @ $ @ ; 3 @ ; @ O % $ o @ @ $ @ ; $ @ $ o ; * ; @ o O $ @ O o o $ ; ; @ o @ @ $ @ @ o @ @ o O ; ; @ - @ @ @ @ o @ $ @ $ @ @ ; @ 3 ; o @ ; @ ; ; @ @ @ ; @ @ @ @ O ; @ @ @ o o @ o @ ; @ @ ; ; $ @ * ; @ @ ; > @ ; @ @ ; ; ; $ ; o ; > @ @ @ * @ @ ; @ ; ; @ > @ O ; ; @ @ o ; > @ ; > @ @ @ ; $ > @ @ ; ; * ; @ ; @ ; ; @ @ @ $ $ @ $ @ @ @ ; ; @ > ; ; ; @ @ @ @ ; * $ @ ; @ ; ; @ @ @ ; ; ; @ ; @ * ; @ ; $ * @ @ ; * @ ; @ ; + ; @ ; * $ o ; o $ @ , , $ @ @ ; ; * * ; $ ; ; ; @ @ ; > $ @ * @ ; ; ; * @ $ ; @ @ ; @ ; O $ @ * @ ; $ o @ ; @ ; @ @ ; * @ ; ; $ @ ; @ @ > @ o @ @ > $ ; o $ ; @ $ ; ; * @ @ @ * o $ ; ; o # > $ ; ; O o $ * @ ; ; > @ @ o @ $ ; * O @ o @ ; $ * ; O ; $ @ $ @ @ $ @ ; $ @ o o ; ; > o o @ @ @ @ O @ ; ; @ @ # $ ; @ o @ ; @ @ @ ; ; @ @ $ o > $ o ; O $ @ O @ @ ; @ @ O @ @ @ @ ; ; O O $ ; o @ @ @ @ @ ; @ @ @ $ @ @ o @ % O $ o @ $ o O o @ @ ; @   ",
"@ @ O O O O o @ o o @ O O o o o $ o @ O o o . @ o O o o o O @ O # @ @ O O @ @ $ $ o O @ @ O o @ ; o @ o o o o @ @ @ @ o $ @ o @ ; @ @ ; * $ o o O ; @ O o 5 @ o : @ @ o O O o @ @ @ @ @ $ @ o @ @ $ @ O O ; @ O @ o @ $ O @ @ * ; @ @ @ $ @ @ @ @ O $ O @ @ @ ; $ # @ ; @ O o $ @ o @ @ ; o ; 3 o @ ; ; o O @ ; @ ; @ ; ; @ $ @ @ ; o @ @ o o ; ; ; > @ @ @ @ @ o @ O @ $ o @ ; $ $ O @ @ O @ ; * ; $ o $ ; @ * @ o o ; ; O @ @ ; * @ ; $ @ ; ; $ @ @ * * @ ; @ @ 3 * @ @ ; ; @ ; ; @ @ @ $ @ ; * > * @ @ o @ * @ ; , ; o @ @ ; @ o ; @ > @ @ @ @ @ o @ > 3 o o : > ; $ @ $ , ; $ ; @ $ @ $ @ @ ; ; ; @ $ > ; @ $ @ ; : @ @ * > ; @ $ > @ @ ; ; @ @ o ; * @ ; $ ; @ @ ; > * ; @ ; > ; ; @ @ ; % o ; > o @ ; ; ; o @ ; ; 2 o @ 2 ; ; @ @ $ @ $ O ; ; $ o * @ @ @ @ @ ; @ o @ @ $ @ O ; @ @ o $ ; ; @ ; @ @ @ @ * @ ; ; * O $ @ ; > @ @ @ @ @ # @ @ ; @ @ o @ @ @ @ O ; @ o $ @ ; ; @ - @ $ @ * @ $ . @ ; ; o O $ @ @ $ o o ; @ ; @ @ $ O $ @ o @ @ O @ o ; > @ @ @ $ $ > @ @ o $ @ @ 3 , ; @ % ; @ @ @ @ % $ @ @ @ O @ # o ; @ O @ * o $ $   ",
"O @ o o o $ O O @ o O % o o o . O $ O O % o # $ @ o @ O o o @ o o @ O @ @ @ @ $ @ @ @ O O @ O @ $ ; ; @ O O O ; @ @ @ O @ $ @ @ @ ; $ O o ; @ o o @ @ O O ; ; o O @ ; O o $ @ ; @ @ o o $ @ @ # O @ ; $ O @ @ @ o @ $ @ @ @ O ; ; o @ @ ; O @ $ @ @ @ @ @ @ @ O o o @ ; @ O . @ > @ o ; ; ; o ; @ @ > o @ @ o @ > $ @ @ $ o @ ; @ o ; ; @ @ O @ @ @ ; $ o @ @ @ O @ o ; @ @ @ @ o @ O $ @ ; ; @ ; > @ o $ o ; > o @ o * 3 @ @ @ ; @ ; O @ > ; @ @ @ ; ; , ; o o @ , ; ; @ o o @ ; * ; @ @ $ @ @ ; O > > $ o @ > ; @ * $ ; $ @ @ @ @ @ @ @ , @ @ $ @ @ $ ; @ @ o @ , ; @ @ @ * ; @ $ O @ o O $ $ @ @ ; ; @ o @ o @ ; @ @ @ @ @ ; @ @ + * @ ; @ @ @ ; @ @ @ @ @ * > @ ; ; @ @ @ @ @ @ @ o @ * ; o o > o * @ @ ; o o ; @ ; ; $ @ @ @ @ @ ; ; @ @ o @ ; # $ ; $ $ @ @ ; ; ; $ $ $ ; @ o ; O $ ; @ o ; ; @ @ $ @ @ ; > @ @ @ $ @ @ > @ @ @ $ @ @ @ @ @ $ ; $ o @ @ @ $ @ @ o > o o > @ @ @ ; ; @ @ @ $ @ @ @ ; o o @ @ ; , X O ; @ O o @ @ O O @ ; O @ @ o O o @ O O o @ o ; ; @ o @ $ @ ; ; * o o @ @ O @ @ o @ ; O . $ . O ; @ @ @ $ > ; o @   ",
"o @ @ @ @ o O O @ @ O O O @ @ o O @ O o $ o O o @ @ @ % O o @ @ @ @ @ @ @ O @ O O % ; $ $ @ @ @ @ $ @ @ @ $ O @ @ $ ; @ O O @ ; > o @ O # * * @ @ $ @ $ @ . @ @ @ @ o @ O $ @ $ $ @ o # O $ $ O O ; > @ @ @ @ ; @ @ @ o $ O O @ @ @ o @ @ o o % @ ; @ @ $ ; ; # @ @ # $ ; @ $ @ @ ; O @ @ > * ; $ @ , ; o @ ; @ @ O O @ ; @ @ @ @ $ @ @ @ @ o @ @ ; , * ; * @ $ # % ; * o ; + @ ; ; @ ; ; ; $ O o @ $ ; ; @ @ * $ $ $ @ @ ; @ @ $ @ $ @ @ $ o @ ; ; ; @ ; * $ @ @ * 5 @ $ ; ; ; ; @ , ; @ @ ; @ @ % @ o $ > > ; @ ; ; @ ; @ * ; ; > @ * @ ; ; ; > ; ; @ o o ; $ @ @ @ $ > @ > $ @ ; , $ @ @ * @ $ @ - @ $ ; @ @ o ; > ; ; : @ ; ; @ ; ; ; $ @ @ @ * ; @ o @ @ ; ; * o @ ; ; ; ; ; ; @ @ ; ; @ , 1 ; @ ; $ O @ @ @ $ @ ; @ @ @ @ ; ; o @ ; @ $ ; @ * @ @ $ @ $ ; @ @ o ; @ @ o @ @ @ @ O @ 1 ; o $ * o @ $ o @ @ O @ ; @ ; @ @ $ o @ 2 $ o , , @ # $ @ ; $ @ @ @ @ @ o ; , @ @ @ @ @ ; $ @ @ @ $ @ ; @ @ $ o $ ; @ @ @ O $ o @ @ $ @ @ $ O O $ @ @ $ @ $ o o $ O O @ O @ $ @ O O @ ; o O o @ @ @ $ o O @ $ @ @ @ @ @ @ $ ; @ . @ . o , @ o   ",
"O O O o O O o o @ O O O O O O @ @ o O o @ @ o % @ o O @ @ O o @ $ @ $ @ @ @ o @ O O $ O @ @ o o @ @ O @ $ $ $ $ o @ $ @ @ O $ ; > O @ o O @ @ ; ; O @ $ $ O o $ ; o o O o O O @ @ @ ; $ @ @ $ @ O @ > @ ; $ ; > o O @ @ @ % o o $ $ O $ @ O @ o @ @ $ @ @ ; > O O $ @ o ; ; ; @ o > @ $ @ * 2 @ @ * ; @ o @ ; $ @ $ $ @ O * ; $ O @ ; @ ; @ $ @ @ @ @ @ ; ; ; ; o o ; @ $ $ ; @ > ; @ @ @ ; @ $ @ @ @ * ; $ @ ; ; @ ; ; $ @ ; ; > @ @ @ @ o % $ ; ; ; @ @ @ ; ; ; * 2 @ @ ; ; @ @ @ @ ; > ; ; ; @ @ @ o @ > ; ; @ @ * @ o @ ; > * ; @ @ ; $ ; * ; $ ; $ ; - @ $ ; $ ; ; @ ; @ @ ; @ , O $ ; ; > @ O ; @ @ @ @ > ; @ @ * > @ o ; > ; * ; $ @ @ > * * * O @ , ; @ @ $ @ @ @ @ ; o @ ; @ ; > ; o , > @ * @ @ @ @ $ @ @ @ @ @ @ ; ; $ @ O o ; @ @ @ , ; ; $ ; @ @ ; $ o ; o $ $ @ * ; + @ O o * @ O % ; @ @ @ @ @ @ $ o ; @ @ @ ; O O o @ o o 1 , o @ o $ @ ; @ @ ; @ @ @ ; ; ; $ o $ o O @ ; @ @ @ @ @ @ @ $ @ @ ; @ o O @ @ o @ o $ $ @ @ ; @ @ @ o @ O @ % o $ % o @ @ @ @ @ @ @ @ @ @ O o $ @ o $ . # O O o @ $ ; o @ ; o $ O . O O 1 ; @   "
};
