/* XPM */
static char *b9bc427b25a44371fa7303425959a657bXW44GfLB7g86sn4[] = {
/* columns rows colors chars-per-pixel */
"500 502 232 2 ",
"   c #00060E",
".  c #00090E",
"X  c #000807",
"o  c #000613",
"O  c #000A15",
"+  c #000719",
"@  c #010D1C",
"#  c #0A0D16",
"$  c #021016",
"%  c #02111D",
"&  c #09131D",
"*  c #08181F",
"=  c #000E22",
"-  c #000F29",
";  c #040B22",
":  c #051526",
">  c #021224",
",  c #091525",
"<  c #041826",
"1  c #091926",
"2  c #001229",
"3  c #01152A",
"4  c #051629",
"5  c #00152F",
"6  c #01162E",
"7  c #02152B",
"8  c #08162A",
"9  c #04182D",
"0  c #04192D",
"q  c #091B2C",
"w  c #121B2C",
"e  c #000F31",
"r  c #001631",
"t  c #011632",
"y  c #081731",
"u  c #011932",
"i  c #051A32",
"p  c #031B34",
"a  c #091D33",
"s  c #001639",
"d  c #021D3B",
"f  c #091E3A",
"g  c #101E35",
"h  c #06212E",
"j  c #0B202E",
"k  c #11232D",
"l  c #052136",
"z  c #0A2135",
"x  c #04223C",
"c  c #0A233C",
"v  c #06283E",
"b  c #0C293E",
"n  c #0B2837",
"m  c #112335",
"M  c #11253C",
"N  c #11293D",
"B  c #182B3E",
"V  c #132A34",
"C  c #001641",
"Z  c #011E42",
"A  c #091F41",
"S  c #001E4A",
"D  c #121F46",
"F  c #001F50",
"G  c #032343",
"H  c #092543",
"J  c #052945",
"K  c #0B2A44",
"L  c #02254A",
"P  c #092649",
"I  c #042A4C",
"U  c #0A2C4B",
"Y  c #112542",
"T  c #122C44",
"R  c #1A2C43",
"E  c #112E4B",
"W  c #192D4A",
"Q  c #063047",
"!  c #0D3147",
"~  c #06314D",
"^  c #0C314D",
"/  c #0E3A4F",
"(  c #133146",
")  c #12324C",
"_  c #1A334D",
"`  c #16394F",
"'  c #19394E",
"]  c #183143",
"[  c #012652",
"{  c #032C53",
"}  c #0A2D52",
"|  c #00265A",
" . c #012D5A",
".. c #092E5A",
"X. c #082551",
"o. c #112E51",
"O. c #053155",
"+. c #0B3254",
"@. c #0D3956",
"#. c #03335C",
"$. c #0A345B",
"%. c #05395D",
"&. c #0C395D",
"*. c #073957",
"=. c #123453",
"-. c #193653",
";. c #133955",
":. c #193A55",
">. c #11365A",
",. c #123A5C",
"<. c #193C5B",
"1. c #1B3758",
"2. c #002E62",
"3. c #0A2F61",
"4. c #002F68",
"5. c #023463",
"6. c #0A3662",
"7. c #043A64",
"8. c #0B3B64",
"9. c #01366A",
"0. c #0A3669",
"q. c #033B6B",
"w. c #0A3D6A",
"e. c #133661",
"r. c #123C63",
"t. c #1A3D62",
"y. c #123E6A",
"u. c #003672",
"i. c #023D72",
"p. c #0A3E71",
"a. c #013E7A",
"s. c #0C415C",
"d. c #14405E",
"f. c #1A415E",
"g. c #21405D",
"h. c #064165",
"j. c #0D4165",
"k. c #05416D",
"l. c #0C426C",
"z. c #0B4A6F",
"x. c #134165",
"c. c #1A4364",
"v. c #13436C",
"b. c #1A446B",
"n. c #13496E",
"m. c #1B496E",
"M. c #1D4966",
"N. c #044274",
"B. c #0B4473",
"V. c #054976",
"C. c #0C4975",
"Z. c #03447B",
"A. c #0A467A",
"S. c #044A7C",
"D. c #0B4B7B",
"F. c #124572",
"G. c #194672",
"H. c #134A74",
"J. c #1A4B74",
"K. c #11467A",
"L. c #134C7B",
"P. c #194D7A",
"I. c #0C517E",
"U. c #08517A",
"Y. c #105075",
"T. c #13517D",
"R. c #1B527B",
"E. c #1E5276",
"W. c #254C6C",
"Q. c #214D74",
"!. c #20537B",
"~. c #003A81",
"^. c #024582",
"/. c #0A4582",
"(. c #034B83",
"). c #0B4D82",
"_. c #034D8A",
"`. c #0A4D8A",
"'. c #00448A",
"]. c #124E82",
"[. c #114E89",
"{. c #194E80",
"}. c #065185",
"|. c #0C5284",
" X c #04528C",
".X c #0B538B",
"XX c #06588E",
"oX c #0C598D",
"OX c #0E5A86",
"+X c #135384",
"@X c #1A5383",
"#X c #135986",
"$X c #1E5984",
"%X c #12548A",
"&X c #1B558B",
"*X c #145A8D",
"=X c #1B5B8C",
"-X c #014E92",
";X c #035492",
":X c #0B5592",
">X c #045994",
",X c #0C5A93",
"<X c #025499",
"1X c #035C9B",
"2X c #0B5D9A",
"3X c #08579B",
"4X c #135692",
"5X c #135B93",
"6X c #1A5D92",
"7X c #115D9A",
"8X c #235A85",
"9X c #225987",
"0X c #205F95",
"qX c #03619B",
"wX c #0C639E",
"eX c #0A6195",
"rX c #136195",
"tX c #1B6194",
"yX c #13629C",
"uX c #1B659B",
"iX c #14699E",
"pX c #18689E",
"aX c #24618C",
"sX c #226292",
"dX c #226599",
"fX c #035BA3",
"gX c #0B5EA1",
"hX c #0561A2",
"jX c #0C63A2",
"kX c #0B6AA9",
"lX c #166BA5",
"zX c #1772B2",
/* pixels */
"@ @ % @ @ @ @ % > > @ O O O > = > > > : > @ % @ + @ @ @ O + % > > > > > + @ = + > O O @ @ = + @ @ @ < % @ : > @ > > @ % % > = : = 7 @ > = 6 > o @ o % : > = > = < % @ 4 < > @ > % O % < = 7 @ 4 @ > > : + % O @ % + < > > = 0 = 7 @ = @ > + @ % @ > = 7 = 0 > @ = 2 7 + @ + : > @ > 7 + @ @ @ > < > > % % @ + > = 7 6 > > = 7 2 @ 7 7 : > O @ c = > = p - 7 i r 7 7 % % @ > p > 6 d 2 < 6 6 i < @ : @ > 7 9 2 6 u 2 u 9 > i a 7 @ < : 7 7 = 2 > 4 = 2 2 6 : > @ * 2 i 2 2 u r > > 2 u 6 9 , + > % 6 2 r i 2 u i 6 p 2 > % O % @ a > = > < > p 2 = < @ % < > O = u 7 > 6 u 6 u 6 7 % % + @ > 6 = 6 2 7 7 > p u > > @ : @ < 6 0 = 6 u 7 4 6 a 4 @ + O % > > = 7 0 7 0 > 9 > < % % @ > i 5 = < @ = > u a + @ > > % @ > p > < 7 > = > 6 i > : = = > @ 6 r 6 9 9 2 u > 7 @ % @ @ > = 5 2 > 6 s p 2 4 2 u p > @ O @ 0 u > 7 6 6 6 6 p 2 0 = % % + @ > < > 7 > > > 7 > > : o % @ % : > > % @ : @ > > = = + @ = > @ < > 4 @ @ 4 @ = > o O @ + @ % > @ = @ 4 @ @ > @ o : O o : > @ + @ O = = 6 o O o o @ = o o @ * o @ @ @ @ % @ o O O + = % > + ",
"@ > @ + > > > > @ @ @ O O @ % : @ > = > > 7 % + @ @ @ O o @ $ > @ < + @ @ @ @ @ @ O O % > : @ @ O 4 2 > @ > 2 > = = @ @ : 4 7 = > 7 > > = 7 < @ % O o @ @ = 9 < 4 @ @ > @ % + @ @ + O > : @ > : @ = 7 = > + % > @ @ 4 = 0 6 7 7 u > @ > 9 > O O + > 7 0 > 9 > > 2 2 7 , + % > @ @ 4 > @ @ @ < : > < @ @ > % @ 4 % > 2 7 7 > 7 7 > a = @ > % + i s i > d r 2 i 6 p > @ O @ > 7 6 i 6 7 = > 0 > @ = 0 = @ = 7 u 7 u > 2 < > > @ > = < > 2 2 9 9 4 > 9 i r u > % @ @ = 0 7 2 u u 7 7 l u 2 > < @ q @ r r 6 i 7 0 = u 2 z @ O : > = u 0 7 4 0 9 6 0 u : O > > > % > 6 2 7 2 i 5 p i > % % @ : + > 7 u 6 > - 6 9 = 2 < > % @ @ 7 7 7 6 4 - 6 2 = > : @ % @ 7 i > < 7 < = 7 2 < > + $ % = = 6 9 > 9 7 7 2 6 @ > > > @ @ @ 2 > > > < < > = < : @ % < > : i i @ 9 6 2 i = > 9 > O % > < r u > 4 2 6 5 2 f 7 u > @ @ o @ u > 7 7 2 6 5 6 6 0 @ > > + : q 7 7 > > > < > 0 = @ + : > : @ @ > > > @ > > 7 @ @ > @ = : @ % = = 4 @ 2 = > : @ O > > > @ > < @ + < > + + @ + @ @ @ @ O @ @ @ @ @ > > @ o O > @ > o O O + @ % @ + + % O o + O > < @ > @ ",
"@ @ O O O o + @ @ % o @ % O o @ : > @ @ @ < 9 , > @ @ @ % O O O @ @ % @ % = > @ O % O $ + @ @ O > % + % % @ > < O @ > @ @ @ > = + > @ = > @ @ % O @ O O o @ > % % = = @ @ @ + @ @ @ O @ @ @ @ @ @ @ @ > > O o % % % O @ % @ + 4 > % > = > @ @ @ O $ $ + @ @ @ @ = @ + $ + O > % % > < : 4 % + % @ O % > 4 @ % > @ + @ < > @ % % 4 @ @ > % O @ 7 u 2 7 p d i = < > o % @ > : O = > > < % @ @ @ @ : > = > 4 7 7 > + % > % @ @ @ > > O @ = = : > @ : > @ > 9 @ < @ > @ < : o > = + > @ > = > 9 = @ 9 > > > O > > > > @ q > < > O = @ @ @ @ @ % @ : 7 > @ > @ > > = > = 9 > > > < @ : O $ < 8 = > > > > > > = = : > > 4 < > > < % > % % > @ 2 : @ > q > = @ @ > > @ = % > @ : 4 @ = @ @ > @ @ > : > > > > > = @ > % O $ % > > O @ q < + % O + < 8 o O > > > : > @ > > q @ @ > @ @ @ > > @ = % > = = 2 @ > : > > > @ @ < > + + @ @ @ % > @ @ % @ + > > : @ = % + > @ = @ , + O $ + @ @ > @ @ % @ + + @ @ @ O : > + @ @ > + + % O o $ O O O 9 = @ O + @ + > @ + O @ @ O > @ + @ o @ % % O o % % % o $ + o @ o O % O O O O + + $ @ O @ O @ O O ",
"@ @ + O O @ @ o O O O @ @ O # % o @ @ % O O + @ > @ @ % @ @ + @ @ o @ @   @ = @ @ % : % O o @ o @ O @ @ O @ > O o @ @ @ $ @ + % + @ @ @ @ O O O @ % > @ @ O @ O o @ = @ = @ > % @ $ @ @ + % @ O % O + > > % O @ @ @ + % > @ @ @ o = > @ % O o % O o @ + > O @ , > . o o % > % @ @ @ = < + @ @ @ @ O % = > @ % @ > O @ : @ O % @ = @ O > : O @ < > > = > 0 > = > > 1 @ % @ O 1 : @ + > % @ O > % @ % % < @ @ @ % % O @ O : @ , + @ < > % < @ + % > o @ @ O % q = > < @ > @ @ $ : : + O @ @ = < : > > > > o @ @ % @ % @ @ > : 9 > @ : > @ @ % % + < = > @ : > 7 > > @ @ @ + @ @ 7 : % > @ = > > = > > + + @ : O @ 4 > @ @ @ @ + $ = O > @ : : % = = + > % O % > % @ 7 % O @ @ > < = % @ $ > O @ : @ @ @ = > @ @ % @ @ @ : @ O O > @ > % , > = @ > > + > % @ @ % > = % = 4 @ % o % @ @ @ @ O O > > = O @ O O = 7 @ @ > O O @ % > @ @ : @ o O @ @ + O O O + @ @ @ : > @ > > @ + @ @ + % @ @ @ * + = * O % $ O > @ O % O o > @ @ % o $ % + @ + @ O @ : @ O O O @ % @ @ $ O @ O O O O   o O o O O O O @ @ + O O O o O @ O O % O + O   O @ O o ",
"O o o O O @ O + O O @ @ o O @ % @ @ O O o @ % @ @ @ @ o @ @ o O @ o % + O @ + = @ @ % O @ $ @ : @ % O @ @ + @ @ @ + $ @ O % @ % # @ > @ > % $ @ @ @ @ @ : O O % @ + @ @ @ @ @ % $ O + + % O O @ O % O o @ > @ O = > @ @ < @ + > $ : @ @ % > + % @ @ $ @ + % % @ @ @ % > O % @ > % @ @ @ > @ @ > @ + @ > @ O O % @ < @ @ @ @ % + : @ + @ @ % : % @ @ > % o O + @ : % + : > % < 9 > @ @ @ % < 9 > > > > = > @ = @ > @ : + @ @ : % @ @ > @ @ @ % % > > 4 > % @ @ > = % = > q O > > : 7 > @ @ @ @ : = : @ o @ > % o > : > > > @ @ > @ $ > > > = : > > > : % % + 7 > > % : < > > > > > @ = > @ = 4 4 = < % + > > + > > > 8 > + , 7 4 q @ @ @ @ 4 9 @ : 7 9 @ % % < @ o % % % @ > + : % < @ > > @ = = $ > @ < 4 % > @ > @ + @ @ > % @ @ % = @ < + > % @ @ < < + > @ 8 > O @ % > @ @ > : > > @ @ @ > @ > @ @ @ % > + @ % > @ + % @ @ > % % > @ @ % : @ @ O : @ > @ @ @ % % @ > > @ @ @ > @ @ + o % @ % o @ * > O @ % @ @ O O O o @ > O @ % % @ @ @ @ + @ @ @ > O % % O @ @ > @ O % @ O @ % & O @ @ $ @ o % @ @ @ @ O O @ O $ O O O o @ @ O O @ ",
"@ o o @ @ o @ @ O % @ % O @ O o $ O o % o % % @ O O O % O . @ % = $ O O @ o @ > = % O @ = > O % + o O   O : O o @ @ O O O O O @ o O % o O O O @ % > @ $ @ O $ O O @ @ O % + < > = @ % O O o % @ + = O % @ @ % @ @ @ $ @ @ o o > @ o . O @ @ @ & @ : = > > > @ @ @ > > @ @ @ > > $ O % O O O : > @ @ % + * : @ @ + 8 @ O O O . @ O @ > O @ < + %   O O # X O % % > @ @ + + < 4 > 6 > @ @ @ @ @ > @ @ @ + % < > > @ < + O , > $ > @ = % > @ @ % O + O @ O < > : % O : : + > : @ > @ @ 7 = > @ $ = = O : 1 4 % > > > 2 = @ % % > = O O O 9 = + > < @ < % @ + 4 > q @ O @ > > > % @ @ > 8 @ @ > > 7 : O $ < > > 4 > @ @ % @ @ > 6 > r @ , @ @ @ 4 @ $ = < @ @ o > > = @ + % O % @ @ @ > 4 > O > % @ o < % @ % @ @ = 7 + @ O : 4 @ @ @ = 7 @ 9 9 @ @ O < @ O O > @ @ % > @ O @ > = @ @ > < > = @ % @ 8 % > O % $ @ % = + @ @ + O @ % @ o @ + : + % @ @ O @ : @ % % O O @ > = O % @ % > @ > < @ > > % @ @ O + o % % O @ % O O @ > @ + o = @ O @ @ @ O $ o O > o o O + @ @ O @ @ O . @ % o O $ O O @ @ . @ @ @ + o + @ @ $ O   # O O O O o #   ",
"@ @ % > + > > > + $ o O * o @ + % = < @ @ > > > 0 @ O + o $ @ > 4 = @ > > % = @ > O @ + > @ $ < < @ > > = 7 > @ < @ @ % @ > 2 7 > 2 8 1 = 6 7 @ + % O > 7 = < > r = < 2 = = % O % @ % 7 > > @ > = = = < % % % O @ 6 = = > > 6 u > = 6 > > @ @ @ > 7 6 > = = 7 > % % : @ > $ + > % = i > = 7 6 > > > = % % O % % + = 6 5 5 > < p 2 O @ % : > + > 7 6 < = > 2 6 > < < % > < > 2 7 r d G G d s d u @ > > = > 7 < 4 > 6 2 > 7 > > 4 4 > = u r 4 > > i < > 7 > = > 7 p 5 6 7 4 = u 7 > 7 6 0 > @ @ 4 = 6 q 7 5 d p > i i 2 = < % $ % i u i r u u r > < > @ 6 6 = : 6 0 = 7 > > a > > 0 > @ : @ > > % 0 7 2 p - p = > 4 > = < = r d - @ 6 p 4 - = u % < @ > 6 > > < > 5 < 2 > 7 > > = = + < @ $ > i 5 r > < = > < = > < : = i 9 O O > = > = 2 i 4 < % @ O > 6 0 > q 4 @ 9 > @ @ 7 2 = 2 u 7 = = 7 2 4 > q @ @ % $ + @ > > > 7 > = 7 6 @ % % o < < < 7 5 7 = > > @ % < % > = > + @ : < i > = > @ > < = @ @ @ @ > > % > = @ > 2 > @ @ @ @ @ @ > % = > 6 < > > 4 + O @ O % % = > @ @ < > @ + $ > O O o @ > % + @ > @ % > % + @ @ O   @ @ + @ > + ",
"% @ @ > > = @ % @ % + O @ + @ = > > > > > @ + @ > @ O @ O O % > = > > @ @ 7 8 > @ o % > > > @ > = O @ > = = > @ @ @ @ + = 4 > > > 4 + @ = 0 7 @ @ O % > < @ < : 2 > > 2 q > % o O O @ @ > > @ > > % : 9 > @ + = + q 0 2 4 7 7 7 7 : < 4 > @ @ : @ 4 < > = 4 > > > @ > > > @ @ @ 9 + 4 q = @ % @ > 7 > + > : O @ > > 7 4 9 > > > 6 9 > @ @ @ 9 < 7 > 9 < < 9 > > : > @ > > 0 6 6 p f s l d s x 6 6 > > > > > : a > 9 0 @ > l > @ > @ : 7 = 9 @ 9 5 5 6 = > q @ > % 6 p 7 > > p 6 7 7 > 9 4 @ > 2 > 5 7 > 7 r 0 7 u u d 2 < % @ @ 6 d u 6 a 6 a 2 7 i < 7 = @ % > a 6 9 0 = > 0 < 2 4 @ < > > > > u 6 - a = 7 9 4 > 6 < + @ p p 6 @ d > > 7 > < = > > > 7 0 4 > > 0 @ 9 0 u > @ > @ 0 u 4 7 > 7 4 > > 9 > > 4 @ % : > = 2 6 @ > < > 7 > 2 4 + > @ @ > 7 7 : : : 7 = = @ @ % : > 7 6 7 = = > a 2 > 2 : > % > > @ @ > = 7 9 7 > 9 2 > 2 @ O > : @ 0 6 > > > : > = > = @ > @ > + > > 7 > : 9 4 < > > > @ @ @ < > @ > > < > @ > > @ % > + = > > > > 7 @ < > % > O % O @ @ @ = > @ @ > % + > O O $ @ % = % + % O % O + + @ = > + @ O $ @ @ @ % ",
"@ % = > + > @ + @ @ @ @ @ @ > @ 7 : > > @ = @ > + > @ $ + > : = > % @ < @ = @ > + O % @ @ % + @ > % % % @ @ : 0 < @ O + 4 < % + % 2 2 2 = = 0 @ o % + @ @ : > > @ > = > < > 7 = @ % % @ + < < : > 4 > = i 4 @ : + @ > 0 = > 4 = = 4 = @ = > @ @ + @ > > > < = 2 7 > @ > = > > + > = > = < @ $ : > 4 7 < O < > > 2 > : O @ 7 7 + % 7 = > @ @ > 0 i @ : 7 = > 4 0 @ % @ O @ f x 7 2 u 6 > 7 d p i = > > < > % + @ > @ > < = 6 6 > = % @ > > @ > 6 2 r l > @ @ % : o 0 2 = u 7 7 2 u u 6 > > < = = 7 9 = 4 > > 7 @ 7 p l = % q > 7 5 7 p 5 = i r r 6 i > @ @ > 7 > % 7 > : > = > 6 7 > > : > 4 7 d u 6 2 > 7 > : 7 7 = > O < p f p 4 p 7 u c 0 > > @ = 6 7 > = > 7 > i 6 7 2 4 @ @ % > 2 2 a 7 > > > @ > 9 + + < > @ 7 2 2 > < 7 > @ - 6 0 @ @ @ 7 % 0 2 = : > + 2 9 7 6 > O % > 2 r 4 > @ 7 = = 0 2 2 p @ o > = 7 9 7 = < 7 > 4 : % i > > @ @ @ + > < 4 7 = 7 7 > 7 > > o % > 0 > 0 = 7 > > > > < < @ + : + o @ = < > > @ > > % O % o > 9 > @ @ @ > > > : > @ @ @ O + % $ @ @ @ @ @ @ = O o @ + @ = @ @ O O $ @ > > + % @ @ @ O O > o O @ ",
"@ > @ > @ @ @ @ > O O @ @ > > @ @ > : o @ > @ = > > @ @ @ : @ = 7 o > : = > = = > % @ @ < @ @ > > < O @ > @ = > > O @ @ 4 @ 2 4 @ 6 4 @ 2 > > + O $ > > > > = = 4 > > < > > @ @ > @ % > > @ @ > @ 2 = = 7 7 + O % 9 2 4 > = @ = > 6 = @ < @ @ @ @ : 7 > > @ > > 7 = % = @ 0 > @ > 7 > + 4 > O > 9 2 2 9 @ > = > 9 7 > O = > 7 = > 4 > > > @ > 2 p > @ > > = < 9 2 > % % = s d p f 6 > a u p d 6 > < @ > a > > > @ > > < 2 = < > 2 > + > > > 9 i 7 > 6 2 2 @ : @ @ 0 = 9 > 6 > 6 r 5 2 < > > @ = > 2 6 4 2 i u 7 7 u l @ O @ @ l l > = 6 9 5 2 i 6 7 = % % > > 9 > 7 7 @ < 7 < - i @ @ @ > 9 2 u 2 r 7 > u = < 0 7 > % < 2 u r 7 4 6 5 > u > > : O @ 4 < > > > 6 + 7 i 2 4 > @ > @ % i 5 7 2 0 = 6 < > i 7 @ = > @ 6 z 7 > 6 = @ @ > 0 > = @ @ : = 0 u : = , 9 7 9 i 2 > @ @ @ = 6 > 7 7 2 = 9 > 2 6 6 : > > 7 u 7 7 > : = = 4 7 > 4 = : % + 8 > = 7 = > > @ 7 9 2 > @ % @ = 4 = > 7 @ < 2 > 2 7 @ @ % @ > > > 7 @ @ = > = + @ O % @ % 4 = > > = 7 > @ = > + + @ o @ % @ @ @ = @ % > > O @ O o > > @ @ @ o @ @ @ % @ @ > @ @ o @ % % o + ",
"@ @ @ @ @ o @ > > @ $ O o @ @ > @ @ 4 @ @ @ > < % > + O o % > % > % @ = @ @ @ % @ @ $ O @ > > @ % > : o @ % @ > @ % @ % @ = 6 i O = > > @ 7 < @ o @ @ > > > > > 4 2 > > 7 : @ @ @ O > > = : > % * > > > < > $ O + i p 2 @ 4 > 7 @ > i - : % @ * o q = = 4 7 2 = < > < > @ @ @ : > 9 9 > = = 9 2 > 9 @ > + $ @ @ > = > 7 < > < > > 9 2 = < + 4 4 7 > > = > p 6 6 d > > : = p s d u 0 6 d p 5 l a = @ > O > 7 2 > 7 > > 4 @ @ > q > > + > > 7 > > > % @ 0 u @ : @ @ 5 i 7 = 6 5 = 4 > 2 a > @ > + % 2 d > u a i r 6 = < @ 8 : + > 6 @ @ = 6 2 4 9 i 6 2 > : + 2 l 0 = 6 6 > = 6 r u = @ > = > 7 @ 9 2 > 7 u = 6 2 r = @ > r 6 > 2 2 7 = 2 6 u = : > > > = 2 < 7 a 9 @ = u 9 > @ > @ > 0 = @ 7 7 7 i 6 7 > 2 0 > @ 2 - 4 @ > 9 4 @ > > = < 6 > @ > > > > 9 > 7 < = 2 4 > 7 > @ = 2 2 7 > i 6 > 4 < 2 r > @ O % : = 7 = > 7 7 > 4 2 u > @ O @ > @ : < 2 > @ : = < 4 7 7 + @ % + > > > > @ 4 > 7 9 + < O O O @ 9 > > @ > < > 7 4 = @ O O O > 5 > > > = > > = 4 > @ o O = > % O > = % > @ % > @ o @ @ O @ @ @ @ O O @ @ O % @ O O @ O O O @ @ ",
"@ O O % @ O O > @ > + O   O @ > o @ @ < @ @ > > > > O % O @ @ O 6 : @ 2 4 = > 9 @ o % @ @ > < @ O = > @ @ @ @ > % @ o > 7 : = 7 @ @ = @ > 0 > O @ % @ < 4 = @ > = > @ > 4 > @ % o @ 9 < 4 = > @ @ @ : 2 > > @ o + 0 u u q > @ a = > 6 i > + O @ @ < > 4 > 7 = > 2 > 7 : > O O @ = > 9 4 > 7 6 = @ > 7 > @ O @ % > > i 7 0 = > 9 = > = @ : @ > 7 2 > 7 6 i 7 2 6 r > @ @ = d f p d r u d p 2 2 i > = < > > 2 0 6 0 = = > > @ > 0 = @ > p p 7 > = 7 > @ 9 = > % > @ 0 0 < > 7 z > = 0 2 u > > < % % r d i 2 2 6 2 7 0 9 > = > > 4 s > > 2 2 9 6 > i 9 7 > < @ a z = 6 2 7 = = 2 7 9 > @ % @ i a @ > 0 2 7 = z 2 = p > 4 > 6 0 i 9 7 6 0 z > > 4 > > O @ 7 9 7 = < 7 q = 6 0 @ @ < = 7 2 > : > 7 0 > @ 2 9 = + > > i > = : < > > a = > > > 7 > @ % 7 > @ = > > 9 = > = = 7 > @ = u > > 7 > > > 5 > = p i @ O O @ 7 6 2 9 7 > 2 6 7 6 @ + : @ > > < = 4 9 > = : + > @ 7 < + @ + % 7 7 : @ 7 7 < > + > @ % @ @ = > = > q > = @ > > > o O > > - 7 > 7 > > 4 9 @ % @ o O @ : @ @ > + + @ O O > @ , @ O o $ @ > > $ @ @ @ @ O O @ @ @ O O % @ @ ",
"@ % > O @ % + % O + > % o o @ = = : @ @ @ 4 @ @ > O + @ @ $ % @ = > 2 > 7 @ = @ @ O % @ % @ @ : @ @ @ > @ > % = > + @ @ > > > = = > > > : > > O > O + = 7 > 4 O + > > % @ u > @ O > = + 4 > > : 7 @ > = > = > % @ > 2 > @ = > 4 5 > 2 > > > @ % > < > > = > > 4 6 > > > : @ : @ < > > 4 > > 7 @ > @ 4 > < > @ @ = 7 > = 4 > < 4 > = > @ @ $ 9 9 = > > 0 7 @ 9 i @ O > > 7 i 5 6 d x r r p i 6 d 7 > < = > @ = < 2 > > > 7 = 9 > % > > p 5 > = 6 > 7 > < 4 > > @ + 9 6 a u 6 > 6 7 p 2 0 = @ $ > 9 6 r 5 6 = z 2 d r d 9 O @ + u p 7 u i 4 7 5 p 2 u p > @ @ > > > = 4 7 9 u = > > 8 @ @ : > = 7 r i 2 2 @ 7 5 6 i > > @ > p p r a 5 2 2 > 2 < @ O > 9 < 6 = 0 > 2 i 6 = u i > > @ = 7 > q > > @ > 7 < < 0 > > + O 2 9 > 4 > + 9 = > 9 > > < + @ 4 2 > @ > > 7 > % = 4 @ > > @ 5 u > @ 0 2 p > > 4 7 i > > @ > 9 2 2 i > 4 2 > 9 2 % % @ % > < 4 > @ > > @ % 7 + @ > > @ @ > > 7 > > < > = > 9 7 @ , @ @ > > > @ 2 @ @ = % > + @ O @ < = > < = > > @ % = > + O @ + > > > > @ @ : @ % % @ + @ + * + @ O @ @ @ o + % @ O % % @ + % @ @ @ % ",
"@ + + @ O @ @ O O @ > @ @ @ @ + = @ > @ + @ > o @ O % @ @ o O > 2 > > @ > = @ : = @ @ > > @ + % @ 1 > @ > > > > @ O o @ % = > : 2 > > > = > : @ > @ % % > = < : O > = > > a 2 @ $ + > 9 @ 7 4 @ 7 = 7 > < 4 = @ + > > > > > @ 7 > > > > = > < > O > > 0 7 @ = < > > 2 = = @ = % @ > = 7 > 9 > % 9 < 0 = @ + + 9 > > > > @ 7 0 @ > 7 > @ $ + : 9 = 4 4 7 > > 4 > > @ > > > 6 p r 6 G c 5 p d 6 c = 0 4 @ 0 > = > 2 u i = > > q : O $ + - u 6 7 9 > 6 6 > > < > % @ < 6 6 > 4 2 6 = 7 7 0 > + > > 6 = 0 p u 6 7 = p p u 0 @ : > 6 d i 5 6 2 7 2 0 r 6 > @ > > > > 2 7 7 4 7 > 9 > @ > i = > q 7 2 s < 7 4 9 > 2 6 6 = : @ 4 p s 6 > s 2 2 2 < 4 < % < = 2 i p 4 7 0 > 7 4 0 2 = > + < i = 9 > > = @ 7 7 = = 0 9 % : < @ = = q = > d > = 9 = : = @ = - 9 > > q > > 9 > 2 > + > = = u > > > > 9 > 7 p 5 2 @ @ @ @ 7 0 6 2 4 i = > 6 : < + O @ > % > 7 @ : > > > > > 0 > + > > > > q > = > : @ = 2 > = O + = > > @ > 7 @ % > @ > > @ O > @ O > > < < > @ > = < + @ @ @ @ > % @ @ @ @ @ > % @ @ O O @ @ @ @ o @ : O + @ % > O o @ @ O @ + O % ",
"% @ % : O @ @ @ > > > O O @ @ = > @ % > @ % @ @ @ @ @ @ @ O @ > > % > > O = > @ @ > > = % @ o % > > @ > = > @ O O @ O o 7 > > > = > % : + > = @ @ O + 2 6 : @ = > 6 > @ > > > + > > = 9 @ < : > : > > @ > @ % o @ 6 > > = 7 2 @ @ < 4 = 7 > > % % @ = u = > > > = % % 7 > % @ @ > > : > > = 9 > > @ > > = > + > * > > : > 7 9 @ : 0 7 < : % > 2 > 7 7 - 6 6 2 7 d @ % @ + d d p f 6 u s G p 6 p > @ @ @ p > > 4 < = 6 0 > 4 7 = % > 9 2 > 7 < > @ > 7 7 7 @ O : > 9 0 < @ i > O 6 6 6 2 > + + > > p 7 @ = 6 c 0 4 r f u = 4 7 4 7 > 2 6 7 9 4 7 7 6 7 = > > > 6 i > 7 2 2 > 2 6 6 > @ > @ 9 > 2 u 4 > 5 u 2 > = > > = > 7 u 6 < > 0 @ > u r < + = = = 6 6 r u 2 > 2 2 > 9 6 > < @ 7 2 4 > 7 9 = 5 2 i > < > q @ > 0 7 7 > < > = 7 > = < % O > > % : = = > : = @ > 7 0 4 @ : + 6 6 5 6 7 6 > @ > s 6 6 = > @ @ > 4 7 @ 2 4 4 7 > = 0 % @ % > q 2 > > > @ 7 > > 9 > > @ O @ > > > > 6 7 9 4 = 7 6 2 $ > + > < < > @ > + @ = > < @ + @ $ o > > @ @ > > 2 7 4 . O O o + % + @ @ > = + @ @ > + @ O @ O % % % % @ @ @ = % @ @ O O O O O @ % @ ",
"= : @ + @ > % < 2 @ @ O O + > @ > @ + % = + @ @ > @ O @ % O @ o @ : = > > @ @ % @ > @ @ @ > > : @ > @ @ = > @ : > @ @ > > = @ > > 7 @ + @ q @ : @ @ + > 7 7 @ @ : > > % = 7 : O % @ @ 4 < @ = 9 > 2 > > 9 > : % @ > > a = 6 4 4 2 : + 2 a > @ @ @ : < 6 u > < 7 % = 9 4 + > > @ > = = 2 = 2 2 > 2 = > % > % @ = < = @ < = > > > > 2 4 < o o @ 9 > > < 9 4 4 = 6 6 @ % % > H s d p > r d s p f p = * < > 7 0 i 7 > = 9 p 2 > @ : @ @ + > 9 7 9 6 > 9 > 0 u > O > > = > % 4 a 2 q u 7 6 i > @ @ @ 6 p 9 > 7 i s 6 2 p f i > < 7 > 2 > p i i = 2 6 u i > > q @ 4 i 2 6 7 < 2 @ = a 6 7 > @ : 6 > = i < > l u > > 4 2 7 : = 0 d s i : 5 < 9 6 u = > > % 4 i 6 6 6 2 0 r p = > 4 = 4 q @ i 7 6 2 > 9 i = r 9 = > > 7 > > 7 = q @ = i 0 6 i > = O @ 7 = @ > 6 2 > < @ : 6 2 > @ + > 0 6 4 6 6 6 > 9 6 r r u @ @ @ @ > = > < 7 2 = > > 2 < @ @ @ % > 2 7 = = 7 > > @ > = % + @ @ @ > 2 7 4 2 > > < 2 4 = O + > = = > > @ > $ @ < @ @ O + % @ @ > > > % @ > < > 4 o % : @ % @ % @ + @ > > + % > O @ + % + @ + @ @ @ @ O @ > O O @ @ % % @ O @ O ",
"@ O @ O @ : @ @ > @ @ O o + @ > O > > @ > 4 7 @ @ @ O @ @ $ @ + = + % @ > % > > @ > O O > @ 9 = @ = > > % > > = + @ @ + @ > > @ > : = 9 q % O O % % @ > = < @ @ > 7 7 + > > @ @ % O @ @ > 2 6 % @ > = < = @ @ : > @ 7 > 0 6 6 < 2 > 7 d 7 > + : o 9 6 4 2 + > 7 > 7 0 @ @ < @ @ > = = 9 = 7 7 = 2 2 6 > $ O > 9 2 + > 6 i @ = 4 2 u 7 > : + > > 2 @ 7 = > 6 = 2 = : @ < > s d Z d s u s r s G H > @ @ > > @ = 6 7 = < = 6 6 @ @ 9 % > d 6 @ 9 7 u = 0 9 > > @ > > 2 4 9 > 6 5 6 6 = > 7 9 > @ > > 7 6 i a 2 @ 2 f p - > < @ > 9 < > u 6 0 > 0 p 2 z @ > > + 4 7 > 7 = > 4 < > 6 2 > q > > 9 i 6 p 7 2 u > 6 2 6 7 = @ % = p p u 7 5 7 > > 0 i @ + @ > = i 2 7 6 4 f x 7 4 9 @ @ > @ 6 6 2 2 6 7 = 7 = 6 a = @ = 0 > 9 = > < 7 6 > 2 6 2 + : + > 6 4 6 u r 6 2 < > < > : @ @ 7 r 6 @ = = > > 7 9 r 6 i @ O > < > 2 u 6 0 > 7 6 0 0 > 2 @ % % @ 2 @ @ > i 4 9 < > > : = > 4 @ @ : > 2 2 > 7 2 5 2 @ O O > < @ < 0 = @ @ > 4 @ = @ O @ @ = 7 > @ @ > > 7 7 7 = O O + O < % @ > @ + @ @ @ O @ o = > @ @ @ @ % O % @ o : @ @ @ $   O = o % @ ",
"@ @ O o @ > @ O @ o O @ @ O O @ . > 7 > > > > @ > O o @ % + : O 4 @ @ 4 > + > @ % % O @ + > > > > @ > @ > > = > + > @ o @ : @ = O > 7 7 > + O % % O @ : > + > > @ > : > > > > > > % o @ 9 6 0 < = > : 0 7 @ % O > @ > 4 i > < < 6 > 6 6 7 % > @ @ > 2 > 4 @ @ 0 6 7 > @ % > @ @ 9 7 7 6 i 9 @ > 6 r > > + @ @ > 7 > > > 7 6 : = 7 i @ O % 4 > > 9 7 0 6 u u < q r % > > @ 5 s p H x d i c s d 6 < > @ 7 < > 7 z 6 @ < 0 2 7 : + 6 @ > 2 6 > % 6 0 > < 7 > > > 4 < 7 > 7 7 i 6 p p < 4 9 > + > > a = 7 2 2 > < i 2 6 i > : > > 7 6 p r > 2 0 p p f 9 < + = < > < @ 0 9 > > > > 2 7 > @ < 4 > 7 0 > p r = 7 z 6 2 6 < @ > > 2 2 < 0 i 7 : > > 7 > < < > > 6 7 u 6 i t 2 7 = = = = i < + a p 2 a 0 > > = 6 9 @ > > > > > > 7 7 @ 4 > > > 7 2 7 > > > i 6 6 6 2 2 = 7 > % @ : > > = > a % 4 7 u 2 > - 0 > O > > 7 = = i 2 7 > > i 9 @ > : = @ O O 9 > : > @ > > > > > < 4 > = > > : > 7 6 6 5 4 7 0 @ @ % @ < % = > @ > @ @ 2 % % > @ O > > 4 4 = 7 6 7 = - 6 > @ O O > : @ < @ @ > > % + O @ @ @ @ @ @ % @ % + O @ > > > > + O % O @ + O @ ",
"+ O @ @ O o O @ $ o o @ + O O   % @ @ = @ O o @ o % % O O O % % @ o O @ @ < < @ O @ % > + @ + % @ > : + < < = @ @ @ @ @ @ > @ @ o > @ O @ : + @ , + : @ < @ > > @ @ > @ > > @ + : : @ O @ @ > % @ > @ > @ @ : > > @ @ @ @ % % 9 5 @ > @ > < @ @ @ = > @ > 4 = @ > > 9 @ + , > > 7 > : = > = + 9 > 7 @ > > > 4 + = > < @ @ 0 4 @ < % : > % @ % : 2 > = > > > 9 > i > > @ @ 0 = > 6 i f 2 9 0 0 @ > > > > = > > > < 9 > > @ : 9 < = > < > > > = < 7 9 @ > @ > > @ > i = = > @ > 7 i > : : @ > > < < > a 7 > 9 @ q 9 @ > + > 4 = 4 9 0 7 0 0 0 % = 7 = = > = 2 > @ @ O > > < % @ > : > > @ = > > = @ 0 7 @ = 6 = < l : > 7 = > > = @ @ q : > < @ : @ < 4 > > 4 u 7 q 4 = = : @ < < = > O : 9 @ @ + 4 > 9 : @ > > O > 4 > < 2 > 7 6 7 @ @ = > @ > < = @ > = 7 6 9 7 = > : @ % > @ % = 4 < @ % > 2 < 9 > % @ > > > = > @ O @ : > > = > % o > 4 > @ @ = = @ @ % > : = > = % O O > 7 > @ % 4 > @ % @ 7 @ @ : @ @ > O @ > > % : @ @ @ @ @ O > @ O > > > > u p 6 = = @ @ % @ @ O O + @ > > + @ @ @ @ @ O @ O + @ % o @ @ @ o o @ + O O % % + @ o ",
"@ O @ > O o O % % @ O o @ @ : % @ o o < 4 o O O % % + @ @ O @ @ o % O o @ > @ O @ O @ @ @ o , o O > O O % + @ @ + O @ @ > > > > @ @ @ @ * > @ : > > > > + @ % @ > @ @ @ @ % + > 4 @ > > o @ @ O + @ = : % @ < > @ O % % @ @ @ 7 7 O @ = > @ % @ > @ = : > 2 > % : = 9 % O o @ 9 > = @ @ $ > 4 > o > > % % = 4 @ @ < > @ @ @ = % @ + > = % @ % + > 7 = 4 < > % @ < 6 > @ % > > % @ O = > @ + : > $ > > @ 7 < > + q > > @ < < = > @ : > 9 @ 9 > : @ @ < > > : 9 % = 9 = > + @ % > = > > @ > > > z = > > > > > 2 > < % @ % 4 9 > 4 2 @ > 2 0 > @ < @ 4 r 6 > < = > = @ @ p 9 % > < = + 7 < : @ > @ > @ = 2 > > = > > @ > > @ > < > > = : @ > > < > @ = > > > @ > > = : % @ < : > < % : @ @ @ $ @ > > = = @ > > > @ @ % > = : % 9 > > O > % @ : > > : > @ @ > @ > : @ > = > > > @ > > @ = @ o % > > 2 @ @ > % > < = @ O % + > > % @ , @ % @ + > + % > @ % @ @ > = > > > @ O o @ > O > @ O % @ $ @ @ > > $ + % > % > > @ O @ @ O O % O @ $ o @ : @ = = 2 6 7 @ @ + @ O O + > + O O O @ > % @ + @ > O + o @ > @ o @ % @ @ O @ O $ O @ @ O o O ",
"@ o O + @ O O @ > + % O % % O = @ o + @ @ @ O @ o O % @ % $ O + O @ @ % @ o % > @ > > @ @ O O @ > % @ O + @ = @ O @ + % = @ > @ = = > % @ @ @ % O = @ > : @ % % % @ = : : @ @ : @ @ + @ > % % > > > > + @ @ > > @ < @ @ + % : @ @ < > > $ > = > : @ $ @ > O % + $ O 9 @ = > @ @ > < % > > > > @ @ % @ > > > + O % > < % % @ @ % @ > > < > @ > = @ < > @ = > > > 9 = = : > + q > > @ = > < > % @ < > 8 @ 7 0 > @ @ = > > @ < = > 9 > @ > @ > @ @ % % : > > > > < < + > q 7 q % > < @ > 9 9 + % 9 z @ + > > > < @ @ > > > > > @ 9 = : @ > = < 9 > : > 2 2 > = % i 6 < > 7 2 4 = = : > < : > > 4 < : < @ > % @ 9 < > = > % > = @ > @ @ = > > > @ > > < > : @ > < @ > @ @ 7 q < 4 > % : = 7 9 > @ @ > @ > > % > 9 : 7 > < @ $ 0 > > @ + > > > > @ > < > > @ > % % > 2 O @ > > : > % < @ > > @ @ @ + = @ > > @ > 4 @ > > : > = @ $ @ > > % % @ % @ @ : @ @ @ + > > = @ : + @ > @ > @ % > @ @ % @ O @ < > + + + @ @ @ @ @ % % @ @ % @ @ + > @ O % @ > O O @ @ @ O % + @ @ O % @ $ O o o O @ @ @ @ + @ @ O @ + % O @ + + @ o @ O O O @ @ o O % ",
"+ > < > > > $ % = : O $ @ @ O o + @ @ @ O = = @ @ @ @ @ o O O * O O @ @ @     $ @ @ 4 O O > = > > @ > : @ % > > @ > : O O @ > $ < @ > = + O @ O O @ @ o > @ @ : @ @ O @ O $ $ $ O $ @ % > o > > @ % @ @ @ @ > % @ = % > > @ + @ + 2 @ = O + > 4 4 % % % $ O @ > @ o % = % > > % = + > @ + @ O $ @ % @ O @ % O @ @ O , @ $ o o @ > > 7 = > > = @ $ @ @ O + O % : % > > > @ @ > 7 > > O O = @ % > % > @ @ > < = > = : O % % q > > : = > % @ + > > % O @ > @ > @ < > @ @ i 2 = @ > % : @ 2 2 @ % > < : O @ O : $ o O : 7 > > % > a @ 0 > : @ 0 7 @ % > < = , @ O 2 x 6 6 i p 9 4 q > = @ @ > 9 7 0 > > : = > @ > @ 0 = 9 @ > > > < 8 0 z > @ 4 > % > 9 + @ q > + % > > > > = > > @ @ < 7 i 9 = 0 : + : < + @ = @ @ + < 1 O   % > % $ % @ 9 @ @ : 4 = > = > % O @ @ 7 # # % % O + > 4 > + : > < % % = @ % = @ @ > : < 9 @ + % @ + @ + = + @ $ % O @ + @ > = , : @ > % % @ 7 7 % 9 @ o @ > = > @ O % + O @ > @ % @ @ @ @ O @ + @ + O % @ O @ @ % % >     . O o o $ O o O O @ % @ % O . O O O O O @ O @ O O O @ % o $ O o @ + O O @ @ @ @ @ % ",
"@ # O 7 2 > @ 4 @ > @ o O @ 7 4 < $ > = < > > > > > + % @ + > > 9 + = 6 7 @ @ > = = @ O > 6 > @ @ > > = 0 < % @ % 7 > O O = 5 s = 7 = @ > 4 < @ @ > @ > p s Z 5 6 d d d s 7 = @ > > @ < > 2 7 = 6 @ > = > @ $ @ , @ > > 9 > @ - s 2 4 % @ % @ % > > > u 2 7 i > s < > 4 > : $ > = 2 2 p r 2 r 5 6 7 6 6 > $ + = 5 s p 2 i p p 5 7 0 5 = 6 < 2 r G Z I d p L L Z - @ > i = 4 > > 4 > = p p - 7 @ = % % 7 4 7 2 t i s p 6 5 i 6 @ > = > 6 d L L d d { Z d 6 > i 2 > 0 4 > d G d 5 d s 6 7 7 > 4 @ - s G d G d L G L G s > 2 = = s d G r z u s G Z u > > > 7 > i G { L L L { { [ { d u 9 r t 2 0 6 2 = : 2 6 i u 7 > > > = d I 5.5.5.#.{ { 6.6.r = > < < @ 9 p s d 9 s r = 6 u > : > z 7 0 l u x p 6 5 d = = 7 2 7 2 d { Z L L L L { #.s > @ = 2 9 i = 6 r u 4 = 4 = > 7 = , > 5 s S Z p d Z { L L d S c @ > = p 6 7 6 = u r 6 p u r > 7 > > 2 s } L G H H G G G s L : @ @ @ O @ 7 : > > 0 = > > @ 7 & @ > > % 7 > > @ % = > > % @ 7 > @ < = > > = > @ > > = > O @ > @ @ @ > : = > > > @ @ @ + @ 4 7 6 6 6 7 > > 7 u r u = O O % O @ > + @ ",
"@ O @ 7 > = @ @ = > % @ o O > > > + = % : @ > > @ + @ > : o , > @ @ > = @ : @ < > @ @ @ > > = @ > > @ = @ @ > = @ > O O O 9 7 z 5 9 @ > @ > : = % % @ 0 d f G u 4 d d r p c > % > + @ > > = < > i > > u 0 @ = % @ < 7 2 9 7 6 9 i 6 7 = > > > % @ 9 7 6 a 2 6 4 5 > 7 > @ @ + % 4 > > i u 2 i 0 4 6 5 > % @ > 9 r > 4 6 7 7 p 7 = 4 4 @ @ > q p d G G p r d I Z +.> > < < 2 > 2 0 2 0 6 r l a > t > 4 = 4 p 0 7 7 l d > > 0 7 > > , = s f G A x G d P d d 2 > < < 0 6 6 s d f 5 f 6 u u 2 > < > > c x r 0 r x G G x c 4 : 9 = r G p 6 r 2 f x r H > = 0 = @ p P L d G L L G Z #.{ 6 @ : 2 5 9 6 9 < i 7 7 p 6 6 2 > % = x {  .S L Z I L [ #.d @ % > 0 p 2 s d d i p 6 6 u 6 > : O u 6 s i i = u p 6 f 6 7 = 4 % < s P G G G Z Z d G U i @ 4 9 > 2 6 i u 6 > > @ 6 r 5 % @ * > d G s d f G d d G d G x @ @ @ 6 r u i 6 6 2 r p 0 0 > = @ < < r I G Z s x d Z d d Z x @ % % O 4 < > < 7 > > < < : = O O @ > > > 9 2 + > > 4 7 > @ = O @ > @ @ @ @ < > @ < > @ O O @ < > % O @ = = @ @ % @ @ @ @ < r < > 2 > = 2 = > 2 > < + o @ @ @ = % @ ",
"> = = 6 6 > @ @ > > + < = O @ @ @ 2 7 @ @ @ > % < o O @ O @ @ < @ @ @ O @ > < >   O @ % o > 9 > 2 > > > = < < 9 @ + $ > > 7 > = u @ > % > @ , + , O % u s p d f i s d < 6 H u = % @ 7 > > = > + 2 0 < p p r = : + > u 2 : 7 7 u > 7 2 d s @ > + @ z 6 6 2 6 2 r = > = @ > % @ % = @ 7 2 i 4 = > > u 6 @ @ < @ @ u > > 7 6 2 2 = 7 4 0 : @ > 4 d L s d l l I d d } r = @ % l 0 2 5 4 u d u 6 6 6 > = 7 = u p f 7 u d r u 0 6 6 > > $ = G c p u p G d G s p 6 > @ % 2 p d u > @ 6 u 6 7 u 2 @ > @ % x 0 u u d d d p r 6 > % > < f d : 6 p r 9 2 2 d f 2 > 7 2 x Z L P d Z G G G $.#.6 % % = u 0 > : > i @ @ z u s d = % @ G $.{ Z #.L L G L { G @ % @ 7 H p x r = > 6 7 6 u 5 > < 9 > d H t 7 0 6 u p @ 0 l @ 4 @ = I L d J G G Z d G P H u > > > 2 p s r p > 7 r z i 5 7 > > @ r d s d d x d r G Z x G 4 @ % = r r 6 6 7 0 > > 9 6 < > > > O 2 P s d G G d p G P p L p % > @ 2 4 = 6 2 > @ > 7 4 + @ + > < 7 = 2 = @ > @ 4 > = @ : $ % @ % % O @ @ O o @ % % O O @ > @ @ O @ = > > > % @ O @ @ = > = > r 6 7 7 9 = < 0 = + % @ @ % % + @ ",
"> 4 > 4 7 > > 4 7 % @ > @ @ % @ + > = @ @ > 4 = @ @ o $ O : > : @ > > > @ > = > $ % % + @ : > @ > > > > = @ > 2 @ % % + 2 7 @ = > > > < = > = @ + @ = G d s f p p s s p 2 x 2 = @ > > 7 > > > @ @ 7 u < 5 z > O > > 7 6 7 > > u = 7 0 p u @ @ @ > 6 i u 2 6 f 2 u u 7 > > > > @ % 4 7 u r i = > 2 4 r @ > @ 4 > 2 9 9 9 7 2 7 r 2 @ @ = , @ = G G Z G G d d d G L A = % O 0 u p 2 p 6 u i u r f + 9 > 7 f s d 2 u u f r s 6 2 7 > @ 4 L G 2 s d G p s G s r 2 4 @ 5 p d p p 7 i r 4 i z 7 > q @ 5 d s d G p d d x d c > % > + d d 9 6 d d 6 6 i 6 f 6 > q 6 G S L Z L G G d Z { L > 9 > = i i 6 r > a 6 9 7 = d G = % + x { L L L I { G I #.I @ % @ 2 p r u u i r @ i 6 u l 4 > = u p f p 6 u = i 6 > z 7 + @ > = d } L G s d L x s d L 7 > O > > 6 r d p = 0 p 6 2 6 9 0 : = p d G G s s d G d x 2 G > @ @ > u u = 9 i 6 2 > 0 6 a = + @ @ f P s p P d G G G Z d G p @ @ 4 6 = 0 a 7 + > > r 7 O > > + = 9 > = 4 = = < = < 7 @ > + O > O = > > = % @ > @ % % % @ + + + @ > = @ @ @ @ @ @ O @ > 7 2 7 2 6 6 > > 7 = = > = @ O + > O O $ ",
"> @ $ @ 4 : > > = % O o + o % > > O O > = @ @ = < = > @ @ @ < @ = > > > > @ = > : % @ @ > : @ @ O @ @ > > @ < > = @ $ @ > > > 9 : 2 @ a 2 u < O @ @ > p s r s p G Z s u 6 p > > % O @ 7 7 > % > > > 9 > = 7 @ O @ > > = 6 u 7 = 2 i 0 2 7 4 > @ + 2 p 2 4 > p > 6 7 i 4 = @ 4 > i 0 6 i 7 6 6 p 6 > < < > > < = u i 7 @ > z u u p p r @ > o u P Z L L G d G Z p P p = = > @ i 0 > 5 p s 5 u u r @ > > 7 d l r d u u r p s p r 2 = O > d x d G L I Z s Z G p = > > d a @ 7 H l 2 d 2 2 2 d > % @ d s L G d r d x x p l 7 @ > 4 d s c p p x p i d 6 p 7 + > > f Z Z d L G G G d d +.> * < 5 u 0 u d 0 - 2 > 9 u s f = < 4 G {  .{ L L I d d { G i * 4 6 7 = = r 0 2 q i = 6 z > @ @ 4 9 2 > r u z 2 t z G d = @ : > d Z G p d G L L Z { A = > + @ 4 2 i 9 > < 7 < 2 r f > @ 7 0 s p d d u d d d d u p d > 1 , = 0 0 7 4 > 6 6 = 4 > 6 > @ > = H G s s l r s s P d d P p O $ @ 9 2 2 > > > < 7 u 4 @ = : @ > 2 @ = @ : 0 7 2 > 4 = + O @ > + @ + = @ = > @ % O @ O % > : < @ @ : @ > + @ @ + O @ > 2 > > = 6 2 > @ > > = > @ O @ @ + $ O O ",
"= % > = , O @ > : > @ @ @ @ @ O > % @ = = @ @ @ > > + @ @ @ > @ @ > 6 @ > > > > @ O @ > @ @ > : $ = @ @ > > = > > @ $ @ 9 < = 6 : 0 > 2 2 0 7 O @ @ > r d d f x s d x r p z = @ : @ $ < > > 8 = > % > = 7 > + % o 2 6 2 4 9 > > > 7 u 2 6 @ + > < 7 r = 7 6 2 4 r u r r @ > : @ 4 7 p 9 > 6 p = 6 9 > > @ @ + p 2 2 7 > > 7 = u 2 p p @ , < r d d G G d G P Z p d 6 2 4 < 6 0 6 > 0 p = u f 6 d = % < = i 2 2 2 u p r s x f r a = O 7 d s G d d G s P p x 0 > = = r p 4 % u s 0 7 c 6 d l @ > : 6 x G r u d x d 5 Z G = > $ > p p s d s p r G s f 0 9 > > 7 x P { d d d x d d L X.2 % 4 r 2 i d r d > 9 = 9 t s x > % > G .. .{ { L d L L L P 2 @ = u a > 4 7 7 2 0 6 = > 9 @ > 4 7 = a 4 u d u 4 p r f 6 > > 7 > H P d d x d G S G } d = @ @ 4 6 2 < = 9 > > > 0 7 2 : % O 0 Z d d s s s x d d d d x @ O > = 0 6 > 9 7 > u 0 = = 6 : = : = p I Z d u p G G p x d H 2 = @ @ i 6 0 < > @ > 7 6 7 @ + + = 7 = < > @ < < > > > = > @ @ @ 4 < > > @ > @ 4 2 > + O @ O @ = < > @ @ : = > % + + O O q 2 = > 2 > > > > = 7 7 > @ O % % O @ % + ",
"@ = 0 @ : @ > @ = 0 7 O @ @ @ + O @ > @ @ > > @ : @ O @ : @ @ > = O = > = = > < > o O @ + + > > @ 5 7 @ > > < % @ % @ + > 9 > 6 - : < @ 7 0 = @ @ O % d s p s d A 6 6 f d 6 0 @ @ : @ > @ > @ > 5 > > 4 = 4 > > = 0 0 2 > 7 7 7 i > t u p > : > + 7 6 r i 0 = > p > p i 0 @ O % = = 9 > 2 6 6 7 t < > u 9 > = 6 > 0 0 > 4 > u 0 9 6 2 > < @ - G Z x 6 s s d d d G 7 @ = q 0 7 > 9 0 7 p 6 6 r d 6 = > > 6 0 4 7 u r 6 0 4 0 u < 1 : > G d s d x H s p d d i @ > : r 7 0 6 p r 9 > < 7 d u = q @ : x = p u - H x u d G = : @ > d G d G u 7 d x - u x 2 @ @ = A G G G S L L G d L } 5 % 4 = r p r 4 l u r < 4 7 s f > $ @ d I  .L L L L +.O.S G i @ = 5 p 2 2 > 2 2 d 6 i > 7 9 % % 6 y 0 6 a 2 u i p 6 9 9 > 9 > @ p G G d G s G Z s G d 4 > = > = 9 > 6 r > 4 9 6 r 6 < % @ 7 H p s G G d x d d p S K > @ O i l 2 : > a 7 2 9 > : p > @ @ = x L Z d r d G p p x G u 5 @ @ = 9 7 2 7 6 > > 7 7 @ @ > @ > = @ > 9 > < > > = = 9 + O @ @ @ < > @ @ % < 2 a 9 + @ $ O < 4 + > > = @ @ > @ @ @ o O > 7 4 7 @ > = 6 7 > = > = + @ + O O @ > @ ",
"> 7 2 > > : : 9 > 6 > @ o @ > @ % > @ O O = 7 % @ + > + @ O = = > @ @ = > > > 4 @ o O o 9 : > 0 < 6 < % @ > > > > % @ @ > > 2 7 @ = > % < p = @ $ $ O d d d p f x 9 p p 6 p 4 > : > > : @ q = > r @ > 9 > u 2 @ = = 2 9 > 7 6 < = 6 p r u > > % % 0 u r 2 > 0 u 6 = 6 6 > @ O @ = a > u i > > 9 r 7 < = @ % % 4 7 i 2 > > 4 7 > = < < = > O 9 K G x H s d L Z G I 6 2 : > 0 0 u 6 7 d x 5 r x d 6 9 @ < i 7 2 4 p 2 i 2 = u i @ > : = L d r d r s x p d d 6 o , % 0 u u p d 6 9 7 0 i s d > + @ > x p d p d x d x d x 0 < > > d d p x p 6 p u s d x r = > 6 G Z x d L L G G P S } 2 : > < i p 2 6 > u s i + 7 d p = < > d { #.{ I L I G { L I 6 @ @ i 6 6 a 6 p s p r 2 6 u > q > 2 f r 2 a > d 6 < 6 u = > : @ > G S S G { G d d Z G d 6 > @ : > < 6 p 2 9 > = 0 r 5 < @ % > d d r G Z Z s 2 G d L G > : > > u 6 0 > 4 2 = 9 < < u > > @ @ x { I s d d s p p x S 5 p > @ @ > = 2 7 7 0 > = 7 < < > = > 7 > < = > = + > @ 4 6 @ @ @ > % = @ < % < 9 > = = @ $ O O = > O @ > = @ @ > > + O @ @ = r 7 > < 6 > r 2 < = > > @ O @ O % % @ @ ",
"> @ @ > : > @ . @ 7 + + @ % @ > @ @ O @ % @ > > o % % @ @ o : @ = > 2 @ + > > @ > O $ @ = > % > = O @ > > 7 = % @ % % @ 4 > @ 2 > < 7 > 7 > = @ < @ @ c d s 5 p p d d 0 6 p r 9 , @ > > 6 q : > i = > 0 = > 4 = @ @ > a = 2 7 2 7 7 2 r a @ > % + 4 u u 2 7 2 > r 7 9 < @ @ q @ 0 7 7 6 6 = a = r 7 7 > = : + > < 4 7 a r 2 9 < 2 9 > > 9 @ > d G d P d s G L G } u > > @ 6 i 6 u 6 p 6 0 6 6 x > 7 > 7 6 u 2 2 6 f s r u p 2 > = < d G Z d d d G d H p d x 6 < , x d 0 z 7 u - p p x p 7 < 9 @ > x p x H G d p L P G f = > < 6 G d 2 p 6 p u 7 l f > q = 4 u Z { d G d U d L L d > 9 = 0 u 2 p r 7 p u u 9 > u r = 9 = s L S L L  .{ G L  .{ = @ : 7 7 p d i 6 i 5 u u p 9 > : @ i p r p 6 7 7 f 2 9 6 r 2 > > = f d { { d G s d G x d 2 7 > > @ : 4 6 5 2 2 p 6 > i > = 9 - p G p p x d s G r G 0 > 4 = % @ 7 6 7 7 7 r i u > i 4 = = = : 7 G Z r d d s d d p L > q @ O > 6 7 = - 2 > > : > 4 @ 7 @ > < > 7 > > 4 > > o > = : = O @ > @ 7 2 > @ 2 9 6 6 4 @ @ % > > @ O > > @ @ > : $ o O @ > i @ > 2 2 > > 2 7 > = > O O o @ O % @ + ",
"> : @ % = 4 + @ @ : @ O o @ @ > @ % @ @ @ > % @ @ @ @ @ @ O > > > < > > @ 7 > = @ O @ : > > @ > > % + > 4 = 4 > < > + : 7 = 7 : = 2 > 6 0 > % > > + % r d d u s s r p r d G i @ O O : 6 2 < + > 7 > 9 > 9 6 7 4 : : = 7 7 2 4 i 7 7 i p u = : : > > r 6 6 6 > > r r 6 > > 9 = 7 6 6 u 6 u 6 6 4 r r p > > > > = > > 2 2 d 6 > 6 i 9 = < > @ 0 5 s G d d d G G G S > 7 : % 7 u 7 p p p r 6 6 u H = > @ i 2 u u p p d 6 r r r 2 > = @ s P d p 5 Z G r s p s K u @ @ u u > i 7 s d p x H 7 @ % > @ = x f f s d d p G s G 7 < < > 0 p l d p 5 l u p r p 2 = = 0 f d L S L d L L G [ G = @ 9 2 4 9 l p 6 d 6 6 6 d d u = @ > H L { I L 9.L G +.#.G = : 2 2 6 0 u = = : r p 6 p i = @ @ > d r u 2 i i p > < d z 2 > % > x G L S d G s p I P p = 4 > = : @ 2 5 d 7 7 6 - @ i > + 9 4 f s d G r p G d p f 0 6 @ > > > 2 7 > 2 7 = u 2 = > 2 p = = > = G G d d Z d d d p Z > = > @ > 0 7 4 2 7 7 = @ + > > % @ > > @ > > @ > > > > = 7 > : @ @ % > 2 > > = = = 7 7 @ > @ + @ 4 7 @ @ + @ = > + o @ O % % 4 > = 2 4 7 > 6 < > 4 4 O O O @ O @ @ @ ",
"> @ @ @ @ = : : @ @ % @ O O @ @ @ > = @ > @ > @ > + O O % @ = @ 4 @ @ > > @ > > > @ : % O > > > > > = > : 4 > > > % > > @ + < < 4 > = 6 7 @ O % @ % @ 0 x x d x d r l G c i @ > > = 7 7 9 0 2 7 > > 6 > 2 < > % + 9 > 6 i 2 7 2 @ > 7 - u @ @ , > 7 2 7 p 2 2 p p d 7 = = 4 < > 0 r d p u 0 > r > > p > @ > 0 r < 6 r = = 2 p 6 r 9 2 > > O 9 c G c d { { G K G L > 9 % = 4 6 r s s x p s d d 6 > > % 0 i 6 0 6 p 2 6 u f u > > a @ 6 x d Z I G J H d U P = @ < 0 @ > p p d p r d d r q 9 7 9 > : d x u r r K G r u x u = 4 > 0 0 p p 0 p u 6 f x > 7 > @ > 0 d I { +.L I I G { U 6 = = > 6 2 2 u s s r 6 r d d d 7 + + a d I { H G U H G d r > 9 2 6 i 7 r u r u x 7 6 d u > $ @ = p p p u 0 p 2 0 p u u 6 < @ @ d { { S Z I { L L G 9 = < > > @ 7 x p d 4 7 u d x t > @ > = r H G G f p x G G d G H 4 @ > > > p r u 6 > 9 r 6 9 > > = > > = r G s G x f G d c x 0 @ 9 > % > > 4 9 0 0 i 7 > > 7 $ % > + > > > 4 > > > 4 7 7 @ @ % @ > < > = 9 p 7 = > @ + @ % o > > > > O @ > > > > > > + @ @ @ i p p 2 7 4 6 2 7 6 : O o @ @ @ @ @ @ ",
"@ o o @ @ o @ @ O % @ @ % @ % O @ > @ = @ @ @ @ > > @ O O @ > > = o @ > @ @ + = @ > = + O % < > + > > + O % > 4 + @ @ @ q @ o % > > 9 < > @ % > % > @ @ @ u 2 5 2 9 = 5 = @ @ : > > > > > 2 6 7 6 7 = < a > @ @ @ > 7 7 @ @ @ % @ , > > 7 : @ > 4 4 > > 7 > 0 5 i 4 @ < : = < = > > 2 u r 9 i 7 > = 9 @ @ 4 < 2 7 i 7 a 4 4 6 = i = > > > = - 2 p 0 2 Z L 2 = r p + % @ > > > 7 d 6 9 d r s f + @ @ @ 5 2 9 2 > = > > > 2 @ < @ 7 > = 6 l p d r l p 2 p u < @ 9 i : = r r l 6 5 2 > 9 < > 7 7 2 = 6 < = i u 6 5 4 r i 7 = 9 > > 0 p 0 0 0 6 6 p u 7 4 a @ 7 0 2 G J L G d s s G 5 i 7 q = i 0 0 0 f 6 6 6 j r r 6 6 > % @ > p p > 2 = 6 @ @ 7 % > 6 4 7 = 5 u 4 d t > 2 6 6 > > 7 > > 7 - 6 p 5 i i 2 2 2 7 > > @ f d s G p d G d d = @ = > % > 7 i 5 p 6 = = 7 p x = > > O 9 p 5 s c u u u p p 6 p p @ % > > 2 6 i 6 0 4 > 7 6 > = = = + > > = 2 p 6 2 6 s u = = = % 4 % % > 2 @ > @ = = = 0 > @ O < % @ > @ @ > 4 = 7 2 7 < @ @ % 9 @ @ > @ = 2 > < = @ % > % % : + > @ + @ + = @ > > O @ > % O < 7 7 4 % = < = < < o o % o @ O + = > ",
"@ = % O > % o @ @ % O $ + @ % @ o @ @ @   o O O > % @ + @ % @ * @ @ @ @ % % % @ @ > = @ @ > @ @ @ @ @ O @ % @ + O > > o @ : @ % @ @ @ @ O @ o @ = > @ % = @ @ % 8 : @ @ @ O + @ @ > @ % @ @ = > + 4 > > < @ O % > @ > > % @ % > = > : @ O + > > 4 > > @ < > = > > o < > @ @ @ > @ @ @ = = < > = 0 @ > 0 > > > = 2 + + : = = @ = = @ @ > > a @ @ @ > @ > = @ @ < < @ : > 7 > 9 @ @ > 4 @ % 6 p > @ u 4 2 @ > > 4 = > @ = 2 > @ : 6 < > > > 2 > = > 6 : = = q @ @ > > 7 2 > > 7 < > @ < > = < 9 < 9 < = a p @ > > < @ < @ 2 4 > < 0 > 2 > 0 i > > = 9 > 4 2 6 0 > 2 % > 4 2 > % > % > 2 > @ = > = < @ = > < % @ > 2 0 9 , + > p 2 > 9 > 7 7 = < = > > : < > 9 > @ > > 4 > = q > > 4 : : 6 5 = 7 > 7 > = 7 > 8 > > > > > + > > = = > > : 4 = : > > 9 = > > + @ @ 7 > O @ > = 4 > = > > @ @ = 7 @ o > > > = > @ % > = + : % = 7 @ + > = < > < + > = @ @ @ > 7 @ % % % > > + + > = @ > > % @ > > @ > > @ % < > > @ = + @ @ @ @ @ @ @ + O @ + @ @ + O + + + > O O % @ % @ O > @ @ > @ @ % O @ % @ O O @ O @ O + @ O O o @ O O % O O @ + O O O ",
"@ @ % @ % $ O % % O O O O > @ + @ % + @ O O @ @ @ % @ @ % O @ o % O > = > > > % @ > @ @ @ > % % $ , @ @ @ @ : O @ > @ : @ @ > > o : > > : O @ > = O > % % O + % = @ @ @ @ > > > @ $ % @ > @ @ @ @ > < < > : @ = < > > @ % + > > = @ > O $ @ @ 7 > : q + > > $ > @ : 4 % > : > % 9 + : : @ > > % > @ > 4 > > > > > > > > = > > > > $ < 2 : @ @ q : < = * O > 9 > % 4 < 7 4 > < @ @ > < @ @ > > > + K 7 = 9 @ @ > q @ 4 9 < < @ < 4 9 @ 6 > > > 4 9 2 4 < : < 7 > : - i = > : = > q > 9 < > 9 > : 2 % < 6 > > % , 4 > @ 9 7 > 9 7 6 > > = a > @ 4 > > < > 4 0 7 % % % : > @ , @ > < 9 7 @ : : = > 2 > < @ : > * > % 9 = > > q > + = = = @ < > 4 @ > < = > 9 > > : % @ = : > = < 2 @ @ 4 0 0 < > @ = < 9 = 7 4 > 4 < @ , @ O = % O & < @ : > 4 < 7 > > % % < % > 7 > o > = > 7 @ : : : @ 8 : 9 @ O > % % > > @ @ > > % % + = z 0 O > = 0 < > > @ @ : o < 9 = * @ > @ < > > > 4 9 % q @ > @ @ % + 8 q O @ @ > % @ 9 @ o % > % O , % @ @ % + @ > @ O # % > : = @ O @ @ > > O @ @ + O o   o o % $ O O @ O o @ % O @ + o # O o O o @ > @ O o O ",
"% @ O % @ @ @ O O O o @ @ = > = @ 2 = > @ > @ @ O $ $ % > @ O @ < O + > @ = @ @ + O % % @ @ @ @ O > @ % > @ = 9 > @ @ % @ 4 2 > > = @ = = < > @ > % % @ @ = 9 > > = = 0 > % % > @ @ > = = @ O > > + > > > > > @ < 7 6 2 > 2 2 s s = 2 r = + q > > > @ > 4 @ , @ = = @ @ > > 8 < : 9 @ > > 0 @ : > : 4 o > > > > > 2 > 4 = 7 9 @ 9 + : < = = < : > > % % > @ 8 + > 9 > > 2 = - @ % : > 7 : @ @ : + > > @ 9 @ > > 0 9 > 4 > @ 7 9 = @ < 5 6 2 = 2 r 5 2 = > @ 7 6 > 7 0 9 u 7 0 7 7 @ > > 7 9 > 9 > 9 > @ > 5 6 2 > 9 : < > < 9 > a d 6 = 2 > 6 i 7 z > = > > 4 > > 2 @ > > > 4 0 = 4 q < > < = 0 4 < 7 2 = 0 4 > 9 > 7 0 7 = > > 4 < u @ > p z > 4 0 9 = i > > > > = = 7 z > > 9 : @ = 7 @ @ < 7 = 0 9 : > 7 > > : % 9 8 < > a @ @ 7 < < > @ 7 7 > > % @ > @ @ > > > % > 7 > > @ @ = 4 @ % > @ > = o > @ 7 > > % > < > > > = = % : > > > @ > @ > @ @ : @ + : 9 @ + > 1 > > < > % 4 < 2 > > = < > > + + = < > @ > $ > + + > @ @ o % $ : o < @ O @ > > O @ > @ O % @ > @ > > @ O @ @ @ $ O O % @ O > @ + @ o + + @ @ o @ O @ , @ O % O O O ",
"@ % O @ : > % O O % > @ + @ = @ < Z G f r f i = @ o o @ @ > @ > : < % @ > < % > @ @ @ > @ @ O @ . = @ > = : > 7 @ > % + : d d r z 6 4 0 > u @ @ > > @ % 7 p s r 6 p d G p > @ > > > > 0 9 > % > > 8 = > 7 > > > 4 < u H d x G G } H G I E % @ > : % % % = = > + 2 9 : @ + @ < 7 = 4 > @ = 9 > @ o @ > % q : > > < 2 7 : = 4 7 > 7 % @ > % % q > i 4 @ 7 7 = > @ < r 4 @ O 4 i 5 > < 7 < 6 = > a @ O @ 4 < = 9 p @ > = > @ > > > = % : r d d x G v b l z > > % > O @ q r d d p 7 4 q 4 9 = > > > 4 > 9 9 > 0 s d 9 > @ > : > 7 < i r p 4 < z l d = > % 7 : + 4 i @ > u i 7 7 p 6 i 4 @ : @ > u H G 0 u x p 0 0 2 > % 9 > 0 7 0 0 0 4 0 p < = > 9 > > 5 p 2 > i = 4 0 7 7 = > > > > M > > q @ > a = @ * @ @ 0 9 > @ 2 > 6 7 6 6 7 2 r 0 i > < 2 > 0 % % 9 i i 7 7 d > < O O : @ + 4 > = > % > > 4 i 2 z @ > > 4 @ = @ > > 8 % @ 7 9 % O : 7 = > = 4 0 r : > = u 0 : + O > = @ : > @ i p p u 6 2 = @ = 7 @ % < > O @ 2 > > % 7 = @ @ O @ @ 4 @ + > > O o @ O @ % @ @ O > 2 > @ @ @ > @ @ @ % @ @ + + @ % O O % @ % > @ % % % + o   o $ @ O ",
"> % > > @ = 4 > @ % @ o O > p p r : 7 d t s p r l 7 @ @ @ + > > > @ = = = 7 > 5 2 @ % @ > O > 6 t > = @ < 6 > > < > @ > u r x p r d d s s p 6 = % O @ p d Z x p z u 6 u r f > O $ @ > p 2 6 9 > r u t u 6 p > O 2 s I S Z d d d L I G { I > @ > @ 0 6 5 p p r u 7 p 0 i = > > > d S L { L { [ I s L G @ @ 9 = 2 x L { d d G x L r p p 6 > + > 0 = > : > = r d 2 6 + @ % = d { 3. .L I L { I I i @ @ @ 4 0 p s p p d p > 9 p 7 = 0 4 -  .9.2.5.{ 5.9.5.9.w.G 0 0 > s a 0 s I L P L G I G f % * : @ x d G L G x L P G G i > : > d L #. .#.7. .#.0.#.G > = 5 0 : i d f r 7 d p H p < u 6 > 6 u d Z L d Z L G d Z S r 7 > % 9 5 6 u - 6 x s l 6 2 > 0 6 s G d x p c p x x Z p > % > 9 6 f 6 Z G x r G d J G r > @ > @ 5 d p 4 4 p < i d > % @ 7 6 7 p 7 > 7 7 > i d 6 > u c 2 % > 7 0 4 4 i 2 0 7 4 i 4 2 > > % > d = 0 u r s p 7 9 > r 6 @ > q 2 u d d r s d r 5 d x 0 @ O + = f 6 i u 6 : > r x : O > % @ 7 p s 0 < @ < 7 6 > @ @ % = + > > 7 < 7 > = = 6 6 7 @ > > + @ > @ > > % : > > @ @ @ O @ > 9 @ @ % > = @ % $ O > > O o > O # O % ",
"> + 4 % @ 7 : @ > O + @ O > 7 5 s = s s u 6 u 6 p 4 + @ < > > 0 7 @ > > + 7 u 6 6 @ @ + > @ > 7 i > 4 > > > > > + @ % > 6 s p r 6 d p 5 6 u 0 @ > O O i s 5 6 f u r 5 u r p 4 % > % > i > > 7 = 5 u 6 0 u 5 > $ = u L G G G G I G G L { L u : 9 + 4 r f i i p i i u 5 p > : @ > r P I G Z U P L G d c j @ > > p H G G r r p d G x x f > < : > 6 9 7 2 > p x p 7 G > @ : > U L L G G G G G L G p < 6 > > i d s p r u p 2 6 u 0 @ 0 > d  . . .{ {  .{ {  .{ x @ z < r u z d I A r I d G G p = @ > : H d d d p p x s Z G > > 9 = s { { [ L {  .{ [ { I r 4 4 2 0 p 6 x 6 6 r p r d 5 q % > 5 G x G G G J G G l G G d > > 7 r 6 p p i x s 5 7 f u > 4 7 6 d s 6 6 2 l p r L c = q : > 6 x x G G d s d s d Z p > O = > p 6 2 > 6 > 7 6 0 i > = > 9 7 p 6 9 2 6 @ 7 r 2 7 6 2 > 7 @ 6 = 6 u > i 4 > 2 2 2 u = : > + l p 2 7 p p i > 7 4 p 6 = > = 7 f 6 6 s f u x d 5 d u > % > > 2 6 6 p 7 4 2 r d < o < : @ > 9 r 7 4 = % > > 2 = @ % % @ 7 4 > = @ 7 @ > 9 2 = > @ O @ > > O + = @ @ : < > @ @ @ O > @ @ > @ o $ @ @ @ + % O O % @ % + + o ",
"@ @ 7 < > < @ + @ > @ O @ 7 = 5 p 7 s i = > 6 6 f 7 O $ @ @ = > > 7 6 = @ 7 = > > @ % o 0 9 6 > > : > = 7 > > 4 O % O > d d u d x u 5 p 5 u < O = > 6 s d p 0 u r s s p p 7 @ > 1 > > 6 7 2 7 5 i 7 2 4 7 i = > O r d p L G s Z G G L S } 0 @ q : i 5 r > = 6 6 6 H s f > % @ = s G [ L L Z L L s d G f = @ @ 5 H s d G I s s d G L 6 + > 7 2 2 2 2 u 6 6 6 p r P : = 9 > I L G G L d x d Z Z G = 0 7 > u z s s d p 6 p x r > 4 < o G  .{ { I .. .{ 6.#.{ x + > % d G l s L x 0 x d G d d p > a 7 d d s d p p G s p x 2 > < 6 G &.[ { L L O.{ { L L d > % 9 d p 0 d H d 5 u d s l > O q 6 G G G P d G c f p Z S f 4 : > p p p d x p r 0 u d r > = > 0 2 s f r 7 6 d p f r p 4 > + f G L G s s H G f G d d 7 : 6 7 : = i x p 2 6 u 2 > 6 = > + 6 p 2 6 4 0 i 6 5 > 6 u @ = 9 > r d 6 r > 4 = > f p u r @ > 7 = p p i 6 7 i 2 7 6 r u 7 7 % @ = f p p r u 5 d p > s l 2 : > r u r u r 5 p 6 0 u 6 - > @ 2 i > 2 0 7 9 > 4 7 a 2 > % @ > 2 = > > > 4 > > > 9 O @ @ @ @ < 6 = @ > : > + 4 > @ @ @ @ @ % + = @ @ O > @ = > O @ + @ O @ > @ O ",
"> O = = = @ = = + + @ O + 6 r p 6 p 6 p 2 6 5 u s 7 O o O 4 7 4 = 6 6 > 7 4 = > + % : @ > 7 > > + > @ = i > 2 > @ % % 6 G p p u c 6 i p d u 2 O q @ > p p p u p d d d r r 0 > @ < : 2 6 6 6 u p r u 6 = 5 p 2 < = d G s Z d P G G L S L } 7 O % > 6 p 2 i 7 6 2 6 5 r 6 q $ @ = p P L [ G L Z G G G L p > = % u A G G x d U d s d G p : > @ 0 6 r 5 i p 2 6 6 r G 4 = : 6 Z L d x L d d G G S U = 0 6 = d r r l u l 6 u x u 7 9 = + G l. .{  .#. . .[  .w.G @ > = s I s G Z G s d L d s f u 7 > < K x d d p d d d p x u 8 a i x  .{ O.[ +.L { { L P u > < = z x p r x p f u d d 6 2 > 4 u G L s G G Z G 6 s G G d = > > p d p x s = c f 2 d 7 % 4 @ p u f d p 2 > G p s s 5 @ 8 : r G d L G G G d d L G s > > > > 7 7 u p - i = 7 u p 7 > @ O i 7 u 9 9 > 9 = 6 0 5 0 : > = 7 p s 7 i a = = > r p d 6 9 @ + < 6 s 6 0 u r 0 u p p i = 7 < % 4 p x d 7 6 f r 0 0 p x = > @ 2 c r 7 i 0 2 6 5 6 7 > @ @ > 0 = 7 7 6 0 > 2 = 0 7 > + > @ 0 > < = > @ < = = > @ + > o @ = 6 9 = > = > + < > + @ < @ O : + > @ > % @ @ > @ O @ O O @ O @ @ @ ",
"< @ > > > > > = > @ @ O O i 6 p s - r z 5 r d d p 7 + O @ > 2 7 6 = 2 > = < > 7 @ + @ @ > = > @ $ > > , @ > i > @ @ @ 6 G d x u i d 6 5 s d p @ @ + @ x d p p r r u 6 d 2 4 @ = @ > 7 p r 2 > 4 > 0 r 6 u > 7 @ = s x d P G G G s L { S I 0 O > > 6 6 6 6 5 i > x r 5 4 > $ % @ p I G I Z L S I L Z } 6 2 9 @ r A s G G d G p G d G x > > 7 9 d d d 2 a 6 p 0 5 l = = % > G G L G G d Z L G Z I s @ 0 6 p s r s t 0 0 6 r 6 u > q q r  .9.#. .L [ 0. .9.F.G 7 % 7 r U s G d Z P G G G G r 6 i = > 6 d G Z s x x s d G t @ % = Z 5.L L I L [ { { L =.2 0 2 7 l a p 2 5 5 d s 0 H r d u o r U d I L d s d L } I d G u 7 > f d r u x p G 6 p p p < q 0 u r t d H 5 p p t Z P d 4 > @ f G d G d d s x s A s d 6 9 @ > z f r r = p 0 @ r r > > < > 7 > 0 0 > 2 4 p i r r u @ > % > 7 2 > > p r i = > 2 2 r 2 % % > u s 7 > 7 6 d r d r r > > % @ a i s 6 i a 6 r p u 6 f > + @ = u 2 7 u 7 7 2 0 4 > @ > > = 9 0 i = i 7 > u 6 @ @ @ O + = = > > @ > > 4 7 6 6 % @ @ % @ % + > > > > > + = @ @ @ @ O @ > 9 + @ > > O % > = @ O O @ @ @ @ @ % ",
"= > < @ : @ > < = @ % @ o > 6 r d : u t s u s s f 7 O % + > 7 = 2 > > < % > = i 7 > @ O : 9 2 > @ > > @ % 2 = 6 + : @ @ 5 d s 6 r d p 5 d s 6 @ > @ > f d s s u i p 5 s p a % @ : @ > r 5 u 9 > i 6 r 9 6 6 > = 2 s s d I d G S d L ..S P > < : > 7 u u p r 5 2 7 r d z = > @ 4 p G Z G d P S x G Z G 6 > 9 = r d G G d d d p G H G G = > > = 9 p d = = 2 5 u u d 7 > % @ G Z I L d d P Z Z G d s 9 < 2 u r r 6 s u > 6 u H u > = @ d 5.2.5.#.{ G O.#. .#.L @ 0 0 x G G p d G L d d L G p 7 4 = > d x G s x r r d s G 6 q > @ Z  .L I { G { { { S x > 7 0 0 2 p r H l 6 u u r x t p 2 = > d Z G I G P I G s G d d 7 % > u r f f d G 2 f H u d = > < u x s s r 5 c x d d d 6 @ : + p G G s d d x G s s s u 7 0 > @ d r 6 a > r 6 > f i 4 > > i - > i 7 u u 9 < 5 2 p z 2 < : < a 2 < @ u l 9 7 0 7 i i + % @ = f 2 9 9 = 2 i 5 p 8 s 6 @ % < 2 r d r u 0 u d 6 f i p @ : o = 6 > 7 6 0 7 6 p u 4 @ = > = 7 7 5 9 4 @ @ 0 u 2 > @ @ + o > > = @ > @ 2 5 2 4 + : @ + > % @ @ 4 > = < > > @ @ O @ @ O = 9 + > + @ % + = = % O o % @ > @ @ @ ",
"2 > < @ = > = = @ > @ % @ > p r 6 2 u r p r = 6 p 7 @ O @ > 4 6 6 = < 4 > 7 2 2 > > > > = 7 4 > @ @ 7 = > > > 4 4 > @ > s d p p s s f 2 u r 2 @ % % : 4 t x d 6 6 6 f r d f = @ , O > 4 2 p 6 6 4 7 4 r 6 0 > + > t P s Z G P d L L L G } p > 9 @ r p 7 2 c d r > 2 d d 6 4 > = r P L L P d S d Z Z G p = = @ 6 c d s x x d d G G s d 7 > > 7 2 9 p 6 i 6 0 p r p 7 < O > U L L Z d d U x d } G 5 < > > 7 p p r p p r p p d 6 > i % x w.|  .{ { L +.{ | 5.I > 9 h s d x H x d G G L G P d < 9 9 4 d d G s x u H s d G r 9 q > d  ... .I { {  .{ { G > > = u u p t d s 0 2 d d f p > < 9 6 x L Z s d G f x G d G d = > 9 l r p K i p u z 5 p s 7 < + > d x p > > p G s d J 4 @ > > f G d x f G P s f s d K > > > > f r 7 4 i 6 2 7 0 l = @ @ = d u 2 7 6 u 7 @ p r > 6 0 4 > < p i 7 6 0 > > = 7 i r p @ 9 > > r r 0 < 7 6 7 i 6 i p > @ @ 4 r G p p r r c 6 = f 5 s 6 = * > p r 4 i 2 i u r u 7 = % @ @ > 6 u a 9 > < @ = 7 9 @ & @ + > > > = > > 4 > = > @ > % O > = > > @ > > > @ + > @ @ @ + > o @ % > @ > O = @ > @ O @ > @ $ @ @ @ ",
"> @ @ > > > > > > > O O @ > i r 2 u r p 5 2 u 0 6 = > @ + @ > 7 = 0 2 = 2 7 : q @ > > = < > = 4 % @ 9 > < @ 9 > % + % 5 d r s d p Z p p 6 d 7 O : @ @ c d r p p x = p A p i @ @ > % + 0 6 = p f p p 2 6 6 u 7 > = d L G L Z Z P L L L L U 6 @ > > u 6 7 = d r p i s p s 7 : > 7 4 P { { I L G P L { I d > @ 9 > d x p d G G G L G s f < @ = 2 r = 7 d r p 7 r u d r 7 @ 6 U { G Z L G s G d Z x = = q 7 6 7 r r p u r d p 2 i = p @ d  .5.5. .6.{ I O.2.w.G % 4 > G G d G d d d d G Z G p > > > > G d d d u x G x s u p 2 9 r L I  . .{  . . .[ { G 7 9 @ f f s d G f p 0 x 6 x x 4 > < 2 K G L L L d r r } { I r : > 2 d 2 f 5 p d d a 2 d G < = = 4 p H r u > 7 d d d d > > = @ p G s H s s Z G p s L d 9 > < 7 u f u 6 5 6 r u < p > : : = s x r > i d 0 0 r p 0 6 7 = : > 6 6 u u = i i 7 6 6 - p = > = 9 z u = 2 f d 7 7 u p d 7 > % O 7 G s r c p r u 6 6 d d a @ : = u u > 6 6 6 6 u 2 9 @ 2 > 4 7 2 i 2 7 2 0 = = i 6 4 $ = @ + > < > 7 7 9 7 > > @ @ @ @ = < > > > < @ + > > > @ @ o = > % @ @ @ @ + @ % @ > + @ % @ + $ @ + @ ",
"> = @ @ > > @ @ % : @ @ O @ 9 p s r d p r p 6 6 d > @ @ $ > 4 < 6 r 6 7 7 6 > = = % O @ > @ > 7 @ > = > > 7 a @ @ > % > u s d r u s r u s u : % @ @ > p S r r r s u 2 t H 2 = > @ = > u r > = 7 = 6 6 r u > @ 9 % = I L L L Z S L { S  .+.= @ < > < 6 p x c r u d d d h @ 7 7 > G L L { A d Z L L | $.> = < i = c G d G Z d d d Z H r 7 > 8 9 u x r 6 f r 2 p r d p 4 > > P Z d P Z G L L L S L p > > p f r x s p 7 0 c s u 7 7 7 7 d  .5.2.0.#.9.{  .2.i.L = % > a I G I G d G d d L P s @ = < > x G Z d d G d d G G 5 - 9 > s l.8.[ 4.q.8.L 5.#.d = 7 p 0 0 d s r 0 p p 6 6 p r u < > 7 P Z L L d G G Z Z L G = 6 i = c 6 s d G d s d G x 9 > > > l r p r 0 p s 5 s 6 f 7 < 7 @ f G Z A S G s s G S S } p > @ > 9 6 r u d 6 5 > d 6 2 9 @ > 6 p 0 7 t p p 2 u s d 7 + > > @ 2 p d 6 6 u p 5 u 0 0 p > 1 O @ p s r l 2 = 7 7 p 6 < > = > @ = l x f 5 5 p 6 r G 5 2 > = @ > 9 5 r 2 u u 2 7 2 9 o 0 < @ 2 f r s 7 4 > = 6 9 7 @ @ > @ % > + 4 : 4 > > 2 7 < > O @ > = = = < = > + > % > @ % % @ O > < @ < @ > > @ > > > @ + @ @ @ O @ + ",
"% 7 < @ O 7 4 @ > > o O % @ < 6 s u r r p 6 i 6 r 4 % @ @ @ @ < > 0 7 > 7 6 > @ > > @ @ : < 4 > > @ > @ 7 2 7 > @ @ > = i p d - 9 6 = p 0 4 @ @ @ % = d H f 6 u i p p 2 f 2 = @ > = 2 6 6 i 2 7 7 0 u u 6 > = < < > r } S I G U { P { L d 0 9 > @ 9 2 r r 5 6 p p d 6 0 @ 2 a > 6 L [ G s Z { I [ L U - @ > > 6 p p G s s G d d } p = u 0 : @ r d 2 i K f s 2 u d 9 > @ > x L } I G U I L G } H 7 = 9 2 6 d p d x 5 u z 5 p 0 > 0 > d { ..{ .. .5.5. .0.6.G > > < 7 s I P p x G s G G x p 4 7 7 q 6 G G H G s G s G G 7 9 > 7 5 { #.7.#.#.I #.#.#.p > u z 6 @ i G 6 p K u 9 p 5 d a > > 4 } G I L G x U G } U d 2 0 6 = 7 d x G x x f d d u l > % 2 d p E l d u a p G x p > 7 7 > 6 G I s J d G G L L G G - > % 7 6 u d p = a 0 d r 6 > > > > = 7 7 6 6 p > > 6 p z i 7 @ < > 7 d i 6 i = r r p 2 2 r @ @ $ @ p d r p 9 6 0 7 u u = > > 1 O > 6 p p p r p p > K r > : + > > 2 6 f 6 6 p i > > > o 9 > % : 4 r 2 0 7 @ 6 l i 9 @ : > > > > : : = > 5 4 > > > + > % < > > > @ @ 7 > = = : % > O O > < < @ > O @ > + > : @ @ @ > % = o @ % ",
"= % % @ % > @ > > @ $ @ > @ > @ @ = O @ > + > < O @ @ + @ @ @ > @ > @ + > @ + < O O > @ > = 7 @ q : @ @ > @ @ > % @ > 0 > > = 4 4 z > 4 > = = % > > + > u f p u = 4 9 6 > = 4 > > O 8 9 > 2 2 2 > f < 2 > 7 > > @ > = u 6 6 p 6 6 = u 6 = = : % @ 9 6 2 > 9 7 > @ > = @ > > > > @ d I P G d H P s 6 > > < > < 6 i 7 p r d H = 6 u 6 = > < > < 4 = 7 0 @ i p d z = @ > 7 9 > 7 p 4 f d s d d u > > 6 7 < 7 2 0 i 2 p i 0 2 0 2 @ 0 > > 6 6 x p G p x G d r = > 2 7 2 p r 6 0 d r l 6 0 6 > 0 a > i 6 6 2 f d 2 u 2 > 6 0 > 7 2 u 6 I J x p x G d 2 i f 7 > > 9 4 < > x d 7 > 6 4 7 4 p 6 6 > 6 c d G s d K d u p u 0 > > > 6 u 6 2 0 < 6 d 2 0 > 7 f p p 0 p i = 0 f d 6 6 @ 4 : > a d p p H u x G 6 d x u = > > 6 > 7 7 0 2 9 l u p f a > + q > > u i > 4 7 4 i p u u 9 @ > 9 2 p 0 6 i u i i 7 r 7 6 u 6 7 > > a 7 6 i 0 0 i 0 2 u = @ > 9 2 6 u p u z = 0 7 2 2 > @ % 4 @ 9 < 9 6 4 = a 7 6 a < o > > < > = > a 7 9 2 7 < < @ O > > = > > > 2 6 a 7 > > + % % @ @ < > > + @ 2 > < > % + o % > > % > @ @ @ O % @ @ @ O @ > O @ > @ @ @ ",
"@ $ o O % @ % O @ O % @ o > % O @ % O @ % > % @ o O @ @ @ % @ @ @ o + @ > O O : O % > @ > = % @ O @ @ > @ % @ O @ @ @ > + O > @ = @ + @ O > = @ % % @ % @ = 2 + @ > > > = + % > : O > < > @ @ 4 : 4 @ > 7 > < > 4 + : + < > @ > > % = : @ > < @ : > > > > > < % @ < @ < a 9 + > % = = u u > @ 7 7 * 0 @ 2 > 9 : 9 + @ > > > > @ + 2 = @ > 7 < < 9 > : > + 6 d = > 7 7 a 2 4 > @ + 0 = @ a > + < 4 u 7 < < 9 7 > @ 2 2 > 4 > 7 4 2 0 0 > > 7 > > + < 0 = : @ 7 0 < 0 a 7 > @ = 6 7 > > 9 > > > 9 6 4 = > > = > > 4 0 < < z u 6 z < i < > < 4 < > @ 6 u 7 < > 6 > @ < 9 = i i 6 7 < > u u < : > 7 > u 2 > > @ > 0 7 7 > < % = 7 @ 4 : @ @ < i > @ 9 p r 2 > = = : 0 % @ 7 5 i 2 > @ 7 @ > 0 > = 7 = @ > 2 > 9 9 > > 7 a 9 < 4 @ > = u = = > > 7 < @ 6 > @ > 4 = > < 2 2 7 : < = 4 = = 2 2 = = 2 @ > > > 9 p 6 9 + = @ > = = 7 @ 2 < i 7 @ < 9 @ > > > @ > % @ @ > 2 > > + @ @ > O @ < > @ : = > 4 0 % @ + > < = % + @ > @ > + + % @ % O > : 7 = = > @ % @ % > % @ O > > @ % + > = @ % > > + @ O % > @ @ % + + % @ @ O O > O O @ @ @ O < @ ",
"@ @ @ $ @ @ : @ @ % % O + + @ @ % O & @ @ $ @ O @ @ @ @ % @ @ @ : O % % @ > = @ % : % % % O % @ @ @ > @ @ $ @ @ > @ O + < % @ > = @ @ @ @ @ > % > % > = @ % > > = @ > > % 4 = @ q : 4 % > % % % O + % @ @ > 2 > % > > % @ > + < > > 7 < @ > < > > > 7 4 = : @ : O > : > = : > + q < % > @ % q < u O > 7 0 7 > > = , % 1 > > a < > 7 > @ = 7 i : > > > 9 = > > < q : 4 @ > 7 4 , 9 < > > : > > 0 2 < 9 = > 0 > % $ > < 6 = a 2 > < 9 < 4 z 9 > > : : 0 @ 7 9 i 2 > z > @ q < 9 = > 9 > @ 9 9 > 9 > a 9 4 > < 4 0 9 2 9 7 r i 0 7 9 8 , 9 0 > @ q q 7 7 > > a i i i @ > 9 6 6 0 7 q > p p > > i 9 q 2 9 > : q q 9 > 6 < > > 0 6 > 4 9 4 9 > z > @ 7 9 > 2 > > @ < 2 O @ : 9 a = 4 > < @ > < > < 7 > % > 2 7 > > 7 > > % 0 > = = 9 7 > = = 0 0 2 = 2 < 4 q 6 4 : 4 0 : 4 > > 4 > > % = 9 > = < = q > < @ > > > q > @ > > @ 9 2 > > @ % > 2 9 < O > @ % > @ : : = < i : < > @ < > @ > > @ % O @ : o > + @ + @ > > @ @ @ + : > > @ @ > > @ + @ < = + % O % % O % % : + > @ % O > > @ % @ + + + @ O @ @ O @ > % + : @   % : @ @ O @ @ @ + @ @ ",
"% @ @ + > @ @ > @ O @ O @ O O @ @ @ < + = > @ % @ > % @ @ > $ + = o + > = @ > @ @ @ @ % % O + @ @ = > > > @ > > > > > % > 7 > 9 0 , + @ > > = > O > = > > @ @ % 6 > : @ + > > @ = > > = @ > > > o @ > 2 > : 4 @ + 9 > > < @ > > > 6 7 7 > > > % @ 2 7 > : @ > @ = 6 i > @ 7 7 > 2 = > O @ % = @ 7 @ 6 i 7 > > @ > @ @ @ > 7 7 > = 9 @ 4 @ < = 7 > > > 7 7 > > 0 6 > : : 4 0 > @ > = < > @ 4 > 7 7 6 9 2 i 0 > 2 > q > 9 = = 0 0 > > 2 6 = > > 6 u 2 6 0 u p 2 0 2 a 2 4 7 > 0 = 6 7 > r i 7 0 > < 2 5 6 @ 0 > 6 r 2 9 c 0 > 9 > 5 > @ 6 r 6 = @ u 0 = 4 = 6 7 2 r > = f r = 7 4 = r > 2 M = u 6 < a = = @ > > = > i 6 = > > < u 2 7 2 0 % > 7 p > 9 > = = = = 6 > > a @ = @ = 0 > 4 u > = 0 > q > 9 9 > 4 > 6 6 > > @ < < = q a 2 $ 7 4 4 > = r 4 @ % > 2 = = = = @ > = @ : 0 + % 0 7 > > @ > 6 = > 7 0 > % % 9 = 9 9 > > < = 2 > + > = 4 $ > @ @ @ > O + @ 2 = > 7 2 > = > > @ 0 > + > = > < O > @ @ % % @ > @ > @ > = @ > > @ o 7 > @ o > > O O @ + @ > @ @ @ @ > > % O % @ @ @ O + > @ @ @ O @ O @ @ @ O @ + % % @ % @ % O o @ $ @ % ",
"% = + = > > @ > @ % % $ > = @ : > = < % @ > % 4 % > = @ % o = 9 6 > @ 7 7 > > < @ @ @ : = 6 5 p 6 0 0 u u H d > O > > > > > > 7 9 > 6 i l < O > > > i 9 > > 4 7 6 < 7 2 q @ @ > > + @ - f H 5 d l d G d p @ > 9 0 2 2 = a > 7 = 6 > 2 f i < > = 7 < 0 u 6 u i r p i > 7 9 > > 4 = d u 0 9 i = p s = i > > q = 7 p s d G L d e d G 0 = 2 u > > 7 4 l s r p i > = 4 9 7 > 2 2 p i p d x p K 6 r p 7 u i 2 r 7 2 > 4 i p p 6 > a 4 + u l d s G d d G G d x r = > p 5 4 p u 6 u r r p c d r p = 7 6 9 u i G r p l d d d 0 > > 6 0 r H L L G { L { L x 6 4 0 i = > d I +.L s K d J +.s 7 > q i u d l 9 s f f d p f 6 a > 0 6 a > 6 p d u u d 6 7 = 0 > < 6 x G s x x c p d u z 7 @ : = < 7 u l p > 4 2 0 u 7 2 7 < : 7 6 6 6 4 = 7 4 4 % > 2 > 9 > z 0 > 0 6 = 6 9 - u < < z 7 > < 4 4 > 7 p i @ 7 9 4 > < 4 < 4 > 4 = 0 7 7 i > 2 4 i O = < + < 9 7 r i 7 6 u > z 7 > = > = > > 4 r 6 6 u 4 6 = > > @ 0 > 4 : 7 0 6 2 > > < > = = > > > + = > + : : 9 0 6 > > @ % @ > @ @ > < o > > : @ % O @ @ @ @ @ % + > + O % O + > + O @ % O O O : O O ",
"> @ % > > > > > 9 % o o % > @ > + > @ o @ @ @ > O > @ @ @ % > 2 2 % 2 6 2 > @ < : @ @ @ 6 G Z d G = p p s P s > o < = > > > > 2 > 5 p p p a > @ 0 < 2 7 > 0 u r i 0 2 7 u @ @ > q % O p U L S L L S L I P < > 9 > > 4 > > > 0 9 0 < 9 u = < 4 < > 6 i 4 2 6 7 u d f > > > @ > = 7 p d s r d 7 f d 7 : % > 9 > p S {  . .$.I L I +.f p 7 > < 7 > p p d u 9 u p 7 > > > 0 i 0 H G d G L Z G G l i @ < 2 6 i 4 M a p 0 s s c > = > > 7 r G x G L } P Z d K z @ > i 7 > l f p H G p p d G s i 2 > p 7 4 f x x d G U G p 9 % q i 2 p H 5.0.#.#.5.5.5.&.d p r 4 > 2 G  .5. .L P I  .5.L = q : = f d 0 u 5 d G G s G G s = < - a 7 2 6 r 4 7 z r u 6 > u 7 6 G L { { s r G d G u > % @ 4 2 7 f s 6 7 0 7 < 2 i p @ = O > f u u u p l > r 9 > 9 > > 0 7 > l d 0 p 7 u d 2 z f = 7 7 7 u 5 : 9 p 6 9 > 0 u z : = 0 7 > 7 @ > p 6 p 6 i 7 5 $ @ > 0 6 = i d G s f d u 6 p : @ : > @ 2 H L G c d d G G l > O 7 6 > 6 l 5 6 p 6 = 7 z 9 > = @ @ + 6 4 > > @ 6 p 7 = > > > > > % + > > % % @ % + @ > o > : @ @ o % 4 > .   O : @ @ > +   O @ @ + % O ",
"% = > + : 2 > @ > @ @ @ < > > > 7 @ > < 7 < > > > & O @ + O % 2 2 > 4 @ % 2 > > 7 @ % @ 9 p p r < x p 6 6 s d f @ % O 4 7 2 > > > r = u r t 6 + @ , > = u 7 @ > 2 = 4 : > f 2 @ : % > G L d d d r G d d L x 7 % : > a p 5 u 7 > 0 6 > > = @ , @ = 7 i 6 6 5 a 0 7 6 f 6 7 = > 2 2 G r r p s G s s x d u > < > f U Z G s d G d 5 s G x > $ > 2 f u l r u d > f s f 2 > p t Z { G Z L { d p L G H = > 4 > u d s p p G s 5 l u 6 4 6 - s +.d x s G A d L { { d a 7 9 > l d 6 7 a s z u d d p 7 2 6 0 Z G d d K d u d L I r > , @ { #.I L P L { [ { L I p > 9 0 x {  .L S 5.#.L #.[ L < : 7 6 i 6 d s u f p 0 6 i : 2 2 i 7 9 7 r r f H d G G r 7 0 i x d L G =.G { d 6 x G s d p 2 0 2 p G d t i p p u f 9 i 2 > @ i 6 6 > > : 0 0 d i > 9 > > 9 i r > 6 d t 6 7 < 7 d s : @ : = r d u 4 > > p u 6 6 M 9 = < @ 0 p 6 6 i u d - p 5 9 r 5 > 4 > p x d G 6 2 @ 7 d Z G 0 > + @ r s p G G d d G Z I i = 2 @ < 6 6 5 d G s 6 u r s l < o > > > 6 p r > @ 2 > = q @ : > O 7 5 = 7 = 9 > = > > > @ @ @ @ 2 % @ > @ + % @ < @ > < @ O o O @ % + = ",
"% > > > : > > > > > > @ @ > @ > = % > @ > @ : = > @ O : @ @ > > = > 7 > > 7 < > > @ % @ 5 p 6 p 6 r r s d d d p 2 @ @ > > > 9 > > 6 2 i 6 2 a q @ @ @ 6 u 2 7 7 6 > > : = 2 a = = @ > G Z d d x P L x G d G > > + > = p 2 7 2 0 p u 6 6 p > > > > p u = i z 2 > < 6 6 9 > > % = 6 P d f r 6 x p 2 d H 7 @ > > u L L d G G s L L G P t < 7 < 6 d 6 6 p p r 6 6 p c 2 > 4 0 G G d U P d Z G s G H > 9 > r p 6 i c x d p 2 z H p 7 7 0 c I Z G G d G G G G L x 7 4 < u x f 6 2 f s x u p x c 7 a i 0 I G d d G G d p x s d z > 0 +.L L { L { O.I L { { t 7 > = J L #.G L [ L G S { { 5 9 > > f p f G r r 6 p c 6 6 p 7 > 7 u i 0 x f s r u d p i 0 4 u d d d G d L G 6 d G G c 7 7 9 2 u l c r u d p p 6 > i 4 > = > p r 6 i < > u c 0 7 a = < 2 6 u f 7 p r i 0 > d H d 0 > : : x r 6 = i 5 6 u 4 u > = 6 2 2 6 p r 4 = 6 f 5 7 p u p p = = @ = H d p u i 2 d f d d 7 > > < 6 K d G G G u G G P 0 > : > = r 6 d l 6 u u > = G p > O > @ 7 2 0 0 = = i 6 9 7 = : @ @ > = < 8 % @ > , > > @ @ O % @ 9 > @ @ @ % @ @ @ @ @ > @ @ O @ > + @ : ",
"> O > : > > + @ 4 : @ O o @ > 7 @ % % = > + > > > < @ @ o > 9 > > < - u > + = 6 > % : u p p 6 l p p t d s p u 9 6 @ > > 7 > 6 i : 4 6 0 2 = = : 9 @ : 0 > p 4 2 5 7 7 6 > 7 7 @ : @ u d L G s d d G I G s d - > @ 9 = i i = 6 r t 0 x u 0 = < q 2 5 p p 7 0 > 7 > < 2 0 @ < = = u s d d x p d p 7 t s 7 > > > p G G L G d L P L L P s > q < 7 G 6 2 u d p 6 f d d r = @ 0 d d s s s G Z G d G x 2 i i d c - 6 c s r d p s d x > q < > A } G P L L G s G L s 5 9 = G s x d r x x d i 6 d 5 r z @ @ G L d f d d G x d d 5 a q > G  .&.{  .{ I L [ 5.5.Z 0 : > G [ { H Z G { ~ A Z } s a 9 7 l 5 f p G G u 6 4 0 p p 9 9 d G d 6 H d 5 u z - d d 7 9 6 x s J I I d r x p r c 6 2 9 7 6 p 2 p i r r c u r f = > u 9 2 u d s d u 7 7 = p 9 > > < 0 6 d p 6 @ 4 2 t 2 6 > 6 = < : > 5 6 u 7 d s p 6 6 f > 4 a 5 r 7 i 5 a 2 2 p = = d u i p < : > = x x 2 p p d p p p r f u 9 > r L P d s G d d d Z K = $ @ = p 7 7 r > 5 l i p r u > > > @ 9 > > 0 6 5 7 0 u 7 > > O + = : @ @ % O @ > > > @ @ O @ + = @ 4 @ @ % @ > < > @ O $ > > > + @ : @ ",
"@ @ > 9 $ > = > = = + @ O @ < > @ @ = @ > > > 7 < < > + @ + % > < @ > p > @ > a = O O 7 p u f u u d u p u r p r = > + + 4 6 - u = = 2 = 7 7 > % > > @ 7 = u > 6 7 r = u 7 6 2 = > @ 7 G G d d d s p G G d f u @ = = 0 9 i i 5 r 6 i p u 6 9 7 > 9 p u u > 2 6 u p 7 0 z > = > 2 u d d r p x p 6 5 s d 6 < > > s P G I Z L L I I Z L d = > % 6 G 6 s l = p p 6 6 s 7 2 @ > d L G s I L d I L I +.r 6 = = c l p 5 d c 0 i s d d 0 2 < u d G G P G G +.I d P G p u = d d d 5 p x d p 9 2 H d > 0 = q L ~ x 5 J Z A d s U c 2 0 > L 9.{  .#.{ L $.{ { 6.s > : 6 G { L d L d G L L L P 6 2 @ - d d d r u r u l 6 2 d p 2 7 0 p s r p p r i 0 6 x p > 6 u G I G G G G p x G G x f 2 i 7 f r 0 6 l x r 5 l t p p = 4 2 < 2 d p 5 u = 2 > d 0 > > 7 > 7 5 6 u 6 7 < u x p u u 6 > > > > c i 6 u r u 6 r s 7 z = i u 7 i r x 6 9 6 f u r u 7 > = : > u s p > d p Z G x d s 9 > > = d P s d x d r d G d d = o = 7 d d 7 i p u r d x p 6 = @ > > 6 7 > = 4 6 @ > 6 u > % @ % + > @ = > > > = 2 > % @ > > = > = > + @ % > @ > > % % O @ @ > > = @ O ",
"@ : @ $ @ > 7 9 = @ % > + > > , > > > % % i 2 + > @ @ > @ > + 2 i @ 4 : + > 9 > @ @ % $ < x x s 7 s f r u G d r = @ : > u z 2 6 7 > < 4 r d p > @ > > 9 6 9 = 4 @ p 4 < = > 0 = > = > d d G G p d r d d x f 2 2 4 = 4 7 6 u > 6 u : > s 6 9 > = 4 6 2 u 0 7 7 u p u > p 6 9 > : f p d x p s d x s f s H 9 : @ - I P x G G L G Z G L d < < @ < 0 > p l - 6 d u u d 7 0 z f G L G I { L I Z L +.G p 7 : > p p p 6 x r r p d d x @ = 9 G G d G P L G L I s G U r = 0 i p d u r p u p z 5 G d = q @ > d d r d U s d L s G s @ < 7 L 2. .[ G { [  .{ O.O.G 6 7 = I  .0.{ { L } { #.[ I p i z x t 6 l 0 p u s x x d p c 2 7 + 9 x d s p d 7 r c l 2 = 6 6 d G d s G s p p x G G i > z = f p K 6 p G 5 7 p x u d 7 @ > > u u 7 4 a 5 i f 7 u 4 > > < 4 = d 6 i 9 4 i p d i x 9 = 9 9 : 2 6 p = < 9 2 u s 7 6 % > @ < r d s u < > u 6 r u 0 4 > @ @ u d K d 5 d d r 6 G Z 2 7 @ > u H d L d s d d x p c t @ < > - Z p 6 6 p d p 5 r p : @ = > > = = > 7 < > > 6 p > @ @ @ > 7 2 6 2 9 > 2 2 > < @ @ @ < = @ > @ > @ @ : + + : @ + + % % @ > = > ",
"> @ > O @ > = 0 + % % % @ $ O > 6 @ @ % 4 > = > < @ @ % @ @ = 7 > 7 4 @ > > 7 4 = @ > = < d d r i d p u r Z Z p @ @ > 9 6 = = i 0 2 = 9 u s d > : O = u 2 i 6 @ @ i 2 > < 7 > 2 > = 6 d I Z d G 6 x d s G p < > < = > 2 0 i 9 > i > 2 f u @ 8 @ 7 9 > i 6 2 4 6 2 > 7 5 2 7 = a 6 d p r z d d u d x s r 4 : @ d L d s G G d G x f I d > < : > d r u r u 6 i r d d 7 7 4 r G L I G Z L G G L I x r + > f c p p l x s r d p u x 9 i 0 6 L d G d G I G G G Z c 6 7 a = p p i p r p K p 6 H p 7 q 6 7 d s p x d G G d G P i 9 0 2 { p.{ L { ..{ L *.I O.d r 4 2 O. .#.G { S { { {  .x = 7 u d 6 7 d - p G Z d p r r p f 0 0 0 p r p 4 p u d u u 9 4 z s G L G G s G s 0 p d U r 0 = > x p r d 6 p p x p x x 6 > < > 6 6 u 2 > 7 0 - d 2 9 0 4 > a 7 2 0 6 6 2 7 p r 6 p H @ @ 9 @ = > p s = 4 > 2 f p x 6 7 % % + d p p 6 > > > p 2 r r 5 @ @ 7 p U d r u d s x f d Z < 4 9 : u x G G s s G d r 6 c p = @ r z d r p r d r f x p u < , o @ : = a u < 7 4 2 6 7 @ 9 > + = p 7 > > = 7 > = > + @ % @ 7 = % % > > > + @ > @ % @ % % % @ @ @ @ @ ",
"> + < > = 9 @ @ @ % > @ O @ > > < > 2 7 = + @ < > < + @ @ > 2 @ = > = 7 4 @ = < > @ + < p d t r d d p f d d d = < @ O + < 6 6 6 = 6 = > = 2 > % % @ 9 6 r 4 > 6 i 0 = 4 i i 4 @ @ > 7 H Z s s G A G Z G G d @ @ @ > 7 a = 9 7 > p 0 6 l p > q % > i 6 p 5 u u > @ p p > 7 > > > 6 d Z d d d x d d x d r = @ 7 d L { G d G L L I p L d < 7 9 u r d r 2 c d i i d p u 7 % 7 L L G G Z I L L G d E = @ p u d p 6 p 2 s p l c f r 9 > > i } d G p P L p G P G c = 9 5 H p u i l f c d H p u p d 6 r c G P H s G L G H G x 6 4 4 5 +.6.G +.#.[ I L #.0.+.s 6 7 6 I 6.{ L I #.S I G S S u > + = i d 2 p d s G u 0 0 p i < = q > 6 5 i 7 r l p s r 4 < : > d P G d d x 0 r K d x d 9 > 4 u p 7 l 5 2 c d p p 6 u > p q 0 6 p p 6 > 4 z s 6 p > @ < 7 0 c 6 f 5 6 p u p d p r > q % 2 H i 6 0 i p u 6 = > 0 i 7 < < 7 p 6 > 4 u u p 6 6 d p r > < > r s s x u r c d 6 d d l 4 @ @ 7 H d p r x s G s G d @ @ = > i 2 6 l d r u 7 x 6 d : q % @ 4 2 7 7 7 6 - i > = @ @ > > > @ > : > > < > > < @ @ > > @ 7 > @ > @ > > @ @ @ O @ > > @ + % + @ @ ",
"< > > > = > > O : 2 > @ O , @ @ > @ > 4 > > % > @ < > % O 4 7 7 7 > 2 0 0 : : > = % % > u p d p s s u p p s l < 7 > @ > < 2 u 7 6 x 6 2 2 4 = @ @ @ > > 4 7 7 u p u 7 u 6 6 6 % : + a Z S G d G Z d d L L G a % > 9 2 7 2 : > 6 6 0 6 p d > @ > = u u p r 7 9 4 9 d s i < 4 > < p G L s G r s G G d G i > < i p L Z I s x G G L G P s 2 6 9 0 0 d 6 u d 5 2 i 6 r u a @ 7 $.{ G L } G { G L S U 5 q < r x u 0 f r c p 2 p G r > 4 < d L L L Z L s P I Z L x > 9 4 x p f u K r r p J 6 H 6 u p 6 > L G Z G L L d G G J d 7 0 - d  .X.L 5.#.{ L  .5.L d 7 9 7 d { I L [ #.$.G G I I p 4 0 7 0 p p p U u r 6 r f p 6 < 9 0 7 c u d 6 d d 6 H 6 < : q 2 d I Z I U d x Z s d G d 6 0 < 6 u p 6 c r 2 2 d u p p 6 a 2 > p 6 2 i 7 2 a r p > % 7 8 2 6 x 5 r 6 u d s r s p d 6 = > = r r 6 6 6 u p i > i > a 2 6 i 6 6 p u 2 i 2 u 2 6 s r p 2 @ + p Z Z d r p G G t f 5 u @ % = u G s s H Z r d d d H = > 0 > f 6 u u p r 6 p 5 s f < @ O > 6 u > > 2 p u l > < a % + > < > > = > > @ @ > = : O @ + @ @ = 9 > @ @ > > % O O @ @ @ : @ @ = @ + ",
"> > @ @ = 9 > + > O @ > @ % @ 4 @ > 9 + > 9 < > 4 % O > : @ @ > < % > > = 7 7 > q + + + @ > f f i u 6 G i i i > > % % > 4 p d d d H p i 0 u 7 = % < : @ 9 5 f r > > 0 6 < 7 = 4 > % i x G L G G G G S L A 2 z 9 > > @ d Z 5 6 i p p i d 6 7 9 > < 6 f s f 6 = f s d f a > 2 > 6 2 H d Z d d P Z d I P u > > 7 d s { { L I L { #.{ =.5 6 7 : > r c u 6 u 0 p t 2 p p 2 4 5 L } { { I L { { L L $.- 0 7 > d d 6 2 f l p 0 c G x 4 7 u d U { +.{ { } O.{ { L x 7 6 = 0 p x G G x d u f d G i > > r x d x I L L L d G I +.G 7 < 7 I 0.6.{  .8.0.8.#.#.L 6 i u > = I  .{ #.[ L &.{ { &.= : z 6 a 0 c d 2 r d r p f H 2 u i > = f I J d x p s H 7 7 7 9 9 > U I S { Z G x s Z I x p @ % 7 0 d G G I c G u 6 c u = a > 6 p l r 0 i p 6 t u 2 r 6 > 9 = > f p d x u p u f p p p > > > d f x r u z 6 p x p u u 7 i a 4 r d f i > 9 5 a p 6 6 c = % @ 5 +.L L G p d G G s p > % % @ G S d { G Z Z G L G 6 > > @ 2 f G Z s G d d Z s G u = + % 9 7 > 4 > + 7 u d 6 0 > @ > @ 5 6 9 > @ 4 > > > > @ @ % > = @ % > = @ @ @ = @ @ < @ @ @ > 9 = % > > ",
"= , @ @ : + : @ @ > : + @ @ % > > @ > + + @ @ @ > > o % @ < + : @ > > > % > < < @ + > > + @ 9 2 0 2 = p > @ > @ > @ @ > @ = d d s r = = = u i + > @ < + > 6 6 p = > 4 i > = : > = > @ p p s d d G d d p 4 @ 9 > > @ > 0 c p p 9 6 0 > 2 i > > > 0 6 r s r i i p x r i > @ < 4 2 < 6 f G s r d d s d d p > > = @ 6 I L I G I L G d s 2 9 7 9 > = 7 u 7 6 u z i 0 i 7 2 z 7 r d P I G } } I L I G < 6 > 4 7 u 7 6 0 7 i z r u d 2 i > p r r d G d L Z d d d l > 4 7 > > r f p s d r Y r f u > 7 0 2 f d H Z G G d s G s = 4 > > d L d L L { Z L { G d u > 2 i 7 s } G I L x G G L G 2 7 > p p = u p 4 p x H u r d r i 6 0 = i u l u p f 5 f > 9 7 9 > > s S d U s x u p G x f = > < 0 2 0 p d p r d 6 6 2 2 7 7 > 2 p d 7 7 = i i 0 0 6 6 6 0 > > i p r d d r 6 6 7 p p 4 z 7 > 7 2 z 5 6 < 6 2 6 6 i 2 > > = 2 u p 2 = 7 0 p r i @ 2 > @ 9 : 2 U d p p u p r K 6 p 7 @ > > d x d G P d G d d x 7 > < > > 6 u s d d d s d G p 0 @ % @ > @ > > > 7 > > u > > @ @ = > > > = > = 2 7 > > > @ + @ @ @ > < @ = > > % @ % @ > O % @ o % > > > @ ",
"@ O O @ @ O % % % @ % 1 o : > @ @ % + $ * & @ = % % @ @ @ @ > @ % @ + @ % > @ @ > : 0 @ @ @ @ @ @ 0 > @ @ = 7 4 % : @ @ : @ @ @ > 2 > > > < @ , , > > 7 < : @ @ > : < @ = > > > > = % @ 7 2 = 2 > @ > 4 = i = > > < 9 = @ = > = @ < > > < @ < > > 2 > 9 > > 7 @ = 4 = i 7 9 > = > : < > > < = @ 9 0 = = > 4 7 0 i = > 0 = f d - > r 6 > 7 7 2 a = i 0 5 = 9 > i < < 6 2 7 > 6 u u r 6 7 6 7 > 2 0 6 4 7 4 2 0 7 7 > 0 7 = > 7 p u @ > > i i > 2 r = 7 > > z 6 2 0 7 i @ = u 6 7 0 0 = 7 7 6 6 4 > l > i 2 p 2 = 2 > 2 4 0 i 9 = 5 9 6 7 7 > 2 5 > 5 l 9 < i i 2 r < > 2 z = p 6 > d p p 7 > a - 0 > 2 6 i < a = < = i u 6 < = 0 5 0 a 5 i 0 z 7 2 > < u u 6 6 2 = > p p = a > 6 u > 0 6 4 7 > 7 a 7 p 7 6 i 2 > > 6 7 @ 9 4 < 7 > > 2 > i = 7 9 6 6 u = 7 > = i 2 7 p > 7 9 7 5 7 2 2 i 7 7 7 = 0 7 7 > > 2 < 2 = 7 2 > : 7 2 0 @ 0 7 @ > > + 4 4 4 @ 0 2 6 7 = > 9 < @ z = 0 7 = = = > = 7 > = > : q > @ > 7 = + 7 < = 7 @ = > > = < % : 2 2 > @ % > + > : @ @ + < 6 = 9 4 @ > = + > > % @ @ > @ @ + @ > + @ = = > > @ @ O > @ + > @ o ",
"% O O > @ @ O O + @ % O O @ @ @ O > > @   O , @ @ @ > > : = 7 : + @ : = = > @ @ : @ > > < % % : @ 4 > = 4 > 7 = > % @ @ < < @ O % > > 9 > > : > > < = 9 7 : O > 7 > % @ @ 6 i % > > = 4 > % > < = * > % > < > : @ > > : < % % < 0 4 < 2 9 > < > 7 7 > > > < > q : % > 7 i 7 < 9 0 7 > O , : @ 1 > > < 4 7 > > 0 2 @ * < < @ = , : > 2 = 0 6 i i 7 > = l 0 < 7 0 > i u 6 0 9 = 4 9 0 > % q < > q 0 2 > 2 7 9 p 6 4 a 7 0 9 > 4 0 > : > 0 6 a 9 4 > : 9 4 < < 6 9 a 0 u 9 0 9 9 i 7 7 > z i d 4 > q 2 @ > a 7 q > z : > i p u p > 9 < 7 q q : > 9 > z u 0 6 2 u 0 4 1 > 0 9 2 9 > > 5 p u a > p 6 p z 7 6 0 0 7 7 9 6 2 2 6 0 < > 7 0 7 9 u > > a 4 a < > 9 q > = u 0 6 : < < 4 6 4 9 4 < 0 9 4 @ 4 = 7 7 7 6 0 > @ > @ < 9 7 2 = = = 9 6 = 6 p > > 4 7 : % : 6 7 9 u 2 @ > > > 7 l > 9 a 2 > 7 : > > 7 = 0 7 < q > a 7 @ > 9 < > @ 7 0 i > > % O % , + > q < > @ i > @ > 9 + > > < 4 > @ : % : > = @ @ @ : > % > % O > > q @ > = 0 > > @ + : @ @ : < % % : @ @ : > + @ @ > % > = % @ % @ + @ @ @ @ % O @ @ > @ @ @ $ @ % @ @ $ O O O @ @ ",
"> % o : @ @ O % @ @ O + > @ : % + % % > > + 4 = > > % % > > + @ @ @ > > > > : O + @ % @ @ > > > > = @ @ = = @ > > @ > : @ = > > > @ @ % + < > @ @ > = : @ @ 7 % @ 7 = = > @ > > > > 9 9 % @ : : 7 > > = 4 @ > q 9 0 < % @ > @ = 4 = > + > 0 > 2 7 > 7 : @ 9 4 7 2 % 4 > @ 6 z q > > < @ > > > = @ : 9 2 6 6 2 > 7 > < : : % > > > > > : > 9 9 = p = > < > 9 6 > > 4 0 6 6 u > 4 > > < > = 0 a 4 > 0 i q @ = r = 5 - 2 2 6 > @ < i c > p 7 > > 4 > a i 2 7 7 p > 6 p r r 6 > 7 > 2 0 2 4 9 > 0 0 0 p 7 = i > 2 = 2 = 4 = f i i i p u > > 7 0 < = > < > < a a 7 7 > q 7 9 2 2 0 6 6 2 > < i 4 6 0 > a 6 > i 7 2 a > i 0 > : p a 4 @ 6 2 > i 0 2 4 2 9 < @ > > @ > = = u 2 7 > i 6 7 7 9 0 7 > 9 > 6 = > 4 > > > < p > = 7 2 = 6 6 7 7 2 4 = 7 a 9 > = 2 0 @ < i @ a > 7 > > < i 4 = 6 > @ > = i 7 : > 4 i 2 > > : > + = = 7 4 = % = > @ > = = < % % < > > = @ > < a @ @ 0 = 7 7 = @ @ 4 > > > % = > @ > > 7 > @ > = > O > @ > = @ = > > > % % @ > @ @ O O @ @ > O @ O o @ @ O @ O @ @ @ @ : @ @ @ @ @ % O @ % O @ + O * @ @ @ @ O O o O @ ",
"> < = > 9 > > > = @ % > + O @ 2 6 7 > 0 i p 6 > 2 > + + + @ > : > @ > @ > < @ > : > % % % = > 7 4 @ > a @ > @ : = @ : > 7 > < 0 > 2 > > > > = @ < 7 @ @ > 4 u : @ i p r 7 > % > > : @ > = @ @ = > = 5 7 @ @ > 2 = > > > 6 4 2 7 6 0 7 > > > i 6 9 7 7 2 4 > = = r > p z > > < @ > z p 0 0 6 i 6 6 7 r 0 0 > 9 < 7 0 u s 9 0 0 6 5 0 9 > < 4 > > a r p 9 @ l u i f > @ 6 7 c s 6 > 0 u 6 6 5 2 2 , u 4 @ 9 x P P J d G x f f p = 7 u r x r f s s f G d d x f 6 0 = a s P H 6 l K x G H 2 > > 9 u 6 d x r p c 6 x d H p 0 0 0 u 2 s d r p u H s p 6 > = i p 2 7 u c p u x d p r x P i 9 4 = c s p s 7 r c p c r r u p i > > J G G c U x x f r 7 2 7 2 0 f s 6 p d l p r s p 2 = 0 > @ > p H r x x d 7 6 i 2 9 > 4 p l K G H I U x d G r @ 4 @ @ 6 i > 6 z d 2 2 = 4 > = > > > 6 = 4 u l = q u 5 6 p = 2 2 9 > > > p 7 z p 5 p 6 4 f > = @ 4 4 > a = > > = 4 = 7 6 @ % : O > 7 f u 7 @ 7 f = = = 7 > % 8 = > : @ = 2 0 2 + @ 0 > + > % @ 2 > > > + > > : : + < > O @ > > @ > + @ > 2 > @ O @ @ % @ @ @ > O % @ + > @ : + O @ % + $ @ O o @ ",
"> > > > @ 2 4 > = @ > @ + > 9 2 p d s r d 5 p p p = @ @ > < 7 7 9 p 7 @ 7 > > 7 7 > : @ > 7 0 6 2 4 u 6 0 0 7 i 4 % < @ 7 6 = 4 > p 7 < > 7 i : > > 9 q 7 i u 2 2 7 l f 6 7 = < > 9 9 u 2 f u 2 i s d i > 9 > 7 > < 7 d J G x c p 6 u z u @ : > 9 2 > a z p 6 5 G f d c : + : < u p r d p r l f r d s 2 > % @ i u d G d d s x p s > 4 7 0 6 u f p f f H f f > p 9 i u 9 7 2 t d x l u f P G x u 9 l = 2 } #.#.{ { { { } L { ,.2 9 = 2 G G H A s G G Z G d p > l > = f >.G G J G G } L d H 7 > 6 7 L L G G U G I P d H 6 9 z 6 p x d d u d G G I x i = 0 6 = 6 f p u G p s G d x U = < q i H s d s H K p x d d s d = : = G #.L { 6.#.x.6.&.G 5 7 0 = u U O.#.} +.{ P { +.L p 4 7 = > z G Z G d L S ) U Z c 7 : > > L O.I I S G L { { U 7 2 4 2 u c f d p d d r l x i z @ @ > = l z p 7 d p d x d A x d @ > > > s L H x x p x H s Z 7 > > > > > 2 6 6 7 4 u 2 p i 2 > % > 0 2 p p 6 x s p d 5 p z @ > 4 = @ > 0 7 u 6 7 0 7 i > @ = % @ u p 7 < r f p p 0 = > @ @ % r p i p c p 6 u u l 4 @ + + 4 5 9 = 4 > = , @ @ 9 % @ @ @ @ % O > @ @ ",
"= @ @ > 4 2 = 7 = @ + @ O > d 5 Z d d t f p p p s > O : > > 6 r = t d 6 > > i 4 > @ @ @ < > < > % t r = 2 7 5 f 2 > @ @ 7 p < = < 6 4 4 7 r 7 < 2 > @ p 2 = 9 6 p > 2 p 7 p = @ > > > 2 p d s i < s 6 9 6 l = q % = p G s s d r r i p s p > > > @ 6 9 = p p A d d p p 5 = : : 4 d p u u r p u 7 - l p = : % > p c r d d d d p d p % @ 7 l r c P p t s s d x f u @ u d 7 > a c P d u 6 d s d c p > 9 > x 5.| 2.{ { { { +.{ #.#.u 4 < 9 G x u d p d d G G G c < = 5 a x P L { L s L G G I P 6 9 9 > L G G G x L L ..G H i 2 4 6 p 9 H x d z 6 x L d 6 c i u p 6 x 5 u l u p r f d r 0 > = 0 x p d I L s p x d d G x = < r { 0.{  .5. . .[ w.L d < i 9 u I  . .L L { { L { { u 9 < 7 2 G +.Z P L I L L d G G @ > : f I L [ { S L I { 5.#.u > u 2 x d d d 6 4 p s s x 5 p 7 > : @ 6 r 2 u x s d d s S J p > % % 7 G L Z Z t d d d G I d > > % : > r 9 > 9 d r 6 f 2 p q = > 0 f r > 6 x r = > 0 d p 4 > > % : @ 4 4 7 7 i > > 6 u 7 u O > p 5 6 2 r 6 s t u 5 @ > > O s G p 6 s G r s s s p @ $ > 7 2 i 2 7 7 > @ > > 7 2 > O @ > = + > : > ",
"% > % = 7 @ @ 0 7 > O @ @ @ + f p 2 i 6 p d G s d 6 @ + = > 2 > 2 6 2 = > 5 0 = @ + < 2 > < 9 u p > > 0 < < 9 > : : @ 2 7 > > 7 = 6 > > i p r 2 % 9 > r p r 0 0 f < 7 6 r f 5 @ * @ , i r > 7 2 0 t 5 p 6 p 6 q > 6 r p G p u 2 6 7 x G p > % 1 < 6 l u 2 2 u 6 r 0 > c r 0 : % 4 d G G d f l p s u x u 7 > 2 p P f p x d Z L d Z x z > 9 > 7 p x P s x x G d G u > 0 : 7 G d G L x d L G p r G a > @ s I G G L $.G L L L L +.7 : 9 = G s p K p l x G d s c f i > G P } L x L Z I d x } I - z 4 c L J s s x d L d G H 4 4 6 u u p Z d f x d p u p p z = @ > d d P d l s x K p H G u 2 p p u 6 G f 6 p I d 9 p G T 9 : 0 I #.[ L {  .} s P } d < > : = I { P L { L S } Z P d c < 7 0 d P Z G d d p G G G H = : = p L O.L P { L G { L } p c 4 7 z 7 6 u 4 = 0 z 6 i u 7 i p i z p i > 7 6 p f p r s d u 2 6 q 2 H r 6 f d p c d p d d 6 > : 9 > z 6 7 9 u p > 7 6 d i : O % > p 6 p s f 6 6 f u p > 6 > + 4 s p 2 6 = 4 > < 2 4 @ @ + < 0 5 s r 7 @ 7 6 = 7 > @ + p u 6 2 u r 6 i 2 6 0 4 + $ O < > % O @ > > + 0 7 > > > = O o @ @ $ > o ",
"> @ > = > > > < > @ % > O > : p s 6 6 6 p r s f x > o % < = 9 4 7 q < > > 4 7 < 0 @ @ > 7 = 7 9 u 2 2 7 > 2 > 7 7 @ @ < > < @ 0 2 7 9 > = i 7 = < > 2 z 7 > = 0 6 = 0 u f p 7 4 q @ = u u 6 9 6 < r z 6 > 2 4 > > p x p f d d p s u d d d < > > > 5 p p 2 l x p s r f d 7 7 > @ 7 H d d G p r r d p c u 9 a 7 6 U s s d G G x G d x u > % > 7 f t G s d x s t p U r 4 q > x G G s d G U Z H d x 6 : @ G $.L L G L G L { L L I p 8 4 > U Z s d x r u d x A x 5 6 i L I G I d P +.G x L { Z f > > d Z P s d d G G L s H > u a 0 p r s G I s d x 7 p x p 6 a i d G S d p d s d p s f 9 0 u l p d x d x s s K u s s p 6 7 2 I 8. .I { { ..I { L Z 7 9 7 r I { L L O.G I U L U r 6 9 7 c d G G Z G G d d G G G 9 0 < p S L I I G { Z #.L L d 2 = 9 u d d i z 0 5 H 7 6 p p 6 = 7 4 p a 2 6 0 p u r K p d d 2 > 7 = x d G p f p p s p i x 5 = > > > 6 r 2 5 2 d 6 6 u u 9 > > 0 0 p r r d u 2 p u u p 2 > > @ 2 p r 6 0 > < 4 u 6 > @ < @ > p u 7 6 u u 0 0 u 6 > > = 9 r u f u 5 i > f r 6 9 O @ @ > 2 4 @ 9 > O @ 4 > 4 > = > @ @ % @ % @ @ ",
"> > < @ % > > 7 > @ % * + : 4 2 r u c r u r p d s 2 @ * o > 7 < > > = 2 < @ > i > O % + 7 p 0 = 0 6 5 0 7 i 2 2 2 @ @ > > 6 2 7 6 > > 5 5 < @ = > > > 0 0 6 = 6 i u u 6 f u 0 < : 8 2 p 2 > 7 > > > u 6 i 7 = 9 > = f u 7 d d s p l p s x 7 > 4 > d d p H p s u r G d 7 = < > p i p p t p d d x u d d p 9 < 0 f d Z d d d x s H p d K > : > d d p u K p r s G c p 6 > < > K s d H x d p s G d i 2 < i u L { ..L d { { L e.I L u a < > G K L G d s d d x G G r i u d I L d G s } L L P I Z p < i p I d G H G Z Z L d L H 6 = 2 x H d K L L d K x d d x i f d d G 5 x d P Z Z x 5 f 7 0 > > s d s G d G 2 p s G d u d 6 = { #.L S L 2. .#.{ { I > = p J L { { I { H G s I +.d 5 9 i d G Z s S { d s d d x s 2 4 : u { L Z U L L L  .L +.d > > a r G u 7 9 u d s > p s p p 7 4 + u f f l d 5 p r 0 6 p d 7 > : p d d p d d x d d s r p r > 1 @ 5 d s 6 6 6 2 = 7 = p > > 7 6 2 0 5 d i 0 l d i 5 0 > O @ 0 > @ 4 p p < < 6 5 p 6 0 > O 2 p d > > p u < 2 d x = = > q 7 6 u 0 > 7 z r p r 4 O @ > = 2 6 = = > @ + > < @ @ = : @ @ @ @ > % + ",
"> > > @ % > = = < @ o + % O > i s = 6 p u 6 p r 5 r = @ % > = > : 4 > 2 7 > @ 6 < + 1 @ 2 r u 2 6 > > 0 5 = 6 z 7 > @ > 7 u 6 2 = > > 0 0 6 7 @ : > < a = p > 2 u 9 p 6 7 2 > > % > = u p 0 6 l p 4 2 0 u r > > > 6 p p 6 r r G d 6 s x l @ > = = d G p d i 2 f r x d i 2 9 2 u r p r d d s G d x Z c 2 2 @ = d s p G d d H d r f L p 7 9 > 6 d G p p s p l d t x i > 6 p d d p s r d G s G d p 4 > < > I { L L I { $.S d I I s u 9 2 d d d L c p K G p d d p u > d U } S P U Z Z G G I G = > 0 l d G G r c d P Z } G p p z u p Z 2 6 G U d - x d p u 7 u 2 G x d u r s G x d H d t 0 0 9 H p s G s x G x p x x d 7 7 p { [ { #.6.5.| L { 8.G @ : 6 G I S L L G G I I L G d r 2 7 p G s G P s s S G x p H - > > 6 +.+.I L L L I { [ I u + 4 > 6 r s p 2 7 G x r p u f r 2 q > p r G r 5 d r d u 2 d p 6 z : 6 p s f x p d G d 5 s d 6 @ > : r d r 4 i u f 6 9 7 u f 6 9 7 > f 5 p p p 6 6 u d 7 > 9 > 0 0 > = 6 6 2 7 6 6 r > @ @ : > z r u 6 6 u u 0 6 5 + > > 6 0 r 2 p 2 > d - s l = > q > > 6 = 4 9 < 7 : @ > @ > > = o O > = @ @ @ ",
"> @ @ = : = < > @ < @ : @ @ < i A l 6 2 u 7 f d d u @ < = > 9 > > = 2 = > > 7 6 = @ @ + 7 6 7 0 > 4 @ r r > 7 @ 7 % > > 2 6 6 2 4 d i > = p f > @ % @ i u 6 > 0 5 2 > i 6 f 6 @ > @ 9 r 2 0 2 6 7 6 i 6 p l p = 9 9 6 p d x 6 6 p d s d u > < < 0 > u l 6 u p 6 p > u l = 6 p 2 r x d G G p s p d G H 0 < > 2 d G u p s d G d d G G r 7 0 2 u x x G Z p d l p p K 4 0 p c G G d s P G G d L G p = 0 % 2 U } I L +.L L I L { { c 8 i i d Z d r i s G x d p 2 = 7 > d P I { G P G L I d A G i 0 > 0 p I G x x f 5 d L I u > u d f x p r r d i p d d G 7 i 7 7 f H d p p s H d d d G Z p 7 > u d d d p s G G p 2 u p = 0 2 P &.L #.#.#.{ I P { L > : = p ..{ I G G [ P Z G L G 6 d 2 p U G G G d x P s G G G l > : d I G I { L G L L L #.p @ i 0 p p x p 6 6 H p x d 5 c 6 = 4 > 5 r p u 2 H p u f l d 2 > > 0 = f s s p d d p 6 x s d p + > = 6 5 6 i 7 p f u 9 6 2 2 = @ @ 6 G d i r p > i 6 l i @ p 0 2 6 i 2 > 7 4 9 7 d 4 > % + u : 4 = u d 2 6 p 6 = = @ > = x 6 d 2 r s p 2 i 7 a 2 @ < = @ < > @ = + = < @ > o @ = @ > O @ < : @ @ ",
"> > < > < @ > = @ > @ + O > > 2 s H r 6 z 6 p d f 0 @ @ + 7 > @ 9 % 4 2 > @ 4 6 2 : @ + 2 0 7 6 = 2 < 7 9 9 < = 4 @ % > 4 p - 2 > 6 2 = i 6 s = + + 7 9 6 u u 7 0 6 a : 6 f 0 @ > @ 9 i t 6 9 z u 0 0 6 7 6 p > > > p r G f 2 9 d p d d d > > < 2 p i 6 u c r 6 d 6 6 z 5 7 7 p - G d s G p p x d p p 0 9 4 < d U u d P Z d d d s d H 2 6 = c d 6 G J d p u 6 d H r 6 6 p G d d s } G r x p x d @ l > 2 U G S { { { L G G I $.d , 0 u x d d f f d G s G U 6 > 0 9 I { { L p L { d +.G } G f p 7 x I G d I G G d G Z d 0 = p f d p U d i p 2 A U s d p i > > d d s d x d p p l G L K 0 u f x G G c f d Z G x H G 5 0 4 > P 7. . .{ [ &.L G [ S 7 > % 6 L [ Z I { L { L I S G p i 2 2 d G d I U Z O.s 5 { L 6 9 > 6 I { G L L L L L L &.x = > 2 p r p f f u = 5 p p = 0 7 4 9 < d s 6 7 p r d x 6 f p 5 p 2 > 6 p p u d x s H d d r x > % + > u 7 2 d 6 2 2 6 6 0 u q 4 > @ 6 x p p p u 5 p 6 u f > 6 4 > 7 i 6 p u i 7 2 - 4 > @ @ u 7 7 5 2 5 i 5 u r 6 9 = 4 > p r r i 2 d p > u > 7 7 @ O > @ = > = > > @ > > > @ @ @ = > @ O @ < @ @ ",
"> > 4 > > % > 4 4 @ O % % @ 0 r 6 t s p u s d s H 9 o + : < @ > 9 @ = > 7 = > 4 2 @ % @ > u = 2 : > < = = 7 > 0 4 > > + 4 p 5 5 0 : 2 a 6 = > > 9 9 9 6 6 = 4 9 2 - 7 d d u 6 4 6 7 > 9 i 9 q 4 u 7 6 u r 6 9 = @ 6 H d s 6 0 x p 6 d x Z 6 4 = = f s i = p x 2 u H r 0 0 0 < = 6 G d t d x x p s d G 0 = 9 i 2 G p r G d G p d P H H 2 < = p H s s G r p p x s d d 2 6 7 f s P d G G p K G G x a q 6 d { [ { L L I &.d s { I G q 7 2 G s G d d G G d s G K 7 2 : I { Z { P L ..&.L G { I = > i p P G r G G d s U d G x 7 7 > c 2 x G d G H s d r x s 0 7 > u p u z s s z 6 p G d 5 > < 5 G P G s u x f G d L G s u c p S 5. .L { { { { #.0.L = q 7 d { #.G } { S { L d } G s a i u K G d p s G Z G d G G = a @ 5 5.5.L G +.{ L L { #.6 : 4 > s 6 7 6 x Z r i r u p x 0 > > > p p p 2 z t d u 6 r a f d 6 7 a K p c 6 5 d s p c p r : > @ = 6 7 5 r l 6 6 u p 6 p > @ 9 7 u a 6 H 5 u d f d f f > o % 7 i = 6 6 t 6 6 l 6 0 0 7 O 2 6 x u 2 6 u 0 > r p u 2 : @ > s 6 u 5 6 r u 6 p p = @ @ > < > 7 = > 8 @ + > = > > @ > @ @ @ % @ O @ ",
"> % > > : @ @ @ 4 : O > > @ > 2 2 s s p p f d t r > O @ % @ : q 2 = < 7 7 < > > > @ % = > 2 6 6 0 < 7 6 7 > 7 0 2 > : @ @ i 0 7 > > 4 u 2 4 < > 9 2 = c p = 4 i 2 6 p t 5 4 > > > 7 2 2 > 2 > 2 5 i 2 r u 6 2 > = 0 d p u p d p d p 6 d d = : > q d s 2 7 0 f p 6 d x 6 < > < % 6 d G G c s p G P d x i = < > z x d G G d d d G A p p 2 a 9 6 H d d G d 5 p x d c r i = 0 f G L G G d d d x K 6 6 7 = - U #.{ L } S L } I Z I G = 9 > G d d x l d G s s d r l z $ d I G I Z L I } +.L ..L p 4 p l s U Z d U { d I x G s p 9 > l f d d G G d d f x E p = z u > c u x d d u 6 x G H @ q q 2 s G d d p s r x x x d s u p p L 7.9.#.[ { [ 5.{ O.I 6 7 r d L L L { { $.&.{ { I H > = > 0 u d =.G G +.t P } i 6 u 6 > l { #.L } } { { #. .I 5 : z > r H i > d G s p c u s x @ > 9 > p r p p r d p u 6 p p 2 p i > > p d 6 u f U s u p p 6 7 > : < : r d 6 7 7 u r p 4 p < @ 9 6 2 4 5 d r p r r u r r 7 # @ 6 f 6 9 6 d c p 6 r 2 2 i @ 5 6 s p p i 6 7 6 i p d > = + : s p p f p - 6 d d r O % @ @ @ = 9 > 7 > > : > @ > > % > @ + < @ > > = ",
"% 6 : > > < @ + > > % > @ > % = @ p f 9 5 p p < + + > % + > 9 > > @ 9 4 > < > > + > o % = = 9 4 2 4 < 0 < 7 6 7 > > O 9 > + = > < - > z < : > > 9 > = 2 4 5 = 6 5 u p u > 7 > 7 < = 6 6 6 6 6 > : p u i 2 0 u @ < > 7 f u u s z d p c d 6 2 4 @ 9 6 u d u p 0 d p c p 7 > 4 i 0 > 6 l 6 r d x l p d u r 5 q < = p x H U U d G G c f 9 d a < > 2 s H K d G x f f x % < i 0 6 H U G x x d x x l u 2 4 < = +.$.} I 6. .{ &.{ { } d 9 0 0 x A G d 6 u r p r c a = 6 7 u H I G L I d P I G G p 6 0 u 9 7 f K u l d d G P x 0 q 7 c u d f 6 s G d l x d 2 z 7 0 i 0 p d 0 0 l f i r s p < : a p r l c p K l P c x 5 f 5 r c 6 p +.} $. .6.&.6.w.I 5 6 q z d L ..+.I I I x >.P s t 6 i z 4 = K G d u K P H r 5 i 4 > > p s >.$.L L +.I L +.s < > 7 > 2 l p - 5 d d c p d l 7 : 4 0 6 i a u c 5 a p 0 l x r p 0 0 7 6 7 i z l 2 2 6 l d c 7 p > > < 4 > 7 r u 2 i a i 6 u p > > 9 > p x G 7 9 f s K r 2 @ > > > @ 6 p 2 u i i > 6 r i > @ < < 2 p p p p 0 2 p 0 u < @ @ < < 5 r p c d p f p u @ % @ % @ @ @ 7 7 @ @ > > > + > @ + @ O @ > < @ = ",
"@ = @ % @ 4 > @ @ O > > % @ @ % O + = O + 7 > o > % % % > 4 = + > @ @ @ @ > @ > < > @ > > @ = > > > > @ % @ > : > @ : : = : : : < q = @ @ @ * q % = = % > 9 @ > = = > : % > 4 > = 4 9 7 > @ > 9 + 7 7 > 9 > 4 2 : 7 7 @ = > > 7 0 > 5 u 7 5 7 > > 9 > 7 4 > > i - 7 = 7 > = = 0 > > 7 > 7 l p > > 0 > a p < 7 > 7 7 6 u 6 u r s > 4 > 4 > > < 4 2 6 2 2 6 0 u 2 i 4 > u u > 2 u p c 6 0 p p 6 7 7 5 u 9 = s t p d P L x x r p p i 0 5 5 d p l r c 7 u u 2 i 0 a 0 = p p 2 p s d 5 > 0 d b p 9 9 > 2 i 5 > > a p H x d 2 9 i p r u r i 4 9 r 0 5 i > i 0 p i 7 7 f a 0 7 > - 7 z 7 > > p r 6 7 i - 4 > r u 7 i c i d p 0 9 @ t s G L s d d 0 4 > p 0 2 t l 6 = u p 2 r = i c 7 5 u r 9 2 > > 4 6 7 > > > @ > 7 7 9 5 u x p s r = u 6 2 < 7 9 > < > 7 a i > i 6 0 i 7 > q > > i u = = a i < < > 6 5 > a 9 > 7 q 6 7 = 2 > 7 7 7 7 t 0 6 2 > = > 0 7 7 l 2 = @ = 7 > 6 6 > = = > u > > = 7 6 6 p 6 + > 4 > O < > = a > = 7 7 7 q = : @ @ 2 2 7 > 7 + > < @ > + > % % O = 7 5 @ 6 = = @ + < > @ % % * + @ > O O @ > @ @ @ $ @ @ @ O % = @ + ",
"@ + @ < O @ + % @ > = @ @ % @ @ = @ @ + > : @ = > @ + > > @ % > + $ > % @ O + % : @ 7 % O % @ > < O % @ @ % > @ : % % @ : > @ > = % > : > < < > > > > + > % % : % % % > % < 6 > : : @ > > > > : , 0 9 @ 4 = @ 9 > > > > > % > @ : 0 4 < 2 2 7 > 7 4 = j > > z 4 < > < a 4 i = i > 4 9 z > = 0 > & 9 7 = a 0 2 7 6 i 7 < > = > 9 < 0 4 0 2 z 0 9 9 0 < < p 0 0 7 2 f p 0 i 7 7 f > 2 2 7 0 u 2 7 i d 7 q 7 f 0 c > 7 7 i 2 > 7 l u 9 r > < 7 > 6 i i p p z p i 7 < l i 5 z q a z z q 9 p p r i 2 0 a f p l 2 0 4 7 4 2 0 d u p > > x f > : z 7 7 0 0 7 u p u u i 0 6 l < 4 7 z i 2 u d 7 9 7 u i > 7 z 0 0 7 z 0 2 p r u 4 9 > u 6 - 4 6 2 l x 6 > = 6 i z < > 6 = < 6 0 = 0 0 2 0 2 2 > O q > a 9 a a 9 > 2 p r 6 i 7 = @ 4 7 4 2 : = = 0 > : 7 7 > i 7 c 7 > 4 @ 2 z = 2 a 2 7 0 > @ 0 i > < 4 9 9 = > 0 : 9 7 7 = 4 < > < < > < : + > < 0 7 = > = : 7 6 7 7 < 4 0 5 @ < l > o % 9 2 > < @ @ > < > 4 > > : : > : > > 9 > % @ 4 : = > @ @ 9 = @ @ % @ > % @ % % > @ + @ % O @ % @ > @ @ > @ % @ O @ % $ % % < @ % > @ % % > % @ o O > % ",
"@ O @ @ o @ < % @ > = @ @ % @ % @ @ > = > + < 4 > @ * > @ @ % : > + % @ @ @ > : @ > 4 > : + > = = @ @ > > : = @ q % @ + : = > < > @ @ = < > 7 @ : < > < > @ + = > @ % > @ 8 > > > > > > 9 > > : - = < > > i 7 > > > = > < @ > > @ > < > > 7 0 % 6 = > > 2 2 0 2 9 > > > > i i = 2 0 i @ = > 9 > + u 2 2 2 0 > 6 p @ < 4 = > > > = i 7 6 9 6 d 7 > < < > 6 7 < 2 4 z u 2 l 2 > = 7 < p 0 6 7 6 0 = i u = 6 0 < a < 9 > 4 2 7 i 6 6 z z 7 9 i 0 6 6 u 6 r p r d i < p > r 6 > 6 a 6 6 > d d p p l u l r p x 2 0 c 6 > z p p 6 0 7 6 d 6 2 2 d u 7 i i u u d c u d 2 p u 9 u 7 0 2 7 p u 6 4 p 2 = u r 0 % % 7 i 6 d 2 4 4 u 6 f > > : 9 i > p p s i 9 i 4 7 7 0 z 6 7 p z 2 > u > 2 0 z i = 7 u 0 = 4 = 2 z p r u 6 0 z 4 > q > > > < 0 z 2 < 0 6 i > @ 7 f 2 < > < r u < 2 > i 9 > 0 9 i 2 = < 2 > 0 > < 7 = > 0 = 9 a = + > 7 > 2 O < > > 4 6 2 > = @ 7 2 6 a = < u = 9 i = > O > 6 r @ > q > > < > > > 0 > @ > @ > > = < % @ : @ @ 4 > < > > + : > O @ + % 9 @ > @ > @ + % % + @ @ % = > @ > > > @ < % O @ > = @ > O @ > @ @ @ @ > = o ",
"% > > = > 8 > @ @ > > o @ @ @ > - % = > 7 @ @ @ > @ @ < < @ @ = i 6 > > > 7 7 > = > + O @ 2 4 0 4 > < 6 4 2 > = @ < : @ 2 p u u 9 5 > = 2 d r 7 > q @ u d s p d Z G x s p > > > @ @ > r d x 7 d U u 6 d p r 7 > 9 i d u > 2 p d r r 7 u u > > 9 = t d Z G G G G G d p > 6 > q > = 2 6 r x l a 0 d p 6 p < > 2 c f 0 2 i r a 6 9 0 u u > > 6 6 0 r d 0 r u = 7 2 i > 7 7 z p r 6 p u 7 0 7 0 0 u < i u 6 i z 4 6 d r 5 7 p > 6 u 7 a 5 r x s x H Z G p d p u p 0 0 p r G d Z Z s s L p x d p 0 > 6 G x d f 6 0 K x r i 7 0 0 7 s  .- d L Z d s d G 5 6 i 6 p d 6 x 0 - s x r u d p 2 > a 6 u p G x s p f u p d p c 2 a 7 2 p z 6 0 9 0 6 6 r 5 = 2 p 6 7 u x d = r 7 2 0 a 4 > > p 7 2 x Z d f p d s d - 2 i u 9 < 0 7 6 2 6 9 p 2 @ < p u 2 > 5 9 < = r G s 7 u d s = 7 9 = < > > 5 d r 6 2 d p s 2 > 2 < 4 2 > 5 - 0 d p 6 5 s r @ 0 : 7 < = 4 0 7 6 6 2 6 u r 4 9 > > = = 0 0 > 7 > @ 4 6 = 2 + : > < = = a i p = 4 2 2 > @ = O > 7 9 7 = = = 5 2 6 7 = = > % @ > > > > > @ @ < = > @ + > 4 @ > @ > + @ : > = > + O @ + + @ > > @ o O ",
"> 0 = > = > > 9 = @ < O @ @ O > 2 6 0 7 6 4 @ > % % @ @ > O > z i d p 2 4 6 7 r = < : @ > l 6 > 4 7 r 7 7 u 7 a 0 @ > > u r r p 6 s p 6 u c a 6 > > > I { { +.{ { #.{ L +.p > > 9 : 2 G L L G I { G Z U U = 4 > > d G d x U L S G I G Z p > % 4 6 $. .{ L L $.+.G I P 0 < > 4 q a K G I I p x c L x x > < 0 i f p 6 p x G s f u l p x 6 2 < 9 u G H x x H f c p d < < 4 0 u G 0 d d d i p p K 0 6 l 6 u H 6 6 6 L G G d d U +.i 0 9 5 P #.L O.G I I G E d K 7 2 7 x $.{ 8.0.6.0.w.v.0.} u < : 5 d x G Z x l G G G x x 6 > 9 H Z N.E U 0.0.&.L 6.{ G u 7 9 i l d G l G G G f d G U > < u 2 5 H G G K I G L J G d u 6 2 7 0 c G s c s 6 d x K 6 q r 5 u 0 6 G d s p d p > u p 6 u i p p &.0.[ P ..6.{ +.) 6 > 0 9 < 9 p c d u 0 p G i 0 s d 9 4 p f 6 x P s G P I L G p > 0 > > r K I { I U I Z { { l x 7 2 > 2 p U G x G I G G { { U r = > < > > > p x f 7 7 u H > > 0 > = i d x 0 7 q 2 p r 6 6 > @ = 6 i 0 l u p i > p p 0 9 @ % @ = 2 p d f d x d x x 7 = % @ : > > 7 > < > < 0 i > @ : > % @ > > > > : % < > > @ > > o @ > > > @ % @ ",
"> > @ > = > 9 = > > > @ O $ : > = 6 7 2 > < @ 4 4 @ > > = 6 c p = r 0 = > 6 0 6 7 > % % < > < @ 4 < 2 2 > < 6 0 > @ @ 7 5 p d 2 2 u 6 i 6 6 0 = % > 6 U L L d L d G L Z I } r = > = i G G G L Z d p G P L 2 > 9 > 2 s G G Z s s H d L I d = 1 > r ..#.L L P { L d L G r 6 7 < 7 2 U L s P L G p s u d 4 6 0 7 5 r p f d s s f p p u p 5 9 4 6 p d d d 6 p d s d s < 6 < 6 c G Z G G I G I G d 5 0 u > u u s H H s G G p s x x f K u p G I { G d G L d G K s u p > d 0.#.9.#. .6.{ #.5.5.L p z 2 H J I G G G L L d L I p 4 > p I | O.#.{ L L I ..d K 4 6 u 7 0 H L 6 d d d d x d I p 6 i 6 H Z s x f s d G L G G p i 0 0 c f d p i G f x d f f p l p l c d 6 d x d x U x x l u > 6 l I 5. .L { L #.O.0.$.G = q = 0 0 f r p d s p d d x 5 > 6 i 0 p x U G d P d Z d G G 2 9 < = d +.G { G +.L I { S O.{ 4 < 4 d d L } I G G L I { { { Z 6 > > i p u r d u 5 6 u u s = > > > 9 p 5 u 4 7 u p 6 f 7 4 % > 2 p 2 5 5 2 i > 6 c u 6 > : q > G G s s p p r r G f @ @ > > 7 - 4 7 6 2 2 7 7 0 9 @ : @ @ > > 7 > < @ @ < 4 @ @ > @ @ > + > = 2 > ",
"= > 7 > > : 4 > 7 : = @ % + % > 9 + @ 7 9 > 2 r f 4 > > = r d p : 6 4 i 2 @ 7 7 0 > @ = 9 2 4 4 = $ > 4 > @ > = @ O @ > 2 p u r p 4 7 6 r 0 @ @ : > = I Z p z x p Z K d I { G = 4 @ 0 x G G r x d G d d f 9 9 = 4 7 l s x p d f d p d L s > > > G ..L S =.L L G 9 L I d p 7 0 2 l d G s G I Z G A l l i 6 = 7 q p d 2 7 p u u f G 9 7 7 4 6 u f c p d p u x d P } 6 > 9 0 r Z P G x d L L { G H 6 0 0 7 t c G Z p K d x f x G s G z 5 I L P x G L G I s U P f d 7 L 9.0. . .0.#.5. .5.p.#.d 7 > P L G S O.{ { G x P I d G 5 5 I 5.{ #.{ I +.} S d H = p u < < s G 6 u u x d d f G P u a > P L A s r c x c p d G c a i 6 s G x d < G r p p 6 d 2 p i 0 6 i p p p u d J c s G f 9 > d { w.[ { { [ 2.{ {  . .= & > r U p > c d d G u L H 6 = > 0 9 H L L Z G G d s c G L u a q > G  .L { I [ Z { { L 5.{ = < < u Z Z [ +.L Z P { L S { P 7 > 4 r s u 6 6 u d u r i 6 0 < > : 2 p 4 i 0 6 z u 5 p u 6 0 = 2 6 7 6 9 p u 6 6 > p f > > * > d d s p p 6 u d d d @ o @ 6 < > > 9 > 7 6 4 > 7 7 + O @ 4 > 7 > = @ % @ @ = @ > > % @ O + O > > 2 ",
"@ @ > > > @ + > @ @ % & . % @ > r 5 2 u > : > > 9 @ , 9 = > 7 0 7 p 7 t p p 5 2 6 > @ @ > i 7 > : 6 s 4 2 4 7 0 > > < = : q 6 r s 6 i 2 6 l 2 o < > 7 U x Z G G P L G G P G p - 9 > p P d S G G x x G G I d p = 2 d x G f u d d 0 x s P l = : @ p 6.#.d x G I I G L I I p = a l G u d U G L H G r d G d 7 : = f G P d r G d d p G I A 7 0 = x d U f s I G s z 6 d 7 r 0 f 5 G P G s H s G d d ^ d % , 2 H s p l H x d t P I d i l 7 < 6 p } } d G J I L I s 2 i p L 5.0.5.0.0.5.6.{  .q.7.p < > p L x r G d r f d I I r @ , p +.{ { L { +.I L I I J p i i 9 i f G z p s c f f r p > > = 2 p f x G p p s J d G Z G 2 z f r d p z u - d d G G H d a f c p = p p z l 0 z 2 d u 9 7 s s { %.I d $.{ L A { 5.I a , 0 i d d p H x p d Z d G 6 > i 6 t U s x x s u G G d 6 x > 4 : i G { I d x G L $.L G L I 6 9 q - [ 5.G d f G Z P L d [ L : @ O : H d 9 < 9 4 4 > f > q 7 = 7 r x s r r 7 i 5 p u > % d 6 6 2 s s 2 p i = % 6 p p @ > @ 4 d t p u 6 r i < 6 9 = : @ O u 2 2 i : > > 4 > % > @ 2 > @ 2 > @ > > > > = > % % % > = @ > > < = @ ",
"@ @ > : + > > @ 7 > @ @ O @ @ > > 4 7 = > 4 = > < > @ : = 0 p r 0 r r u 6 6 u 7 0 > @ % % 2 > > @ 0 0 u = > 9 i = @ > @ p 7 6 p a p p 7 6 6 6 > 7 = i G Z L I G L Z G L S ..d 7 > > 2 H Z G G G d d G d G u = @ 9 d p x s d x d d c p d P 9 4 < u { { L d L L I I L { Z 6 = > p b x s G d d r G x d d 5 l a = d x d d d s x x p d I x = 0 < f x t d x d G d d d G 6 u 7 p d U G G d G Z U d d J s > 7 > d U L s d G x J G d G d 7 5 f K U s Z r G G S L G x 2 p > { 7.9.5. .9. . . .7.5.{ r > q 9 L G d H G x G G P G f 4 4 - { L Z } Z L Z U G L G r 2 0 2 d x G p d G s s s x l 9 l c u p u r d G d p x d d I c 6 0 p r d x s G d p d G Z p p u 6 5 f p d p s d p r p T p 2 a 6 s +.[ L L #.{ #.G [ 0.L 6 < > a d G d 5 p c d x d d u 6 9 r s G d Z G d L G Z G d d 2 > 4 u Z #.S G P L 6.{ Z L { +.= : = 2 +.5.{ G I L { { I G  .P + 1 > = d r d u 7 d 2 7 p 7 2 = > 4 6 d s p d p r u f p < > > 7 > r H r i 5 6 p u f d u > * = 4 H Z d p 0 p u u p 2 @ = @ 7 2 a 6 > = > > > + > 9 = @ > > 2 > > @ > 7 > > > = 7 > O + : > = @ = > ",
"@ : = = @ > > = 0 = 7 + > @ @ < 4 > > 4 = 6 i 7 > q @ > = d 5 5 r 9 p 6 7 7 6 r > > = : > < > 9 = @ = p u a = > 7 > % % > 6 6 p 7 p i 6 7 7 2 8 > + p I L L L G X.I L L  .6.Z > > > < H I G d x l d G d G G u 9 = = d d c d r G d d p G x 7 > > p +. .[ { I d { L I { d 2 l 2 > p d L s d l p Z G G U p 7 0 i u d x x r f d d c l G u 4 < > p H s x p r s d d s G 6 p 7 5 I L s x P L L L G U U 6 7 l p d P s G s G G c x t G d u p s A P d G G G I L } I x i i > G 0.9.0.5.q.#.9.#.0.q.0.d u z i G s I L p L L Z L I x l M 2 { L c x #.&.Z U G S I d 7 0 u s r d d P P d I Z 6 d H c 7 9 p p p p O.I u l p G P u > i f G d d s { f p x x d d 5 p l 2 G I f 6 p d u d f d p 0 9 2 d O.O.[ [ { [ #.L { 3.$.p 7 > 4 d s s d x s p f u d 6 z 7 7 d P G L G x I L s L L I < 7 < - { 0.S } I S { L G L Z +.d 9 7 d G L { L L L I G G P #.Z 2 9 i u l r r u r d r u u 6 i 4 > > p r c 5 5 d 0 p 6 p p 0 @ @ = a r p 6 p u u x r u 2 > @ 7 4 p p d 6 r p 7 5 d d = @ > f @ > 7 7 6 0 > d 0 7 = < > @ < 6 > : > > > 2 > = > 6 = % + @ > @ + @ < ",
"% > > @ > > = > > 4 = > % @ : > - 0 > 6 2 2 2 2 4 @ @ > % u u p i > 2 6 i 2 5 l = 9 > @ @ 4 4 = 7 < = > 6 2 7 4 = > + @ = i l i = r 6 2 u p 6 = > > 0 } Z G L { I G G I ..[ p = : > 7 G Z P x s d P Z A G d - a > 6 x d x 6 d x x d x p 6 = < 4 s O.{ I } G d { L { I J 6 = a 6 u P P x p 7 p Z d s x z 9 7 0 d d p p x r p p u d G r p 9 = > x 5 x r a p d G G d 6 0 : > L L x d r U G Z s G x 2 x u p d x G G G Z G s x Z U E 5 < G Z L U L G d x I Z d d u p 9 #.#. .8.7. .0.N.7.5.5.l.G = p p G d d K x K U G G P r i 6 2 }  .x x I L G I I d L d 4 = u K K P l s 6 d G G r s s r u 0 d d G d G J d p d s G x 7 7 f l p p K d d r d d d G 7 d < i d Z H 2 i s 6 0 p d p p 0 7 p I $.{ I  .L #.I O.{ L u 0 i 0 G G x p s d 6 p t K 6 6 a 6 s G Z G x d G G s G G G 0 7 a r I 7.[ I I L { { Z I L L 0 0 6 2 Z { L G G { L x x L { Z > > < > p r f u l p 6 d 0 5 u + : = 2 p 2 0 p l d u = u z 9 @ > > 0 r p r 6 u 6 i 6 p 2 7 % @ > u s d f 6 5 l 6 6 p @ < 9 f > < 4 7 6 0 = 4 4 > > > = @ = 6 > @ = 4 4 @ > > > > @ + @ < > > > > @ ",
": < = 4 2 = > > > @ = + @ % % > 6 7 7 7 7 > 2 5 5 > + O > a - i - 7 7 5 u 6 s d 6 + : > < 4 9 7 : q 7 @ $ < 0 p > > > = p r 2 > 7 7 > 7 6 6 0 > < : = d Z Z c G L s d } L G d @ 9 4 d G d P x Z L G s d d d 2 0 4 r p 6 l x G l 5 s s L l > > 2 f I L G P P L { L { L U 6 @ 8 6 s G G 6 f f H s d G c r = 7 7 r H 5 p H s s G d r G x 7 i 2 u U Z f q d p s l Z G d > > > d I x K s G s U d I G - l 5 p G x x s d d G s U d d p z 9 2 I L d I x H G G Z P K r u 7 5.0.O.{ w.9.| 5.L { [ 5.x p 6 H G H r d H x G d d I d u i d G 2.L +.G I I U P } I 5 7 9 a 6 H s u p G x 6 l P L r i z r d x s G s x G G f p p p 6 0 i x p p d 6 { s d x u x x u 9 0 c d x 6 d d a d f f u 2 0 6 d $.L G {  .#.L L { 5.L = q 0 s G G x p d G p 2 s G 2 > i u G d P G x d d G x d d U 7 > q 2 { 6.L G G { { { L Z { I 6 6 > 5 I { I L P { G L G d { G 7 % @ 7 7 r 9 6 6 6 6 i 2 2 2 7 7 > 5 p p i 9 4 p 5 p 4 > + = % > p p 6 r 6 0 0 2 p L x @ : > 4 x G x d 6 i i p i i = @ > 4 7 9 > 4 > < @ = 2 9 @ O > = 7 2 < @ > < = = > > > @ @ > > @ > > > % = ",
"> % 7 2 2 > 4 : @ < < @ > O @ i d > 7 > 0 7 7 u 4 = > % @ 9 p i 4 u r 2 = i u 6 a > @ > i i = 7 @ = = 9 > < 6 2 > @ @ 2 p s 9 i u 0 4 4 2 u 6 > > O 0 P L Z G L S J d L G L p 0 7 = 5 } I G x Z L G d I x p 6 9 > 6 K d d d s s u d s I r 2 : 9 H O.#.L Z I I L L $.{ G u 9 % u H G I p p s P d d d G u 2 a 9 p G d d t G x s G x Z x 6 9 6 d G I p d d d t G G d 6 i i 7 x L s G H s s G Z d J p 0 l x G G d s d G G x G P P p i : 6 P L G G x d L } s G H 2 l :  .7.#.#.2. .q.q.7.q.].L 6 9 i d L d G d G P s G G U x 7 p p s $.L O.G I G L G Z P K 2 i 6 d s x d d p u p p d x u a 7 6 d l G G p G L G d d x U p > 4 5 x d s i $.G r H x G i i 7 6 d s s d d d 6 d d r 0 p a = d +.L { 0. . .[ [ [ 9.{ 2 0 0 d L G d p U L d f I G > > : r G I Z s G d G L L S G Z 6 < : 2 L ..G { { { L { { L { { 0 i = r L [ L { G I L L d G #.L 7 < $ 7 l 6 = u r 6 a 7 d 4 6 i % > p G s p u 2 5 d u > 4 < > > 0 2 6 p p - 6 0 d u G d @ $ @ < d d Z r r u s s d 6 > % % @ u 6 > 9 0 > < i p 6 + % > = = 6 @ 2 > @ @ 7 > > @ : > < @ > > 7 > @ = ",
"> = 6 6 > % > > 6 4 @ > @ @ + > , > 7 > 4 > > > > < = > < > p 6 > t z u i < 4 > @ > > @ > 4 > = 9 p 5 6 6 6 > p = 1 @ a f 5 i 4 > 7 p 2 6 p 6 @ % = 7 L #.G G { { $.{ X.#.O.r < 4 4 2 } I I G d [ d d L x 6 i 7 q < u G P G A G G d p G G u > 2 G G #. .#. .{ ..#.$.G d p 2 2 7 H J Z s d G G Z G L x x 6 i 7 r l d G s d G r G d d G > 9 6 d d d Z } d G G G s d u z i r p G G J d L I L Z G U 9 @ 7 d J d H G d x d s L Z s 7 u z u G d G I L L I I L P G c 7 > { 6.5.i.Z.i.i.5.7.q.&X .s 2 a 7 P G P { G L L L G x r p i 5 r G L I G L L I L { O.G u i u K G G G H d p d d z p 2 i i p d s f G d G d U G I I t 6 0 2 p U U d r P p u p d K > p i 5 u d G G s d s s H d u 9 i = s O.#. .0. .[ 5.5.q.[ $.p = 4 s U s 5 c 6 d d G G x - > 7 p s I L Z I L G d I { } { u = < = G ..{ { #.[ L { I { { +.6 > : i Z { &.L I { L $.{ { 0.S = a 9 i p d x d x r > 6 6 i u < % % = x s d d p - r d p 6 0 % @ a 2 2 c u r u 6 d r x t 4 % = 2 6 s G r u p d S } d + @ @ > - 0 a > 4 6 2 p p u 7 > , @ = > > > > > > > < < 2 6 < O O + > @ 2 : > ",
"< > 4 > @ @ + = 9 @ @ : o @ @ O o % @ : @ @ O % @ > @ > = = > @ > p 6 7 > @ % % > > @ : > > : = > 6 u = 7 > < i > > % < = 6 6 > 6 5 7 > i u i > % > @ p d L U I L S x d { G 6 < 9 > u 2 r d G G L b 2 6 i a = = 9 > = l G s x G r 6 p x d > 4 7 u L { &.{ +.I G P G d G 5 i u 6 p s P d G K G H d d d 7 > 4 0 6 u x G f x p x d d u 2 7 > i p p W x G d d x x G I > < 6 d r x G d d U G G G G H > < < 5 f u K J K d l K G J c 0 z d u L L L G d U d I G x p d d 0 d } w.5.q.N.y.0.5.q.B.[ 6 : q > H G { X.} I +.+.L x p u p 0 d E J P } +.+.O.G } U d 7 7 7 d d 0 x x f x U x H c p p 0 7 d l 0 U L J G x d G +.s l l d u x u p x G l 6 K U r 7 2 0 l p d d l x H U d 6 K p 2 7 9 6 d &.I { { { +.&.6.{ I i 9 > z d d p H p K x t u p z 0 9 d s s d J G L I I G L s H t 9 > 2 d { I +.{ { { { d [ +.s = < 2 0 l d I I L { L { } Z L d > @ = 2 p 0 l u i p 9 > 7 4 p @ > > 9 u p 7 p c d p 5 p 6 > > 9 7 7 2 u r H d f r i 4 > = 4 p > 7 u G G p c G G P p > , > = 7 2 7 2 5 r 4 2 2 7 > > @ + > > 9 @ 2 > > < < = u 5 @ : % + @ @ > : 2 ",
"% + @ @ : @ > > @ @ @   O : > : > > @ % @ @ > > > @ % % = > > @ @ > > = @ : @ > > : % 9 @ > 4 > = O > > : > @ > % > % > > : 4 = @ 5 > > > @ > 8 > @ > 7 > 7 2 > s r > > > 2 = < > > > > 2 > 7 > @ 6 6 = > < 7 7 = 7 2 6 p 7 2 - r 6 5 5 6 7 7 q 0 d d d u > 2 r u u 6 6 > 0 u p > 2 = > 6 = 5 f p > i 6 0 0 > > f 9 > u d > 0 7 d 0 u 6 < q > r = 6 p d 6 l z d 6 : < d c 0 2 x d u f 6 u u s l y 0 i 0 a 2 5 p l 5 r x r 2 l c f 9 6 d G d K s i 0 > K l 6 5 c c d d G 6 d s G G d P d u 7 l p 7 x d p x i p d s P d s i < 9 u 6 r d t H G r r s p r 5 2 0 p 5 p K r u H 7 d G c 7 9 < u x x 5 p r d u p s r p i u 0 u z 7 7 7 u d p 6 r i u z 0 p p x x t u 7 4 5 p s 6 u p = 9 0 2 J G d r p H 6 2 > 7 4 6 p i r r u r 2 p d 7 6 6 u 7 6 i u r 2 6 f f 2 u d p 5 0 > 9 9 0 7 6 6 p d r d x f d u = 2 4 0 i 7 = 2 2 7 i 6 r d 2 6 > 2 2 > 4 p p 5 0 2 6 7 7 7 9 6 4 = 7 > 7 i 9 0 > 6 @ = 6 7 % q > > 0 7 0 > p r 6 7 > > 7 4 a @ > d 2 a i i 2 2 > > @ 7 4 @ = 6 i = 7 = > > 0 @ q @ > @ @ > $ % > = 7 > + @ > @ @ @ = @ O > O + > : ",
"% @ @ $ , O % : @ @ % % @ o @ @ = + : = > > @ + % > @ = % > > : > : % > @ @ + : > @ @ > > @ : = > > @ < > > @ % > = > > : > @ a > 9 a < @ * 0 > 4 9 0 : > : < : 9 4 % > % > 9 2 4 9 q : > > 1 % > 7 9 q @ > 9 7 7 = 7 : > q 0 < 2 4 9 q 9 6 2 > > > 7 7 9 = : < 9 : 9 9 6 u u r < > > q 4 0 q > 0 > > > 0 z 7 i z > 4 9 l 9 @ < u a u 6 i 7 p p = 7 p 9 2 > < 7 < 7 4 0 u 0 > z u = > i > 7 7 u 6 0 u 6 0 z 7 7 9 i u z z l > x d 9 2 2 p d c p < q = > 0 9 2 a p 4 9 l 9 : > 9 7 5 7 p a 0 c u 0 z 7 9 4 > 7 d q 6 d r i 6 9 l 7 9 T > a a 0 l i : 9 0 c 6 0 a 0 0 d i 2 < i z d > z i u p l 9 > 0 i 4 0 z i u u p 2 4 6 i : 9 9 7 a 4 a a > z z i u f p 6 N i z > i H p < < a a 0 4 0 7 z > > > 9 < : < 7 > 0 i u > 7 2 4 9 7 q T = 0 r l > 6 > < > 0 u < 9 < : 6 4 7 0 7 7 > > : < % 9 7 > > = > : > 6 f 6 = > : : q 0 > @ 4 > q = 7 7 < 7 > > 4 : > 7 < 0 < 4 2 7 a 7 < @ < > > @ 9 4 : > 0 7 = > > > > @ > : + = 9 @ % < > > @ @ 6 : = + = % @ % @ > = = @ 9 = = @ : : @ 9 9 @ @ : @ O : @ % + @ @ @ : @ @ = % @ : > % O @ > % + O ",
"@ > > @ o + @ > @ @ O $ 1 + % + @ @ + % = 7 o @ @ > < @ @ : < @ < % O > > % > < = > @ @ 4 > > @ 7 < < + 4 q 7 @ > 9 6 > % > < = 7 @ = = 9 % % 9 > < @ > q > > 0 > 4 9 i : > 9 6 = 0 4 % > 4 > < 0 : 2 > 9 < 4 7 = > 9 < > > 7 9 : : @ : 7 7 0 6 0 a 2 6 0 4 : > > 0 l z 7 > z 7 9 % 7 a > % < 9 = @ 0 0 u p 7 a 6 u r 6 > 9 > 9 2 > 7 i i 6 i z 0 7 9 9 0 7 > c l 7 u 0 0 6 9 i 0 : > z 0 i 0 p u 5 7 i 7 < 9 : : a i : 8 0 i p G 6 f 2 0 6 l i p 9 9 p 6 i a i 6 0 d u z i c i 9 l c i z 9 0 i l 0 7 9 : 0 z 6 i 9 c 6 c H u p x : > : : % q < , q 7 a c 6 i p 6 q 9 z 0 N 7 u d i i 7 6 9 < 9 > q : q > < a a a i p p u i < 0 4 < : > 9 a 6 p 9 i 5 l 7 4 a i 2 0 7 6 0 > 6 4 < > 0 > < z 6 9 8 9 z 6 6 7 u 7 6 p u q q 7 0 6 5 > > r u i > > 6 i 9 7 a < q @ > 7 0 0 6 2 u 7 u 7 7 4 7 9 i 0 = p 2 > i 5 i 9 q q < a 9 % j 0 a 9 = i 9 0 i u > < % 9 q < z > @ 6 u 0 > : q @ : 4 > 9 7 > > < 6 < 9 @ > @ > < @ > 0 < % > > 9 > = > 9 9 + @ > > 0 9 @ : < > < @ @ + @ @ O : % O @ o 1 @ % > @ = > @ + @ @ % > + O + O O > + > O O O % ",
"> % @ O @ : > = > > % @ > @ @ @ 9 > > 0 i 7 0 > + @ > > @ = 9 + 4 < = 7 0 @ > 4 + @ @ > > > < 6 5 6 6 2 5 6 0 7 @ > > = > 0 6 7 i 6 p r d i > 7 : @ 4 5 i p 6 p p 6 u d 6 7 = 4 > < = 6 u x p t p 2 - r f 2 2 7 > > 7 u u G r p 7 d 5 > 4 > 2 6 p i = r p u 2 p r 5 p 2 i > 9 = 0 4 f d f > > 6 f l i 6 l 0 < 2 r s p p 4 2 6 r u 0 < < p r 6 u u u 6 2 5 p 7 6 u p d a 6 l d 7 > 2 p d 2 u 6 u p l r u 7 > 2 6 6 7 5 p = 2 d 0 f p x 2 6 a 2 d r 7 r x x 6 6 c u d U s t s x r 5 x G 5 d c s 7 2 p H p 5 2 r s 6 - t p i u d x Z f s u 6 2 2 d x u i d 5 5 b l s i 5 r l u 5 f x u r p x K l f d 6 5 r p s 5 - 5 a d u r u 6 r s l 6 p p 5 p 0 @ 4 u H r 2 6 u s < > 7 7 7 a 2 7 7 6 9 i 7 l u p u r p f 7 7 9 > 5 6 > 2 r r K d > 7 5 6 u p a p 5 2 0 7 > 2 > - 4 0 0 p p p u t 6 r u 7 6 5 r p f u > 0 > i 0 2 > 2 > 6 = 6 6 0 6 = 6 7 7 i 6 7 > + > 5 = p 0 > 9 > @ = = 0 > @ > 2 7 6 > 7 2 = > > = @ > 9 > @ > @ 2 > @ > > > @ 4 > = > % o > 2 2 = @ % @ @ @ > > > = > @ @ + = = > @ > % < > > @ % @ @ @ > + @ q % O O @ O O O : : ",
"> < > < 7 < = : 7 @ : : @ + 2 a p u 5 7 f u a r 0 @ > 4 > q > a < r i 2 7 6 9 > > : > > > p d G d J c l H x x s @ : > > 2 s d t A P G d G x 6 4 4 < 7 f Z H p d l p r 2 7 7 i 7 i 6 u K s G U I U U K J x r = 6 4 s +.6.#.#.8.{ L 5.#.J = 9 6 d u 2 f H p p p c x s p p 2 p 4 4 4 ) { I +.$.$.{ [ +.d 6 p c 6 d H d I >.I x J { $.J G 6 = a i x x U x G G x H P S i 7 9 2 p x d x H G Z I +.d r 5 x f 6 L 6.#.7.0.{ #.#. .{ +.u p c 6 6 d J x I d c U G d p 0 z p r U { { I { G G +.Z x r p ) 2 0 +.&. .6.&.#.#.{ I L r a r u G w.w.q.N.K.C.K.N.A.[ d z r r f K G r K d G d x s d 6 6 z 6 G { { 5.#.&.I #.#.[ } 6 u d u 6 d $.I { } G { { &.d > 9 a 5 x G x p r H d G J d 5 l = 0 6 p x d x d s G p d 5 6 d r > > U O.J U I $.I I &.G 6 0 7 7 0 d G G d l H G G d f - 7 7 > = c 6 U I p c x G x ) p d 2 9 : @ p d p G d p d s s p u z 6 7 : i 5 G G L r x 6 s x d > @ : > 6 H H f u 6 d s 2 6 2 @ @ < @ = 6 d d p G x G d 2 i 2 9 q > > u < > > > 2 5 0 > @ q O $ t c p s I s d Z L d 7 % = @ 4 7 % > 0 > = > 4 : = 4 = 9 O @ @ 7 @ % = ",
"> 7 @ > 2 > > > 9 = @ % > > i p 6 p p r 2 r p p 6 : % < = > = 7 > = a > > 6 2 2 7 @ : % 7 G Z G G s 6 s s d d f @ > @ 7 p d d r s d d Z G p u > > 4 5 G d s 6 r u 2 i z 4 u u 4 a u r d d s Z G d G Z d L c r i = G w.{  .#.[ [ 9.{ q.#.5 a 9 > c d G c = 0 c 5 r d l c = u 2 = = L { { {  .{ #.L [ &.p > 0 7 G G L J L I Z I L L L O.p z > > G Z s p } L d G G ..i > 2 i d H P d U { L I L } c 4 c u d 8.p.9.Z.i.q.7.q.D.9.5.f > 4 p I P G d $.G G G } G p u f 7 7 J L &.6.L I { { { =.d 6 d u z w.9.9.q.9.7. .9.#.&.c p 8 0 { `./.a.^.`.(.^.^. XB.G r z d r p I x G d s G U G d d i 0 6 O.9.9.4. .0.5.9. .9.8.5 u p 6 l } 6. .5.{ [ { #.{ G G d p 0 U P H x d K G G U G 2 u > 4 i d G d K r H G x G i 0 l 6 < 9 G #.[ L I [ { { 9.#.u < 2 > = f x x d x d { P L G u a > : p p u d G p d Z G p s d p = : = i x x s G d t H H d H d r r p > 2 d L L { L d G d G Z > < > 7 p s Z I x = p G d p i @ $ 7 = c d G I I } G d G x u 6 < > @ 6 u 2 6 p 0 i u 9 = @ 4 @ % S L Z P Z L { L L L f @ @ > i 7 7 4 6 = > : 4 2 > > 2 6 % O < u > 7 7 ",
"4 r > > > > 0 6 2 > < + : = p 5 i = > p 6 r r 2 5 > O @ 4 = > @ u > > > = i i 6 6 > @ + 2 G Z d s Z x d L x p d > : > a p 6 6 r s d x p d G x 2 7 > 7 z t s s 6 p r a 7 r U r = 7 u x d Z G U Z L d I G G d H < = I 2.L L L [ #.| L 5. .P > < > u H p u 0 6 p f d p l f r p 7 = H $.{ I L { L  .{ #.&.x > 9 7 s { } L P G { G S [ +.[ r i > 6 I G s G } d Z J s s l z u r p d d p x G Z L G G r l 0 d d 8.0.5.9.q.5.9.#.5.q. .x a u f d I I s { p G Z G I U p l 9 S } I d { $.{ { $.G &.$.s z 4 a  . .{ S #.5.5.[ {  .P u > 6  .;X9.(._.a.^.Z.(.Z.N.L 5 z p K P G d G x d } d G G d b q d K.9.5.4.#.9.#. .9.q.w.p 6 a 7 d &.L [ [ { L #.{ [ &.P l c d d 5 s G s x d x s x l 6 c 0 > p U s s H G d p H x p 6 a z i L { L I ..Z ..I  . .6 7 i z r d G d G d s d d G G U 9 > i i s K d d p x G p d G G x = > 7 p d p d x d G s r p x d - 7 u 4 6 U G d d d s d s d L 6 = : 7 s s G s Z d f d d H 6 4 : = 2 P G p s d G G p d L Z 2 $ @ = 4 i 5 i u u = 7 p 5 > > @ 4 L d G G s d L S d d d i < > < > < > 2 @ 9 2 > > 7 = = = O O @ = < > 9 ",
"> r < > @ 4 r r 5 9 > O $ @ 4 u u < @ = p u 0 p 2 @ @ > > 9 7 > d @ $ 7 > 6 r 6 7 q % > i d s p d G G p d G p x 2 > > 4 7 0 7 p r l p x G d G 7 d 0 > 7 f d s d > G r u r L G 7 < 7 x H d L G S L p x x d p u q = { { Z +.G I #.L U I  .+.> % < > d s i u s I G x p r x u < < > G } L I L x +.G L  . .G > < = Z I L G P s I O.d { { L 5 > > p L L I I Z d d d x r u p 2 i H s x G G G G I d Z E s 7 x G w.9.9.5.B.q.0.....q.A.s q c d S Z P P G x U L G P s d 0 i p.{ G { +.{ L G { L #.L d z < f q.O.+.} &.#. .{ +.{ L 7 l 6 { :X7.p.N.9.D.5.9.A.L.d 6 > u x d p H d d G G d d P s i = s A.u.p.i.6.#.{ #.#.9.8.G > q i d O.I { P I L G I 5.#.s 2 d G 6 N d G d G x x p f d 2 p r 0 a G G d U I Z 6 c P d 2 6 q 7 G +.L +.I { { I  .&.p = < > G U G Z P G P s H K L +.r : 7 - G } u 7 c d x d s G d G q > 9 2 d d 5 x L d x u s d G d u 9 % l U p l 6 p G K d G } d 7 @ @ l G d A d d r 2 d s u t @ > 2 s Z s d P s x p d L { = & < > r s 6 0 6 u > 7 p 6 @ % @ 9 L r d x f u s r f d p 2 > > % = > > < @ = - 7 : @ 4 2 0 @ @ @ + 2 + = ",
"> 2 > : @ = > : = > % @ O @ < i = p < > i 6 s p i 9 > = = u 6 5 8 i r u 6 < = 6 7 > @ @ 9 f G G r > d u p G H 5 4 > > z u 6 d G 9 d f x t d d 0 > > 6 c f 2 p p 4 G d G G p > > z 2 x L G H r x G p d s I G > q p S $.#.5.{ G } Z I U L d > 0 i 6 u d Z x 9 0 d s G r d f q a 7 x L L { { { { #.I { #.s 2 8 6 d { L { L L I I } G L P 6 u 6 i x r x G s H I d x I G d > q d s s I d u d x I d u l u d { 9.N.9.9.w.q.7.{ #.7.l.I s i d L x p d I I G G K U I s 0 : I +.L O.{ G #.U H I ..L H z 6 d Z.{ I #.w.9.2.5.#.0.Z r > > q.`.Z.).+XS.a.Z.Z.S.N.Z 2 p d } G S i u G G x J x i p i 7 d v.[  .8.{ [ 7.5. .5.l.d d K d H =.G I { &.L I +...&.p 9 7 U G p r x x f p d L [ d r 4 8 6 H L G x u G G d U +.d 2 q , p 7.{ L I I  .{ d L #.s p i > c s I P G 5 f G s G L { d 2 < l p s 6 4 p p s x p s G U > > : p G G x L p f d G d S L s a @ @ c G S 6 p G d x x d U c 9 < 6 r p s p d l p u f p f : @ > = d p r x x 6 p f Z G c @ # 0 % 5 p u p p p d u p p 2 @ o 9 Z d S G S d G d d G i + @ @ 2 > r u > : > @ 9 0 = : > + @ @ > > 7 > = ",
"= 2 u > < @ @ > 7 O : % > > > i q 6 > 7 = 9 i p d 7 > @ , = 4 > = 2 r 7 = 4 4 0 7 @ q @ 6 x s s t l d l u s s s 7 > @ 2 c u z p 7 s d r d U x > = 7 u p G p p p u 6 H p x x 6 2 9 > i G s x x p d H r P d H 2 7 2 G &.S { ..{ { +.L L I L r 7 7 z s p d d 6 5 p c d d p = 0 0 6 x +.{  .[ &.#.L I { +.c = u r d U G G I G L G L Z G +.u u > u G d p z d d d d p U 6 9 d p G d s K H d G I P G l l : x ..5.A.5.7.2.p. .{ 0.B.2.Z x 9 x P H l d G { x d s d G 7 p a G L { O.L I { I Z L #.&.r l l x C.9.{ { #.5.#.{ #.8.G p 7 2 7.|.N.Z.a.i.(.D.`.Z.N.Z d r u d G G l t G P d x l s s c 7 d 8.9.[ w.%.{ 0.5.5.A.F.d d d 5 d L { &.G { r.I S #.L u z f G I d r G d d s d G Z G c @ 4 i p G G x p G H G G d H 2 q 2 6 { #.L I I +.{ G #.6.G 6 6 2 d G G p d d s I x L d P x 6 7 0 G G s H d d G x p x I P 7 9 : p K d d G d u G d x d G u > > > u d G J G d d G G r G p @ 9 > u H d p G x p r f x u 7 @ > = d P d s G s s d d Z d 2 % - > i 5 r p u 2 r p p i = > @ > G G L Z G G t p G s r = : > 4 0 9 6 = > > < > = > > > > @ > @ @ > > = ",
"> 7 9 9 > 7 4 @ % = q @ @ 4 9 = q > 6 2 6 7 2 p u 7 = o : > > a i 6 6 > = 4 > d 6 + $ @ l p s d d G d r f H Z G > % > 9 G p 7 > = u x s d d z = 4 < 6 d d d u 6 d d d 6 u p u 2 9 7 0 H G G p d s G G P s H 6 0 = G { { I { { I { I { #.L 5 0 > i x u 2 c p s d d f x c 2 < 2 u d P L 7.0...L L { ..+.c 7 u p G G d G d G U G d +.p x 6 i < p Z G 2 l G d s x L G : 0 p s H G c l l s d L p 6 d 6 q s [ N.9. .7. .0.5.#. .9.y.d i a d I A K d L G p G L L l 0 c l Z I $.L L I { O.{ { L L x z 5 G 5.B.5.#.L w.#.{ [ J.d d H r { Z.OXa.;X(.S.Z.~.Z.N.I d i 5 H P d K Z G I J d d d p 6 7 x w.i.q.u. . .9.#.9.N.0.P p 0 r +.5.#.[ G  ...L 6.#.G > 5 p r G K G d G I I x u d H r z 0 r G d x d s x H L d d d 7 9 8 6 { 5.L G I { [ L 5.#.d = 9 4 s P s x G J d d U { p d x u 9 i G I G P s s Z G H f S L 4 > 9 2 c s p d d x x s p p G r 9 < > 0 K p d x G L G G p G d = % > p c p f s s d d d d r 4 : % = p G Z G G G P x 5 d H p @ 2 2 0 0 6 5 u 6 i 2 r d @ @ < 2 E G P G d L d x d p d > @ @ > 5 = = 7 7 2 q > > 4 = 7 > = > @ @ > > % ",
"> = = 6 7 6 6 9 = = > @ > + > > = = i l p 2 6 p d u % @ + q @ > r 6 u > < > = p p @ : 9 d l x d f Z s d d p G } = < 9 < p p 6 2 6 d z p G d d < > > i K d 6 p z d d p r 6 x c 5 i = l d d L G G x P P s G s s l > d #.{ { I  .#.[ { {  .6.7 2 q 7 6 0 p p x p r s u l x u 9 q 6 f +.{ { $.L L %.[ { $.r a K u d I L Z d G P G d P I G 2 i 9 l P =.6 6 J I s l U L 0 u u K L s G f p x G d H G p - : 6 { q.p.5.l.I w.#.#.7. .B.G < r d H L I G L G x G U J r 0 u p +.{ I L G { { #.{ L #.L x 0 > I 5.w.q.{ #.{ #.#.K.0.t a p p 0.^.|.Z.:X.X9.9.`.;XZ.L 6 9 2 l H i G s P G x r x H H u 0 c B.9.9.0.8.5.0.{ { q. .Z u p r >.5.#.L { #.{ O.&.#.+.x 6 p H s s d d d d x x d K d 2 p > 2 G G G d s d G G G H d > < q 5 y.7.L G I { [ I ..#.G 7 4 2 l L x P s Z G x P L G x u 7 0 2 d Z G G d G d G s d d G 0 < > 5 G s P 6 r p H d f 6 x p < 4 < 5 G d x x x d d x x P U 6 : = 6 d s H c 0 l p d d 6 = % > 7 G d G d G p p d d d d 7 > < > = 7 p > > i 7 7 u u @ @ @ 0 Z s Z s l L G d s p l 2 > > 9 p 0 > : > > @ : @ > < > @ > = @ > @ O : ",
": 2 7 > 2 2 2 6 i 4 0 = : o @ 6 s 4 u r 2 r d 5 u > @ @ > 4 a 7 p 7 6 f p 7 2 d 2 > 4 = 2 d d s r G d G s c p x 2 < > + i H G p 0 d 5 i p G G q 9 2 6 u f u p f G r s P p p p > 6 p p d s G d x d d x s L P p = 5 { { I I &.5.{ L G { w.G = q 9 > < i K r d K d } u p x r 2 8 2 G I G S L { { #.|  .5.d r z 7 p G [ L { L L L I G #.L > i > d d p d G I I G d G G f d 4 2 t G p G I J x s G G f 7 9 u I  .q.9.#.6.5.7.5.q.N.9.r 9 d s x I I I s d x G G G d u i i 6.L O.#.O.L S #.O.L 6.{ p i f P i.9.0. .0.{  .K.5.L p 9 < 5 B.<X9.A.9.i.D.N.S.-X`.#.d a > d f u I x K r c G G U x a > p p.Z.9.$.8.5.0.w.{ 7.l.G u a = s $.{ { +.[ L I L 6.{ 0 i u d Z L P G p p G G L G x r u 2 f U G { Z G L s x P I p r c < s 8.#.G I { { .. ...L G d u 5 p U s x G Z d G x L { J @ 9 7 u x G G p G G s d d G H G u > > r U d G d d G d x x s K d > < 4 s { Z d x s r d d L L H = > > 2 s S d a > i r s H d > < > > l x d s s x = l G Z G @ @ % 2 i 7 6 2 6 6 > 9 p 6 @ @ = z S s Z G G Z S G d G s > % + 0 r 4 > < > = > < > + > @ @ < > @ % = = @ ",
"< > > 0 2 7 > = i 9 = > > : > i p i p 7 p x r 6 4 9 @ < 7 > > > r > 7 i 2 > 9 0 > > 2 : = p p d Z d x x s x x 7 = < = = = 5 G r r s 5 r u x f > = > 7 r p t t x G u p x G u 7 > u p p U G G Z G G x G L Z P s > = P ..{ I #.#.s L P 8.w.s > > 4 > > 6 p d p p r L x d d G @ 9 > d [ { P +.L #.0.p. .l.d u a @ G G I I L L I L S S +.G 4 9 2 u G s U d d d d d G x d c u i f U G x s L p d J d p a 9 p Z 8.i.9. .D.{ q.9.Z.S.q.K q d G d P L P p x x d s G s f 4 4 L O.I 8.#.{ O.{ { I { { x 2 2 f Z.i.9.w.0.q.5.| 5.w.r q B 0 #.1Xq.A.q.q.(.i.Z._.).{ 2 0 > c H d L x r d G L G p p 7 > f 7.q. .5.9.2.5.5.#.#.w.P 2 q u U #. .L #.{ $.&.L 9.{ 2 9 u r G d J G r p d p I K x f x 4 p x G L Z L L I x s I d u 9 2 p #.{ [ &.{ { L  .{ ..d r u 6 u G G d I G d G s L { U > 0 z d p d d s U Z d r G } x u r 2 9 2 l d G P G G r d d L x 6 2 7 > d } L L x H } s G I G 6 > > > 0 p d d p 6 l p s H i @ @ > i p d p d d x u d Z d G 9 @ < 7 7 i u u u 6 0 = 2 i > % > 4 s L x d Z d L Z I } p = @ @ u = > > = @ > 7 > @ @ % < % > @ % @ > 2 = ",
"> % < % $ @ > = = > = > > > > = % 6 < > 9 i > @ % q < > % : = 4 4 % > q > > : + % > @ > 4 9 r u f 0 x l c p H 9 + @ @ : 4 > p i p G f 9 > u 7 = > > p 0 5 H G H r p u > > l u i > > 7 H d x H d G H d G c 6 9 a a u G +.I I +.P I P P s c i < a u p 6 6 p p x u 2 d H u d r u = c L #.c.I O...$.L I I d 6 l 6 u f p I U G I >.P K I f p 0 : 7 K G G p f d G d E 7 0 i i c p l G d x G J P U U f 9 9 u L J.B.9.N.N.#.7. .D.q.+.< 0 7 p d J } U L +.G G =.x H p > = s I L $.L +.O.L O.{ U Z > M 4 c q.9.K. .q.B.9.i.i.8.U 6 9 H O.%X5X`..X`.(.`.).|.#.s K K u x d 1.} G H G x +.d x d i 7 s 5.9.w.F.Z.w.0. .9.A.x.G 0 9 6 } [ [ #.6.O.{ 9.w.w.I 5 a s x d G G H p 7 x p d d x r > p 2 r l p U G u I +.d Z K p = 6 u $.5.6.{ { +.&.5.5.&.f < 7 2 u s G d H G U G G G d x G d 6 = z d U I G U G c z I r p 9 0 i 6 7 5 d x s Z G G d Z 0 u > 9 7 = f H H s s G H G J d % q 8 > u i 6 d d G r d p l = @ 7 2 2 p x d d d d G d G K l 0 @ % z 7 2 r = 7 d p r r > = 9 @ > l U G Z { } G G L P d = > 4 i 6 < 4 9 = > 9 > 4 > @ 9 < O @ @ > @ = 2 ",
"= > > O O @ < @ % > = : @ @ > 9 O 2 q @ @ @ 7 % > > @ + > % > = < > % @ % @ % : @ * @ > > < = = 4 2 > = 9 4 = = < > : > @ : > > 9 p = @ 9 q @ > 4 9 7 > u u x p 0 l 4 : < z > 2 9 > @ < u 6 r 6 = r = 7 p 0 > 7 0 > > 2 r d p 6 p 5 2 > 9 = a u p f i 7 7 p u 0 4 p p 9 i H d : < x d d s s d x = 6 i 9 > z l = 7 f 6 5 r d d p p 2 7 u 6 9 7 p d x p i 7 G d d 2 > 6 f r u u p 6 l d x p r p 6 0 0 p p U Z I $.#.8.j.#.6.{ d > 0 a u K u u d G I G d G r 7 a M z i s G p G I J G d L x p p 4 7 c G { &.[ #.L G #.#.Z x 0 d 6 d S 5.2.5. . .w.O.L x d d u d x p d d H G d H f s G d 0 0 l +...L  .{ { G { [ I G l > 9 r d { I { G G G { ..x u 5 9 d p d i l d c 5 L s p c = c 9 7 p z p r s s f 6 s c x 6 a i 9 7 p s O.G d } I G { G 7 i 4 < d d G p 2 u U s 6 7 l G d p 7 > 0 6 p s r u d 5 2 u d 0 @ < 6 7 7 i 2 6 f f d x f i 0 6 u i > > 7 7 6 K p > r 2 r > > > 7 < > 7 @ = d x 6 9 a 7 @ : 7 4 > 7 6 d d s p d d s p 2 6 > > < u i 6 4 i 6 6 p u u 0 = @ 4 7 6 d G p u 7 u 5 2 > > > > @ > > @ 8 > > 0 > < > @ > > > : % + > > 7 ",
"= = > > > @ % > : % O 1 = > > < @ % @ 4 @ 1 @ > 4 @ > < > > > < > % < @ > @ = > @ 7 7 @ @ < = < > < = 7 < : % < 7 a > > , > < 4 > % @ @ : > > 4 6 7 7 2 6 = 9 0 6 0 < 7 4 i 6 @ 9 7 > 7 z 4 > < % > 0 7 4 6 7 7 7 u 0 = % 4 0 < 0 4 > a 6 7 : < < > q q 4 i 0 > l a > 7 f i 7 d u @ > u f 2 i = < 7 0 u p K p @ f u i i p p 6 5 7 d p u l > > l 0 0 9 2 6 r r u p c > p z u c 0 d d x r a 2 0 6 p 6 i 7 6 c r - s d d r 2 2 l b 4 l f d u > p z u l 5 l z i i 4 l x u 7 p l u p u i l p d p c i d G d = p u 7 6 p u d d x H x < u p u s x 6 r s r x s r K u p d 5 d d r c p 6 u d l p i s s d t s = r r p d 6 u p > u p i 6 c c 5 x x 2 7 - f p i 2 u K r u p 9 s x d 6 0 u u 7 l l 2 2 6 l u p 0 i > > > b i < 9 6 r 2 2 6 p > @ 2 6 2 > i l p 7 l l > = a 7 0 6 p d 4 9 9 a > i d p > < 4 6 0 i > @ > d 2 4 z 7 4 < 7 0 : > = < 9 7 6 i 0 7 > 4 6 7 9 7 > @ < : 7 0 < < = 7 7 > < : % @ 4 i > u 0 7 r i : = > = - 6 = > = > 9 > > 4 > = @ > > = > = 2 = i < % > > > @ + + > = @ > + + @ @ % + @ 7 = @ % > @ @ @ % > = > = % @ O = : O ",
"> > a > 4 > > = > @ % : @ 1 @ % % O % > > > @ = < @ : > > = > @ 4 > 4 2 a < = i @ q 9 @ > 7 < > > = = 7 0 > > % = < > + 4 2 2 7 4 6 l > > 6 > > 7 0 7 i 4 @ < < > 0 2 > = 2 7 7 0 0 9 i 2 q < < : 0 i 7 2 7 > i u b 7 > % 7 0 9 < = u x r 0 7 9 i 9 > a = t x = 6 u 6 a a i 6 a a 0 7 6 u < a 7 i 6 a 6 x 6 > u c 6 0 i 7 c p 0 0 p z p u z 9 i 7 4 r f p x 2 0 0 x l u p 2 f p p f p c z > q a r d i 9 7 p f i 4 u 0 9 z c u d 7 p u u p c z > p a l 6 i u 9 l 0 s H l c d 0 p q z l z p p <.u c u : 4 q q < q a M p d c x l d H z p a q 9 0 a p z l i z 6 l l i c p 0 u p p 9 x p K d 6 0 z q l , c p l a z d 0 f K u p 0 0 i i l z a z 7 p G a 9 i J G c 9 < i H 0 l z c 6 u 7 p p u c l d p f 7 z 9 z r 6 z 2 K c > q 9 0 4 q q z 6 a i 2 z = 6 d l 4 9 9 0 i 0 > p l < 4 0 7 f u @ > 9 z 7 < 1 > i p 6 a = 4 > > z 0 = 9 > < 2 > a 2 i 2 7 4 > > % > > % > 9 0 9 > = > 7 = 2 @ @ % 7 4 0 > 7 = 7 7 > > @ 4 9 9 9 > < < < > 7 > > @ > : % < > > , 1 : = = > > > > O * % 9 > % 7 > % * : % % > > < @ % @ : @ @ @ % @ = @ > @ > @ + # ",
"4 > @ > : > > 7 = > 9 @ @ @ @ + = > 2 7 6 > 6 6 : > @ > = > z = 6 6 f i > p 6 > < = > : 6 6 > 0 q 6 0 6 6 2 7 0 = % < 2 r I } Z H L +.G x H p i < > 9 p p 6 l 6 = > f H 5 6 l p < 9 6 u = 7 i 0 2 p u p 0 = > z 7 7 > d 6 G s x 0 2 u 6 2 0 a 2 7 c r s I Z G d G L G 4 = p d u 0 H d d 0 = > c c d d 2 0 7 a c p K x 6 p > < 7 : a 0 f 0 6 9 2 p p s f s d 6 p f i 6 x d 6 2 5 u f p 6 r i < c p 6 0 l p z = 9 i a p i z 6 7 x H f 5 6 0 c 7 > r 0 2 c r 5 z z 0 Z s d s r d x s p 6 p d s f 7 a N f c H u d r 0 i u x p u x G G r i 7 u p p i i 9 < 6 i d c l r < p l 2 6 x d i u d r c 9 > a 9 > s s 5 9 p x p p r 6 c x 6 i i 0 p p 6 p H p p 0 l s - 2 < i > 7 M p f 6 i p 2 l p p s s f c l u l 2 u u 2 c 6 p 2 7 2 c 0 > 6 9 a 6 p x p 0 6 d r u a a 2 r p @ 7 u u 7 2 i l 5 u 9 4 7 7 > 4 4 9 6 6 6 7 6 p l x u u p p i > > 7 > > q = 2 = u 0 > u l 2 p 5 % @ 4 4 7 r f r 0 0 5 r d x 2 @ > % @ > 7 0 4 > < @ > 4 > % @ 4 9 = > > i : + @ > @ + % % > > > 9 = = > @ > + @ > < + @ > @ % > @ = > < @ @ % > O @ < : @ @ O > @ O @ ",
"2 : 4 = 4 4 2 6 2 9 @ > q @ @ 7 5 u > 0 6 > 4 6 6 < > 4 > > r 2 u 6 l 2 > d u u 7 @ @ < i 2 u p 2 f l p f f 0 z i > > u L { { { { S I Z L } s p > > 0 K p f 5 c u f p H d p 7 6 9 < i c x d d G x x d d f 9 i 6 7 > H { L L Z I G +.G p i - 4 2 6 I L { &.L &.&.+. .+.p 7 u 7 6 r d I d p l d d r L x u 9 < z x 2 H G x U p c 0 6 l u p u i p G } +.#.I w.+.I L G 7 6 b p G U ^ U L J I I I G u i a p d d p K s d s d Z 5 c p l d s 0 H s L d K G K p x G 5 > l u U 6.l.7.r.w.0.7.j.v.$.Z p 6 K a d G G { G G U G u G s x l p G U G H d H G G G p l 7 p d r f G U 9 x J s G U Z r u i u f r d d Z } { $.+.H Z { d u i 6 d L J p d J G x d x H r x p > f U K p l c p u d d d 6 6 9 6 u } } s c U d G G x 5 6 i 2 p f f d G d s u c s 6 l 0 0 p 2 U P p p s u r d U i 6 d p p 6 r J p z x p u p x d p 6 6 < 9 = K d d d p G G G G p i r 7 9 > 6 d d G d G x x P d d 9 @ : 6 p U P S } L I L L G p O 4 @ @ 7 i s d p 6 5 5 6 @ > 4 = > > = 4 > 2 4 7 > > @ @ % > 4 : 6 < 5 r 2 = 0 = 7 < > @ @ > % % 9 7 7 0 + @ > = > @ % @ $ O O % @ @ @ ",
"u 9 6 = u 6 = = 9 7 > 4 @ 9 4 i p > = 2 7 2 i p u 2 > > = a p s s 6 x p 7 u 5 a 7 9 q = > 2 f p r 6 2 = = d d r = 6 > - L S { S I s Z J Z L p 2 = = a s s p u x p G s f p G 6 7 > 9 i u u G G d G G p p G > < > z 2 U { [ { L G L { { d d 5 a + 2 { #.{ G { { I #.5.&.} r 7 0 6 H x 5 Z =.G I G G { I 6 7 i z - f u d I G d x U P d l 6 i p c w.p.0.0.9.9.6.{ #.G 0 z 9 = Z O.O.5. .w.&.{ 0.&.s 9 c 0 d x P +.U P d U K G +.G p 6 p K G d P +.L L L U G I J r f p { 9.0.9.B.9.q.w.5.C.5.Z c z u 5 x +.G I +.L } I P ~ d s i c x G G G P L G E +.P J d G d u K I { U L { { +.{ L { 0 < a s &.0.5.0.6.#.6.#.#...L d c K z 2 G O.s P P L #.{ G 2 7 u u 0 d G U J x U I U P ^ K 0 9 6 u G +.I G G I L I I c d p z < p G d d G Z x G J G d 6 i 4 > f x = c E G d G d x G G l 4 p c d G G x G I J x P L L G p 9 > - } Z G d G P d p G L x 5 = a > p $.L L } I P G G G L 6 7 < = d } L { L G { I I Z d i @ 4 0 d f c d x p x l r 2 9 u 4 > 4 f s p u i p u u 9 4 @ = i > 6 0 p 5 p 2 i u p 7 O O + : > @ < 7 < > i 4 2 r 2 7 = @ @ > > @ @ @ > ",
"6 > 0 p u 6 2 4 0 @ 9 9 @ 4 = = = 7 p 6 2 7 6 6 p 2 > % % 6 u s p 0 2 i 2 0 5 2 = = > 7 0 a p 5 f 4 > q 2 d u l 2 6 r c G G I G p U G f P L G 6 q = 0 x G d f f f d d l p d H 7 : > 7 d l d x d x H r Z K 6 > @ 7 2 I } { P G G L #.I G U p z + 5 &.2.+.d { I L { 7.5.O.x 0 4 5 U d p d d G G x G L I u i 2 i l G K r J I G s d $.I x p 6 7 L p.5.#.[ 5.0.{ { 9.{ x i 7 p P #. .[  .6.{  . .w.+.= p r x G Z Z Z G I L d d s s G f u d I G d L +.I L { x G ~ c z c 5.q.A.N.2.q.9.N.9.5.A.8.6 4 p i { { d E G I } { L J l c x c d p +.I P p d l G L { d H p d I I { } Z } L L S { #.r q a t 6. .q.A.[ { #.[ #.8.+.s p i i c U L x G P P I G E r x u 0 c ) G Z x Z L L I d d G p > 6 K x L d L L L { Z d L d s l 4 = x x G G s U d x P +.2 : > 2 d f 2 x d d G d r p L G 6 > 2 u d G d Z G Z G G P Z L I r 9 > 6 L P G d G p G x d Z d d 6 % > p L d d d Z d G G Z L r p 9 > d I [ L { { Z L L L H d % = u G r x d r d G u 6 d G 4 4 @ @ p d u u - r p p 7 > 9 < @ > u i i > p u 2 p r 0 : : @ + 4 u 2 6 6 > 6 = 5 p 5 p > @ O @ > = @ > 7 ",
"2 = 2 2 0 4 i 7 6 < O 4 > < 7 9 7 2 6 2 6 q 6 u p 2 + % > 2 6 p 6 7 7 = 6 p u 9 9 = > % > r p r p i i 6 r s - a > + < d L L G U G U Z G I { P < < 4 r P L p u 6 x i 5 l G x s i 9 0 d f H p u 5 r > l d x l 9 0 6 r U U L O.L L G s x J K > 4 9 J +.{ #.L #.{ L L { #.L G p 0 p p L >.} G G J d x G } d c u > l d P d G L s +.G G I G d a > { A./.B.7.#.7.l. .#.5.U u p x { { { I  .#.{ 0.9.7.$.2 u f c ^ G d d d L } d H G L K i l 6 d { { } I d L I u d U r 7 > 5.A.A.5.9.D.V.p.l.k.p.{ p z p f G L I G d x $.L I } u - H 2 G L { } U P +.L +.I o.t 6 u K L I L J +.{ I O.G X.L p 9 > l 6.{ #.#.#. .#.{ &.+.I P p r 6 ) I s I I L G d d +.p a p 6 x G L L d G L L Z G G G u 9 7 f L L L L I L I d G { G u p 9 i d G G d d d d G d G p 6 z x G G d G p u d c f x G G 0 2 c r s Z I L Z K L s G G I L d 7 7 6 U d d x d G d H x 5 x f 9 > 7 r I L I p G L d d G G p > = 7 d X.} [ G G x G S L x 6 @ 6 2 d r r d s r G d 6 s u 7 = + 6 r p 5 r i > 2 6 7 > @ > > > p d > 5 u 6 6 6 p u 7 , > @ 4 4 p 6 > > 2 > > > 2 6 > > % @ > > 7 < = ",
"7 < 4 9 2 6 s > r > @ % @ @ > 7 f 7 6 r > > 6 p 2 < @ % > > 7 > 2 r c : 2 p 2 = i 4 4 > 2 f s c s d p r x d 2 0 > * + s ..Z d L L [ { X.G L I 2 : 7 5 S G P p u G q a p d l x d 7 r x d d d i p u u f d Z s d 6 2 6 L L G S { L A K f d G @ : 7 d I { .. .0.5.L I { } O.p > = i f L L S x p x G I Z P s 6 0 i s l Z L G x r x U G G G > z 5 { B.i.9.9. .#.0.7.#. .d 6 c u L $.L O.y.#.5.#.q.k.O.s u p d d U G H G I G L I G H c s 0 a x I L { P G G U J c p u g @ N.9.0.7.7.2.9.7.#.#.B.[ d z < H +.#.{ { U G L S  .+.p < T p G #.+.d G #.0.L Z I G l 4 9 x { $.+.p I L G J P P I G p 0 p U S { { #. .{ 6.%.Z +.I J H r d x x Z x S L K P { s 2 K u s x I L +.G d K x G U d i 0 2 6 H } I G G G x v I L G 6 q i 5 H G r c d H d Z d H l 6 x d Z S { G p z d d d L L G r p z 5 i G L x d G d G s G x Z r a 7 5 G Z Z d x d r s s > p r 6 7 > u I L G d d G H p G s 0 9 : 6 d } { [ L Z G Z $.{ x , > 0 > c 9 = x d c u u p d 5 a 4 2 z 6 a p u > = i - u 9 @ @ @ > d p r l u p 7 7 u s = = % @ 0 6 p 6 6 9 2 4 9 9 > 7 > > @ % @ @ < > @ ",
"> = 6 > 6 u u 2 7 q % : < > : 7 d > > < 4 < > 9 u > O > 4 7 i 5 r u = 2 7 5 l 6 7 > < = p f f 0 : 5 p p r p p 0 % q = Z { G G d x Z Z G d L x > 9 7 6 x p 6 x G s s 4 6 x d d 6 q 7 7 > i i s U s 4 x s r z 7 5 < 7 o.{ { { [ [ L { L { } s i @ f 8. .[ $.L #.5.O.#.5.#.d d p 6 l x r P I d +.L I G d G G p r G U d d H G H Z L S L I 0 8 i L ). . .2.5.5.9.5.7.0.f 7 8 p { #.L 6.#.#.5.9.5.9.#.G p 0 d } } { { L { d H x d I J H d G #.{ Z P x { G I I { d f f @ 4.C.A.k.N.A.9.9.9.N.q.L p q a c 5.L L &.L +.L L L L d H H x x H L d ^ L G J c G } G 5 l d O.#.{ U G { { L G  .v.L f a p e. .0.#.} { 5.w.5.5. .Z x > 2 G G G G p x K H 6 P H d f z x U Z Z U L d d I L U K = i p J L L L G L s L G d P d 7 4 8 u G d s G G G A x x U H 4 > 0 s L Z d G K s f d d G P d 7 > 6 x I L L L d d I Z I L L = < : 5 G L u u d G u p G G l = 6 2 : d I L d L { { L Z [ { r > : > x {  .L G L G L L I d 5 : 4 = p p 6 p r G d 6 f I G 6 $ % 9 = p f 5 2 = 7 r p 6 > @ @ 2 p 5 6 u 6 2 6 6 i u > > @ = 6 7 > 2 2 7 > = i 9 < < > @ % O > 7 > < > ",
"7 < 9 u 7 6 p 4 7 9 @ > = @ 9 7 6 > 0 > > 9 7 2 0 4 > i = 2 2 i p u 2 2 u p 0 z 7 > 9 > 6 u 0 7 0 2 z u r 0 2 d 9 8 = G L G I G x I I J G G x d 2 4 7 f d d u x l d u u x p c d 6 6 d 6 r c u s p r c x l u = c 7 6 P G { { { O.P L L { $.6 0 > l O.{ { +.I O.&.L { 0.$.G > i u l x d L G G x L { x U d d z 6 U G c d d G L G G I { U p i > I H.7.{ J.l.w.7.#.l. .s p z 6 +.{ O.#.{ +. .6.{ 5.J.d i 6 p U I L { +.U d x G Z J K i d K { I G G I =.H r d { x l 7 q i.A.7.5.q.9.0.v.{ 5.A.7.s z l z { ^ I G I +.Z ~ G } G H d s U { L U G G { L p d } G d 0 f } L L +.G L { U +.#.O.p a 7 I { #.5.#.O.{ L I } [ q.+.p c p d G d U =.d f d x G d K 6 u d +.L d K G I H } +.G G 0 0 r f G x P { I G } l d J d r z 7 7 E x r p d x d G d d d u 6 u H G d x x p s x s s u d K 5 a 7 A I G U P L P d x I G G 0 = < p U G x r p d d d G H f > r p 4 6 G Z s U L G U I L U r 6 q = x } L A P L L { I L x = @ > = H d d p r d x p 6 d H 5 > > 7 6 r 7 4 r 0 p i 2 4 > > @ < 9 i 0 7 6 4 i 0 r 6 7 @ O % i 0 = 6 u : @ 4 = = = > > @ @ @ > > 7 > O ",
"6 > > i u r u 6 > i @ = 8 = 2 6 > : 9 > 0 u 7 = 2 > @ 9 p 6 9 6 > 5 p 5 i 7 > 6 6 % $ @ p i 0 p p 6 6 r a 0 p p 4 4 @ r G +.{ G p I L G d L I p 7 < > G d d f d d x p d s c 0 = 2 u p x r u l p c P s u f f u 7 2 d O.{ I L I { G +.L  .{ 2 9 6 f {  .G +.U G {  .I O.{ d 6 0 - G G P I d G G G d d I d p a 4 x d 0 l d L G d p H L p 6 c 6 I v. .L 8.{ { l. .w.5.s x 0 0 I #.#.#.{ I L &.S #.$.r 0 f x L L J d x r I U +.s K x 6 7 d J { G U I u c U #.I x x z : 9.q.w.#.q.5.l.O.O.#.q.w.t 0 K J d U G H +.G U I G d 6 p H G G 5.x { { Z I L { I +.L p p d d x I d G I &.G s U x 2 i T d #.5.8.6.5.5.{ O.&.0.6.x u p d x x G s G G d L G H l p 7 > d G L G G x { K Z L I d f i 2 d U d s } { d G 5 G Z U u 0 i u d l 0 d d x s U K G f p p 5 G d r d L L d d d x l G d d i 2 d L r d Z L d x L G Z L u 7 0 r f c G l d s x x t f Z d p 2 > p x L G } c d G L d x 0 = 7 d U I L I P L Z G L { J d > > @ p G d c d u f 6 d r 6 > 7 = u s 5 0 p p 7 2 6 0 9 > % > : > 7 u = 2 9 6 6 0 u 7 @ @ = 7 6 > 2 5 > > 7 - > 2 7 > @ @ @ % O > = @ ",
"7 9 > 0 6 6 r 6 7 a < = = + > 0 > = > 0 > > 4 = i : @ = 6 = i i 6 0 6 p 6 > > r 0 % @ < 0 5 p f 6 7 0 7 6 u d p = a > 4 P L L L L L G L G I G - : q 0 d d s G x u G G G Z r u z i 4 p s H u d i s d f 6 r d r < 7 6 U { { L I {  .{ L { { 2 > a x {  .5.#.L S #.#.[ #.6.d p i 6 f d L G G x x G x G } G u > > c ) s Z U G x d G L P K H l 6 I 5.l. .#.q. .N.9.9.a.U 2 : c { 0.5.0.[ #.8.#.5.l.0.r u c K L G J G d G I I S I U G u 7 d } I Z I { G G { { d P d 6 > q.A.9.A.N.9.5.7.#.0.9.7.U c p I I L I U L G L I { U p i d G I { d G 8.L p P O.{ L G 5 c z s L { U L P I ..I G P d i 4 r 8.5.5.{ q.l.{ G { { { s d x d U s I } L Z G I G x p 6 7 4 d L P G L x L I Z L } G 2 i M x G Z G I G G A x G L U 2 9 p H r G x d d d G G d d r i u u p G l 6 d G s r H d s d u l u 2 d P s G I G s d I { L L 2 6 > 2 s 5 G d r x G d r G U p 6 9 @ 0 G L L I x d G L d L 7 > 2 2 G { {  .I I L { L L I p @ > > r d G d s 6 6 r p d x < 6 : 6 f i 7 6 2 7 2 5 6 2 < < @ > 6 5 c 6 7 = 6 0 7 0 2 > > @ = r > 7 = > > = 0 9 9 6 < @ % @ = = < @ % ",
"2 p p 9 7 7 r p 6 > @ > @ @ % 4 4 p p i = : q 2 4 > < > > = > i p 7 7 7 2 = > u i 4 : : > p p p r d H d 6 u l 6 p 7 > = d L G L L G H H G L G = : 0 0 p s I G 5 z s r d d G s 7 = < l p s x u x 5 6 x K G p i c i > G +.{ { {  .5.#.[ { +.4 > > d $.2.0. .| 9. .{ 5.0.G 2 d 6 = l d P G x G d I G { } u 6 0 p K f } L d d H d G L H d u 9 6 L 0.p.i.a.Z.Z.#.p.N.A.p p a 6 v.0.9.9.p.5.5.9.2.0.A.Z K c z 2 P I O.I P L G } L I E d l H G } { L I #.{ { I } Z x s % q.D.Z.A.u.Z.9.Z.9.A.p.#.d 9 > +.0.#.{ G G I I { { } c 7 7 l G L K P +.I G G G G d d d d 0 =.+. .{ { { #.{ } L L G 0 @ 4 $.q.5.{  .#. .#.[ { &.s d K 7 d G L P d L L +.G G U u l a 7 G Z P U t L #.{ I P G r p 0 p x L L G G I d P U J G 6 q p U G I s s d d G L H x i z p 6 d s G G s d d s d f s P 2 0 0 H x P G L I G L L G ..L H 7 7 9 2 G d G U d x p L L L z 2 7 9 > 0 P L L I L S } { [ { i 6 q > G  . . .L L L G { L P 2 7 7 4 z x s Z G d i l d d l > > O @ 5 u u 7 i > 6 s p r > > @ = d H d s i r u 5 2 u 7 0 @ > > t > 7 7 7 2 7 7 = 2 = > @ @ @ > 5 % 7 @ ",
"> 6 = = 2 > : > : + : > > < @ = 4 2 r 7 > > > 0 = : < @ @ 9 < > 7 9 7 2 = 9 < 4 = > 7 > 7 d f 6 5 r 6 p p p u = i 7 4 > 6 x p x G 5 d x d d p a < 7 4 r p U G 6 d u z p 5 b 2 6 i 9 2 l p f 0 l f z d u s u 0 > 6 l H O.I L +.{ } { #.L G > m 4 2 I 8.$...w.w.#.{ 9.$.d 5 0 u < p H d G u K Z d P I Z r 6 d p u t } I d s U x s L c d s c 4 U l. .N.^..XL.#.7.#. .0 c b = I { { 6.v.q.q.Z.9.l.0.d c 7 l i I { I G G s G I G G x H r d G d ~ +.P #.$.I U G K c z 8 %.6.B.C.p.p.F.9.].9.l.I 2 T u G #.8.+.d G +.$.G G r G x l p H s d P s G I U I +.H G K u u G { { L +.{ L G G } } p l > p } #.7.w.8. .%.&.&.8.r.d x u 6 l E d G G G G P L d G G x p 0 J } G x d P G L G f 2 p z 0 p U I { { L I d s =.H 2 p p i d L P G G G G d r x d 6 2 u c u f d G d p H H p x L U 6 i p 6 6 s L L I G L L L G x 0 7 a 2 u K x s G p G d r K x > < 0 0 6 l G s G I +.P G I U L 5 7 = 6 d } #.{ { { I P L L p = 0 > > > l c s p f p i p p f 7 , o > l 6 9 6 p 4 5 d u 5 > > > a u 6 0 u r p p > 6 p 4 @ @ > 2 7 @ = q 5 i > > = 0 6 > @ @ @ + u @ 4 8 ",
"> < = : : % + O % % @ @ @ > > 9 @ % @ @ > < @ > < : > > > > = > % : > = 7 4 + 9 : > 0 9 = > @ : 7 > 9 = > 7 i q > < 6 2 i 4 7 = > = 6 9 < > 0 0 9 2 6 p f 2 0 9 z 4 4 i > q > u l > > z u f 7 > d d p > 6 i 6 9 > p x p u p G d = r l p d 2 2 l 5 2 p d d d G d x P d i H c 0 0 p H 6 f p K d p d d i q 0 d d 6 b d f x d G K f p c G c d 7 c G { { #.#.x x K d L a i u c u G K I H L L #.{ L K d x d l p 2 p i 7 z u H H s f 6 c u p G c d x H d 0 p K H d 0 a H s d I &.#.O.I I O.{ U d d x f x G x K K U s u d l 6 G x r i c x K K u c d G G p p x u z d d x ^ d L c d +.I H f p x x p L G x P I P G U d G G x d d p K 7 5 x p d H p f p u c c z 0 x U p i 6 7 < z 6 u p p 7 > p x p f r d p 0 p d d p d p 0 7 p p 7 l d s r p z f p s r p p i 2 p l d p H P d G u 6 7 p 6 f H d r d p x x c = 9 6 z 5 6 0 = u u f 6 6 4 - u 2 > > 0 2 5 l 7 > p u t d 2 > a 6 < 2 > 9 r p p c p d G G u 6 p a 7 4 @ > > > u 6 d 6 > > q 2 = 4 : 4 a > 7 6 u 7 7 0 > > = > > @ 9 : 6 > 6 i > 7 7 9 @ % > > > : > 6 4 9 9 + > a 0 > < @ @ % @ @ @ @ > ",
": @ % = : > = @ @ @ > > % + @ < > % > @ < > > % : > = > > > : > + % : 9 7 > + : @ < < 9 = > O > : > : , @ > > < 9 > 7 0 i = : < 9 q < > 4 > > 7 7 9 6 0 2 % < 9 7 = 4 7 = = q 7 z 9 4 i 0 6 0 = 4 > a 4 i i 6 a > a 9 > : 9 2 9 > > 4 2 a z x 6 a i 7 9 < < i 6 i @ o p u p i i d u i p 6 p 6 u a u 0 z i u f 4 6 2 f l G H 6 i 0 0 f c u l 6 f 7 7 2 = = q 6 0 f t p d z 2 z p 6 0 6 6 K G d u : l d d U 4 q 9 : l H u p 6 p K < l p f d c 0 i i 7 7 c d 5 c z i c l f - d x 6 c u u f 0 H d d s p 6 u d f 2 T l l c G G s f p l 0 i z 0 l l p p r H d c z p l 6 f p c 5 x G d 7 0 c ) d d E 0 r d u < p 5 p H x c d d l 0 i l c r p 9 < i z 7 0 a 7 u u l p i 0 % 0 p c c r 0 a - p p 6 9 f 7 a x 0 p d p p 7 q l l 7 4 7 d i 7 5 i p K f r 0 6 a z p u 2 i d > r 0 l i p p z 2 7 7 6 6 9 7 > 2 i 9 a 2 u i 7 a > 2 > 9 4 : 9 0 2 > i 2 i = > : < = > a > : > > > 7 7 6 4 7 > % : @ u > @ < : > 0 7 4 > @ : 7 > 7 7 > % > > < 4 7 > = > > > 7 > = = > 4 > = > O > > > > > 4 > 9 < @ % @ > > @ @ > = 7 > @ @ @ < @ @ < > @ > % O * @ @ ",
"< = 4 = 4 > @ 2 + @ > = > < @ @ 4 > > = > @ @ 7 @ 7 > > = @ : > < % > > > : > 2 < > @ 6 5 > > > > @ > 7 @ : 7 9 = 0 4 > : @ @ > = 9 > > 2 0 @ 9 p 7 < i 9 > 9 i 9 0 i r u 7 c i 9 7 7 0 = < > 4 f 0 a = 9 p u 4 7 i < % > i 2 > i < p 7 > 9 > 2 p 0 7 p 7 p p l l p c U p 7 l z 6 l p i p u i i 4 z 5 f d a 9 0 b a c K c u 0 q , p l p p d c 7 c u c 0 a z c l c x G d c 0 d G d i T H d 0 i z i d u x d z c d H p c Y z d r K ^ U H p c z d c z < G G d a i K s l d K ! d K b z b 7 G x x c l l u T 9 M M 6 p 6 u ) d G p d p z 0 z M q z p a T K d s P K 0 l 0 u H H p i u l p l d d l d K = T c i c u z z a c p J d p c H d a d d c l q z 9 i 6 c u p l u 9 q K p a H z p p u u 0 z 7 : c > c > < i p 0 i c 0 0 0 9 > 9 9 7 0 9 9 u u l 0 0 > l d r i i 7 4 p x f i l s z i z 2 a 2 0 i u 0 f < 9 6 7 9 9 > 7 4 7 : q 4 9 9 9 l 7 6 2 2 9 > 9 l 9 4 > 9 < > 0 0 > < < > > < > > q 7 9 p 0 @ > r 0 : : 9 > + < z % 0 9 % @ : < > : @ 9 9 > 4 < : @ < @ > > > < < > < > % % @ % > % @ @ @ > > < $ @ > = @ > : % @ % < @ @ % O = @ O @ ",
"7 = 6 0 4 2 4 i : > : + @ 0 > % a r = 2 7 q 4 6 : > @ > > : > > 7 < 6 < < > > u 0 > < 7 > i > p u @ 9 7 p @ 2 r 4 > 9 > 6 0 p s u d K x s r 9 < 0 > 9 0 z 9 0 6 > 6 = x f = 9 i 6 6 9 l 6 a u p d p 5 i > 0 i z z 2 9 0 6 x H 2 p p p i > 9 i 6 p c u P p 6 r r u P G d u x l 0 6 p p 6 d d x > 7 G u l p 6 u r G r f p u u f d 2 i p l d 7 c l u d c p 6 u s p d p x x l u u U s r p G G r u u z G d d K d G G G 2 0 u p P G x G J d d p x x K d p U L p K 6 x K d d G x 2 d c u G s ) G s x K 2 7 d s G G t K p r p K f d d G G d 5 2 5 d d 5 0 p f U H p p x x x d s G l u c u l d c ) J d f r x G d x c p 6 E u J ^ d 7 d G d L G Z H > = c K r i u c p 6 f 0 0 d 6 7 d H K d 0 z d r u 6 f s r p 0 p a u p = 2 6 x d d d 2 p 7 > p l i p l @ u d 6 l i i 9 u u u 6 u 6 4 6 7 p > = 0 l p 6 r 9 9 z p 0 0 u i i 6 @ 7 u > > 6 u u c 7 > 7 4 i = 2 > 6 f 7 6 0 z 5 4 > = 7 > = = 9 9 6 u 0 = : 7 > > > i 7 = < > = > = > 7 > < 4 = > @ > @ > > @ @ @ > > 9 > > < @ > > = @ > @ @ @ > : @ @ 9 < o @ < @ + % @ : @ > @ + = @ % @ % + > ",
"u p u 7 6 6 p < 7 % @ > > = 7 f p L G A x U L d I i @ > 7 6 c p r c r z 7 7 z p 2 u 2 @ 7 K { {  .+.{ +.+.{ { d 4 : < d {  .l.0.$.5.6.7.7.{ s 7 > < 2 2 p x r s H d f U x d - > i > 6 x { { G +.S L I +.I p 6 4 a 6 G I L P G I G d p x c > c 7 = d I G x L P L G Z G u z l u i p u d L { P G d d J P r i l f p L #.8.G O.#.8.&.{ I p d b l r U G c 5 L G G s G G 6 l 6 6 U G G G } x G L Z I U u d x u P U G d G G x U s d ! G 6 r c I L ~ G I G U L I G d H p l d U U L +.I L U U +.s x K x l P *.8.8.5.N.7.H.5.I G s H c d G 5.A.k.5. .8.7.5.{ s r K x p G I U Z P I { G +.L U x K l p d P &.G 5.8.6.{ L L L Z p 7 f d Z L I L L &.L L $.G p r i l G G +.+.G I c G L G G u 2 u z r +.#.#.{ { L [ 6.d d 0 z 2 r { p.#.#.r.#.{ { 8.+.0 9 p 5 7 l x x 5 H d s H r 6 0 f x > = 0 p c c -.x d K H d d s = p 7 u p r K G G G P s p u 5 6 0 < < 6 d I U p d G U p u = @ < i r 5 d L G d G s s G x 2 = 0 7 > 7 d L G s x I d s d u = > > = = p 6 p 6 6 2 < > 7 = > > = 6 i 7 2 0 p 7 = = > @ + = > > > > @ + + + > = @ @ @ @ O + % > o > > > ",
"6 6 2 > @ p u 7 7 7 = 1 @ @ u G t d G d L Z d d L u @ i 7 2 u 5 p u 6 2 6 p 6 6 > 4 7 @ u { { [ | { [ { F [ 6.} = % > Z 0.2.9.9.2.5.5. .9.B.I > : 7 d K d s p G P P p G d d K > 4 4 p I [ L G L +.G { #.{ d u 7 6 p L L { L G U G I { L G 7 p z 6 d G G G I L +...L +.d 6 > p i 6 G +.I { S P +.P Z L u a a d $.#.5. .#.5. .A.0.7.G.Z 2 i p x L L G I &.0.{ I $.5.= c l l =.L +.O.$.I U +.I { } x x l u p +.+.I L U +.{ { x p ) z 0 i $.$.L d L I { G x L P d p 2 G { I I { $.#.#.L O.U x x U = ..C.{ Z./.q.9.q.q.N.v.d z K r #..X).`..X].N.`.|.&XJ.d l p s P I L { +.I { I $.[ } p u d p $.#.q.8.q.5.5.7.0. .w.G p c 2 r.F.7.#.#.q.7. .7.0.#.G f > x +.G L I G &.P G { O.G i u u x J 0.{ [ 5.5.q.#.w.r.L x l < I 9./.Z.0.0. .i.9.a.0.> 4 H d s G G G u x U s L H H x 0 x q 7 G U d L G s d d G d d d u z u G L I L L } L I +.d G G u < < 2 s P S L I } d G d U c 7 > 4 s L &.$.L } L d } L I H 2 0 > 2 P } { { G L L G } { G = @ @ 4 p x p 6 l c u u 7 > = > 4 4 6 6 7 0 2 2 6 u f 7 @ : % % > 4 = 6 9 > > < 9 = : @ % % @ % + @ 7 = 7 ",
"i 7 7 f p 2 > > p x 6 % o < 4 Z G s d r P d d I U u + 4 > 7 i p x = i f u x u p 2 > > > E G L { G G { [ O.{ [ +.6 : 0 L 9. . .#.5.9.5.#.| q.+.- q i d U Z G I d I s f d G x r 0 2 r U I L L { L d G G { L G 6 c i p d G P U d G d { L { L 6 i p l d d G x L Z G { } L } x < > 6 s I L d G I L s P G d G 6 > 6 {  .9.q.9.9.5.5.5.u.5.{ K u 0 =.I L L I G { P I { { d f 7 p G L I G L L x U U d P r U x H G L L G G G L L I G x c d i U I G L G U I I { I +.U 2 0 4 O.$.{ G L +.S L [ { L ~ H d d B.9.5.q.0.5.#.q.N.q. .d i a p P.(.Z.9.Z.k.i.9.9.q.T.Z r b d G { Z L U G p L { L d G G d G r.[  .5. .{  .0.{ 5.q...2 z p { 0.{ #.0.B. .q.9.9.O.f p u d $.G { L x d I G L { d 5 T 2 d I  .[  .{ L 8.L {  .{ c > > G 9.Z.5.#.w.| 5.i.Z.A.s u x d G d d Z d d L G d d G +.u @ > c s U G G d L d p G s L d r 4 > p { I d G Z s P s d G U d 7 a i s { { S } d Z { G G G x @ > 6 { { L G +.G G L S Z U 5 @ = s P L { L S } d G L [ P > O < > > p r 5 u u 6 6 2 p 7 > @ a 7 0 2 > : = 2 6 5 i > > > @ : > > 7 4 > @ = = > = = > = @ : @ 7 > : < ",
"s > u p u > > 4 u f = = % @ r U d s d p s s d G x l > < > 0 r 0 t 4 u p f f u x 4 % % 2 I S G L p p I I O.I I I p > 7 d 5.{ #.{ 5.{ I  .B.q.{ 6 q l r I Z A G s I x P G d G 5 6 c p I I I G G +.G x G I { H - p x u K K r s s L d Z { { L 6 4 7 2 G G G G I +.L L [ { U r 4 > 6 G +.G x K L x d d x I L c 4 u #.5.5.B.9.5.w.#.0.B.0.{ d l u G I #.I { P I { I +.L G G 2 c I +.L G G G d G G d ^ u s f 5 J +.d G +.J G I I { } i G d G } I U G L I U L I I s 9 i 6 O.L { I >.G G +.&.8.{ x l d G l.k.H.{ I j.6.q.0.A.q.L c z p 9.;Xk.5.N.A.7.7.B.7.D.L p c d L L ^ L +.L U P L +.G G G u d { 7.0.5.$.{ 7.v.&.5.A.#.u l p L p.5.K.7.9.0.5.0.5.+.- d K G +.G L +.P { L I I +.G u p 7 G +.#...#.{ L { I { { { l > u G 0.7.L L #.9.0.0.9.N.U 6 d r } G I L { P d G r d [ { G 2 i s G P L I P L L d x Z G d = 0 > r ..Z G d G G G G G Z x d = 4 7 G .. .L Z U { L G Z G x 0 9 > d &.L U G L U s d I G t : 0 p L I I Z S L p K G L L 4 = > 7 > p u 0 0 6 > 6 u u > @ @ 2 > i 7 4 0 > 6 i 2 p 4 + > % @ u > > 4 > % > @ > @ : > > > @ > > > = @ ",
"u p p u > = > i > 6 > % > 9 6 p Z d H d d G d d A p > > @ a 2 2 6 p p = c 6 r K i % 9 = H } Z L P L H G I I +.U i < 9 G l. .5. .{  .{ O.{ 9.#.7 > < 6 d d H x s d G d d p x > 6 0 2 G P L Z G I K d P I P H 2 a 6 6 U G x I { L G d L I d c > 6 f U L G L L I I L { { I r a u p p G L G x +.d G { G G U p 9 6 } #.5.l.{  . .#.5.3.7.I u l d I L d d L G I U Z L &.L J z d x d { L I I Z } L G ! u d d p +.U L I { G x U I I I p G p s I } G d } { G J O.{ c 6 i i G L I } { O.I L } #.#.G H x r 0.k.{ 8.#.O.w.0... .K.I : z d 7.).N.A.N.Z.V.q.9.N.D.#.d c p +.L G { +.G G } L L } G f x d 8.5. .w.$.{ w.#.#.{ 0.I r K i $.5. .w. .7.#.#.{ { O.x H d d L { d G +.G d L { L G p u d G } 5.[ L &.O.L +.I 6.&.d l 2 O.w.5.5.O.0.0. .5.2.p.} > p s } G G U L P d f l G L Z G 6 6 2 G d d G d G P s H G x x x p 9 u G L G x G G d U G d d p 0 u 2 d { L L I J Z s G G Z u 6 @ 7 G I { G G P L $.G G L r > 9 p } L P L G Z G J G { L = , @ - i u p z i u 7 r d 6 @ : : < 6 6 > > 4 0 7 < 9 6 7 > @ > 4 = 2 7 < = = q > @ : > > < @ O = > @ @ > ",
"7 p i 6 q i > 9 7 : % > > 2 x p d L S Z d L L Z Z d 2 : % 9 > i 9 5 f r a > p s @ = 9 2 H L { { [ L L Z G [ { U < > > G A.i.9.5. .q.0. . .i.7.2 > q 4 d x l p d Z L G p x K 6 < > @ l I L I G L s G L I Z H 0 9 a s G I L L [ +.G d G I d 6 6 0 d I { G I L L d G L L +.d 6 0 p p U Z L d U G I { U I c 4 z f $.#.6.{ #.v.5.#.{ 9.8.L u 6 d =.U G U I O.L { I I #.U r d p K P I L L I L L { #.} c U r s U G L +.L G x U L O.+.d c 9 H 6.{ I L { 8.P U { P H 6 l d } +.+.{ &.&.+.I I #.&.L G l i ..k.5.5.k.9.9.7.7.5.k.{ p 9 p q.N.Z.(.i.}.|.N.Z.Z.%X{ d u x O.L x L I +.+.L I G I x 0 l x v.p.{ 0.#. .9. .#.#.0.P c s u G #.q.9.#.5. .8. .C.5.G G 0 d +.} G G 5.#.=.L { } d p z p s #.w.2. .#.#.#.5. .{ { d T 0 I A.9.9.q.7.5.7. .5.l.^ 2 : p G Z G d s G d G x x d G G p K f Z G f H p x G P I s 9 d x d s 2 l P G G { G L x x H K t i 0 6 H G G L { G G G L I I u > > 0 G #.L ..S S L { { L P u > = r I { { #.L [ L { L L I 6 @ 7 9 f 2 p 6 f 2 2 0 d d % % = > u 0 9 9 2 2 2 @ > > 7 @ @ @ 7 % r 6 : > = > > @ < > = 7 > % % > < > = ",
"> 7 = 2 6 7 6 p 7 = @ > > = 7 G d 0 x x 6 G x s L d = > @ > 6 H 4 p G 5 6 6 f p u 9 @ @ l s I I G J d L p G L L d : @ 2 >.p.q.9...5.{ L 0.7.$.0 z 0 s d d p x s G d c G d P G i > 7 p x L L U I s I I L Z U s > i 6 p d s G G G G L L Z +.r 9 f 6 { L I J G G Z I X.L +.d d p > d I { L I s L { { L +.U - i d {  .9.0.{ 0.9.i.9.{ 9.O.> 2 d >.O.{ { { L G P O.{ L I G x x G d G I { L I P G 6.&.6 < 9 x P U L +.P d d I G L +.p P c d I +.L G #.8.~ l I O.L d 0 p #.#.U G O.$.G P I I #.O.f i p U N.q.[ #.5.5.{ #.0.K.C f a u k.'.i.`.i.9.Z.Z.^.Z.N.L G H d U G x L I G G u I L { I x x d &.#.2.B.9.5.9.p.9.q.#.L d H - L G. .2.9.{ &.+...A.#.x c u x { { G G d s P x G G d f p 5 r I #.L #.{ {  .{ { { +.r 0 = G D.S.9.7.5.9.9.#.5.A.S 0 0 = H d { L d r G L G G I L i 6 i > u U G Z s G P L d G L d 4 < i 6 G G L P G H > p p L G p = > < x { { Z s G x L G G d p % @ : H L I L { #.#.[ L I x @ % % 6 U { G Z U L d l d { O.s @ > > 6 p u 6 r r 2 2 6 6 7 > @ o q 0 p H i > 6 r u 5 > $ @ % 9 s 7 > @ 0 7 = 4 2 = < @ = > @ : 4 7 = @ ",
"7 9 r p 6 6 2 r p 4 @ % @ = p J Z d s d d Z d s G s 4 @ > 7 d d u d u f u d - p i 4 = 2 K U d L d s x L L G L I c 0 l - I #.9.5.{ 5.} L w.i.{ u : < d G s t K d d x p d G f f 0 > 9 H L G L p G G G L I Z U f 0 u d H G G I s G K H L { I 2 7 c p { { L d I } G { +.{ I 5 5 u u p I L d G G I I G Z { J = c p +.B.7.#.O.{ q.9. .#.B.O.u p p G U G L } I { G L L { p d d l G I +.J L I G ^ Z { ,.p l l G U p G L { d P I G I +.K d d G G I x P I L G x G L { G 0 x L &.{ I Z } I J U L &.O.d c d { 8.7.{ &.5.F.l.[ #.F.L c K d 7._.5.D.).q./.C.q.D.@X[ s 0 c +.I U >.L I } ~ G G U G K p G #.0.8.#.#.8.&.0.w.#.8.{ d E r +.l. .#.w. .&.&. .i.&.6 z d G { I P Z G P P P U } G 6 u p d $.G I x.L I [ +.#.{ I 5 9 a G q.q.[ ..6.9.0.I 9.L.I 6 i 2 G G G d I G G x d L G } d 2 u 0 G G } G d L G U G x { Z > 7 a d G G d G x d r x G G d p i > 2 x P G I I I L L G I G u > > 7 L { { G L G { Z G G d < 2 9 r G L I G d G d r G L L 6 % > = p i 7 2 u p 7 7 6 2 2 > @ > i > 7 u > = > 7 7 i > = > : @ 6 4 > = < @ > 7 > < q > @ > @ 4 : @ > = ",
"0 9 2 6 2 p d d 4 @ @ > @ 7 l s Z d t s s d I I Z s 9 @ @ 5 f x s 2 p u p s d d @ = 7 = s G I G d x G G G L L G 4 = p d O.5.9.9.#.#.#.#.2.i.#.> > > i I L G G d d x x s G u 6 u i % l { L L U J G G G L { d u d q s L G x G d x d u J G d f 0 7 l O.L I G I I { P L L I d u 0 z G G +.d G U d d U L I I d i r L #.5.#.{ O.v.[ 2. .#.[ x d > K &.} d L L +.G L 6.I 6 i 5 x I I U I +.O.L I I G K U p d G P U U d G L L d G +.G p l 6 K G L U U P x U G I I d x x c s { #.{ L { G K +.&.{ L d d d Q.O.{ +.8. .q.9.9.5.#.d 6 E G #.;Xq.N.Z.D.p.9.D.Z.).[ l q z >.{ L x 6.#.L } I p K G x G L #.#.{ O.{ ..O.{ #.h.8.7.p b d { 0.0.#.#.7.{  .q.A.{ 5 7 c L I L I P L L { L d G x 6 J x L &.G P { L O...{ &.#.L d c > x k.9.{ O.6.5.5.6. .9.J 2 c r d L d H P { d d G G d I l i c p d L { L L d s J K 6 Z P u 9 > s U G p H u d Z P P s G s d q < p G G x J G d P L G 5 r x 2 - L #.{ G I { x f L { P 2 r 6 - G L Z K s G J G I L P 7 @ 7 7 p 6 2 6 d p 7 7 6 2 > @ = 2 u 6 % 4 0 0 > = > 7 < = = @ + > < = 2 > @ > + > @ % @ @ @ + % O O > + ",
"6 0 u 6 p p p 6 = > % = 8 = = x P s H d J d G Z G i : > = i 6 p d 0 u p d d p i 9 > a i f G G G p G G G G L +.H 2 9 6 d +.5.5.9.w.5.0.q.4.q.{ 9 : : > G G G r G P l s G c p 7 0 p 7 d L S L G S I U x G } G r 6 > G { L G Z G G G H I G d d i 7 r } L L I d Z { { L L U p d 0 0 J G I d d G x G P I I x p i 6 L 6. .#.5.5. .5.9.5.l.{ x p 0 d I I } J G I +.{ S +.p u f f U G G L L { +.S L U H s d p G U U } G I { G d Z L G x x d x x I +.L d x I L L +.L r s p K +.$.{ [ { L x L L L P H x d $.7.8.#.5.5.9.p.B.7.8.J 7 c d #.7XS.q.S.Z.i.Z.S.`.%X{ p 0 r I #.L u I { { I +.G ^ G 6 x G { 7.0.5.#.{ 0.#.5.q. . .G i 2 &.5.5. .5.5. .i.A.w.$.2 z H d +.L L L d I I L I U K u d u s +.#.L #.{ { 0.{ [ { I d c 2 x #.i.q.w.#.9.q.5.9.5.G u K x G I d d G Z d U G J L I d 6 p u x U I G G U I G Z s P G r a < 2 } s d d x d d Z P s b r 2 q @ u O.Z Z G G G I { S K x u 6 x G { [ L L { d s L L P u r 4 i Z L G L I d s I { L I 6 O > 7 s u u u 5 u 7 6 0 = : @ > < u 9 > 7 6 5 > i 2 0 4 7 : > > 7 < 6 2 = @ @ < @ @ @ @ > > % < o > > @ ",
"> > 4 > 4 7 > = : < % > = % 4 0 u r d 5 d H d p z @ @ : : 7 = 7 9 i 9 0 = a : > > 4 2 = 2 d K x l Z J G s c P 5 > 9 i i s $.#.{ +.q.#.l.l.B.s 7 > 4 7 6 r l x U P f d U G p T p > u c d d U I &.L L Z U d x p 6 d f G I { P K U L I } G H 6 9 4 u d I } +.+.G L #.>.+.c r l c u J d H L x U G G +.+.U i < z 0 I +.0.8.#.q.K.q.0.7.K.{ 6 9 0 p { +.{ +.U +.L c.P o.G H p r G G &.{ +.L L I G I U P f 2 u u d I x K J U U $.+.J x H x x U O.I $.$.I I 6.} Z d c d f < b +.{ $.&.+.+.#.5.x.U d H I s #.P.8.B.q.k.8.0.l.#.s z z x { /.Z.S.S.Z.Z.(.rX.Xp.L p f x L L +.U d U $.I I I +.H p u l +.l.B.7.q.A.q.#.z.9.q.O.p ^ z s #.A.i.L.5.w./.9.Z P x H u x c P L +.P =.x G ..+.c 7 p f d U &.5.w.#.O.5.#.#.&.G 5 i K f 8.D.q.9.B.5.0.q.0.8.I = 4 i G L =.d G G G U L +.{ G d 7 0 l 6 s G G d G } d d H x G p 7 4 2 d { P d G G x K Z U i 6 2 2 7 r L L { { s G L I I G a @ i c r U { 5.{ L { { [ } d > = < 9 x { L I L Z d G $.S } x > > = u s s s f 5 6 0 7 > 4 > > : = 7 2 = i 0 6 6 = 6 < @ > @ 4 5 > 2 0 = > > > = > > : @ < = + > > = @ ",
": = @ + @ @ @ , : O 4 4 > > 9 @ @ 6 p > < > = = 0 > % @ > @ > > % > = 4 = > @ @ < = > > > 7 2 2 > 6 r = i > > 5 0 < 7 u p s d p r d s s s d r r > i i 5 < 4 2 x f l 7 d p 6 u p 7 2 d 6 6 s G L G d H p > u p p f u u d d x d s d L Z s 6 u c 7 7 z u u p G x p d d d 0 p d 6 p u r U f d u K s S G u 2 0 l d x Z O.L I { L G Z L L d 6 l c d I Z G G ^ d s x r d u d x x d x I d +.+.U L G I L U l c 9 p U d d G J s d U L G c s u x G G G G L Z P P G G G K u G 9 0 K G L { L G +.$.G d d U J E I { L O.#.#.G Z { L J d H x Z L q.L. .q.B.0.5.0.{ s H x I U L d ,.G x x H J I G d G c 6 ) L [ { L w.#.{ 6.L 6.x d H p p L #.8. .{ { { +.P K s x 6 l x s p G U d c G { L - 7 l d 9 d +.L L L I L { { d G a u c t L { { #.I L L  .Z G l a 0 6 d r d d x H d s x s G G u u p i 6 r p c 7 - d x r p p 6 < z 7 0 r J U G G d u u s x r d a u a i u G I +.d r 5 G H - 7 < > 6 7 2 s L I d G I I G 7 @ < i 7 p G L G G I G d P { L u = O $ i p p f d 2 6 7 > 7 = 2 = > + 9 i 6 i 6 < > 2 a = > @ + = 5 : > > @ 0 7 < > > 9 > @ > + > < @ : > ",
"= > 4 @ > > > > = > > : : = 7 > @ > 4 : @ = 4 4 > 7 > > 4 > 9 > 0 4 4 4 7 7 > > 7 @ < 7 > 4 < 6 > 0 4 = i < i > a 6 6 6 6 7 7 6 > 5 9 > i 0 a > M z 7 0 i 9 = > 6 u > < 7 a 2 p i 6 p > 6 l 5 = : > @ a l 5 u l 5 0 0 c i 0 6 2 2 p 6 u f d u a 6 i i > 4 p d > z 6 x a 7 d f 6 z p 0 p x 7 z x r p f p c p d u p d x G t G K r x 7 p G c f r z f 6 6 d p p > 0 l x 6 J x x f u p K 7 u p G s d 6 d x d c U x p G d I H d u G P H H x u x G p 6 K d d d H G p u x x G u U U s P x r c z p x G d U G d 5 p G U 6 x d b x d I G x K x x s x L u 2 p x r x x x G K 0 x d p G d x K f u K K r K d G f u 6 H d x x d u c p d H p c p s p p d d c 6 s f 0 f J G K u u s u u d p s d c 0 0 d d s J u x 0 > f r i i u 0 x l 6 u f u d 6 l r u u u G d i H u p x d r p 6 i x 6 p x x d r T 6 i p u a = 4 u d d 2 i p u i > r d f u u p r p x p 2 u 2 a < 6 2 5 p p 7 > > < = 6 0 > i = 6 7 > 7 - r p < > 7 0 = < 6 2 5 9 2 b 6 7 t i > @ q @ > 4 = > = > @ > 7 9 > = 9 > > > 7 > > > > > < = > + % % > 4 + @ > @ @ @ = = @ : @ = > @ O @ > @ > % ",
"> 7 = > @ = 9 > @ > > % @ @ 4 4 % > = > % 4 > = 2 < > > % > = > > @ > > 7 9 2 4 7 @ 9 9 > < : < > > > 7 4 7 p : > 9 r 7 4 0 > i 6 > : = : 0 0 < 0 > 6 u 6 0 9 > > u a 7 > 0 6 a 0 6 i 2 r p p 4 > 9 < i l i 5 u 9 a 7 7 0 c 0 i 9 i p i c i 0 c a p i = 9 i 0 9 9 0 l u u 0 d c l 0 2 d u p p p x f p d H u i l 0 i > z K c u c H > c f K u 6 0 u a p z T H u z p K d d l u p a i c l a c T H x i l l x d l p c K x d p z 0 0 p x i K K f x d K c l d d d d p l x G U f l x l K P H l c l x K x r b l c i p x p K d K c G H d p p l p T x x p z i K p f K x G l M J d x G s H d d K x H d x K 0 p 0 9 p p d d p p p c x f l 0 z z c z c p i K x a i d G d c i i p G c 7 0 H G p 0 K d a p b z h d z 0 f f x p 2 H c 0 9 i a 0 z a u H c 5 p z 9 4 z u p f u c i 4 r i c r p c u d > u c c 6 @ 9 0 u l 0 6 i 5 0 7 < a 6 p l 6 6 d 7 6 c 7 7 0 4 z q @ u d < > > : 0 0 2 0 9 0 4 > < > : : > 4 < 7 l @ > i > : > @ > < 7 = : @ @ 9 @ > 8 @ > : > 9 > > > > < < > = > > > > > : % + @ > < @ : = > @ O @ @ > @ % $ % % @ + + @ % % > $ + % ",
"7 7 = 7 a 4 6 < i @ > @ > > > > 7 > > a 2 7 > > < > @ @ > 9 i < p < 2 r r 0 2 7 i 7 2 4 2 6 6 - > > 6 d 0 - = > 9 7 p 0 0 u d d d d l G x 7 = f 0 > = 7 = 2 6 0 5 2 0 2 2 6 6 4 4 = 7 4 2 6 l c r 2 7 2 z p p u 7 u p u 2 7 i p s d 5 2 7 0 p 0 7 d x r f r K p x s 2 u p l f 6 i d 0 4 p 0 6 r d 4 p H x r 0 i x r p d p c p d s u d x x p H d u G p p d s d d 4 K x Z d d ( u 0 K p p 6 c l u z x c H d l t s d s p 6 6 i u l U d u G H I d d x G G f K d l H H 0 G d I U p p E d d K c x I K u x d T p d K 6 z K c J p x u d G G d G d s p I G p p K +.x p i c l x G d l ) d T K x l c p p H K x c u a b 0 K l H ^ G f c z p a d i p r p l K c K d p f r p 6 7 p i 7 r x c q l K d u 6 0 i 7 a d p u l u l u p p > 9 9 p p 6 u p p 6 p l p u > 0 f 2 = z i > 6 7 c u r 6 2 < 7 - 6 5 f 7 2 7 p < 9 i 2 = 6 9 u p p - 6 4 < 7 c > > p r 2 i > = 6 = > > 6 r > 2 9 6 6 9 6 4 > @ + > > = 4 , > 4 > = 7 > > 9 4 : q > > > 2 2 < , 7 2 i > @ > > > > @ + > @ > > : 7 @ o = > = + @ $ @ > > @ > * O : @ + @ @ O @ O & $ O @ > = @ @ O O + ",
"7 6 0 2 6 4 7 6 6 9 < @ > % + a 4 < r p r i i p 6 9 > > < = 6 2 f u 6 p p u p x 7 4 7 2 u G x G c H G d I U d 6 u i 2 > c U Z +.G S s d U K 6 5 i q 6 p U U H G +.K E H x f i i z 7 c u c G G x d H H G f 6 p i 9 p x H U J G +.P O.L G f 6 2 r u p G $.+.I { I #.I H H 0 r i u x >.+.J G P d L d d c u p c l r { 8.{ 5.w.L I &.$.K x d l p d d { l.$.I &.$.O.+.G p s U p u G G x L L U d d K u 0 d u p +.&.j.8.0.v.O.&.v.O.G G P l p x &.$.+.I I d x U Z K K x d U L { x.&.L &.d { +.d G L K f ) G G x G U Z H G =.G d p 6 K P &.{ &.$.L P U { Q ) K U s f K d p G P L G p H G d x J P d H s G { G U I G x s U x G U K x d G d G l l x K G p x p l x H d +.L J l u H G L x x p 5 x x d P x c l t d U > u p f H c r c l d U x G d x K p 0 x r d c x G K p 7 d d 6 r u d d H i i 6 L J I H L +.U G d r 4 9 > 6 9 u p p u z p i p x 4 u 0 u 0 2 z p G c c f H G G d i i 0 2 2 u l z z = l u p 2 > 5 > = < 9 = p p > 6 = < > i 2 7 O s 6 6 9 @ = > 2 = > > @ > 9 > @ p i = 2 0 4 a > > < : @ @ = @ % 4 @ + @ % % @ @ @ O @ > + % > > , O @ ",
"7 a > r 6 > = u 7 0 < + : @ @ i > a p 5 6 9 5 d p > > > = 2 i f u u p r f p s d 7 2 z > p I L G G { G G d P G d 0 7 > > x G s L J P L p s I G - i < p G O.{ L L I G +.#.#.+.r 9 9 2 H H U I G G c P I Z U p p p 9 i G { #.{ L &.6.{ #.8.I u z p = U { 7.#.L O.5.0. .8.H u u 0 u c L 5.{ L { $.O.{ $.I x i 0 2 L B.q.q.C.A.k.k.A.D.v.L 0 c K G q.Z.5.%.q.D.V.q.A.0.6 p H u L &.{ #.&.8.$.#.{ v.I s c d Z B.).5X`.`.oXS.D.S..X5.G p p s $.&.{ +.L O.{ L x.8.G l p 6 J.#.{ #.I { l.#.r.&.O.&.r p p L O.G O.8.{ #.b...&.L x 0 K ^ G &.5. .#.+.O.r.L I I I G x d =.>.L I +.+.I +.{ L L p U G Z { O.{ +.&.{ &.0.{ &.&.x p G 0 G &.#.#.{ I } <.L L G s d r x +.G v.5.8.} O.5.8.8.) u U l 6 G &.6.I +.$.{ +.U U U x p u c G O.[ { #.{ 6. .{ d K x u d J L I U } I } G I +.I P s l i p J ,. .w.#.[ 9.7. .l.a.l.l 0 7 K H 6 I I G d G Z d d H u > 0 2 d 6.$.+.I L +.} L { I 0 2 < 9 6 H H d H t s x p d c 4 u 6 > z p d 6 6 p d z 7 7 p 4 o 7 7 : = z r u f u 2 0 7 % @ @ = u G P p 7 x G d G p > : 9 @ > i 0 2 @ + > 4 @ 6 7 7 + o > > = @ = > > ",
"0 > 7 p a > 0 0 6 i 6 = q : > > = 6 5 p p r 2 u d 0 4 > = u l 5 p p u p 5 5 d u r = > = u Z L G d L L G d d Z +.5 @ 0 u p d x s d p H c d L } a 2 4 u { L S G L S L S { #.{ x = 4 7 d G d I Z G s L G L L p l u 6 > I { L { { G L $.[ 5.&.d z 2 x 6.5.6.I #.5.#.{ 9.l.P p d p c } { { { I { L +.#.{ &.d p c u #.A.q.9.7.5.Z.Z.9.u.D. .r z l %.|.`.2. .q.9.9.q.Z.i.c c d p I #.#.0.{ { { #.5.6.{ G K d O.C.Z.Z.a.^.^.S.S.'.gX,XG i u x #.{ { G &.O.O.{ { 8.L 6 0 p 9.7.&.8.#.5.0.#.G 0.l.{ d 9 x G t.{ w.#.{ O.{ O.{ &.P l U d I #.8.#.O.#.{ #.#.8.{ Z G l d L #.L { { L L #.#.#.+.c 0 s I +. .L I 8.[ L #.l.#.#.I p c 6 H &. .#.O.{ I L { $.L c K x P L #.5.[ 9.5... .{ 6.P s U d x +.{ [ S L G [ L L #.L 6 c 7 r I 7. .#.{ L L { O.[ p 2 i f d L L d Z L #.L d L L L x z 7 > { y.{  .5.0.7.#.2. .'.K.i > 2 x Z d G G G L L P P G U r = 8 5 L  .L L I [ L L { { { a > : > s d r p f p G d G G u = p p 2 6 d H 2 i d d s p u p > > > > 4 2 p r d 6 2 6 6 6 @ @ @ 6 p d P d d s Z { Z x > @ > @ 7 5 0 > 9 > > 0 2 d r u 0 @ @ : = 4 2 9 = ",
"6 r i 6 7 5 7 2 6 6 > = > @ 2 i 6 > p u s d d 6 6 i @ @ % 7 p p u 7 2 d p r u l r 9 i d G f d G s L G G G Z Z +.p > q 4 s G x d G d r H r s s i 7 r x =.L G d I { { I L L { +.G i p p U G L G G G P Z L I p f d x p G { [ #.{ { { { { { { l > z l { 5.5.#.#.#.#.L 5.w.{ G K p P x.I L { L O.L d I { O.G r G P +.5.9. .q.9.9.N.A.i.). .u i p l.i.q.9.N.9.A.C.9.9.9.J K E P O.#.$.#.L &.{ #.#.{ I s p G #.Z./.S.(.:Xa. XS. X_.A.d K K L s $.&.L I { I &.#.5.} K H x #.8.#.{ #.6.&.6.#.#.w.#.^ K G L L I k.#.+.L L #.L O.,.G J d m.k.[ %.#.I #.0.{ &.{ Z H d U $.8.{ { { L L { 6.{ I G i d P r.#.L L O.{ L { %.L  .{ u 0 f } { { #.O.{ ~ d G { } x f s { #.5.5.5.#.#.w.#.{ { &.s s d G +.G G L } I { L { #.$.s 0 > K &.[ L I L L { I  .8.f 6 K c s I L p G Z } L s Z G Z p i i p L 5. .5.#.5.{ L #. .2. .2 6 d d G G G d d P G U d p x 6 p p : G .. .L { { { #.I I 5.p = 4 + x x d d d 0 l d s G f > = 4 r r p d p u r 2 = p f r 9 : @ = u 6 u 6 6 2 i 6 p p @ @ > s p l s I G Z G s 5 l 6 > = @ = = 7 7 > < < > = 4 = > = + @ @ < 0 > 7 = ",
"4 d p 2 d p r 4 i = < 9 4 q p 6 r 7 l r p x p p r 7 > > > 6 p p 2 9 2 d c u 6 d 6 > p s G p d x U G G G } G Z G p > = a s d x G x P p G x x c 6 p > d G d d G I S L I G G $.G 5 u 4 6 G L G x L L G G I L G s p d s P { { { L G { I O.O.L 0 z c s 8.6.{ 6.#.{ #.{ 8.6.{ G d u G I Z O.+.G L } +.I I L G d d s } 7.l.5.w.5.D.A.#.q.q.{ u 9 6 8.q.9.N.5.#.B.7.B.N.].G s x G &.6.{ ..{ O.{ I I { ,.r l G { %X(.N.N.S.Z.S.N.Z.S.|.G A u ^ $.I { O.+.{ I { { &.G x U s w.#.L { v. .I #.6.O.5.#.G d d U I O.{ { I } &.v.} L I Z U p +.q.{ { O.{ 6.w.{ { &.I d l L O.O.L O.{ { &.L L #.&.p H l p L O.+.{ I L ~ I +.{ #.O.c c H L L L +.P L G +.I &.L p c d G w.q.{ #.#.6.#.L &.L L G K p s U I d G U I +.L { L I d i 0 x $.O.d c U G +.I [ ,.d 7 6 d d G x H K s K U x d p U d 6 z = I H...{ #.#.{ } #.5.+.#.u p s d I L p p x P s c f u f d K 6 4 G ..#.{ +.{ L 8.L { 5.i 2 a z H s d x 6 6 s x p r H 0 % > 5 c i r d p > : z p K p = > : 7 d r u 7 @ 9 9 > 6 6 > = 7 p 7 6 d d d P G u u i 6 > % % 0 7 4 4 > > % > : o 9 9 + > @ O > = : = = ",
"4 = 6 = 2 i 6 i u i > $ @ @ 7 i = 4 p 2 p > 2 u d 6 > : = u x 0 = u u 0 7 9 7 p p 7 = = l U P s G r G G G G H d 2 % > u G Z U L I d G r d +.P f 4 2 c d L L L P P G d +.+.L d 5 f p K d P P Z U I G I G J K r 5 2 5 G I { { { O.L L { { { u z 6 s y. .#.#.&.#.{ #.6.#.I I p p 6 I } &.{ &.{ L +.L { { =.u 4 p { 7.7.l.B. .#.#.5./.B. .p p 0 I q.N.N.9.].A.q.0.B.B.~ c d d L #.&.{ &.I L L #.l.+.p z p #.tXi.q.N.i./.A.N.|..X].+.d 6 U $.[ { &.I } { ..&.+.x 7 G p O.#.A.q.{ 6.8.#.l.0.#.S J l d H 8.{ G { $.+.G { L $.+.G x G 8.7.&.{ { &.{ #.r.I } L x K d G I I ,.G L +.x G 6.$.G l c U +.L L { 8.$.J } +.#.#.{ d d d d &.L L G &.L O.8.L =.f K K L #.7.5.&.&.L { L { $.{ Z f G P +.r.L G G I P G &.$.Z d i z 6 I +.I J O.+.{ U L L G i p s ~ I d G I I s x G J x x p p p p G &.{ #.L L #.#.[ #. .&.x c i u I G d l x x p s J I z 6 G 5 6 G $.L S { G { { L s d z = @ @ r s d d l p x d d r c > = : r f l u d 6 p i 0 p 7 f p 7 : 9 f 5 u 7 > 4 u r 7 2 9 4 = > d G x s p K s G G x = : % > 7 > : = 4 < > > < % + < 0 > @ > O @ 9 < = ",
"9 > > a q > > u r p < @ & : > p 5 2 s i 6 a > 0 s u > @ 2 p p 6 : r d = > 9 4 7 i : % > l +.C L I p G d d p d G 9 : > 2 H G G x d L f z L L [ r 9 0 f U I L L G G { S L I G d 6 p 5 K L L G L G P G P Z U U u q > 4 L #.{ L L { I I [ #.#.u 0 z s #. .9.{ #.#.[ 6.$.I ..x = < a +.&.{ [ #.{ I L L G 6.} < < 7 5.N.5.#.D.q.5.#.N._.7.#.6 z i &.(.Z.5.q.i.9.q.q.9.q.L u T u L +.{ J I +.+.O.A.9.{ p K x ..Z./..XZ.a.`.i.Z._.;X`.L u H I G L &.8.{ I I I  .$.b 0 z P #.#.Z.9.w.0.A.0. .0.l.+.f T x L  .#.v.I S { +.I 5.#.O.I H G 0.l.O.L P #.{ O.I I O.Z { L G f.P I } G L $.G G I { c i i d +.+.{ I [ 7.{  .+.[ w.S } ) u G r.#.L G  .{ { #.{ G d 6 i r O.5.9.{ $.d &.#.{ #.{ x 7 7 I L  .5.S P +...d O.#.$.p M l 0 {  ... .{ O.I { J ~ x 6 a r I L O.{ L  .I I P G I G c l 0 0 L k.{ ..5.9.q.9.5.5.i.w.r r a s I L P d G L I { I L u u c u = U 8.L { 6.[ X.{ [ &.} s 9 < @ d x d f s Z Z 5 p 6 d l > @ = f d r p d x t 5 l i 5 9 > @ > 2 d G r 6 p s s 6 < % > O @ G L d p 2 i s s L P > O @ = > 6 = 2 7 2 0 4 = = 7 = @ @ > + O > 7 > > ",
"7 7 = f 2 4 9 5 6 0 % 7 2 9 @ p s @ 2 z p 0 9 2 7 < 7 @ > 7 6 6 2 > i a 2 p s x 2 > 7 6 x s d U G c u d x G G G 7 i i r u l c d l d c z x L P u u u u +.I { I P L L I L G d f i 0 f p p U G d d d d d l c K r u l p L $.[ { I Z { #.#. .#.G d c r 6.v.I P &.8.{ { &.} { s z 9 6 H d d I +.{ L { [ 6.#.x 9 1 i &.l.8.{  .5.{ #.w.6.O.I s K x I p.^.i.7.7.w.l.q.Z.(.{ i M 2 G { #.&.O.I } #.8.w.{ H b d 5.6XZ.9.K.9.S.C.7.7. XD.x T p L #.8.L >.I &.J +.O.{ P H U a 5.9.I &.&.{ O.$.I I #.G 6 b 2 &.{ +.+.O.#.5.#.8.#.} d i a p O.q.L #.&.I r.{ O.+.U p f s G &.L G +.} L U P U +.O.&.L J U U L I &.G } { I G #.#.I u c p } { G L } T x U { { G b z 7 x 5.5.#.+.{ } [ { I { G p c d I Z } +.{ $.Z G d +.G s u i z > L ..L L L L +.{ { ,.x d z 6 p Z Z L G U H G p d L U p d a 6 { l.#.8.{ &.+.{  . .7.v.6 a 0 d d L d x G G s d G G r p 2 : > d B.5.O.{ L L { I { ..G l = 4 f x s L G d H s d l 6 6 + 9 7 p s H s i p l 2 s p 7 2 9 + = p r 5 5 r 6 7 7 7 7 @ = < @ G x u f x x d d d d 2 > 7 0 p u @ > > $ @ @ 2 2 i > < % O % 9 > > @ $ ",
"6 > = p 5 u u 2 i 9 > = > > > a 6 f 5 i 7 2 5 r 2 2 = > 7 2 u 7 0 i 7 0 6 i i d l > q 5 s G G P S p d L G d G K l 2 i 6 x G s K G d d Z x G G i 9 7 i +.d G $.G I s Z H J x l z 6 2 u d G L L d S L G s x I x 2 p p d $.[ #.{ I #.L { G { d > : d #.#.#.#.{ #.0.L  .&.&.d f 0 f P +.{ { #. .O.8.0.I +.d p q 2 0.9.7.5.q.5.q.9. .q.5.#.d z l L A.Z.).A.9.i.9.A.A.oXP f K s $.+.{ L I } L L { $.L d l s 5.4XS.A.+XZ.Z.Z.N.^.;X).5 p c I O.#...O.{ L { { I $.G x ^ l 9.5.{ $.L { O.{ I O.&.I p x d { { L ..{ #.#...I { 8.d f z r { #.} &. .S &.+.L { I G c ^ U +.{ +.$.{ +.Z ~ d I I K K d P &.I L O.#.{ G L I ..5.I r K d P } L I L L G G U L d G f u U 8.5. .{ { y.{ { { O.H 6 K H I { +.Z { { L +.G L G U d i u 5 { &.#.+.{ L { { L O.L u i 6 J I d } H x p r U G x U s p K p S 0. .7.{ ..[ { 0.#.4.5.r 0 p H G d d s G d r x I G s x i 7 > p #.[ L I { L L L L { G 7 2 i p s d H r x d 5 s U p 5 + : d l d d p p r u u f u d p 7 > = d r p p 0 u 7 7 i u 7 < > q L Z p f 5 r f d G f 7 @ % > z 6 = 2 > @ 2 7 9 7 + = 4 > o O > @ - 6 @ ",
"7 p u < : p s 6 2 < > > @ > < 7 0 r u 5 > u s d x i < : > 6 p 0 i p 6 p p = r G x 6 : @ u { G S L d d U d L J p u 2 7 > d P Z s f c d L G r p l > : < #.{ L I d { d x I d K d f x 7 c 6 Z I I I d I { L L L G 6 d d I 6.{ [ #.0. .G { #.&.6 q 4 d x.5.5.5.8.{ #.#.q.7.O.d c c r I G G { { [ L { { #.8.s 6 M d B.q.9.9.q.9.q.q.q.u.5.7.r c u O.Z.N.q.9.Z.`.Z.q.q.).c d H I 6.{ G I { { G I { I } U U L 5._.Z.Z.`.`.Z.i.(.^._.N.L H c s %.6. .#.&.O.5.[ { x.I s G U #.5.L O.&.L I { I { #.>.x G U +.#.{ 5.0.#.O.I &.5.5.s c c d x.{ +.L #.l.{ I &.#.L G H p p } P L L I #.L { 6.#.+.p 7 p L O.#.#.L { l.{ { #.{ { O.Z c 6 d I $.{ { } S } G d +.G p d I +.#.{ { #.9.} I 7.O.p z p 6 d &.&.L { #.{ { I G G U l i f x ,.L G { L G { { S { G r < c L { d U x s K G G L d +.r u r u Z v.9.5.#.#. .5.5.{ 9.7.d z a r x 2 x G G U G d f d G G 2 0 0 s { L I { { { { d I { p 2 7 0 5 s u 7 u 6 r f d s s p 0 0 2 p p p 6 x d 5 p p r d < @ > = p u 6 6 4 2 i 6 2 6 > > @ 9 Z d Z d d f G p d p < @ > @ 2 d 7 i 7 < r 6 6 4 2 = > > < @ o @ u 6 7 ",
": u p < 0 u f 2 7 7 + : > + 9 6 l p r 7 6 i u d c > > > > > 0 6 s 0 u p r u 6 r 7 > > 9 6 H P G G G s H G G L r u 9 9 > u G L G d H x s s d u d i @ > &.#.S $.I G L +.L G G x u l u H d d I G Z U ~ L L +.Z 5 p f u d &.#.{ O.{ 8.U G &.L p u i p L $.v.8.#.#.{ { 8.#.J G d d d U I L ,.{ +.I I [  .6.G i a s w.D.D.B.#.0.9.q.9.Z.w.+.6 i 6 L K.A.5.C.%X).A.D.S.9.@ i p L +.{ $.&.I $.$.G { I x +.H U #.%X|.Z.D.Z.N.%X(.;X`.9.G c x L r.#.6.%.L %.#.x.{ { G d d d d #.l.#.8.x.O.&.#.8.&.L x K d +.#.$.{ 8.8.#.#.#.8.{ U ) l G I { &.{ #.#.x.I +.L +.;.p T p U +.L { +.{ &.6.L O.I x c 0 x { 8.*.8.O.{ 8.O.{ &.I O.G l p G } L I O.x.{ ..6.+.U x u x K { #.#.$.$.{ G I 0.{ p f f r J I Z >.G L { { &.I G x d u r K I L +.I L O.#...&.} U p p x G L L x G I I L d L J x d 0 z x d I 5.6. .#.#.8.{  .0.{ x l 2 r K x c x d d K Z d G H p 6 z i r L +.+.{ { { { L { G x > 9 i x K s u p 6 d d H d H 5 0 2 7 i d f d x G d u d f p 7 8 = 0 2 d r u r 2 = 2 u 7 > > > 9 L G L G x p d d s f = + @ > > p > > 2 2 r 2 0 > : > 4 2 + : , > 6 7 7 ",
"7 > > 7 6 > = 9 0 > % > q @ @ i 9 7 > 2 a 9 > 2 9 = > > a > 7 p - @ 4 0 > i r l 7 9 u i 2 > i > 4 p r u 7 : x I i > 9 i t x x s K u 7 6 d P u 7 r i i p H s K x J G +.Z L I J 5 z c r H s x c ~ l p r J K r 6 i p 6 2 G G d p 6 I G P c 2 x G H u 6 p p x L } G G d p d H p l d d +.I d G +.U U +.{ x u i 9 s G L  .0.>.&.j.l. .l.d d d G z c P { c.#.{ #.j.8.7.O.l ) l r K G #.+.O.{ +.J U I U J d d p ~ G.L.8.q.B.B.l.C.6.{ G H K x x =.} } { r.L +.G G d p K J f r +.&.{ L x G U I J G x K c G G U L G +.#.$.L { G G U K G x u r.y.G r +.G I d G x d U H u U >.U x J J L I H x x H c c d r +.O.6 d $.{ H K L +.G c u p U +.G x P G L r.I u i K K d +.>.I G +.! T L O.#.s c c H x K d G U +.I L G U G x x z u r G ~ G G U U d I G r x p z r p I d p d { G G G } J r U x p 0 d G G +.I U G I #.#.p r L G 2 5 G K 7 i z s G U G c d 6 c 6 9 u I { ....+.I I $.K 0 r 4 i > i p p G P G H u G x u 7 0 7 6 z c x s f 7 6 r d i a > @ 6 2 > i u u p p 0 0 7 7 < > @ @ 2 d o.d x p l d d d a > @ @ > r > < 0 > = 7 > 7 > % > = > % > 4 @ @ > ",
"> $ % = > @ + % = % > @ > q @ 2 = % > = z % % > @ q 4 = > % > 7 l % > 9 > = 9 < > > p 7 z 9 > > @ 0 p 7 4 % 6 x 6 > 7 0 6 7 > > i p 0 z p - 6 a p d u < 9 p 2 6 5 u z 5 p G p a 2 p 6 G d > 6 G > 2 a u = u c 9 2 c l 7 7 z l i i u 6 i c c G G H i q 0 0 p d x p q i x x 6 l l p x p l d x u 5 d G l 0 l c p 0 p G d s p x x d s 0 c f p p i 4 f x x r r d I s H G G z d b d G d G x G G p l U d K z K x r L s G I G G s d G G d x ~ K i z r U x G x H T x K J x p z T 2 K x x l ) d c K P G p ( d G K s J x d U d x x } x r f.G > d p l G d d z l p U G K x K d K p d b d d c z K x s H i 0 H L q d U G d p d G u 6 G U G K r l K l z l c K p u x r d d G G U 6 7 c u G +.d p U d r 0 z K d u x > d H s r z b u G U f 0 l p f d 0 l d x u i u -.p i c G 0 4 d r r x d d p p z 0 u u = f 6 2 G H > a u l i 6 z r l 7 i p 5 f 6 > d f 6 6 l p G s s s p p d s = q > 7 6 u 6 u u s r p p > 0 p 7 9 > i 4 = = p i p 7 < > 7 > > 9 @ 2 7 q @ > > 0 7 > @ = > < > > > @ q > r 6 7 @ 6 7 > = > % > @ = < > > @ : : + > > + > @ = @ @ + o @ o ",
"@ $ @ < > @ : O = : < > % 4 = @ > 7 9 @ = @ > = : 7 9 > 7 2 4 > < % > > < > 7 > a u 0 > 7 9 7 9 > 4 4 u 9 < < @ 7 2 6 7 2 < z > q c 6 4 0 9 0 1 7 p 2 > : 8 0 9 7 < q > l p 7 i p 7 7 d K u 0 0 r l l : 0 z u 6 9 c p q z i p 0 9 a a i i 0 7 l p 6 z M 9 l p T > a l x c u r p x J c p l d K i p c f l x c x 0 7 ) d d ) d > K d l z c d x p 4 l p K H H u T f c G d J c l c H K 0 H K H p 0 H x U s x c.J G x f U x x f c d G J H x H c a T c z K x E l u K K d K T M 4 W ( H p T i a G L L G p ^ G H G d d c U c G G L G H ! U l K p ) U T d z l c x J ) d U G x l K K x u c z 7 =.U d c c z K W c p p l T d u K d x K G H f H d u M : p ! x d U U p d ^ I G G d c > u J +.d u c 0 d f K p u p z r s H p p x x p 7 d i d r i 4 > c u x f a l p u 6 K z < q i a d l 2 p U U p d 0 0 6 f d d p 4 a c = 0 d z a 9 c 0 l c > 7 9 0 z 6 6 i 6 0 r 6 > 0 7 = = = 9 m 5 p p 6 9 9 9 7 6 i 4 9 7 9 > 9 7 0 0 < > > 7 = p 0 = < 9 0 0 : 7 > > = @ @ : > > @ 9 < > > < > > < @ @ 7 > O % > > = < > > > : > @ : > : > > @ @ = > @ @ > % @ = < o ",
"> @ : > > = > : @ > > + , > > > 7 5 p 0 4 4 > u p 6 @ : a 2 i 9 = < 7 2 7 p > = 9 0 4 + > r u p 0 > > z u u i > 4 7 p q = @ 0 9 2 l = - > < > < 7 p 7 l u = p d 2 7 0 = 4 > 0 p c l a 2 0 d p 9 6 u r 6 u p 6 p 0 d d 7 p d l u < d c p r 7 7 p d s 5 s U d G p p d 6 x K H p p x d d u r 6 d p u p d p K s u z 6 f x d H a 7 p G l t l c x x x d x G d s x K c 7 G J U x p H u x x E d p p J U l f c d U U x L K x p G I x x ( c K x z G s L d p G G L x l d K A { G - 6 d s d I d x G G G H H p x G L d x f H x p U I r x ) x d v G s G s x d d x K H d K G L d P s G L x d p G d K K U G t P u s G u u l d H c c c z u d U p u L J r r p I d ;.U U x u P s p G x l u p x x p 0 l 6 H r p r l d r r d H M 7 H c x x d x P r u r f K l x d 6 c G p u p 2 u d s u G H l u p x p U 6 a p u s u p 2 5 p u c 5 i 2 6 r 2 5 p 2 7 K 4 0 0 a 0 7 i u i > 1 q 9 a q 0 0 x 0 @ > 9 = 7 = 9 7 = 0 @ @ > @ > 9 > < > < > > l 6 > 9 7 6 > i 0 > > > < > % > > = 7 > > = : > < @ O > < > % O > > @ > = : > @ > > = + > @ > @ > > > % @ @ @ O = < : ",
"7 6 7 7 7 0 u 6 2 7 % > > < 7 r s s H i f s G x 6 2 9 > < > i p a d d p d x x c r 7 7 p p r l d c d u 6 6 H H 0 5 = u 0 i d x 6 p G I d x p u a q 9 p O.[ { #.L P q. .L { H 2 7 0 7 c z r H H G 7 G Z x x 9 7 K i c H p c E x G d L p H H d 6 l l G 7.6.w.P.{ 7.N.B.G u d G p i x =.I G H +.&.G H { I p x H G G } U d d G f p U p H p x p T J G { +.I 0.0.O.O.O.8.p x c c I 5. .L #.5.5.#.{ L P G c p J +.L U { O.{ ..I r.I x x U x K { &.q.l.#.6.&.#.$.L G T T r 5.T.N.).D.D.A.).N.0.L +.G x x } $.I >.{ ~ +.L { +.I L U ! x O.#. .w.q.7.$.5.5.7.L U H x x U { #.5.5.{ #.%. . .I U ) z u U I #.$.$.8.L L U L G L K p 0 6 +.5.L &.O.{ I &.J G d H c c p d u u x x P I L U p i z d G J { L p c G G L G s p u r 5 u G I { { S L { { L d d p c p L P.0.L {  .5.5.q.[ p s d d K 7 x G L P s p 9 d p x J u r f i u G { 8.&.L L +.{ P G 0 x 6 2 i i p p 6 6 4 2 9 0 p i 2 2 > z 7 r u f 5 r u p f r p - > 0 2 f c u u 6 u l p i 6 > 6 9 2 0 > u i p i r p p 9 > = > 9 @ @ 7 > 7 = @ = @ @ % 9 > : @ @ > > > @ @ @ @ > > < > > @ @ $ @ > < % > ",
"6 6 u r 6 7 2 d u > > > 4 @ 6 d s s G u r H G d r = 9 9 @ u f p p G x d d d d s d 7 i N p p G d r G f l u t s x d 7 a 0 x L U G G L P G d P c i 2 9 G 0.i.q.B.p.#.N.9.L.q.y.G = 6 > 7 p c t s I x d Z G x f c d d u d x =.s L I U U s d G H d a d 8.N.q.q.A.q.D.Z.9.L.&.d u d x J I { +.+.I I L I { } G A p U P I I G o.>.d G G P I P u p l r l. .G. .q.B.9.F.#.#.=.x v G 0.B.D.5.w.].C.A.C.8.c.d G K L I +.#.w.0.w.y.{ O.l.L d +.p J v.q.9.Z.q.l.O.B.A.{ x ) E f `.`.}.XX'. X X>X,XoXA.L G K H 8.#.Z { { O.#.#.l.{ +.;.G x G &.K.].Z.Z.|.D.Z.`.%X{ G G d H { 5.V.A.%Xq.L.k.N.%XB.Z l c x 8.0.q.l.#.C.J.w.j.7.C.I J K 5 G L.#.5.A.5.L.].N.L @.K K r u J G G =.U I #.#.{ +.p p u G { $.#.{ { 8.&.v.0.8.6.I l l z p J.7.#.v.8.5.0.0.C.O.J p p p { N.9.A.].Z.N.B.).+Xw.L p c d p G G O.#.I { d G O.I G U x 0 4 x 6.9. . ...5.#.7.5.#.x p 7 < 7 6 x p x x d 5 u l r p q 7 > 2 0 l x G d U G t c x f d > 7 0 f 6 s x z d p - G H 2 > = 6 0 p f u f s G s f 5 7 9 @ > > 9 6 6 0 2 7 9 > = 4 7 > % % 4 7 0 0 < > = a 0 > = > > > @ O % 4 < @ @ ",
"0 i 6 0 9 > > 2 > q 2 @ @ 4 7 r x i 5 t l i 6 G G > : > < f d G s x r d x p r s c p < 4 2 x x s 2 d 6 p p d 5 x 6 4 < p d Z d d G G d G G G d 2 0 7 G 0.9.9.#.5.7.O.{ A.9.0.8.- q 4 s J I J x I G P G G t.L r u H 5 U G d G G G L G G { U d z 9 x #.q.q.5.5.0.q.9.q.Z.B.Z c x P I P G O.I s s +.L s G x u 6 p I { L =.p U &.O.{ { U d P K f S F.{ 5.0.5.l.5.l.5.I Z t c L A.i.7.5.#.F.5. .9.k.w.d +.L Z { 8.#.#.#.{ j.I  .q.j.L K 6 L 7.9.7.5.q.w. .7.7.C.+.d s U _.S.(. XA.S.XXS.(.`.4X#.u b ~ O.5.#.&.O.#.L L #.{ L O.~ x x #.5.7.N.q.A.N.A.9.V.7.G =.d L l.N.N.7.q.i.k.l.9.^.D.L x ) +.7.p.q.5.7.i.5.#.H.q.q.L p H L #.%.6.5.7.#.#.p.q.D.{ d G x L $.{ r.+.L { { &.I O.O.I K I { O.L { l.5.{ I  . .8.I d c d L B.q.5.G #.B.9. .5.w.{ p l r #.N.q.q.Z.Z.i.5.i.i.(.K.r c x d +.L I L [ $.I L { L G I p p i G [ q.{  .L #.#.#.#. .G r q q 9 2 G U p u x x H x d d c d 6 l p r I d s s G s d p d H > p 7 s t c p u p d x s d x 7 @ p 7 d p p d 5 p d G d = < 4 4 + l u > 0 0 > 7 6 p 0 + : @ @ 7 i > 6 0 6 r 7 @ > 4 = + % @ % @ @ > > > ",
"5 > 6 > 7 9 > @ 7 6 > + % < 6 5 s i t d l > 6 d s 4 = % > K x s x 5 r x u 4 l G r u 0 > 6 l d u p z z p u c p u a q 7 6 x s H d d p x G G G U i l u G 6.5.5.L O.#.O.#.9.9. .{ d 9 i d } S U G G P J { S L U c u H d G J G ^ L G G G I L } p 0 9 U  .9.q.#.5.8. .5.N.9.B.L p d G U H x I I K l p G U J G d 4 d } #.d P x p { 8.#.#.I L Z U p 8.q.#.w.7.#.{ 5.#.6.r.L U p L 5.9.9.q.#.{ %.6.5.0.B.G I J I ..{ &.O.$.O.O.O.#.9.6.G U l $.l.5.B.6.v. .B.k.5.q.{ 2 U d _.6XS.%XA.Z.rX|.S.S..X2.r l G { { &.{ L &.j.+.&.v.{ L +.c f L l.#.q.k.0.7.w. .7.#.L p G L 7.N.p.k.q.}.5.8.D.i.%XL i l L i.N.9.&.$.5.#.#.0.0.Z.#.p f L R.{ #.&.#.#.I +.2.D.w.5 U G L O.8.{ L L #.I &.G L 8.{ r s I { >.I #.{ 8.L { v.#.O.d 5 p $.9.0.#.{ %.5. .w.L 5.0.s i p 6.A.7.9.q.A.i.q.q.2.S.).d 5 x s I Z P I { &.I G +.[ L $.p 4 9 x L { #.$.+.L #.#.O. .U d > @ 2 p x d x x x s p d x H d p 7 i r G G c J G L L I d G p % 0 2 K x u 6 p u d U s p G 6 > i 6 d d x d f r d d p f = @ % 4 p u 0 > 4 < < t x 7 + @ @ < 7 6 6 7 6 p u 2 9 > 2 : > + = < @ @ % @ = ",
"4 : > = 7 2 7 2 z u > % @ = u r d x d d t f K s G p > : @ l x s p p H d r c p d 6 0 0 7 p s u H p r d f f r i u = p d 2 U H t G Z G U d U G U l 0 @ G 8.0.#.{ l.w.9.0.#.6.5.&.s l 0 x I L Z L P G d } G d G u > u H J x x s L d G J G d I G l @ x z.9.q.l.7.#.6.A.i.A.0.G f d t { G G U G U +.G G { I u c c x +.{ L G &.+.G U P L L +.u l p O.7.#.w.#.l.7.{ 0.#.v.I l K I L.q.l.B.B.l.#.w.0.9.C.d u K } $.O.+.J { #.O.O.{ %.8.G H &.I &.{ C.7.0.7.l.7.5.w.>.J K l Z.(.N.Z.N.XXS.(.Z.`.,Xq.G p d O.l.#.L J I &.8.I x.#.O.^ z c #.OX5.B.l.#.C.0.B.q.H.O.J I L 6.A.q.z.C.A.5.v.7.Z.5X{ p H Z w.Z.q.F.8.#.7.B.9. .7.x.b 0 G w.0.#.{ &.{ #.l.9.p.8.7 U s +.{ L L } I I { { { 6.+.s r x x +.{ I Z { 8.0.{ 0.[ $.c u l G 0.5.{ #.F.9.6.6.#.l.8.d c p { A.N.B.q. .7.B.#.q.Z.w.P G c 2 I r.{ I G Z G G G I L O.d f > x O. .5.#. .#.L {  .w.r.Z r c > p G s J x 6 x G p x G u u > 2 d P s s d x x d U d p 6 % 4 p f r r l d p d t d d p = > > 2 G d p 6 p p u 7 d 6 @ % > 9 u = 6 7 7 6 2 6 p p @ @ % = = 7 2 7 p 7 0 > 6 2 = > > > = > = = @ @ @ ",
"5 < 6 4 0 7 i p f 6 = : % > p p d d p r p G G p d p @ % % f x d r s P r p d d p d 4 = > f d G p G G d l 5 > d l > p p d P G G x d } d d d s G 7 z @ d 8.2.5.6.5.#.i. .O.#.5.#.t i 0 0 +.L +.} G #.H s I +.c i i z G L x G G x L G d x G L G G > p L.A.N.i.9.5.9.N.9.A.$.6 K x H { I >.G I L Z { L L Z H K c 2 { 8.+.{ L O.U x U L +.} i T p L 0.0.6.{ l.9.{ #.5.0.G r l L 9.5.q.0. .k.9.#.7.5.L.{ p c L r.I I L $.5.[ #.&.L L U 5 L } O.q.N.q.9.5.#.L.D.5.+.d x !  X.X`..X:X<X^.Z. X X XS.L c K O.#.5.{ c.{ 8.l.{ { 8.I J l x k.S.9.N.5.7.A.9.q.q.z.I I d L C.+X).5.q.9.w.J.9.i.`.#.K p +.P.5.7.q.#.{ q.q.w.8.5.6.u 7 U l.7.#.{ { 7.k.5.9.9.w.x p d U I G I G U L r... .#.I b c x G { &.{ L { { #.#. .{ I 2 i p U #.7.#.5.w.5.#.#.5.0.L p K G 8.A.i.9.B.5.A.k. .i.q.l.P d z t P L { G G p L +.L G I L s H f x 0.5.5.8. .5.{ L 7.w.{ L d u 9 p J Z d G u 5 f x d r f f q 7 x +.s G d U G G d G x > % > 7 u f l r p p H 6 p p p > > @ i H x u 7 d d u p p 0 @ O % a 7 = 6 f 7 2 f 6 = f 9 @ > 4 6 0 7 7 2 < : 2 u 6 = : > % : o > = @ > @ ",
"2 > i 6 4 = 7 > 2 > < 9 % 6 p s x d p u 6 G s x d u = > = x p x f s d H f 5 d d p > 7 q d s P s d G u H d d c H < 6 2 u d p G p d L Z x G d U 6 q : G v.p.5.{ #.Z N. .#.5.0.#.d i u 6 L O.L L L L f G L G d 0 2 < 2 G { G L G +.L G x U Z p p 7 H 0.9.9. .q.9. . .Z.V.r.d c 6 s P L O.L I G G L X.G I K 7 H H I { L I Z L +.G G G &.G 0 T f G 0.0.7.5.0. . .0.H.N.U d K U k.B.p.5.5.k.q.q.5.9.J.x ^ { { $.L O.8.0.w.0.#.8.#.[ =.o.G $.B.C.#. .C.q.0.5.i.R.{ u E z ;X:X.XZ.`.^.oXi.Z.^.,XA.s T H +.L I ..&.#.{ {  .&.{ O.L H x 0.9.p.i.9.q.7.N.q.].q.Z p z +.{ l.(. .A.].B.9.N.Z.).L d u d w.9.#.0.5.B.N.{ #.w.N.7.d u P #.{ 6.j. .L l. .5.N.v.d p c G L &.L { } +.{ {  .{ +.d d p G { L { { 8.8. .#.[ 6.{ d d 2 >.v.#.B.q.9. .q.q.k.A.&.6 c p w.S.9.0.q.i.9.q.9.5.q.A.G r z p J L } L O.} O.$.I A I I 6 4 6 d 0.[  .w. . .0.5.#.[ 0.d 2 > p z d x H G d p d s d d d 0 @ 7 x Z G G s E p d G d u 2 i d 2 z 6 p r x H f p p x H > > > 6 s d u u l d u r f p : % % a 0 6 2 i 6 u p i d u > > > > > > 0 6 > 9 0 < @ = < > : @ % O @ > @ @ @ ",
"u = = > > = 1 % > < = = @ 6 p p x u z 2 p a r x d u > q = p P d s 0 p Z d l c p 9 > 9 7 5 I L d 6 p 5 5 x G s x 4 i p 6 6 G G G z u x H L L U 5 4 = P 0.2. .#.{ } { #.q.q.9.#.Z z a p I L G J U f G G L G G i i 9 2 G { O.d d G Z { { I L d u 0 J y.9.q.5.#.w.8.#.9.D.9.Z d c x l s +.{ G x U } L J U x 6 0 x U P L I -.L &.I G { { #.G p d +.8.#.5.q.w.{ B.5.#.0.{ l K d l.q.7.0.7.l.7.7.N.q.%.p I { L 8.&.{ #.5. .l.O.{ l.l.G E l G N.7.x.L 7.N.A.5.i.L.L c p p Z.Z.XX9.|.(.(.A.A.N.:Xq.x 0 G +.U } { L O.{ { 6.#.{ #.G K I 7.l.q.K.w.{ 6.9.0.L.z.L m a J #.6.`.9.k.Z.9.z.L.q.D.L 4 q d L.i.p.F.#.q.N.l.8.5.Z.9.G x U O.*.*.5.L.#.y.5.5.A.#.7 H G L #.{ L &.{ { { { 6.{ } u z p { x.I 8.#.{ #.Q L &.6.L l 9 f d 8.#.{ 0.q.7.9.5. .9.8.u q > #.(.i.q.A.i.5.B.q.9.i.Z.H p G s I J I G { [  .L L H L +.p < 9 d 8. .7.#.{ #.9.0.{ L 5.d % 0 6 d l 2 u u f d x u d Z x 2 > 2 x } G x d s c p x r u = d r u H > @ q f r u p d Z x = * % 6 p u u 6 l p u p x r = > % @ r p 2 < 4 6 6 r s r i > + @ > > 6 4 r r > : > > < > @ @ o % > = > : 0 ",
"7 6 0 > 6 p r 6 7 > : > > = p r d d s d c r d f r 9 > @ = 2 G G Z u l s p 4 6 d s r 7 p f d d x i G d d f x Z p 7 > i K G G > s G d u Z d s G 5 z 0 d 8. .5.#.$.N.q.$.&. .q.6.> q l l f c G d G Z G I l 6 d =.d = p d Z d G d I { } L L I 7 < a u D.).A.{ &.8.#.5.N.D.O.r u p G $.G L { I K G Z O.>.U u z z 5 +.L G d { &.I I G U I J G J p &.v.5.&.O.$.I 7.5.{ D.+.d U G w.5.w.5. .B.6.{ 6.w.6.Z L I +.G O.&.+.r.{ { O.r.5.0.U H =.I A.N.K.7.5.8.#.q.5.5.G l x d oX).D.q.C././.S.T.S.oX5.L z c &.&.$.+.#.#.&.$.w.{ x.&.d d P v.9.7.8.9.N.p.5.l.].#.s U I $.V.7.w.L.A.7.5.D.Z.i.A.Z x ) I B.9.0.#.U r.#.5.j.#.0.I x U G I { 5.5.5.} { I { N.l.b P I { { I L I G { } { I G K 6 P d L { { +.+.J L I { { U I G x i f { 0.&.{ &.O.{ #.5.5.{ r R 5  .`.i.&.v.#.A.N. .q.S.B.p a < d $.S { #.I s P { I L s G Z ^ 7 r 6.#.{ ..#.#.L } } J U d H r i c L Z G d r u H J s d x > 6 p p d P f d Z d u p f i > 0 = = f p f s 2 2 0 6 p r u 0 $ : a p s x p l @ p d p > @ O = # x u r u 7 > 7 > 0 7 > @ > = 9 7 7 7 7 = 4 6 6 7 > 7 = 7 O % : 2 = < + ",
"0 4 7 7 i 2 0 6 7 7 @ > q @ i u x d r d d d f p K 7 = 9 9 2 H H x 6 d u u 6 5 s u a 9 = u s d d u d d 6 s H x p 6 > > r d H 6 c d G H c G x x u p u s G.5.q.q.{ 9.{  .0.L K.6.4 2 p K x Z Z I +.G } I P G x G i p c d d d I { Z S G G +.+.p i z 7 0.9.Z.9.7.2.5.w.i.Z.{ d x c d +.I L I U S G } L x G x p H s +.+.L x I L L &.G O.Z L H G K #.w.9.#. .7.q.q.7.#.w.I G l c F.9.k.N.B.0.q.q.p.N.L.+.J U J @.O.5.8.O.{ 8.I { j.&.I I K G q.q. .q.9.q.#.9.9.T.O.u ;.A _.wX X}._.;XjX;XZ.:X,X5.L ) p >.{ %.6.&.#.#.{ 0. .v.G d U I 8.7.q.B.V.C.7.q.9.N.0.I K d { K.p.N.l.N.N.].N.i.S.@XL d l G &.5.q. .#.5.q.0.5.5.l.d d c I { 8.O.L w.8.*.L #.B.{ l K G { #.L L G O.&.G I { ~ U c H x G $.&.{ [ #.#.{ { &.+.d J K 6 p 7.A.7. .{ #.#.k.N.9.#.x 0 2 K.7Xi.i.N.| 9.i.q.^.a.A.Z u a x L P &.I U d G L L d d } r i 6 Z w.9.#.7.0.9.{ { { 0.U r H s r f P d G f c x G p d d s 6 q i H d s s L G d x p d d 8 > 7 l d p d p d 6 6 u p r d > = > 6 A d s 6 u i f u d f @ $ > @ p f r p p p p > p i 7 > @ @ = r > 7 7 6 6 0 7 7 < > 9 > O @ @ p @ > : ",
"9 9 7 u 0 > 9 0 r u 9 + O = i l s c p d p d G s 7 7 u > 9 4 7 u a p s d 6 z d G p % > < l H s s x x G d f K r s 0 9 < > d H p p p G x l f G s f u a r r.9.5.9.2.9.O.9.).i.7.G u d p d H L { { { L I [ { &.P p a f s -.p d I I L s d P L L x d a z &.5.N.9.i.p.q.5.a.L.I p c u r +.I L G J I L L G x G U d f d c U +.I I G L O.G #.+.L G l p L A.q.5.0.9.9.9.8.#.I S U K x #.+XN.q.w. .9.S.i.i.F.L d d d &.#.{ #.L { { { $.v.I L I 0 +.q.B.C.p.Z.S.2.7.7.D.6.J x D _.;X<X;X_.wX'.'.-X_.*X5.d f l G #.#.O.L #.7.#.#.#.8.{ U U G L P.q.q.q.7.l.l.9. .F.I 0 ) I 5.*XOX0.7.S.S.Z.Z._.k.L G z G b.0.q.9.#.5.5.5.7.6.#.I ) x d >.$.G 8.{ 6.0. .8.{ G d T c d 8.5.L $.{ $.I { { I O.G 7 H ) { 5.5.[ 5.5.7.O.{ r.L p l 2 p 8.k.#.{ L #. .5.i.A.+.p l x #.A.i.a.Z.S.9.N.9.~.i.Z.+.i 4 d d U c p G G U x G L ) H - 0 > d q.9. . .q.#. .#.0.A.I 7 6 i 5 d G d f 7 G p s d x s 5 p = @ G =.s L I d u p d I s 7 > 7 z u x G s d d G u H p f 6 > 0 p H p 6 r d d p p 6 r > : : @ 6 u f 5 u p f p s t p > > > = p 5 2 2 5 6 u 6 = i > = O @ > @ @ @ @ @ ",
"< @ 6 6 2 2 7 7 9 6 > % > > 2 6 6 > i 6 d 6 d f > a > i 2 4 9 = = l p f u i r d > > 9 > > p l K G u x u 2 r l 6 0 > 0 f p d d p d P d r x I s 6 l i r G #.5.F.5.l.O.8.5.9.w.x 7 d c d d U L I I I x G Z I Z r p G p p x d d G U U x G x d p i 9 p I { w.w.5.6.l.l.l.#.G p u u p G G U G G $.I G U O.I I c G x x d +.I G J +.{ I #.J G x K c G w.7.5.8.7.H.6.$.x.I P G c U { z.w.D.k.6.F.H.7.q.8.L K K ^ G O.&.v.#.x.&.8.x.$.G L L l +.r.8.6.7.T.$X{ { @X5.S +.G A S.,X2X1X,XpXN.tX7X`.).{ U J +.f &.#.,.+.r.O.w.B.8.+.J U G G ~ 8.l.7.l.#. .z.B.8X6.d l K U L #.D.8.B.=XD.8.w.B.I G I c r ,.#.9.B.q.v.l.6.5.6.I G x ^ I { +.L { #.8.#.8.{ } &.U z p d { 6.{ &.I G { { I I U J p p u U { &.{ 8.8.5.L +.I G x c z d I { 8.l.8.l.F.7.A.0.s u x d L l.i.D.).i.A.K.C./.%Xl.f r u p G d 5 J I L I G G &.G r c 9 9 G #.#.&.v.{ #.v. .{  .d 6 < 9 a d L G l d c p f T d x p 5 : p d s r I d p 6 x G G p p < = 6 7 l d r r G l s p 6 6 u 6 q u f x x p d p 6 i u c = @ + 4 = d p d G G = r K 6 : @ 4 @ 6 p 0 2 6 0 i 6 u = u p @ : > @ > O > > > ",
"7 4 > @ = < > > = > @ > > @ > @ - % > = > > > 2 > > @ 2 4 > 0 i 2 = > 4 = : 2 6 c 6 0 = 2 4 = 9 r = 7 0 7 = i 7 < 9 7 6 p l l r 6 u p r x d u 0 a > 2 u u f l r s p x > r s s 0 i i 7 7 z d r G K z 7 p 2 p u l c i 7 f s p p s p 5 f d u i i 0 H d d p G s d x d d u d d x K x d G d G d s x d p Z I H K a u H L d s u s G L L +.x d G G G d E s I ;.x s G G G x c s d I L P L L I L G G O.I d s x G x G d G G d G U +.Z G +.G U d d s t X.{ I d G J +.I I J x x G I { L S I G I G G I J x x U ) K d s I U G L } G G J d H J G O.Z >.,.I I G d G L =.J d G G &.d { I { J G G { ~ U G G K d } L K 6.P L +.{ @.G x K G I G G L { { I d H G L I x x x H f d U G H K +.L } G x x d K u x x d P d G x G U H d x 6 G p c p H I +.s d { L U > c U 6 G { G I O.G +.L Z L U d 7 x f p d x G U G s d 7 s p r H K u u 6 d 6 G G G d r G s 7 z x p 7 9 > p d p d r c i u 6 6 4 = p p > 2 f u f 6 u l t p i 7 p 6 > 9 : + u 6 p r 6 2 6 7 : 0 @ @ > f 6 6 0 - > 9 6 > > 9 i p 0 < 7 = f c @ + < > + = > @ 4 = 9 > > > > @ = > @ > > 7 > + : @ @ > @ ",
"4 7 > @ : > > % + > < % @ % > > q 4 < > = , > > q a q a > > 7 7 9 > 9 8 7 q > 4 7 i 0 7 7 4 q > a > = 6 K 7 a l 6 7 6 2 z < 7 z 6 q 9 c i c 0 7 6 i l 9 0 @ 0 9 u a z % q c a u 6 6 p > 9 z p i s 4 7 9 z p 0 0 5 > 0 0 H p l c a 9 p p u a p K U f 4 z p 0 l 4 i i p c K d H H U l 0 f H f i l f s l 0 l H d K x K c x U G x u d G c l x U c b i l l b 9 ) ! u v 0 K G L K c d x 5 K c i c 0 K H G +.) T u T H U K H G d K ^ G K H K 6 P P G x i K J s U ) K H I c b K x ) f 0 z c H l l G P K K H l K x c P x d u =.G K U H J @.x H f d U p c K K G G } >.l -.H I d u p i H U p c u G ^ x c c c G d p x f l H J G G H p u ) =.f K c H c K J r x =.i a 2 K H 2 0 U p d u p G x H x c l z c d u c ! p 9 H x G H x i a l r p d b x G z 4 a U d ) d 0 i > i d - p n i < l c x l u d K f c l z q 9 7 u p p p p p z 0 7 p z > 9 c 0 q i 6 5 u 9 a c i p i = 0 < > l 6 % 2 d 5 a 2 p > 7 9 7 2 7 i 7 q c 6 0 > : = 4 6 4 > 4 7 9 < % % : : 9 > p 7 > 6 > 4 : = > 4 > 6 > @ a = @ = % % @ % > @ = 7 = + @ % > + @ : @ = % % : > = @ + > > @ > ",
"< < O @ @ + > 7 7 @ % > % > % > > > > < > > a 7 = > 4 : @ > 0 6 @ a > 4 4 < = : > 2 7 6 p 7 = 6 = 7 u c f @ 4 a 9 0 0 7 > < = > 8 q > @ @ % > 9 ( f d > p i c p q > q , * q c d l x l 9 > > < 6 p p x 6 b i p z d z z 6 p c u 7 i N d x K c f U s 9 9 a u u x 0 i p l p d d p i p x c p H f u i a p l f d H c z c 6 l E s H d T d l G d c b c H U p z c d c p x ) l x U d v c u K x U K f z c U ^ I P G r 6 ) W ) x :.T u U U G K G U G x K K x G ~ ^ E x x G c d K z H I K x c K U H z H U G U U x d >.=.x U E K x K K G ,.K x c l =.H K T c } U x x H U x p d H c K H H l K <.p c ) U G K K z U d Z >.U l 0 G c H l H p c c z H K b l N a p c ^ I G d K H l z c T d U -.u p p l K d l H G K H p H p 2 H P G x H P f l b z l z f p 6 p c x b 7 l K T 7 l G T l z z d p 5 i u l K T u u 6 9 < a 9 9 i c d l l r i c z 6 i p z q 6 q u l x 7 9 i < q q 7 i i 7 M 7 0 i u f 0 > a a 7 0 7 < 0 > > > u 6 q 7 l a = 2 p 6 9 > 9 9 > 6 > > > > < + 8 a 4 @ % q 0 @ > > % > @ > @ O , : > % : > > < @ > O @ 8 < = : > > % % % @ = % @ > > > : ",
"7 > > 7 a q = > 6 4 > % < < > 7 = > 7 i u > 4 = a 9 > @ > a 6 u a f 2 p p f l a 9 > 7 i u 0 u l 6 p d 6 u z i 4 > 0 K 2 U +.G x d G c p u f t r f i 0 G I S Z Z p s s G d r f J d s H r p K 6 p p d G Z G u a r d r P L p x I r 6 G G d H d 6 p d d x p G I s d U d p c p x f l x x d d U d J x G G d K x p d c G s G d I U G d G c K K b 0 p d G d d I Z G J +.L l x U G K s G I d I &.L L I d H I L ^ &.L {  .O.L J x d I L P ^ +.L t.+.G G L { L L { x G ^ U K ,.I #.O.G &.&.~ I G { G L +.d I ;.G O.G G L L G I J J L G G d G x $.L L L G L { G x K l x @.L G u s U I c d J ^ x c K d p d +.d K G O.+.K p P d x s d I Z G d U x Z d s f p l G d P &.G G p d f } G d d G d p G d G G d d G G L p x H d x x d s G L G d P G d p r c c l x l u L s p d x s s p s p x x G p 2 K u d p p +.d u P x r d 7 x c p b 6 6 u p s p 5 7 d 0 7 > 7 d u = i 7 7 6 6 u 5 7 2 u 6 > i > 7 6 > > 7 7 = 2 < > > @ q 9 u t u 6 s d l u 6 6 0 > 9 4 u r 7 0 7 4 > 6 > > > > % : @ > u 2 4 @ @ > = @ < @ > < > = > % @ = > > + < > % @ > + % @ @ @ > @ + ",
"p u 6 5 6 2 u p i 2 4 @ @ > = 4 7 2 0 i 2 u r < 0 < % 4 7 0 2 p z p p U G u f H 2 7 0 7 r p x x i d x c 6 r H f 2 a 0 d 0.6.5.7.w.l.{ 5.D.N.6.s i T d &.#.8.7.7.x.i.q.p.+XC.G 0 H p p +.L I I G L d G } L L K z d L y.6.#.#.#.#.5.{  .} 6 z z p d +.{ { $.+.{ } 5.@.+.p u x x G G 0.w.0.H.#.l.H.B.k.#.d l z p Z I 8.8.6.+.O.} +.U @.+.G ) K L I { { O.{ $.8.7.#.O.G =.<.I O.O.8.#.#.#.0.5.8.{ I } z r I w.A.D.*X6X).(.S.D.6.O.+.U J G O.{ 0.&.O.I +.8.8.{ G H ) U #.L.A.+XF.k.L.z.%.5.#. .+.J U G n.q.#.O.6.0.8.8.$.$.G U K =.{ +XT.D.N.A.i.|.A. .x c p d J U r.j.#.8.8.O.+.O.8.I U z u J #.F.J.I O.&.#.#.~ G +.L ,.H d G 6.D.l.i. .9..X%X9.J c f G { } I ..6.G H ,.&.d J E d K K x x I I } G S +.{ L x s d l 7 K #.#.l.w.7.5.*.O.w.{ d d x G L $.6.&.&.+.I { L 6.L s s x K d G 9.B.B.B.k.w.l.l.q.&.p u 0 u K G P H I J x G G G c U 6 0 0 4 p G L L U G P G G U x 0 p f r r H s l d d d c c 6 f z 9 @ 6 H s d p H s x z d p f = 9 p > 6 c p f 7 6 6 p x = > 9 : + d x r t d x u r p 6 = 4 @ > < > 0 0 @ < 6 9 > @ < @ > = @ > > : % + @ ",
"u 2 i 4 0 0 0 p - = 2 > % q > i u 0 > 9 u u c 6 = 7 < > 7 i p d r r d d d p p d d 7 < 2 H H p x 2 o.s p G x d K 4 4 9 Z 0.q.2.9.9.q.2.q.Z.A.5.d 2 = p l.Z.i.9.9.q.'./.9.u.%X#.6 0 r G +.Z L G G +.} U I { L J z p { w.9.5.#.5.#.9.8.7.{ J 0 7 p I O.{ #.[ #.#.L 0.+.{ ^ 6 d c s 8.p.9.9.k.9.q.9.N.`.A.I 6 i d O.H.5.{ #.{ L &.O.L J d 5 d 0 U 0.5.w.O.L w.C. .O.%.d U O.L 6.w. .{ 7.l.9.A.9.#.&.Z E U L @XA.9.Z.S.(. X`.).D.#.+.U d ~ #.%.5.#.8.6.8.9.l.j.I u U c 7.@XV.q.7.i.`.N.C.C.sX .L K -.L O.l.0.v.q.9.i.N.q.l.L U ^ d 9. XN. X}.`.(..X}..X8.d u K G r.{ 7.8.5.5.8.x. .7.m.G l E L 7.C.#.q.#.%.7.H.O.I &.G +.G x &.Z.:XXX`.5X(._.^.tXI > p G ,.O.G #.j.I +.L L 6.+.d d K U G I +.O.$.I &.#.F.#.+.U r b 6 J 9.D.#.0.N.q.9.w.k.5.x f K P G #. .5.8.6. .8.{ #.B.>.l 6 K G { i.Z.Z.Z.i.i.9.q.p.D.+.d p l c Z I +.L L L } { L G L p d 0 0 p G { L L { { L I } L s 2 7 p Z P L s H G x p G d - > 7 = 7 d s d d s d d f 6 p K 2 > 2 d p f d x f p d s G f = < @ O Z G p u x d G K u d z @ : @ > < > 2 > > 5 2 = < > > % > % @ @ @ + @ = ",
"6 5 u 2 2 0 7 6 6 u i @ > : 7 i r i 5 < 6 2 7 2 0 i 7 9 q > d r d x d 6 p f p d x > 0 9 d p p s p d s p Z p x x d > @ J 7.7.5.9.5. .q.{  . .#.p z i J q.a.Z.9.9.B.q.i.5.0.q.#.f 4 u P U Z P } I L { Z d d { d 6 r { 8.B.#.q.q.L 0.7.{ 5.8.G x d L L { I L { L X.L { I O.H x l d r.w.9.q.7.5.7.q.N.Z.A.{ ! =.s ..B.#.#.{ { #.L { U P d d x 0 L 0.5.5.8.O.7.l.S #.#.U I G G 6.7.q.k.#.8.5.N.N.q.O.d H G d L.A.S..XoX.X/.N.q.5Xk.L K +.{ #.8.#.#.{ #.5.5.#.7.l.d U p 7.q.7.9.l.9.Z.A.N.q.D.v.d i p >.{ L 8.#.#. .9.A.i.N.G a K G B.S.k.*Xi.Z.|.%XS.(.C.#.J J G J.#.7.#.8.8.{ 6.#.5.{ I P x +.0.7.#.{ { 6.0.8.{ 0.B.+.s K L w.D.u..Xq.^.(.i.Z.+XO.G c u G { { L O.I { $.O.&.I L d p p I #.{ I $.I { L P G d K p c p L 7.q.7.#.{ { #.#. .$.I x i d G l.5.5.S  .2. .#.I #.&.G l p G [ i.i.q.#.7.N.9.#.#.i.w.u N f = x G { L s Z +.d G L +.P 6 9 p G [ { I L { { Z G L { x a > q d G d p Z d x s G d 6 : 0 0 u d K d d r G G f u p p > 4 < a l d x s x d x p s l 0 < > q d p r i u p r d s x 6 > > @ > l > = 9 > = 0 > 0 < @ < @ % % O % @ 4 @ ",
"r l 2 7 i 0 6 d 6 7 = 0 < > @ > 0 6 u z 2 i 7 > p p > = @ u u p u d d s H p d Z u > u u G s x u p f x d G p x G d q @ s #.7.#.#.7.I I +.{ 7.$.s i 9 G 7.i.A.#.9.p.{ k.%. .A.{ 6 a l G U G G U Z d I G x p G K u p x {  .2.7. .{ { 8. . .5.L J x Z I 6.L I +.{ { G 8.+.I G l l x  .5.#.7.7.l.7.q.N.9.N. .P P d 5.7.&.G I &.#.{ { s.L K J K G $.0.B.#.I 8.#.{ r.j.7.) c ) =.6.q.N.B.L #.l.9.p.#.8.{ U G j.|.N.).Z.S.9.D.L.N.,XN.I d Z { v.{ j.8.I y.#.l.B.#.8.I G l #.C.H.A.A.k.q.F.B.q.5.#.s c f H v.&.{ O.l.#.x.8.q.T.L K ) L 7.XX#.)..X%Xp.A.B.).L.{ L G G G.C.j.{ #.{ O.8.l.5.&.} J P +.&.6.#.+.8.7.w.{ O.{ #.{ u G L l.].i.V.B.N.*XN.N.|.#.x l l P 8.x.{ I L L O.{ L { &.=.H d { #.G G =.I I G x J +.c p l G +.8.#.7.%.{ %.l.0.#.8.+.r l 0 { w.#.O.&.&.w.#. .#.G { x r p x [ k.9.B.5.7.l.5.5.6.q.8.- 6 b d L O.I G H H G U J P Z x d 0 > P L G L L { [ L G G #.f p = = x G i c G x x x d G d @ 0 6 6 f u s l z x d 6 x K x 7 6 % = K A p d r d d d s - > q > 4 u 6 u r 6 x x d p x = > @ @ 2 d > = > 0 < @ 9 @ 9 > % % @ > % 7 @ @ : ",
"i 2 0 p 6 > u p 6 9 > 2 > > < > 7 6 7 p 5 i p > 0 7 9 7 0 p l u 2 i 5 s G r d d r d c u s G x d d p d d G d d Z d z 9 G w.{ { #.5.#.&.e.5.9.0.s a 8 p q.i.5.6.B.9.5.q.5.N.N.[ r f 7 l { G s d d d { U U U L K 7 u L 6.5.5.#.5.w.L { 5.7.G.d r N d U G I G } { { L { I L L d x d w.w.5.#.0.q.5.5.N.oX).{ d c d 8.q.O.L +.{  .8.8.#.{ &.d u U L $.6.5.#.{ %.L &.&.9.E u l K 6.5.%.8.&.#.8.w.7.{ &.%.a p 7.|.Z.S.a.`.Z.q.k.|.Z.).$.) G +.&.I 8.8.#.{ &.#.5.5.O.^ G o.N.L.0.0.7.C.k.q.0.#.0.v.+.! d p w.B.#.l.8.#.O.8.#.q.O.H c d q._.V.).i.Z.p.A.Z.`.q.L U +.L &. .5.I l.7.&.0.L.q.8.I l d L x.{ #.8.j.#.O.+.*.8.l.m.d G Z V.N.i.N.p.C.7.N./.D.O.x d G t.$.G &.O.I L %.I O.r.d K f d G $.+.G L I I $.L ~ &.G p K d ,.$.Z #.7. .8.I { 9.l.G 6 b s 6.C.{ d &.#.G { &.{ { 8.d G G x #.B.q.5.5.B.q.#.B.w.7.#.d p f Z I L O.P d U L I G d x d d z = s >.{ I L { { L G L 6.u r u u x f u f d d p p s x p i 0 2 0 d p p d r x p u u s x 0 % > r Z P d 7 s p p p p f > @ 9 @ d c 6 f d d 6 5 p x c = @ > 9 s 6 6 > > 7 > < @ > < @ : O @ > 9 @ @ > ",
"u 9 r 6 r l > d 6 c = > = + q i 4 6 > > u f 6 u 7 7 = p i 7 c u d p u G U d d A x 2 i 6 l H L U d d s l p u d s u 9 + Z 7.#.0.6.9. .[ { 5.9.B.G a = f B.i.5.#. .q.a.i.{ 9./.7.H l 7 G #.+.d H L G { L d L #.P 6 z S 0.7.{ 5.0.p.7.5.5.5.8.U 6 u p +.G &.+.I L #.{ O.O.I J P d Z l.N. .B.9.5.L.9.B.'.S.+.p z u #.9.O.$.6.L 7.{ { 8.8.L d ^ G I #.5.#.j.8.6.{ $.{ q.d G f s 6.l.q.6.5. .#.q.#.6.6.{ z ~ 9. XZ.^.XX`.}.oXq.|..Xi.G +.G } { I { 8.B.I O.5.7.w.&.x U G V.S.9.q.N.D.7.V.z.l.A.C.O.+.+.W 7.7.q.H.6.8.w.B.6.6.5.U c s @X<XV.N.). XD.q.`.`.K.+.d L &.7.w.7.#.9.A.5.{ #.5.8.I l c I #.5.7.0.5.5. .{ I 7.A.{ P J G H.*XZ.S.A.N.A.9.S..X{ d =.L { J G #.#.L P { { #.O.K 6 U p K I +.L I { { L 0.{ } I L H r L 6.{ B.q.C.9.L +.5.5.U 6 c p #.T.{ L w.{ 7.v.8.{ 0...d U ~ L L 9.7.5.q.9.9.9.9.q.p.L c u r x #.{ I I x G I Z L { d d p 0 i d I L d L &.O.G I {  .x 5 H d u l x d d d G G G G d 6 0 6 6 K G x d r 6 p d r r K 7 $ > H d G r p x x 5 p G p > % > @ d x 6 G G d s Z s Z i + > @ 9 p 5 7 = = > 2 > > @ @ > @ @ < = @ @ > @ ",
"f 6 x p u 7 > p 6 9 > : > > > 2 5 7 6 9 > r p i 0 < = 2 > 2 r d A l p x L 6 l f G > 7 > z d s d i Z P c u 6 p p 2 a p Z 0.5.5.5. .5.#. .9.q.#.u 9 9 s v.9.i.q.5.9.i.9.[ 5.i.9.r = z d G S P I d I d L { I G L a f L K.#.5.#.#.7.l.9.7. .O.! 7 u G O.O.{ { { O.$.{ s { >.s H G { F.q.q.i.9.D.C. .0.9.D.{ p H f { 5.#.#.L { 8.{ L 6.{ d K ! d +.8.#.7.#.#.#.#.{ l.B.P L d G #.q.9.9.9.B.8.{ B.9.O.L H L #.%X(.^.`./.A.S.9.(.}.A.d P L O.8.O.{ 8.#.#.{ 6.7.0.O.J U G Z.).B.C.C.N.q.7.N.9.7.7.I G G =.l.C.0. . .l.B.[ 7.w.+.G J L A.^.2.N.S.(.S.|.i.Z.L.+.I U { 8.{ #.0.6.#.I #.8.#.{ s ) c I 6.l.0.{ 7.7. .L +.L l.r.L U d  .).Z.i.A.|.N.S.|.|.{ K E I I +.O.I #.x.{ 6.&.#.&.} l K K G G I { J I $.L 6.L { +.G p p { w.q.5.0.l.5. .#.q.5.+.p c G { C.{ #.#.5.B.0.{ I { $.U 2 K d { B.q.5.9.9.i.N.B.0.Z.B.p p l s #.{ d I +.L +.L G L c d 5 z 7 H +.{ +.G I [ { { +.I H u 0 r p x s d G d x G H 6 - > d p 7 G s d f p d s u d 5 x 7 0 2 p Z s p d l p p x s 5 > > @ : G s d x d G d G s p 7 @ > @ @ 7 7 = 2 8 > 2 7 4 % @ q < @ > @ : @ > : ",
"p > 6 i 0 > 4 6 2 a < @ + 7 c > 7 2 5 4 4 < 7 4 i 7 < 8 < 9 p x L u 5 d P p c u 6 9 9 7 6 d a i < r G 7 u p z l 6 i 2 G 7.5.#.9.0.6.{ #.w.w.&.2 i K d &. .q.p.k.6.7.v.5.w.l.6.> 1 < x U L { L G +.U p L +.G p f d { 5.{ { 8.q.{ I 0.k.#.#.H u K P L I O.O.$.O.I L G +.$.d x d #.#. .0.q.N.9. .#.0.q.L.#.Z G d P O.{ $.I +.{ O.+.L E d c x x { #.#.&.{ L 6.x.{ 6. .P 1.J L 8.9.i.q.7.7.#.#.D.].8.x P L O.A.S.,X(.5.q.C.B.Z.).U.x =.6.0.{ v.5.8.O.6.l.w.9.#.L d ^ d N.C.q.q.5.7.k.7.A.N.K.#.=._ p A 9.8.O.*.8.7.A.#.8.8.L K -.G A.oXw.p.|.).S.i.N.oXq.Z G K I #.l.{  .L +.&.l. .q.K.I U d ~ l.5.#.O.k.C.7.#.r.$.q.+.p K p F.|.Z.V.9.S.q.9.N.).x.5 p i G j.{ L G } I 8.{ {  ...s p x I L } +.} L G } O.L L $.d K c d 7.7.#.{ O.O.#.L 5.F.d 0 H p I B.q.#. .#.5.5.{ &.G +.G p c 2 B.N.5.w.0.Z.i.i.7.5.9.].d 6 d d I I G H { { L I I G J u d f 0 d { O.G G G L L x G P G = : 7 J G x G U p x d K 6 9 + p H = u c u s f d d 6 c d 0 > > 4 2 p d d d 6 p x r x p 7 9 > u p f d d u u d d d l i @ % > < 7 > > 7 7 9 7 2 7 < > < > @ O @ > > > @ ",
"6 p 6 t d p 5 p 7 9 @ = = = = 7 4 c 7 6 p 0 6 6 r 6 7 > = a r H L i 6 d d d Z L d 7 > p H d f l 6 d u s G p 5 J H < > L 9.9.5.5.5.9.#.{ { 4.w.p a < S Z.a.5.#.7.a.9.q.q.a._.9.6 z 7 r { L d J I L I G Z U x G p 2 8.q.#.$.+.#.q.#.$.q.^.).G 9 f P 8.{ L =.G O.$.#.#.&.U H U d I j.9.A.N.9.w.6.6.q.B.q.A.I K G v.0. .#.&.{ L { I +.5.{ d z p } 5.7.{ { { { v.5. .4.x @.+.I +.#.w.5.q.l.8.#.O.&.U } ;.G I +XD.Z.A.`.D.B.B.).`./.#.G 9 U w.q.{ %.#.$.U L I 8.^ p H ! A.q.#.8.P.9.D.C.w.q.@X5.{ H ! L l.+XB.{ %.{ r.I #.r.{ G =.J  .zX_.N.H.7.q.%XN.I.V.{ I U ,.{ { &.0.#.O.$.,.O.0.v.c a r r.l.O.#.h.y.#.#.O.U ,.0.v.I u x F./.u.`.&XZ.H.v.q.*XZ.O.b z G #.8.{ G I L &.&.0.#.I U K G I #.+.P L P U H K G I I U i 2 L 7.7.&.#.7. .,.E 8.&.P p a K 8.N.L { 6.0.{ { { { 9.5.S Y c x w.9.5.l. .p.7.O.5.7.q.w.s f r I { S G U +.} d G G x I K 7 i i s O.L x H I L #.{ Z G L G u < 7 p d x z r G H p p p 6 u u 2 x p G d u c i d G G = @ 4 f p d I p p 7 c 6 u i 7 > : > = d z r r f 6 r d 0 i r > % % 9 i = 6 > @ > 7 9 9 > O O > > 7 > @ > 7 = ",
"0 i 7 i 5 p x i 2 > + > 7 : @ i 2 i i 5 6 > > i a 2 > > 4 > 7 s d p p x l p s U s 7 0 i 6 x x d c d u H d x r d f a > d 8.q.5.0.$.5.#.I &.p.#.d z 0 s P.9.5.0.0.i.5.B.q.q.K.+.i 6 0 p G G d G L L G U +.G d P l r L 0.0.5.#.{ 0.5.O.5.9.0.d z 0 p 8. .L L O.L { { { S x r b x U F.D.9.Z.A.A.B.9.9.Z.A.8.d x d +. .&.} I L &.#.L >.6.U u K x +.8.{ { 8.#.#.#.#.8.8.+.~ l +.&.#.5.7.7.5. .#.5.8.&.d G d L @X.XS. X X^.OXZ.(.oXS.O.+.f O.#.6.n.#.#.{ #.8.#.j.G x G U 5.B.C.7.7.q.N.q.5.9.B.2.8.G U G O.7.7.5.6.#.k.{ 5.x.I J ~ L w.,X XXXS.i.(.Z.i.).B.G U U I r.+.+.#.6.#.{ I I w.8.x x G 8.&.{ %.0.O.7.q.w.L #.q.&.I l d 8.A.N.%Xq.Z.i.q.9.N.l.G d x G $.&.>.J +.G L #.8.$.+.d K d +.{ I { &.L I ,.U s #.I P K d J B.B.#.#.A.9.G I L &.>.6 z H 0.0.#.&.{ 7.#.L { { 0.v.L d f r #.i.q.i.A.q.q.9.p.q.i.0.r p p I +.L G G G +.G G d P L s u 0 a x L ..I G { { #.I L U z 6 2 9 u 5 U r G d d d s u l 7 6 p p p p x d p 5 5 r s H x < > 2 r G I d s - d r p p 6 = > > @ G p r d p s s u p s a @ @ > > 7 > 9 6 4 @ 7 < = = 4 > @ = @ = 4 < 2 > ",
"6 7 0 > 8 6 i < 9 9 < 9 : @ < i u 9 i 6 p : = 0 9 % > 9 9 > 0 p 7 u d p p < 7 l 6 u z 7 5 p G G d x p x x l d c i 6 > 2 I 6.l.&.{ #.&.$.{ m.>.r a q < G { L.l.0.v.&.#.F.6.{ 5 > 0 a d u f +.L I G d U x d G d 2 l p &.B.5.5.w.l.p.#.x.>.x d u a > I 8.O.+.&.#.+.G 8.{ H c x 0 U R.|.(.`.%Xi.XX Xq.'.+XI 0 i 6 +.#.} L &.{ &.I $.#.I G s ) U U U I &.0.J.#.O.L O.x L d l } q.N.w.l.B.q.5.B.0.9.v.d O.#.d v.|..X X,XjX X}. XXXB.d v.d P >.+.O.#.l.#.8.l.J.#.L U P K  .=Xl.A.N.T.K.Z.D.H.P.#.I I x =.+.{ F.l.l.N.9.B.B.w.d U U G #.*XrXXX X.X,XS.S.|.v.r T x d &.r.U #.q.k.7.&.8.7.8.L =.=.I 8.w.l.0.{ 9.L.K.6.7.{ { G U H y.C.p.D.5.Z.Z.Z..XB.L p +.+.x ^ Z L } p U L I J v.x.p x d L I $.#.#.{ &.#.S { 8.$.Z G -.L v.D.A.N.7.l.9. .#.n.U G G r Z 8.{ #.#. .$.&.l.6.{ L d z x r &.w.A.A.i.9.i.i.i.5.Z. .= u r G } U G J s U x K G L +.x r i 7 p L #.6.{ {  .O.Z P S < > i > c J I G G G c u f G u 6 i 2 5 d x s p x x d K r r H 6 > > 9 f x U p u d d G G f 7 > = > s d s d s d x s L U = > 7 > = > @ 9 2 6 u = @ @ : > 7 < @ % % > % > > ",
"7 = : + > > = + = = 0 0 @ = < = i > = 2 > > > 2 = 9 > 7 > > a = 7 i 7 6 0 > 4 > > 6 0 < i 6 r u d u 2 u 2 6 i 7 > i z a 6 Z Z p p Z d s d s s p 0 7 i d p Z s s d H s G Z H 2 6 f u r p r z 6 x d x x z p G H p p f Z L #.{ p Z ..I d u d K i p r P L G x G { I J L J J c c p G L 9.k.7.5.7.N.@X{ D.#.r N a d +.{ d L U I d d @.{ G I P f u s I { { I G d +.{ G x U d l +.l.7. .O.{ #.8.w.#.#.{ 6 $.&.>.{ #.N.D.9.OX}.=X9.l.{ +.L x I I Z L x.v.#.{ I L G U L L G L 8.7.0.5.6.{ B.5.5.{ d U ;.G I &.I { { 8.#.j.v.8.{ I ;.^ c I w. .q.N.B.K.B.7.5.#.P H K U +.O.d &.#.8.&.L +.6.I +.G G I j.{ #.&.v.#.#.#.$.$.{ &.G K u O.5.A.B.K.7.q.D.V.6.x =.{ I x =.d I +.L O.&.j.{ L P U J ) G G >.L $.{ +.6.{ +.L d x H d d G { 7.#.{ +.#.6.#.+.d x U x d { G { { } L I { { I d G K f x S O.5.8. .B.T.#.7.#.+.G x i 6 l d Z d U x K s d L { =.p c 6 p r U L I &.L U J G d G c p 7 9 6 r s L d G K 5 G c p p 4 > 4 p r x d 6 H s > 0 p 6 u > 7 < 0 2 d d c p d L d = < : > @ p H z r l G s f l 6 = 4 = > 7 p : > i r 6 = > > > > 0 0 + + @ @ = < = ",
"< : @ 7 > @ > : @ 9 9 > = 0 9 % > 0 < > < i 6 = u 0 9 7 < 7 6 7 0 4 % > > z i 2 4 i i 7 a i > > > > z u = z u u 2 p 0 0 6 p 0 0 7 p 5 0 i = t z u l f l 2 l s 2 6 x f d f K 6 0 p x K x G z = 9 - K p p d G d l K r K z > 7 l x u l d L U f p r c c r H d t U x G d l p G d u c d L L r p I d 5 f d s x G c c G p x J 6 K f G G x c L G K K H U L x U d K I L c =.G U c p G G { I G s p L L I L =.L J ^ Z G G d L L L G Z U x U U c.} Z } x U J x L I L ^ U d U L G d G Z I L x I d L +.G K G G K U U } G I s x I x ^ U } x l K H d s s d H s Z L I } x P G s U } I d I U d x L d U U I L r.Z } G P x } L d H K G x K x G { ..{ &.c x d S #.L d I d ^ J U U x P { J I L I G G ^ G l l G G G J 6 d d G G G z x d c x s r 6 l 6 r G d s d x x K l l P H f x L G s L p p x d x x d G 2 f d s d d p u 4 u K 9 z 6 x G s x p 6 c u x r 0 u 4 = f E l = 2 f u 5 = i p d 0 u 9 0 u l 2 2 - p u 7 p 2 6 6 > 9 6 u 6 6 p = > 7 9 7 > 7 > d b 6 < 0 - 6 i 2 i 0 7 > @ > < i > @ > > 7 > > = @ @ = @ : 4 < = % @ % < @ > = > + < @ @ % : @ @ O = > ",
"> > = q > > < @ 0 < > > > 9 < + > > > > 7 u r 6 0 2 7 < 9 q @ 9 p < @ q 0 0 2 a 2 p 7 p u > < z 2 < 7 6 2 > 0 i 0 a 7 6 l z 0 < 9 0 p z : q a 6 u u p z u 2 z 7 7 p u 0 z u l c H l u H d 0 7 ! Y u x l p d K l P d l 0 7 c c c 7 z p d G u z K p c z c p 0 z p c p z c c K l c 0 l c 9 0 N z N f a T U G 5 u c K U U p T a x K p K U G x u u c U d c a l x ^ G d U } x ! l c ;.J ~ ) x -.G f K G c J s =.K d l K d ! l H K K x K U I U ,.c K x K J J K K d G f.,.G <.H ! <.E i T ) ! ;.G d U I K <.P -.G x H E H K K I K s U U K ) c b K b ( :.K J ;.G x U G ;.P J G I d d +.K G G +.~ U +.J U +.x H =.G G G p K K 6 K ' ^ } L x l c ( G +.I >.G p -.G s U Q c =.l K H =.c c ! G d l l H x c M ) z K K G x u x l z K c m p i ) d 9 K K x d u i d f i i l H c c ) q l i d U K K T 0 z c i c l a > j p p d f z p p c c H d c f K 9 9 i a u f d i q > < z > : q i u i p 4 7 K p q 4 i 0 7 < i 7 7 5 > @ p 0 @ 9 7 > < @ > < 0 0 = 6 6 u < > < > @ 4 < > @ = > 2 0 p % % , > : q > 9 : % % > : @ 8 = @ : % + @ @ @ > % % : @ % > @ > > = o ",
"6 > > % @ i 0 2 > > % > > % @ 7 p 9 i f f d 0 0 = < 0 > = : > c t 7 2 < < u > 7 7 u i > q > 0 f f p 6 c d u r 0 7 0 u i 2 > 6 2 4 i c u = 6 6 7 6 6 0 u l i 6 7 s r p p 0 i ) K d z > r s L L { G p s G +.p p u c u u l x J x G d p z c p u c c p x c z u H u 0 f H G K x d d ) T p i c U l i c d 0 p d x L =.u K p r d p c U s l c K U G d l E ~ x d K c 7 U K H U U G U K K x x G G G G P c d J c K U c.U U x d U ~ } U U ^ G K H x U U U Z { O.t.U K G x U +.G I Q x x L H i c p u J @.U L x x U G 6 G U L G U P H c P L { +.I ) K H U l H =.U J H H x } K K A x Z { J I J U >.L x U J G } I ,.G G } J x I ,.P c K U G f f p c ! K x ! x U U x c U d L U x 0 f 0 2 c x d K d x ) G G G l p K c x ^ G G G s f d U p d l i a l f i K x d ^ f K c 9 4 2 b l 0 z 6 7 p 0 c u u c p c K u > a i 7 u N p p x K K u p z = G +.5 9 2 % 7 0 d x p r 7 9 > 9 0 a > c b 9 > 6 x u 2 9 + 9 2 9 < = 2 < c 0 d u 2 i = : > : < > 7 a 0 > 7 > 6 4 = < > > @ 9 > < @ : 0 = > > < q % % < 9 + > > < % > @ = > > @ : > O % O > % : > @ @ @ @ % = @ % @ ",
"p 6 < > 2 u d i > > > 4 @ o > f L p u d x p d 5 2 a > @ 7 9 = d x u z 7 7 p p 7 < i 9 > > 6 H d L I G L L U p i 4 0 r r K r d G I p l J P } 5 a z 4 > r K U x P P G G I H p d d c i u P w.A.A.0.k.v.r.q.0.c.5 6 z x K x L +.O.#.+.U G x H d f p c H Z I { $.+.L ~ { G s G c 0 l G ^ Z Z +.G s U P Q G p d I ,.x L G $.,.L { 8.} $.d s Z x c G L { #.8.#.{ { O.{ d v K J U G I I L I $.7.#.L } U K G U O.L { I 0.O.{ #.I { 8.{ >.~ K U O.$.8.x.m.6.#.#.v.I J ;.U U I O.5.k.k.7.O.L r.#.{ &.J G ) G I r.6.L &.#.6.&.I +.d G U O.r.I G &.I I &.L O.I u c K x p l L =.>.&.%.8.#.&.L +.+.L G U I I +.I { r.#.O.*.>.&.U G :.r x +.O.{ #.L &. .{ L G x c x d 6.l.O.} L J L J J I L G l K x I O.I I I G G L $.+.x J K d x d I { O.I P Z d l G L G c d G d I P G L L U G P { J G x 0 p f p L I Z x G d d H p 5 K x 0 5 H L L } I { I U H 2 > H d p > 0 f p t c u r 5 6 0 i p u i u d d 6 d p d d d 6 z i 7 r < @ a z 6 9 6 7 z p 7 2 > > > a @ < 7 6 > = 7 x u > > 0 > > 4 0 = = = @ > 6 7 @ < @ @ @ > = > @ + 2 > @ O > > @ @ > 4 > % > 7 @ @ > ",
"6 > l p H p 0 6 f 7 % > @ 7 a 7 Z r d u r p d d d u @ q 9 6 d s d p u 6 p x G U u = : 9 c G G P s L I G I G G U 7 6 i 5 U $. .[ 5.#.#.+.{ 0.{ 6 u 4 6 G { L G ~ Z d Z >.{ G d c l 7 +.].q.q.9.B.A.9.N.5.q.B.L x z G { 6.{ &.L L 8.#.+.8.$.r E T 0 I l.l.8.{ F.w.5.l.l.#.=.= z U U G L } I { $.+.I $.{ d ) K L 8.z.L.C.N.D.w.C.D.B.l.{ d c i x R.N.S.I.+XN.|.S.C.5.L G G 6.2.Z.=XN.A.).|.+X5.{ 6.G J I #.w.l.A.).D.7.#.L.Z.C.#.I +.K &.v.7.6.6.{ l.#.F.7.x.I u H P { T.uX,X.X,X}.*X.X5XC.I G G U G R.D.q.k.R.5.A.A.Z.@X} H ! L #.+.j.#.%.7.8.J.#.I x d K x I $.%.7.+.O.#.5.L.F.#.r.L +.,.Z O.,.L L #.+.#.v.I +.c.G H U L b.].oXyXrXtX|.,X+X#.I c p u &.N.Z.q.C.k.D.D.|.N.5.>.K c J x v.9.A.k.l.j.8.q.9.5.{ J T u G 6.8.&.&.C.i.q.|.D.{ U f c } I 0.L.K.l.l.l.B.0.A.S.#.d H c J L I L I +.} d G +.=.{ G p 7 p ^ 6.F.5.5.w.{ #.7.l.A.x d d d i d O.#.d } { L L d G { p 7 6 s G I { +.} U s H L G u 6 7 > > 7 f p 2 d 2 7 p d 6 p 7 2 > 0 u p d G H p x G p > > @ 9 = 7 9 f p 6 6 r > 6 7 > > > @ > > i i u 7 9 9 7 2 < 9 + : @ @ > % @ @ % ",
"7 7 5 r d p 6 = f a > > 0 0 > 7 s d c 5 f p f r f d > > @ 6 G p s l c G H p s G 0 9 9 2 s Z d G d G G G I I { S 6 9 u p +.#.5.0. .[ &.L { 9.v.d b 7 d +.L { { +.L G { { I +.} r 6 6 5.Z.u.Z.5.q.i.q.i.q.9.0.L l 0 p &.5.L I O.8.#.{ &.#.6.G H c u O.C.9.#.{ #.q.q. .B.{ { b f G L +.{ O.O.{ { L  .%.#.I l z r w.V.5.9.9.A.7.5.i.9.].0.d l l 8.oXi.Z.N.i.i.).i.`.*X+.d P O.6XuXi.(.(.S.q.i.|.9.{ E U L { T.N.Z./.Z.|.q.9.Z.+X5.I d G $.#.#.A.l.O.6.k.L.[ &.I K H d S.S._. XS..X Xa.'.,XoXC.G U L ^ i.S.|.i.q.I.|.S.7X`.#.d K O.#.&.{ 0.l.l.5.q.N.G.>.G c U I x.#. .,.L #. .5.l.#.O.} L } G &.P.n.{ #.O.{ O.I 8.*.{ I J d B.pX X_.(. X(.(.).|.#.x c J C._.^.Z.Z.|.XXi.^.S.A.{ u c p I B.i.i.A.q.C.D.9.N.K.8.G p > L 8.5.5.w.k.i.q.5.(.L.p 6 U Z I A.q.q.#.9.5.q.N.q.N.C.p i b G L L +.G L +.L P P L { { u i p } 0. .9.5.{  .#.#.[ p.U p p T u G  . ...+.#.L I { P &.i i c r d O.{ [ S G L L L } x 2 6 z d f s 6 f H s p u G d p c = = 4 d G d s G d G G H f 7 > > > 6 r d r z r r c u u 6 > : @ > 7 r 2 7 6 6 7 7 6 > : @ < + % > > > @ : ",
"6 i > u 0 p p 7 2 p 0 4 9 @ < 6 d 6 u f u > 6 r 6 z < % % u G K p 6 p u 6 p H 5 p 7 0 0 d P G Z P d G x P L } K s 7 6 5 I L { #.{ #.{ I S #.$.2 4 u p J G +.L Z G [ +.Z Z L P 5 a 6 $.N.Z.S. .9.9.N.A.N.q.q.I p s G $.O.$.I {  .#.O.{ 5.7.<.u 0 G { 7.#.#.#.#.5.q. .5.{ d x c d I +.G O.+.O.L d P I #.{ G c x 0.N. .#.7.7.l.9.9.N.#.O.~ ^ p 9.:Xu.Z.D.9.N.N.q.N.}.L c K p 5.Z.9.4XZ.9.9.q.Z.6X#.I ,.G 6.B.i.5.).S.S.A.9.q.N.L.I H ,.I I 7.q.l.B.w.k.9.B.8.L K ) f 7XyXZ.).S.;X,X(.(.S.S.l.I +.J p (.Z.q.(.Z.k.{ 5.S.*XL ) G I #.6.#.J.w.6.#. .q.T.8.G K x G *.&.6.5.5.{ $.&.{ #.#.>.d G G { { #.y.#.{ j.%.A.#.{ { U G s @X:X-X;X(._. XS.).tX7.P x G 7.|.(.S.a.Z.i.q.|..X/.{ G K J { @XD.7.C.5.9.i.q.k.N.{ d c x +.#.7.{ L 0.5.#.5.N.A.O.U d G { B.#.{ w.7. .k.#.6.q.l.G p c s +.#.#.L G { +.I { I I { K d z s #. .7.5.{ #.{ { 6.5.=.d u a d ^ L I { Z L +.O.I d s l 7 > 6 d I L #.[ G I I I I U 2 < 6 p x 5 5 p u d G t z p 6 > > 9 5 d G P G s L d r d 6 > 7 > > p f 6 u r r i 2 6 l > > > < 7 6 6 6 i 5 > < 2 > 7 = > > @ @ % > : @ % ",
"5 6 0 < 7 2 p i u p 7 @ % @ 4 u 6 7 > d u 2 z u f 5 > 4 > p x s H c u p f p s x p i q p G L I s P G s d G x s x d a = 6 +.#.#.{ d #.I } { 0.+.u i 0 6 s G I +.G U ..L G P { L 6 7 > G p.`.N.w.5.5.N.5.N.5.8.O.d x L L +.{ #.8.L 8.w.#.#. .I u l x O.6.{ r.O.{ #.#.#.6.{ p r K L +.{ L d { $.G J S { &.} G ( ^ 0.C.w.l.8.#.5.k.7.0.8.#.x U S A.:XA.B.q.i.L.l.k.D.`.I U K G T.A.9.N.A.k.L.5.N.*XL L G ~ #.w.%XV.N.N.5.l.6.B.N.#.+.p #.O.r.5.8.A.9.5.6.l.5.%.#.K ! p ;X XN.6X).(.^.oXq.Z.tXq.L K K U .Xk.@X|.%X9.+.7.N.S. .+.U +.#.0.%.#.#.6.v.l. .7.6.x G U r.#.{ O.l.J.I r.6.8.5.8.p l K I b.} { 8.I O.{ #.q.8.G.{ =.E Z @XXX X_.`.,X.XN.(. Xq.x x d 8.).i.Z.|.N.q.Z.|.k.q.B.S x d 5.N.V.5.q.7.K.i.8.9.A.#.P G H x #.F.x.{ $.$.+.8.#.5.O.U p d { 5.#.8.#.5.7.5.#.I 0. .d H d d L #.L I I { L L I L +.L U 6 0 x 6.7.5.{ #.8.{ &.O.{ { s 6 < u I I +.I J x Z $.Z G H H 6 < < U I G G L G s G G I G 9 > > d x p r p 6 d G r 7 l H > 4 @ p G L G d G x p c c 2 @ > < < s u 4 i 2 2 p 6 0 0 2 a % > > 2 7 p > > @ @ < 9 i 0 0 = : > < + > @ > ",
"i > 9 = 7 u p 0 6 r 4 % @ > u r p p u r i 6 6 r c 6 @ : 0 r r 5 s p x r G x x G 5 > > = r G G G Z U G G d d +.+.p p < x &.{ [ { G { I L L { { s i 2 c U L G d U I d H J L $.G x i = +.L.i.2.7.k.5.7.0.9.9.q.L d U O.O.#.#.5.#.#.I w. .[ &.G I f i j.B.5. .8.{ #. .7.v.O.d x x G +.+.L I $.#.L L O.&.{ I 7 l x #.5.N.q.7.q.N.7.7.9.k.5.L K p w.Z.N.q.q.A.Z.N.N.7./.&.J x L I.Z.Z.i.C.B.q.A.i.V.5.I U Q { ].%XS.9.A.q.+X7.N.`.N.J z I #.B.#.#. .K.#.L l.7.C.&.p p H :X.XS..XS.XX`..XI.A.lXS.L c ! r.@XN.|.q.i.q.F.V.+X).R.G ! U %.N.C.5.5.5.G. .9.T.x.L G L #.8.&.#.0.5. .6.{ 6.5.l.x U x L 8.&.O.l.{ r.#.O.$.L O.+.d H s |.7X(.(.^.S.Z.Z.(.'.A.U ) G 6.).(.V.H.5.7.T.i.5.q.L.L s G D.S.N.B.B.A.9.B.K.7.N.l.G H d G #.7.6.L O.#.L ..7.l.} J K x #.q.6.0.7.N.5.5.O.w.0.l.+.d p u L L { L L #.O.$.I {  .#.K 6 u } 7.5.#.{  .#.#.#.{ y.+.p l i u G O.{ L +.I G X.L G H u u l 6 L } d I G U L L G +.H 7 7 7 f r x x 9 5 p u 6 d f p i 0 > 0 G L s I G Z x d r 0 = < < @ 6 u p s u 9 5 r p l > < @ % > r > > 0 9 < > > > > 2 0 > O O + @ + > % ",
"i i 2 i 5 z u 2 u 6 < + : 7 0 u t u p f 2 6 f r G z < 7 7 f x K s 7 d d H d L s x 7 + < p G G U u L L x +.G L I 2 i 7 d { {  .#.$.#.{ O.[ { +.d 6 2 l I [ { G Z L U L { [ L G c K r I i.Z.#.[ 9.].8. .9.p.F.#.p i L w.2.F.#.I { L 7.7.O.{ L G G G { 5.7.L.7.#.q.0. .q.$.G G d K +.} L O.#.{ &.#.&.#.w.K d l x #.5.q.N.i.9.I.q.q.0.+Xw.) d H #.A.Z.Z.N.A.Z.(.i. .A.{ s l #.,XS..XZ.7.D.N.%XN.N.J.L ;.G #.+Xi.9.D.).Z.N.A.B.S.q.L ) ^ L V.k.6.#.8.&.*.l.N.#.$.K ) P XX,XA.N.S.,X(.|.}.;X1XA.I z p #.A.N.|.N.k.k.D.Z._.|.{ G ;.d v.i.B.B.q.F.#.5.N.l.+.U x U 6.8.l.w.5.6. .7.w.9.#.l.*.H G ..8.%.&.%.+.&.O.O.+.&.8.L G =.I D.,X>X(.:X XZ.XX>XwX9.s K d #.|. X).7.q.9.q.9.q.B.8.J c d k.%Xq.#.5.D.9.0.9.q.D. .s c K G v.7.I #.v.l.0.8.9.0.I x J G #.A.i.9.i.N.N.7.9.i.5.9.+.s x G ,.{ r.Z ,.{ O.{ L { { #.Z l : I B.9. .#.{ #. .8.5.9.8.G u i u J I [ G L G L #.I G G p z u 6 I { G { G G } { L p d = d 0 r d x c 0 c z u r r d x = < @ u I d L P Z x G t d l 9 > < < 6 p l 5 f u p u p p i > = > > s @ > 2 > 2 7 > 4 > 9 6 > O O % 4 < > + ",
"6 7 6 d 6 7 7 a i i 7 % > > > 6 p u p s u 6 c G Z 2 4 : @ p G d I x d d G s s d H 4 q : x L L L G x G G G L P U l i 2 p ,.{ { { { { L O.6. .} 5 z a 2 L 5.O.,.8.L G $.I I { J u Y i G N.Z.9.0.w.9.z.5.A.p.0.G d x Z 0.5.8.G { v.5.6.8.F.&.+.p H P 5.9.#.%.L #.8.#.5.w.#.d H 6 f I G &.+.L O.L P +.{ #.$.G f G l.A.N.D.A.N.N.5.C.#.9.8.x H d 8.S.q.N.k.p.i.N.N.T.V.I U U O.S.S.|.A.q.A.q.7.tX).{ d ;.G 9.*XD.].A.N.*XS.5.%XZ.k.U c x L A.N.#.O.&.6.6.l.5.l.+.x d c ^.`.D.`. X.X(.oXoX`.yXN.d c s $.).N.k.N.D.D.Z.A.i.5X5.d =.G v.7. .l.L.A.8.9.7.7.5.{ x U } { 7.$.x.w.0.F.&.#.k.9.L G x +.8.#.#.{ { &.8.&.O.&.l.G =.~ { D.:X2X'.oX>X`. X X`.9.U c G 5.*Xi..Xi.N.).p.9.).D.{ p c d { C.+X9.9.B.p.0.N.q.z.#.G x p =.&.B.#.&.w.7.w.5.9.H.J x s Z { A.9.N.q.N.k.w. .A.A.B.p i K d { #.Z I ,.L { U P } #.{ x l : s B.9.5.5.#.#. .#.9.5.+.s 6 6 f L I ..{ I { L L { I P l 7 0 6 G +.L Z I G G Z } } H = 6 7 f c p 6 6 r u d u H G H = = = p G L G d G G d G I d = + : > 7 c 2 6 x p u 6 6 u % < > > = 7 0 p > 4 p u 7 4 < > 7 = : > > > < @ > ",
"0 4 7 r 2 q u 6 @ 2 p 9 > > % 7 l 7 i p f 2 p d G 5 > 1 + c S G L d s r x p i z f = 4 2 r +.{ d P L d L { L x K p 7 0 6 G L G O.G L P I [ [ >.z a 4 7 +.[ G G { L G } I L O.x < a 6 L A.Z.Z.A.0.7.#.i.i.N.l.d P d { 0.#.#.+.O.5.q.O.G { #.L c d d w.q.5.S I &.{ 6.&.#.&.I U G x U { I G U U I G H +.5.[ +.b p K.9.A.7.k.k.q.k.w.#.J.+.d K G 7.i.N.q.L.K.9.N.N.N. .L >.u O.B.C.7.O.S.q.R.N.S.S.8.G K G L.Z.N.A.k.9.i.D.9.).S.N.G p x ,.N.L.%.{ ..B.C.A.2.6.+.J K K 2X.XN.A.U.Z.).S.#Xq. XS.d -.G b.`.|.B.i.S.|.k.L.i.).l.K U I B.l.j.#.#.q.N. .8.V.+X0.x p d 8.8.#.O. .#.6.*.O.q.|.O.c z G 8.5.#.o.$.{ #.w.5.#.7...} Z L D.;X_.^.).;X Xi.Z..X .p T I 6.|.(.}.A.).5Xw.q.Z.+Xx.p f 0 d 6.K.7.#.w.B.B.i.w.{ &.I K p L O.7.7.#.#.6.#.{ q.7.J i c P I S. .O.%.{ 7.#.#.p.Z.p.L i s d { O.I G {  .*.I J L L J d 4 a d 5.5.0...L L #.5. .#.{ G a > 9 G G [ $.L S S G L G } G = c p G O.L p P G x d L { U 2 0 6 6 x f 4 r r P s p x d s 7 4 7 l Z L d r d d G Z L x % % > a > i < 6 s 0 p u > 9 : O @ > 6 > p r < = 2 u 6 % % = > 2 = > > > > $ 0 ",
"i 6 = 2 > l 7 6 p i 7 i 6 : @ i s > 9 u p s p i a 6 a @ 9 K s d 7 s d d U d d G 7 6 z = r d d p G G U G { G d +.r 0 > p 6.0.{  .0. .0. . .#.} 7 i 9 u $.{ L +.I { I { L { O.s f p z H 0.i.'._.Z.9.#.9.a.p.+.u x c J 8...L +.#.8. .t.{ 9.T.L i M s [ q. .5.q.0.5.{ { 7.w.I x x U I I G $.{ L +.d x x +.{ G B r q.V.0.5.A.i.5.9.q.9..X5.d ( l %.).9.i.D.q.5.N.Z.S.N.b T H  .7X'.9.i.`.D.i.).a.XX9.G b G q.%X{ q..Xq.#.#.5.5.5.r.G 5.m d v.K. .6.#.I O.#.#.7.&.d H G _._.^.;Xi.,XrXq.,X'.-XN.p ] K $.Z.D.Z.9.H.q.9.S.a.V.+.b K &.0.6.w.B.k.7.8.7.N.7.&.x d =.+.I { K.A.#.#.#.B.q.q.A.7.r.x d L v.{ G 7.{ { >.@.O.{ H M K Z L. X_.;X<Xq.Z.^._.<XA.L U x 0.`.;X_.Z.i.5.q.Z.~.:X5.{ I p #.A.Z.9.C.#.{ 9.q.q.Z.A.r H H c $.{ } +.J #. .&.{ &.L p b d Z 9.5.9.Z.i.9.q. .9.#.l.P r K G G L I &.L L =.d P L { &.G s 2 x { 9.7.#.[ 5. .#. . .z 7 p u d ) d L &.{ L { I { L { q 4 p r S #.{ L [ L G Z L S f > < 6 s G d x d a p 2 r c G 6 9 = 7 l d p d d d s G d G p @ % > 6 u 2 x p > > 2 7 7 6 i > > > > p d 2 = : 4 = > > u < = @ % > + 2 + = < ",
"4 7 i 0 9 < > 9 2 @ @ > > > @ 5 x r p p f x l p 6 0 = : > z d d x x p d H f f d 7 5 7 0 a x G x G L d I x U G d p 6 = 7 G O.#.w.&.5.$.$.&.{ p = 0 a 0 G $.{ G L { L L { L I d x z d r 8.q.p.T.9.w.l.A.A.G.d s x d p { 8.#.#.{ #.L +.#.w.#.G x c u +.l. .I %.&.[ #.6.&.I x G d K G =.I &.8.&.O.+.x.I L $.x p d 8.@Xq.B.L.@XL.B.+Xp.P.L x K l J $X|.C.l.k.D.A.L.T. .x i v I V.*X=Xq..X5Xq.p.].+XI U ^ P #.9XH.C.|.D.5.G.v.R.q.{ L v.x s O.H.#.6.8.5.J.j. .w.L K ^ l %X5X5XyX(.(..XoXtX*XuXq.L G L U k.L.+X$Xl.5.L.|.A.sXL ^ +.G +.&.#.7.F.5.7.F.0.j.>.K x +.d c.v.l.6.l.l.0.w.#.{ 8.#.+.s P x.8.I +.7.8.&.{ I &.{ L x U { $X|.,X7X.X|.N.5X,X5Xl.J ;.J 6.*X:X.X).N.D.l.q.).L.L J I G { P.S.).+XK.5.B.B.L.7.8.G K H d { F.I I 8.l.w.#.L l.I d -.G G j.l.A.A.K.A.A.K.5.#.v.s p d d I { L { { U G d +.G } U d p p d P  .{ I #.0.{ #.#.#.i p u p 6 u x { &.{ G G G I >.G , = u K G } { L G L d Z { I d > i x u G x c u r s s c u H p = z i z p G J G G G L U G r = = 4 > f r 2 f 6 2 0 2 = u 6 > > i = > 5 9 = 4 9 = 7 r 6 > 7 > @ % > 2 : 4 > ",
"> 7 = < 9 @ % > 4 > > @ = > = 9 < u f 5 i q 4 r z 7 = i 7 2 9 p p p 2 a 2 0 r > 0 9 u 7 9 u u d 6 x s H r d z 7 i r l i 4 f G G c L x U d s 0 0 7 4 6 l K x G L I G Z G G G d r r l f I { $.&.~ +.6...$.U G x x H u p ,.L P G +.d +.I L G 5 x U ^ 6 G 6.+.K G L { L U x l ^ x G p r G L { G x L &.6.G c K l d G { w.k.#.8.#.l.&.l.E c +.G c d [ 6.$.8.7.B.&.L &.+.c I H d x #.l.8.A.#XC.J.F.l.} H I L J I x.v.l.8.O.E.&.{ #.x.,.I L &.d { j.8.%.l.#.,.r.I G G J K I n.L.V.6X|.R.7.K.L.+.} 8.*.) H x.O.{  .G G.&.x.7.#.I +.$.U x ,.b.#.v.n.6.{ { &.L =.J P L v.6.{ L v.7.{ U U x.,.d ^ G { ,.I O.d &.O.O.#.{ 8.L L G ;.d &.].S.+Xq.T.l.V.C.F.G x E U O.9.N.l.A.7.F.O.O.#.L c x +.+.d G !.B.5.J.8.7.6.x.d x G G x G $.&.+.I &.B.+.#.6.J.P r U d G +.x.l.{ v.8.{ r.y.v.{ p f x H G } } I K d J L L J ) r u c c 2 L } U G >.6.&.+.>.x p l x H > r u U &.+.I G P G K p i p 2 0 u r >.P x U d I $.L l x i 0 u u r c c p G U f 7 p r u p O @ p p U d J G G U p p > > 7 @ 2 z 7 u u p 6 u 5 = > > @ % = > : i < > = 0 7 u > 7 9 > % % % O + 4 @ ",
"> : 9 : 7 % o > < % > > > : q > > 0 7 4 @ @ > 2 7 9 > > 2 > 9 9 = p 2 6 > @ q 0 9 6 0 2 i < 4 7 = 6 9 = 4 6 7 2 i r 6 9 > 9 u p > > 7 6 5 9 7 0 0 p x 7 6 > p f r p x l r z u c f c u r x p 6 l u x r 2 0 H H d H c l u -.x = K x x U r c p x K l l u G G p > E I U x K d H c G H K H f u u c d I L b d H ! d l G { G G H d d Z G u p J U G I U d L G I G d G L G L O.+.U 0 J I G I L Z I J s G U O.U ) d G x L U x d J G G L J I I <.' d x U d ,.d p G x ~ U G U x d G G { #.G Z G G x J U d c b G U L U L &.u G c L +.@.+.J x { } d L I d G I =.G G G ;.O.&.I I x J U d d J #.p K K ~ L G x J H I U <.I &.+.d G U K x L d *.{ { I G d s d ~ U d +.L J +.d d L L d U J u c x G L c u L { L G G G G x u K x K U L x i i p L J 5 x { I d U G x U 6 s L d s G p s H U d p ) p 6 s P G s r s L G d = p U p c u d Z s 6 c I d d p 6 u u l u 5 < T c 6 G r s d d 6 5 u d l < u > p p d u > u d p u 2 0 i > i 5 6 7 6 6 f 5 > 7 7 7 2 7 : 4 5 - p 2 6 7 r 6 < > 4 7 > 9 6 2 9 > > 9 < 4 9 @ = @ $ @ > = % > > 9 > > 7 > > < @ @ > @ @ % @ @ @ ",
"= O > = > < > 7 = > @ % 9 4 @ @ < 2 @ > 4 9 7 > > 9 > > : 4 < i < 7 z i q > @ z 4 9 2 r p < > a 6 > z 9 7 c u u 2 c 9 9 4 4 6 p 6 l 6 9 i 2 9 i z K x x u c i c u l i 4 p c l r p p u l f 6 H c x f K u u p u H p 7 z 7 c c z i p x b M z l x x l f d H s G z ) E +.x U J p K K G U H c b z c c f z N d U c d K K x T u 0 c 0 x x U G s G G =.U G +.G K z x G L +.+.+.c d >.} K G l p G J d K U ~ { +.K G U >.~ x W.Q G U G -.x >.H d U J U K z x U <.;.x U =.K K J U =.+.I K d U I ^ H I I U x 7 c.=.K ) +.G G ) K G J G +.x ;.&.G L =.K x ) G >.#.L U G ) =.x G c J K E ) L L =.U G K +.U L x P K d ! x J d G -.H d G <.G =.r.G J U v $.~ I J L +.G c c K J d c H K H f p H U L 6 u x x l x J d U ) H H s G K d c z l K x z M z p a H G d p H f K l K x b 0 d u 7 d K K G H l K U p d G d H i 7 c H p u p U d x p f u 9 0 u p i 0 p u p : z l u 6 > z 6 2 l p f < < p z < 7 p p i < u 6 0 6 < 9 0 7 6 p a < 6 7 < > 9 u = > < p 4 7 7 > = @ > = > > % @ > 2 > > > < < = < @ > @ @ > = = < O % 7 @ % @ > @ @ @ @ > @ O > > = > o > % o ",
"7 $ > a > 9 0 i 7 q > 0 > @ @ 9 2 = @ % = r u > 2 > < > 2 i 2 2 7 7 - 2 f 9 7 p 9 9 > 9 p u r p t 6 6 p r s d > i f p 7 a 7 l u 5 u 7 0 i f u 2 6 K u d p l = p H x f d f u p l d 0 6 u f x G d Z z 5 d i c d r l l p x x d U d s x d p t -.0 0 i c d K P d P G p p x +.d l x 7 I L p u p G G G d 5 6 f x p c ^ H u x G G 0 b U x G +.-.p x f.P p U d p H x x G G I ~ ) G m.L d P H G ^ I G I >.G G I c K G } +.J >.G d L +.x d G ) J L { { J U p L +.P G +.L +.G K +.G L H x J G ,.U x +.I +.+.I %.G L x P L { G +.d c =.U G I { +.} G l K J I d +.U U J d d K =.L +.r x I P U =.U ;.G G J =.~ L l d d x L ^ U d H ! P =.x x +.x L +.c G L I +.U U G H d K U I l x L L U r ;.U G K x f p H G r H G x d x c x G H u d d x d d p r a c 7 x ) x f x d 6 x c u p K x d K d d L G p u 6 s +.G 6 z 0 p d r p c x x d x x c a q b 6 z a 7 7 0 z > > r 9 9 9 i u c p 0 x 7 9 u = i > 4 i 2 l i = 9 i 7 4 0 u 0 7 7 7 0 9 > % 7 u 7 0 < 2 9 7 i > : > 7 > < % @ > < 7 9 = @ 0 9 < > > @ > @ @ 2 9 @ @ % : > < + @ : > @ = + @ : @ > > = > @ @ > ",
"> = 6 4 > 7 9 7 > > + 4 2 > 9 9 7 0 c 0 p f r u 0 9 < 9 > 6 p G G I G G U I x 6 7 z 7 @ = P #. .{ 8. .5.5.{ G r 4 p 5 2 2 6 U G d G d p p P d 2 i i 0 G I L P { I O.{ L +.G s c d L I K G U G $.{ t.L I K 6 K x 6 x $.F.C.0.{ l.8.#.5.0.L 6 z u d l p +.G G +.L G I Z G x H G G +.{ h.k.B.A.N.N.+XH.L c d H U x U G I &.&.L } U U J U } J K p L 8.+.L ,.{ L =.G x K l l U O.{ #.I #.l.#.{ { O.&.=.G L J L O.&.&.r.I r.#.$.I r.,.+.+.I %.8.H.w.8.v.l.q.0.L U +.U +.+.+.>.{ >.I O.P { I I I +.O.x r.8.#.0.#.B.C.6.8.r.+.U G I c.x G 8.l.6.#.{ 7.B.L H ) G $.+.U +.O.O.#.7.8.L x +.H c G L x.E G F.l.O.x.r.O.#.O.J G G ~ x x G { +.G O.#.I U L =.G x H d ,.8.I { I O.L { L L x U u r ) G +.O.[ &.G L I L +.H K U G U G 7.#.#.I #.6.[ L d p K G p G x x { G d I G G G +.s H x G K l x x d P I i 0 d G r z x p r x f 7 p s x r p r G l 2 6 l - p E r i f x d r l u u c d p f 0 6 i i f 2 u f 5 p 0 > z 7 7 > > z 2 6 u u 5 2 4 r z 2 > 0 0 7 = 2 0 2 > 4 9 7 9 > > > > @ < u < @ = @ > u 6 = > @ > 9 @ @ > < = > < 7 > 9 7 > @ % = > = < < > ",
"7 6 p > = > > 9 7 9 > > < > = 6 6 9 2 r f p 6 r 6 0 @ > 7 p G G d Z x G d { I u r 2 : > r 6.i.5.p.9.5.0.7.9.6.+.= 9 6 N p K G I Z G I +.d d G u z 9 p I #.[ $.6.L  .#.{ 5.x.G i l G U Z U P I &.5.U { { +.H l 6 l G q.i.Z.A.9.q.q.0.5.N.v.G d z x G L $.$.{ $.I #.F.>.x u x K d &.&XZ. X;XS.(. X_.).).U p H G G { l.5. .#.8.#.#.8.I G G K d L 8.8.+.I F.#.B.v.{ U H d K U +.6.R.7.w.9.N.7.w.j.O.{ Q U >.{ %.n.L O.{ v.l.l.8.&.G ;.8.L l.I.D.9.9.L.V.q.+Xl.G ) x H &.O.{ O.v.#.8.w.&.J +.+.} &.G >.{ N.@XS.).A.N.k.{ %.#.L G U r.y.9.N.@XA.N./.+X+.p T G O.$.$.8.l.8.C.A.C.l.G.0.G x x $.$.{ I l.V.N.A.V.K.].q.6.&.{ K l ~ 8.K.B.w.v.8.w.w.#.P G K c ~ F.q.0.H.v.F.&.v.0.8.{ ! G E G { C.z.9.w.v.A.6.l.J.G s K l L @X}.Z.+X).|.).A.D.A.{ U c d G +.&.#.L $.$.} S I I L H x d H G I U G I I d d >.I I p d p u T l K K p G ,.U G U d 5 z b t s 1.d x L { G G x G K d x p 6 f 6 x p c d 6 H H G f f 2 > a i 6 p s H G d K c l p d d 0 > > 6 f d x = u l - r i > < > 2 > 7 d p p x c u x H @ : : : = @ : @ 6 a > 7 0 7 7 6 < > @ % @ O 7 @ @ ",
"7 7 7 r p 7 7 u d u > % > @ 0 i 2 < 4 5 p u 6 5 p i > 4 = d I d P d P I Z G G K f < < p { 6.#.#. .[ L 0. . . .I u 0 9 p H I G p s G P G d } I 6 z r s #.{ G L I  . .L {  .#.&.0 4 f U L #.O.{ #.#.L { $.I G p i l d w.9.D.5.7.N.a.#.5.D.A.I r 0 6 $.7.G >.U G I #.O.I  .P 0 0 6 7.Z.Z.i.N.Z.i.A.9._.%X{ u c L 7.F.7.#.w.l.#.#.5.l.7.L x +.I #.j.#.8.l.5.5.B.7.B.7.K x =.L { k.B.l.P.%.7.L.D.N.O.d &.I I 8.l.l.q.T.q.w.v.#.q.l.L ) $.+.7.5.i.|.B.5.C.q.S.+X+.E x K 0.v.6.#.8.#.{ v.J.L 8.+.I d d H oX/.|.N.q.7.D.).A.k.G.L x s 7./.OX/. XS.9.N.6X*X9.} G U l.l.C.p.k.N.q.B.5.).Z.D.I ) s { =XS.D.N.4XS.D.S.q.S.#Xw.L ! x +.#.l.q.v.q.5.8.{ 8.{ d K l { q.7.#.#.#.7.{ #.9.l.*.L x I #.l. .w.#.9.0.9.N.B.q.{ K z f L V.S.Z.Z.N.A.A.A.(./.O.H K I I +.L U } G U L +.+.d { d d a f I v.I { &.6.&.&.{ 9.5.} 0 0 z H } P d x G L Z U P G 6 p p l p x G L x x L L G G G s l 0 < 6 G } G P x d x d G P c i 9 > 2 f d f f s d 6 G P G d 0 7 > > l p H d 6 p x p d p = < < 9 G G p u d G A r 6 p 2 @ < @ @ 7 q @ 7 4 4 = > 7 > 0 7 @ O % @ @ % @ + ",
"0 = > 6 7 = a > u 6 9 @ : > 7 0 6 = < i 6 2 7 i u i = q 7 f P G Z Z I L G d r G 5 > 7 s I #.L { { $.{ #.5.5.5.U x > > 2 H H s d x p P p d I } p p > s r.L { +.L #.6.6.&.#.5.[ d a p d #.I +.L { L +.#.5.#.I f 6 u L 7.q.5.q.V.9.N.l.5.9.T.L p T p #.7.&.G } $.6.#.O.{ 8.{ u K s n.Z.V.N.q.N.).N.A.1X`.O.x K U 8.l.7.{ [ B.5.{ #.l.k.{ U U +.8.#.7.{ q.B.5.7.7.9.Z.G J u J 6.F.7.{ #.{ $XB.7.7.G.L I ,.{ 8.w.9.| q.9.p.l.{  .k.I / G I D.|.D.N.9.B.D.V.9.@X8.G x x 5.#.v.L O.O. .6.L #.G.O.p ) x H _.Z.|.A.B.B.N.N.q.L.{ u ' G v.S.Z.Z.S.+XN.N.i.S.+X{ U H L B.N.5.N.@X5.7.C.i.i.C.L :.J #.6XS.N.L.Z.Z.q.7.C.S.N.w.I d G r.#.5.q.5.5.8.8.#.q.#.c x d 6.B.l.O.r.{ l.#.v.k.7.#.P f K I B.8.5.l.w.w.5.9.p.q.y.x c H L N.Z.D.k.5.A.5.9.S.A.{ d x P x O.{ G G P G G Z +.+.I x f i 6 L #.L I L w.5.L #.0. .&.6 p u G I d G G G H Z Z L } x H d u u d Z J d G I } I s x G u 7 a - 6 Z L Z G H x d I s d 5 2 0 7 u x x r H G d s d H r 7 9 2 7 4 p p s x s d p A f > < @ q Z H d 2 p d G u r p < > 4 < < 2 7 4 > = = 4 q > > 2 > + > @ @ + % : @ ",
"0 d p 2 > 0 2 9 7 > < < > > > 0 2 p u i 9 i i 2 7 6 9 @ > l p I S c G d I d f S 6 0 4 6 L 5.5.{ { G G 8. . .&.&.d > > l d p H G P x p x P G x f i 6 p 8.0. .&.{ L 5.8.I #.v.L x f p d +.{  .Z J Z J I 7.0.#.x b 6 7.D.q.l.8.5.q.q.B.q.q.q.I U T x O.{ +.L +.{ { { d } O.I U U p 6.S.N.D.N.N.S.).N.'.4Xr.x 0 d &.5.#.#.#.5.%.&.5.L 9.6.J d x ,.#.k.l.#.#.0.%.6.7.9.~ +.T +.w.#.5.q.l. .7.#.C.l.6.G G I d r.l.H.0.7.q.B.7.#.k.C.L ^ H { dX).C.7.q.B.V.N.9.=Xl.L d d k.5.r.$.#.B.F.#.%.w.7.{ I ) G ,.,XV.5.N.A.|.A.p.).B.{ x T U q.4Xi.S.N.5.N.).9.A.*X{ x b J #.A.&.q.V. .q.#X`.Z.N.{ G c I z.i.A.Z.N.T.#.{ |.(.Z.#.I x s &.w.#.{ A.5.#.8.N.).F.^ G L v.l.6.5.#.l.5.[ 8.O.{ l.L p p L B.B.#.#.5.6.#.5.F.j.O.x H 6 &.@X9.D.9.5.B.p.9.N.D.{ s G L O.&.#.+.P G P L { I I &.H 0 T G 6.#.{ { #. .{ 8.+. .5.r.I K d G P L L G x x } G S I G s l p 6 x U U L I I L x x G P u d i l d d G s I s s d d x p 2 x f > r p d G s d L 6 r x p 2 > x c 5 p p r d d p p d 6 < : 4 7 d s d P p r p x d H 0 > @ < > + 0 7 i 7 = < 2 = > 7 4 < > @ @ > > > > ",
"6 r p 6 2 0 2 6 9 0 l 6 = 7 > a 6 z 2 > u > 4 2 i u 7 > % t P I L u d { d G L P x u 7 r Z 0.A.5.I { #. .{ { { { G d 4 l p x G P d G x s G U d u c 6 x #.9.{ I L Z 0.L O.#.8.L s K p u Z #.8.} d P U L l. .I x H c L Z.i.B.0.q.k. .9.N.S.l.Z r p d J I #.#.+.L L 8.I I I L J J G F..XS. X(.S.Z.i.i.^.OXl.I i l { l.8.I { l.5.6.#.$.B.v.L <.G G l.5.#.l.5.I %.#.C.+XP U x G #.#.{ B.7.8.q.N.q.q.{ I &.,.I I L #.5.7.w.#.5.A.q.5.+.E P #.`.S.k.l.l.N.D.V.D.N.#.x H G j.#.I #.w.#.9.l.x.{ q.0.O.J } r.XX#.D.%XN.D.|.A.i.A.O.c K O.q.(.q.%Xq.S.|.S.N.D.6X{ l x L 6.B.#.B.9.N.k.9.).D.].O.K p L l.q.A.oXZ.N.l.N.`.Z.).l.G U L 8.v.[ B.H.#.#.7.N.q.#.U J L #.5.#.#.l.q. .#.8.8.#.F.$.K x 6.N.7.0.B.#.8.#.#.5.#.#.x H K { N.Z.N.p.D./.Z.q.N.D.$.G =.d O.&.I I +.I { L &.I I { d p d G 7.5.{ { v.w.{ &.L { { L L p u G G d P I L s +.$.G G J Z 6 p c H L S G I G s d G L L K H 6 u G H H x U Z I P s H b > G 2 z K p d x d c d p 7 d c 2 > 6 u d p u r f l p f c u > = > 0 d G u G G l r x d d 6 @ > = > > 7 > 7 > > 7 i = < 2 > 0 @ @ > : < > = ",
"6 - 6 6 d 2 > > 0 7 > = i 0 = > u i 2 z u 2 7 i 2 f 0 = > f I G L d d G Z I G G x u > 2 U {  .#.5.w...{ { { #.#.L u p u x J x p G d J p G L +.f 9 = p 8.5.#.L I I  .I O.L  .I d z 0 6 &.0.S +.&.#.G { #.I H 6 s p { B.N.5.q.9.9.5.N.q.9.8.+.x d d U L L #.O.G O.{ %.+.G O.H x J 0.D.S.(.S.5.q.S. XXX`.[ s H =.+.l.{ I 8.7.#.j.#.{ 7.8.d K J +.#.7.#.z.6.#.8.#.7.N.G u +.8.v.B.%.%.7.k.q.D.5.9.v.=.L G &.0.F.#.w.7.I %.F.q.N.8.U G p { ).i.D.k.l.q.9.B.D.q.x.I ;.J I O.O.7.0.%.O.8.8.#.#.H.>.G L &.N.7.I.N.q.#.N.i.S.|.L c ) G B.a.V..XV.*X9.i.N.7.D.{ d -.I &XD.7.B.k.V.k.{ 7.(.D.d K K { +XV.%X|.5./.%X%XV.V.i.{ L L J v.5.#.l. .8.l.{ #.k.{ ;.d G #.l.#.l.5.k.7.v.8.{ 8.6.{ x G l.q.#.8.#.l.l.6.%.#.#.6.d l U I D.N.5.q.i.(.5.Z.(.D.L G +.t L L Z G G $.&.G +.I O.+.d U x s { 5.#.L { 6.{ L I { 5.$.x d x G G x =.d I Z L J L L G x p p 6 s U { Z G G G I G I [ u = 6 d d G d P U I Z L d f p > d i 6 l f p r x d 6 u p x J u q @ > 2 d r p d s p u r r = 4 > 7 d K > u d x p s d s i > @ @ 6 7 2 7 > = 7 0 7 = = 7 6 = : @ @ > 2 > @ ",
"> 4 7 6 p < 9 z 0 9 > > 0 7 = z 4 > > l 6 d 9 7 6 p i 8 @ f G L { L d d G G G K s - q = U +.#.{ [ 9.5. . .5. .#.G u p d d d d s l L x p G L L p > > d 5.0.L +.+.{ { O.I { 5.{ u a 7 G 6.5.L +.{ O.U &.{ { ! d d 0 x 7.#.q.9.D.N.k.q.#.i.7.I x K c J { 8.#.{ { { I #. .O.~ > v G q.).Z.S.k.0.N.S.-X_.&XO.J U L { 5.&.O.l.#.O.#.0.#.#.$.P c p #.l.O.6.l.{ 8.w.9.5.w.=.G } #.5.8.#.{ &.6.7.k.N.@Xl.x L L } 5.6.7.R.k.8.8.7.5.q.x.x x c x.+Xq.V.N.#.p.5.k.7. .,.G d G +.8.w.#.8.r.I #.#.F.w.v.I U G &.D.q.l.5.C.+XN.|.(./.I =.<.s D.:Xl.i.q.Z.D.N..XS.#X8.U U L D.S.).N.Z.N.@X&.5./.A.s E W. .|.D.A.A.9.>XZ.(.#.0.%X6.$.=.x #.6.9.5.+.#.%.b.#.#.O.d H K +.5. .5.C.7. .{ 7.{ v.L d ~ P 0.q.5.#.{ #.0.#.h.l.9.l.U r p I V.A.C.K.q./.N.D.i.L.O.x $.d =.U J U d 6.I G L L I I Z E c p O.{ w.&.#.#.#.#.I L q.0.x p r d L J x d { I G s L O.d 0 p z p G P L G G H d Z L L r.c 9 4 5 d I L G G L L G G d d > 7 0 4 p x d l f p 6 6 u A x r > : 0 7 H s p x l u u f p < : % = G d 0 p d d s s d d 6 = % : 7 r 7 > 4 > < > > 9 @ 7 < @ : % < > 0 < % ",
"i > 6 4 = 2 6 > i 6 7 > < = 0 a 6 9 7 7 6 0 6 i 6 0 = < > d Z G s G x G Z G G U p 9 4 > G #.{  .} 5.{ { &. .#.G U 0 4 x G l x d G x s Z G L d z i 4 u O.{ #.&.{ { #.O.8.{ #.O.r p l I { L { { { L +.#.L +.G p x d G w.q.N.0.q.9.w.q.q.a.w.x u T u +.0.l.L P $.8.{ I $.{ L p ^ d l.S.S..Xk.@Xq.9.S. X+XI H u s &.A.w.{ 8.9.7.6.8.5.#.O.G ) d x.l.v.5.#.z.#.8.5.q.H.G K c x 8.#.0.l.7.z.7.k.7.7.6.G c.O.d v.7.9.w.5.7.5.8.5.N.l.+.) H +.D.N.N.+XC.L.0.B.q.@X&.G +.H q.k.%.v.8.I #.6.%.0.8.L J =.G I +XA.I.q.A.*XD.D.q.S.8.G K d A.:XA.S.N.9.V.5.D.oX+XL J x I +X5.Z.N.|.D.9.I.|.S.#X#.K r { |.i.9.V.%X.X2.A.I.D..X0.L ! K &.H.0. .8.l.#.v.#.w.j.G c H { L.9.7.l.v.5.w.5.#.w.{ ^ H K O.0.w.{ 7.l.5.B.O.#.9.#.x c E I 9.N.N.B.#.i.D.9.(.+X+.r G p t.#.I =.P L G +.$.{ #.J d u d d G { { 5. .#.#.{ #.w.q.#.5 i 6 K I L G L P G I G L L G f > = G G Z d J P K Z +.U s I x x i 7 x L Z G I G G d G d p 7 9 9 l c d f 5 x x u p 6 s r 2 u 4 > 0 x r 5 6 p u d f 6 > > + q d p H G x s G d 5 0 i > q O > 2 2 > > > = > < > > > @ @ = % 8 < > + @ ",
"u 7 p > 2 i p 6 6 7 % % % > > 6 p s d 2 p 6 6 l 0 > @ q > x { G 5 G x Z G G d d p > > 7 L { 9. .L #. . .#.{ +.I p 4 i r I d d x L 6 d +.d v 0 > u 7 6 >. .9.5...P { 7.9.9.8.L x c d G U I { I O.J I { I { I d l d G 0.9.9.B.5.N.q.5.`.2X+Xx > u > L 5. .+.I G 5.L G +.#.Q J l d %.Z.S.`.i.S.Z.9.S.^.`.#.d l d &.w. .#.{ 5.7.{ 6.I #.%.s P U L #.q.C.5.#.8.O. .T.l.G T b l t.w.#.q.q.N.5.H.#.#.U L x.L x 8.R.C.{ w.B.B.7.B.A.k.I H a &.D.N.V.A.9.q.C.9.Z.D.{ +.>.G ).q.L 8.8.%.9.K.v.#.#.+.x =.+.Q _.Z.Z.D.i.S.N.A./.+X{ x K I q.,XD.9.F.N.A.A.9.N.@XL +.U L J.l.p.k.N.B.A.Z.Z.Z.|.L U 6 U A.}.|.B.9.7.{ A.|.S.S.7.d c l #.9.D.7.z.B. .5.0.q.8.G K U #.w.k.B.0.7.l.q. .0.l.w.G z d +.#.9.7.#. .w. .{ w.S.w.L Y x I L.A.D.q.5.w.q.#.Z.%X .p K H Z H.G G I L { { 7.#.{ { G 6 l G I w.0. .7.#.[ 6.{ { 9.#.p f d p L P +.I s G Z I O.I { d > 0 x I } d x x G G G s G d L s = 0 d G d x L G G u H d d l z = 7 U U H 7 d U d s u a r 9 x 0 0 u 6 p 0 0 r u p u r > : % 0 d d d s d 7 p p r u 9 + % @ > @ 9 > = > > a 0 = > < 9 7 > > > @ > > @ ",
"q 6 @ 9 7 7 7 > = 2 i > 4 = i u G = > q i 4 5 f 7 7 7 > > % a x +.d c l d } P c > 0 < > a +.5.5.p.w.9.5.7.q.w.^ > p p > M T x d z { d G P G G d c p p +.v. .0.{  .w.9.9.q.l.H 0 4 u d L #. .O.#.{  . .[ r.l p H d Z 8.9.9.9.7.8.O.&.w.w.b.u z H 0 K } I $.G { w.v.{ #.,.H c z G 7.(.,X'.).(.:XD.). X%X{ d b K I O.$.v.l.8.8.#.F.w.9.8.c 0 U c.#.5.0.w.#.B.H.l.L.q.+.G d ) b &.6XS.B.#.C.q.i.B.&.J p c ! &.D.D.I.Z.N.l.8.0.9.H.J &.p I %XZ.}.A.9.q.B.i.).L.L ! H c r.l.F.7.F.7.k.q.#.#.B.0.I c l K S..X`.i.i. X^.`.`.D.+.G G I ,.v.|.N.`.;X9.D.(.oXL.{ G G d v.dX`.S.|.N.D.}.N.Z.L.d z z J D.N.q.)./.|.i.A.N.N.A.5.I c K { B.D.l.#.w.l.{  .A.8.d l z J %Xa.i.0.B.N.B.k.7.#.B.L d U +.F.K.i.N. .q.9.A.N.N.5.G l d E L.S.i.D.i.Z.Z.Z.Z.D.8.G c u p P u G L I I L I L L U P s d x I &.#. .[ ..B.l.5.{ 8.L u 0 l r G U +.d d P G d P { M 6 6 T 6 x +.L I L x x G d d I p z 9 u L G p d Z L s H d d d i < 9 r x d x 6 6 p f d r u z a > 6 f d p u p 6 6 u f x p 4 7 7 : d Z p 9 p p G Z Z G u > > > > 7 O : 2 i = 7 < > 0 7 > @ O % > @ % @ : ",
"7 u = @ 4 9 9 > z 0 > < > > 9 = 4 > @ < 7 < 2 0 7 > 0 7 > > = r d r 2 u r d d r > 4 a 7 2 Z L +.[ I I G L L Z u d p 0 8 @ u d p 6 L H s d s G 6 u u r P d L L I I L O.{ 6.G x u p p i ^ +.L ,.I ,.6.{ ,.G p x H H s ..L.J.#.8.8.{ O. .#...G f A d u G { L ~ L L { +.} s G c f x { 5.C.B.w.7.7.V.p.A. .U G x G +.L { #.L O.@.I #.#.I +.G x x U +.r.8.{ 8.L.v.O.#.$.$.U Z G d { C.$X{ 5.7.R.v.5.&.>.G P ;.G 0.l.k.+Xq.C.8.#.L.8.x ~ G { T.+Xl.F.@X#.F.A.7.H.#.+.x K { { #.l.#.#.n.l.#.w.6.{ ~ J U G O.B.L.K.L.@XN.A.5.T.O.G +.L L +.D.D.%XA.l.T.+XC.#.Z J =.I { A.+XC.l.w.C.D.A.T.5.+.) G G j.z.A.k.{ w.6.H.l.#.R.I J x x I #.j.8.&.{ v.8.z.$.G +.G p L C.+Xw.8.v.8.O.#.#.%.F.I U G L $.#.#.8.#.F.w.l.#.v.{ x K G G { B.k.C.A.L.N.D.#.w.r.s d x G e.G { &.O.+.&.{ ..G G H H H x G { { &.#.{ #. .{ { 6.G d r p d x d U J G G =.U d G u l r c d x L G L } L G +.d P I 5 p 6 7 x p G K x x x G x x d 6 < 0 p x d G x d c G x c u r u i i 5 d s 5 p s c 2 9 z @ = < 7 @ s H d d 6 p s U G x > @ > > 9 u = 7 = < 9 > 7 > 4 > % > 1 % @ = > @ > ",
"2 % > : : @ @ % > > > 9 = > < + o 0 7 > 9 4 7 0 i > > 9 < 7 > 0 < 7 2 p i < @ 4 2 i 0 6 0 u 0 2 2 = 2 u 7 2 6 6 d x r 0 z c d 0 6 0 9 u f u r p 6 c 0 d 6 s x d f = d s l : p d s z > p x d p u u d p c f p c x p P L L f t x O.d x Z p r d f d x p u G G U 5 p G d H x G x G H r r d I d x J s d x p c K G G G L L d d p d x p Z 0 z U I U d J J G =.G L d J J H x x J f.G ~ x G L { L I J G G G G U ,.I d +.$.L  .#.G +.G +.G U O.{ G G U I I { I &.{ $.I G +.P ,.$.L { Z I U L I { U G +.@.K U l J U I O.+.L $.&.s I ^ K H ,.I { 5.{ s O.{ d G L I ~ ^ s } } L G G I r.{ s x G Z L L ~ p L &.&.! U x G H x G c x U G +.d x >.L L L L <.G x =.} { L G G L +.d s G I J I K x x +.d c c s I I +.+.p U G L U U x J d x x P O.Z G I G G L U H d G O.L I G G P s L I x x H c x r p G Z d G s s r d d s d x l x d p p x U x i p p x G u p x H u p p 6 p d G d t H d 5 i p 0 2 0 d d p 6 2 c 5 - c 7 0 - u 0 u p G p d u u 2 > p d 7 9 9 u 4 6 u p 5 6 = = 0 7 0 2 < = p r d U f 6 p = > 0 @ > > > 4 u q > > < @ 4 0 9 @ O : @ > > @ > < > > ",
"2 < 9 @ @ : % > < @ % < a > > + @ 2 > 9 > 2 > % 4 9 > % 2 z < 7 i i > 7 9 > > i 6 i 2 r p 4 < > a i 9 a 9 4 a 6 0 c 0 6 7 i 7 i l 0 p p u i z x p 7 a i i z l c 2 4 c 7 a < l H H u 6 i i c x z a i 9 p u c H x J K 6 7 i c J G x K c p c H p G K b l K K G T 7 d H G x x c x d x T a K a 0 d f E m < p J U ) U K H v c c c x f E 0 u E J K ) K x z c K p 6 v ) x c G p &.>.x l p =.~ x K c x f.$.J G U =.~ H G U I L J J G +.+.~ { G H K ^ J U I L +.K x =.J +.~ H U U } U ,.+.T ! J d U I ~ G +.K P U I U x K L ^ b K I U G K x $.+.p m ;.U H U H +.{ L G U K G x G =.L U M l H G +.I ^ H ;.J G a 0 T p G H u K G U +.x K l J x o.G u K K G G P +.x z 9 d ^ p c G K G c z d G I U c b c ^ G 6 z i T x G ) d K K ) 4 c x p 0 f s c H G U I U d K s K p 6 _ u K G G x r 7 l c c G z 0 i z 4 c l c b a u d l d K p c d 7 4 > > 0 p d r H d r c i 0 z = U P = l z p a 7 p p 0 4 < l > > i u a a > i c i 7 > r > 6 9 > > > 9 9 2 : > > 2 > 0 9 9 = i : 7 > < > > 7 q 2 2 = > > = > : @ % @ < = @ + = @ @ < < @ @ 4 @ O @ : @ @ > > > + @ @ ",
"7 > @ @ < 7 7 7 4 : @ > 2 9 > 6 > - r p = 6 i 7 2 @ : 4 < > > > 4 p > @ < 9 > 2 7 4 9 > = 2 9 u > 6 6 9 0 > i x = i 6 f f > 9 z p 2 d d d c i 0 9 < p 2 i 9 7 2 a c 6 p c = c c c r d d 9 < i N u p a d 6 T d J G c 0 = u x x s x G s u z H U U p f u p p x u 6 i I U U K ) d d U ^ 6 l c 7 K K H q p >.+.r c K x G d r d i c G G c +.u K G p ) L ^ c G U E K ^ =.G K ! G +.U ^ K G x U G l l J ) G +.p J ,.L c H U v x ) +.G d U H E U U s ^ U I G U x G U =.G +.K G G I +.+.U H l K U L ~ x I +.} U P I +.J +.+.I ) b P $.I =.G G =.T K *.G c H K =.+.I J K G J U J J x ^ ) x ) K J } U x v l z T H x U { U H -.L +.x c G +.x d P d x J E H J J c K -.K c U d d I =.c c H G +.I d K E G L J c U ! x U U H J L H c c -.H z l c x ! T x d x H c l 7 c c i 4 4 i s d l d f x G l K T 6 p v 7 z K K q > c d 6 u c 2 c p 6 f z b f 7 2 c c 7 l 6 q M z 9 4 p l 0 : l + 4 H p p < = q 9 u i < > > 7 4 7 > 6 9 a 9 9 4 8 > 9 < > : 1 9 : > 4 0 % : % : : : 7 4 = > > = > c 4 = > < < < > % % = > > = > 4 > + @ > + @ @ : < @ + < @ + : @ @ @ ",
"7 i > < < 6 4 f = > : 7 = a x c z l x U d H H I r @ < a u = q i u d p 7 7 x r 6 4 9 = 0 i 0 u x 0 p u p p 2 u K 4 6 7 2 z 6 p d x G P G K 7 > 0 a 0 u K H f p d c L x G x p p 9 p l H u p x G U s d P U U x p G H x K J 8.7.{ O.O.8.#.{ G p G H u K U G H G U =.x J ~ d 6 K c l L L O.I G ~ +.d x x G G d z f G d &.{ #.v.I O.0.6.L I G x K K G $.O.#.{ L G K +.L +.x :.J L 8.&.L +.G I O.I I J i { U x +.&.#.+.S &.O.d d I L f.G K I L 6.{ r.$.{ I +.{ { I s U +.+.L 8.#.O.#.&.+.Z L $.$.~ x &.U L &.{ I L { +.+.$.{ G I ,.L d I O.L L { 7.O.&.G =.s ~ I I $.O.{ I &.{ I I L L +.G r H +.$.P J ) U $.{ { { L U I L U c J { w.+.L e.L L +.J G U U d L G { L L P I { I 5 K +.G d +.p H P I G P J d G +.L x d J G L s L G s G G { { x I E p ! c s L G d L L s P G L G Z c p l d d d G G G L G I S Z 6 d d d u p 6 d d p p H d d d G i d u 0 u u t 5 5 u - p p 2 u 7 = p p d 0 0 u r s G 2 p l 5 7 6 a 0 a 7 2 2 2 u > r d s 5 7 = 9 > > 5 p 7 = > > = > 7 4 2 > @ = i > = > j > + 4 < > > : < = > = = 7 > = @ > @ 5 7 = @ o : < o O > @ % ",
"6 7 > u p p d 6 > > < > = 7 p - } H s G G Z d G G r > > a 6 u a 6 i d p d l p i i p 6 9 i 6 d d G G G G s ^ s 6 u p i 7 = G { L I { { G $.G d p 0 i p d L I U U J Z L U d x u 0 p d G { v.&.I { 6.#.w.I d G } f p G l.OX4XS.*XoX.XZ.5X.XN.G p l H d +.v.O.L I I 5.I +.$.G d d p I I O.&.I x.O.{ +.6.{ G ^ H r +.C.*XS.Z.S.D./.D.D.&.Z #.Z x U I O.H.K.k.H.{ +.F.&.L P G J #.N.K.w.l.B.8.0.B.C.R.+.I x d.#.q.k.9.k.@XA.*X+Xv.x <.I U I 5.P.6.v.G.p.T.5.V.D. .J +.G #.B.N.N.k.w.F.B.N.D.5.L ^ Q I l #.v.8.$.&.l.0.#.I O.&.+.=.J 5. X*X/.S.S.*X+X+XA.$.U K G U { F.k.7.T.D.B.D.B.w.j.$.+.K U 0.l.0.G.#.v.0.5.O.&.&.L G x J v.l.#.F.B.A.D.C.L.x.Z ~ U G 7.L.7.b.,.{ n.&.O.&.c.d O.=.H U =.I O.&.I 8.5.{ 8.~ J U K ) #.q..X+XD.+X|.).A.5.#.d G ) G #.q.w.B.D.Z.D.C.p.N.0.{ G 6 K G Z 8.#.H.q.q.A.B.5.i.Z.#.d p f r K U { +.{ {  .6.L { U r u a = G 8. .8.5.#.$.{ I +.r 9 d f 6 p >.#...#.#.L { I s p s 0 : > s U +.{ L { #...{ #.{ d = > G Z x H G d G p 0 6 > < 9 > 7 7 7 u 7 u z 7 2 2 i 9 a > = 4 = 0 r d p 6 p 9 p 6 6 0 @ @ @ 4 > @ = 4 ",
"r 9 > = p r u p i p 9 > > > p d S d Z I P H L d P d 2 > 7 a > u 2 5 p s d p 2 u 0 7 0 > 7 x H p 0 x G d r J x i f d 0 > z } { L { #.L L { 8.I p i u p K G Z S S G K G { { d l b x p G { 5.{ +.#.7. .{ #.O.O.G l 0 L `.;X'.'.'.(.'.9._.^.+XP p K G U d #.O.I U +.#.I d *.{ l T G J +.#. .{ { I +.6.5.j.I U c d I )._.>X X^.`.S.i.`.sX .L <.x I 6.0.5.7.9.w.7.7.h.w.O.^ G +.l.7.{ #.5.7.6.#.0.i.C.O.>.G x 8.N.k.N.A.N.q.Z.Z.C.j.G J ;.I H.0.{ %.j.9.7.#.S.k.L ;.=.+.#.L.D.9.L.D.l.7.A.D.L.,.J +.L U l.G { 5.{ w.{ G.n.l.#.I f d T.zX(.2X,X,X.X X(.,XF.P G G L J.w.#.k.9.N.q.9.A.V.5.L G K L 7.i.N.0.#.v.{ v.x.O.0.P K K O.7.8.#.{ k.N.Z.S.q.H.I G G O.w.l.9.{ { &.5.#.5.7.#.L -.P s U +.I { +.L 8.8. .#.I +.p d l { #XS.`.i.(.(.S. XN.T.{ K K d 0.S.i.Z.S.(.^.Z.Z.(.i.w.G 0 i s [ A.i.A.i.i.i.a.q.w.(.N.s z u d U L &.{ { L &.{ L #.+.s c i > U 7.#.0. . .0.{ { #.#.9 2 i 6 x L [  .{  . .[ [ { H 5 0 i = } 8. .5.5. .L 5.0.9.#.G 7 u d J L [ G G U G f K u > @ > 7 u d d u p 6 7 r f u > > > < > 2 9 u r r u r s p f 2 7 < + @ q > > 4 = ",
"9 7 > 6 6 u u 7 i 4 = > @ > l f Z d G d d H u G I 6 < 6 > @ < p l f d u r d p H u 7 2 d G x u i H U d p u K d H d 7 > > s ,.I { &.#.I I  .#.I p i p d J G Z } d G { L G G O.G 7 c p } &.{ ..{  .8.+.{ { { { x z r G oX_.'. Xa.a.`./.^.<XN.p : x P +.G G +.I Z I I &.#.I G ) - x #.6.{ G &.+.L O.{ 8.0.d p x U w. X_./.Z..X XS.XX X:XB.d K d x H.q.9.7.O.&.{ F.0.I L c x I B.D.q.l.B.q.9.N.q.q.#.G ^ U L @XN.|.B.k.N.7.A.N.A.$XL d c.G A.q.#.#.l.q.8.l.V.L.O.c K =.#.0.D.0.#.O.q.L.%.{ A.C.d K H U q.w.6.l.5.8X{ #.B.N.{ ,.z p S.1X X`./.,XXX;X;XyX+XS #.&.d $.#.h.F.#.Z.k.#.9.).D.{ u ,.{ B.w.7.k.6.7.L L r.5.7.O.G _ G 0.8.#.k.0.N.B.9.q.C.v.6 ) U G K.k.7.w.B.w.l.5.9.@XO.Z d d { r.&.} $.$.{ { #.r.q.8.x l U &.q.S.D.q.q.V.A.`.^.`.{ K T d 7.Z.i.Z.k.q._.^.i.i./.|.J p l p p.Z.0.#.5.N.2.0.D.5.a.B.s 0 a 5 { [ L L G I I L { } +.d d K p I O.#.Z } [ { #.{ +.0.u 7 u d L P L #.$.L S {  .O.L s < 4 S } { [ 5.5.L I I  .9.{ x = @ s J s G d G x d G x r = q @ > d p 7 u 2 6 r > u r : > > = > 6 p u 7 6 9 p p r p 6 5 = @ > + @ > > > ",
"0 9 7 2 p u d 0 > 7 6 9 > @ 6 d G L U d d p H G G G @ < 0 9 > p d p d d p d p d d 2 a p d p r c s L d H d u x G x 9 0 p E G s G I L P L L [ I 6 < a r H G P x I L G G P G 6.G 7 a 0 I #.{ x.O.&.L L L &.L I H 0 f { +X(.5XN.S.rX Xi.^. X].+.i c x L $.+.} U d L { S &.} G l p I r.[ +.I G { G I I L &.,.G ^ d 9.^.i.Z.i.i.Z.S.`.:X.XB.> ) p $.#.0.5.6.8.8.&.8.l.O.{ H d x L.q.q.k.q.5.l.A.5.l.J.I p G #.B.q.q.N.w.0.l.q.N.i.k.&.) x $.D.9.O.8.#.H.{ #.7.9.8.P U } q.p.8.#.8.{ B.l.O.8.T.V.>.c s c.#.#.%.l.#.%.{ 8.#.7.5.} x x I.1X.XD.A.Z.XX}. XS.=X .$.O.L R.F.5.#.#.V.z.w.8.q.V.t.x J $.B.9.A.V.#.&.O.8.%.q.5.%.d H s &.l.9.N.q.l.5.0.N.Z.#.^ +.J I D.q.2.A.C.5.&.I 9.A.w.L x U L 6.{ { I &.{ $.{ L 7.#.x H d +.q.N.i.A.N.N.9.A.`.*X&.d l p l.i.i.l.l.#.i.p.i.(.a.(.L d K s 5.A.p.{ #.A.q.5.q.B.a.P.p a N x #.{ { +.U G I $.%.{ I 6 p 5 L L #.{ G I I $.&.S L p.d > 6 z d { w.$.G { +.#.#.L G r @ = d O.+.[ #.0.{ #.O. .7...0 4 q 0 x p P H G s P G G f > > : = d p a 7 6 p r p 6 r = > > @ > z 6 > 6 i = 7 a r 2 2 0 7 > < @ + 2 > @ ",
"9 7 > 6 7 p > 4 7 7 : o : > > s d G G s L Z J S L s < : > x d d 6 7 p p r p r r l i 0 > 2 5 G A G r u G f p L x H = > c ^ G G L Z I G s L &.U 2 q a 2 G G G d I L d L { L U s p 0 7 x { #.{ L G Z &.O.I 6.&.U p x #.XX_.S.i.(..X(.i.,Xi.+X8.r c 0 G { I G G O.L 6.L I U r ^ I x { } O.+.L y.#.} I ..l.O.x ( t 7..X|..X4X(..X4X9.Z.`.@Xd z K w.B.q.6.{ q.B.L L w.l.#.U U x H.5.S.q.#.#.7.#. .F.{ Z T { #.).K.q.B.9.#.C.V.Z.D.L.L b d b.D.B.#.%.q.q.k.k.A.9.l.J ~ O.B.7.9.l.8.7.q.{ 7.7.N. .L ~ G 8.O.{ %.6.8. .B.l.6.#.#.~ ) G N.qX X`. XXXi. X X_.+X&.u H G v.C.7.#.q.C.5.l.A.7.C.$.x p J w.0.7.5.5.B.{ 8.{ l.q.+.G G x +.C.N.5.7.l.H.k.9.2.%.,.G x ~ 7.Z.q.q. . .q.%XN.N.F.d c c +.O.L { &.#.#.#.8.#.{ L I E H O.6XZ.Z.%X+XN.Z.Z.Z.A.I 5 K G #.Z.Z.B.7.V.A.q.Z.*X`.Z.x i z G  .Z.Z.A.9.5.i.9.5.w./.A.d p 7 G I { L } L { s P { [ I p u u d &.{  .{ { 8. .d O.6.5.L f < = I #.{ {  .{ I [ { { G p a r d r. .5.{ 8.#. .8.5.L { 2 < : 6 U Z Z G d p s x L s > @ < 2 c r l 2 0 i f d - d < + o > i 6 9 > 7 > 7 9 > 2 0 7 7 7 > > O @ < 4 > ",
"6 > 6 i 7 6 0 4 p 2 4 @ : > i H G G L G L x s Z } G > : > r p d p 9 u 9 i i p d u > i 6 M f s d d u u d x U G d p 2 : = d { { { L #.P I L L K 2 9 l d G L d s +.G x I I L G x x p p H +.{ L { L } #.O.#.#. .Z 6 u  .,X(.i.}.`.Z._.S.(._.).L L c c r.{ L L ;.L { I { } ~ x I G K L P L O.L #.#.L L $.z.$.c ( L q.'.(.(.S. X(.Z.N..X;Xi.J p p I A.9.6.#.l.q.8.j.w.N.c.L d I 0.i.Z.7.k.l.7.P.5.k.v.Y L +.w.K.i.N.V.D.A.9.A.S.(.D.{ c L { 9.5.7.5.q.9.D.).|.7.%.I L J 5.B.w.q.B.9.B.l.B.7.D.J.} J I { &.l.6.{ #.l.9.l.#.B.#.{ =.p k.1X;X1X(.2XoX_.:X;XuX{ K v G 8.9.N.k.V.N.q.0.5.i.z.G c ! d 8.j.7.#.l. .7.q.6.q.B.L d ^ K &.w.9.D.Z.#.7.7.B.L.6.x U G x F.i./.B.9.q.N./.9.0.w.L p d I L L &.x.{ { 0.O.I +.{ L d x { D._.i.9.Z.Z.Z.D.i.%XI c _ s #.).i.i.q.`.i.S.Z.a.Z.+Xd - j p #.9.Z.`.5.9.k.9.N.9.i.p.L d 7 p I +.G d L $.I L S +.+.p p u p } $.#.0.5.{ #.{ G #...$.l 9 p { { G { I #.I L { #.G r u f t 8. .#.L [ 5. .[ [  .0.5 @ 4 2 P d Z G 6 H G d G G 7 @ = i p 5 d d > 7 p p d u > % % < 2 r < 2 4 2 r 9 > 9 2 2 9 2 @ @ > > < > @ ",
"2 7 9 7 < 6 u > < 2 > > = = 6 G [ I I d p G G s G G 7 @ 7 f 5 p p 7 0 7 u d 0 u u 6 z = u H A G p p p H u r H d d i 0 r G L $.I L I L I P L ~ r 6 i x I G L G ^ G L G U G } U p i p { $.L { { #.5.{ L +.#.L d 0 = #.^.Z.`..XS.(.XX:X:XS..X&.c p x $.L L $.{ { } L #.+.P U G I J &.$.O.{  .L O.I { G l.O.r c J N. X_..Xi.^.,XS.).:XgX5.I ^ r &.B.q.B.l.#.#.#.z.B.#.p H L L l.7.A.k.k.7.#.A.q.@X+.a #.L L @XD.q.B.+XN.l.#.N.S.q.+.d L E.v.7.T.0.#.w.q.A.N.F.8.r x U 9.C.y.5.9.p.l.n.j.#.C.l.I K L O.9.w.#.&.7.B.{ l.{ 8.j.U c d +X1X_.kX`. XiXZ. X^.tX{ I d I j.q.D.5.0.9.N.5.9.D.q.d ) +.{ { O.C.#.#.H.5.#.#.{ l.8.=.d x v.#.#.q.L.8.{ L.N.9.+.d U d U L.9.).9.D.|.9.B. .A.p.{ p :.L $.+.O.{ #.I  .O.+.O.&.G H u { A.N.N.S.A.i.i.|._.|.$.6 l d 5.`./.Z.S.Z.(.S.q.q.(.|.I 0 z d  .p.4.A.9.k.l.q.A.5.9.A.s c i z +.L { { I L { #.{ L ) r p f 6 G r.L #. .L r.{ 6.w.3.G = a d G +.L { L L #.{ L { I d < p r +.{ { { 6.#.{ { { 5.9.d 4 7 f P d G H d G G G G s 7 9 = 9 u p r i 0 6 2 p d p : + 4 2 = p 6 > 0 6 5 u 7 7 7 7 @ % > @ > % % = @ ",
"> 2 < 2 9 0 u p 0 9 7 > > @ i x  .S G d p Z L G d l 6 0 5 p a u G 4 u u r l 2 l r 2 9 = u s p r p G d p x u d =.x 6 d d G Z L { S L } S L O.~ p T 9 r P I G d s I P d U G L d l z u J L { ..{ 6.5.I +.I L O.G 7 < #.`.(.).S.4Xi.|.Z. X X*XG 7 c p { $.Z I { { I +.&.O.L L G x d I { &.{ O.I L L &.#. .L x c d D.jX`.S.Z.D.(.).(.'.2XN.d G u &.8.5.D.l.&.+.6.2.7.C.K x >.8.7.k.7.5.k.k.q.9.i.A.%.d I >.L 8.k.i.0.9.9.L.k.q.A.D.I z Z v.5.9.q.V.5.5.q.N.7.7.$.P H G p.w.+.#.A.L.7.O.v.5.7.5.s G P 8.A.#.l.l.0.l.x.[ l.l.{ G c d ).hX2X XoX X).S.,XS.6X5.O.,.} 8.L.q.w.A.N.OX@XB.N.q.G c p { 8.8.#.k.7.7.{ &.&.O.6.6.d ) +.F.B.B.7.O.#.F.#.k.z.8.I G U O.D.%Xq.C.N.9.l.C.7.q.B.L 7 J L #. .{ 8.{ +.8.O.{ %.8.U H u 6.D.k.7.B.).S.N.(.i. Xl.p K G N.:XZ.9.B.Z.).S.A.`.;XN.s f K t w.N.w.w.5.q. .5.9.q.i.A.I U 2 d } G { { I Z L 6.L L c r s c u d { { O.#.{ L { 7.{ $.K > : 2 L +.Z L L O.#.L { { +.p 9 p r ,.G #.#.7. .{ +.{ q.w.r > 7 p G d G s d d d d G K > < > % x d u r p p p 5 d d > : 9 < > f < 7 2 p 5 5 0 6 u > 7 > @ @ : = O > > ",
": 6 2 p 6 0 0 i > 7 6 = : > < p S d G d G I P d U p > 9 > 2 i p d i 6 r c r 6 x r 7 0 > i x U r Z x s d G d p u = 9 i r U } L { P I +.I { { Z 7 9 c d Z L I I d G G d I x d r u i 6 U { #.{ I { 5.+.L U $.$.K l > O.4X(.(.`.`.i.Z.Z.Z.jX*XI 2 l x G I I I L O.I x S L P x p d d ,.L G I &.,.&.#.#.{ 5.r.! p d B.Z.(.(.(.|.`.S.'.(.;XT.H x G 8.x.0.q.#.x.l.B. .5.z.) c x I l.9.A.#.#.w.q.5.q.N.R.&.x P U j.9.+XL.D.N.B.C.q.q.T.L ;.b d B.N.9.A.5.B.#.5.q.l.r.+.U G 8.j.L.w.9.6.8.5.#.7.L.7.x U H I #. .K.7.#.8.7.w.8.v.*.+.U +.A.1X X(.XX_. X X`.4X6X .I L G #.B.k.7.5.5.5.B. .9.D.,.E s G l.5. .7.q.q.O.O.r.#.[ { L K p +.B.p.q.l.5.&.L j.L.#.+.) ~ L B.5.V.L.5.q.C.C.q.N.l.I l K G { #.w.{ { #.[ { { { $.G T x +.D.,X|.N.D.9.Z.,X_.7X..x K s L.`.`.C.#.i.Z.N.9.S.;X(.L K z t 0.A.q.7. .A.p.5.A.0.N.C.Z u u H #.{ I L 6.{ { { G L J G c p p J {  . .#.I [ #.9.G { K 9 i u x { I I O.{ #. .L [ >.r > i s +.I $.[ 2. . .$.{ 9.0.r > 4 5 P G U d I K d G Z G 9 = : > 2 0 i t s p 0 f 2 0 > @ > % 9 7 7 7 6 6 7 9 5 6 > > i = @ : > a > + = ",
"< 7 5 f u 7 9 > 2 6 > % @ > > 6 d U d { G L I L P r > > > 5 s H s p Y d s f 6 u u 0 0 < 7 G P L G 7 l G x d l 0 9 < > U &.L #.&.{ { L U L 8.U 6 > 2 r x P G I I P >.[  .+.x 7 p i 7 P 8.N.#.O.&.#.O. .{ +.s d z r  .2X-X<X(.Z.;X`.;X XfX:X{ u i f c L I L O.#.{ O.x U ! 0 l +.+.~ I U O.G I { w.0. .w.#.x b G w.2XhXjX X X}.,XwX.XhXq.x G G L &.6.G.#.9.9.A.6.#.{ p K H G A.S.Z.7.w.N.I.V.B.q.N.9.v f p x.i.Z.5.D.|.q.C./.|.z.U U m U A.Z.D.B. .B.q.C.D.V.#.Z &.,.I 8.).N.7.#.k.C.D.9.p.0.@.=.x ^ $. .k.q.%.l.q.A.k.[ 5.O.Z { OX1X1XfXjX<X1X1X}.`.tXO.G >.e.&.q.k.8.l.V.H.j.q..X4X{ J J +.F. .0.5.$.7.%.#.#.l.n.O.L H l I A.S.9.B.A.7.6.5.D.l.d x G &.l.9.N.k.{ J.i.i.S.N...d l H G +.l.7.&.&.5.#. .&.8.~ x G s #.(.<X;Xi.N.(.>XqXi.Z.w.x a G k.;Xi.(.i.i.N.i.a.7X;XZ.S c x L 5.u.i.S.9.D.Z.i.9.9.).9.s p a s 6.$.L L 0. .I c I P { L d 5 i d r.9.5.#.#. .9.q.I ..d 5 7 i s I #.#.5.0.9.#.#.$.L p 0 5 6 r.{ { { A.9.7.{  .2.w.p a > 6 $.[ L S L d 6 G L d 2 : > = = i u u x f p u 2 9 < % O O = < 6 p p > > > p u u r 6 2 > @ @ 0 > 2 @ ",
": > > > = 1 : @ > + % : : % : > @ % : O , O % @ 1 , @ i p > > 4 % O > 2 > q , @ 7 i 7 9 0 7 i l d d < a r i 7 6 6 p 6 z < > < = c z p { Z x c 0 7 0 a 9 0 H c K < l d ! d x l : 9 q < 4 f P d u z L I G U 6 i c = l Q.+X4X%X=X$X*X#XL.l.c.0 d G H U P G L K G l G U K p d c 0 d U } { L #.#.I l ~ O.I d ^ z l P H.Y.h.R.C.l.@XE.t.=.G G G K x r.+.l.l.L +.+.v.x.L P d +.} L v.I 8.j.%.#.r.&.$.$.L ~ U x H +.J >.x.m.0.F.v.+.K G U K ;.+.8.n.#.8.R.v.x.&.+.x c K ;.t.+.} +.8.G.j.+.>.&.,.,.I =.U P U >.0.8.v.&.#.I L O.L x T K +.&.T.R.9XY.l.+X0XR.m.+.J ! x H r.l.D.tXaXl.L.@XL.{ U g.d I $.c.x.=.H.#.~ +.8.J.b.U x U L >.;.^ x.B.q.L.B.j.) ) d H G I >.O.R.F.>.b.#.y.v.x.p x H ^ c P } 5.#.O.P v.l.v.P x i x c l j.r.O.O.F.R.w.L p.v.z z x G G r.G.w.0.w.L.F.l.x.&.G p a N l G b.x.#.#.w.8.+.G O.l.x 6 a u f H K I L d d G +.I G 9 0 < 0 a r L &.G U ,.{ I +.J x 4 2 c 9 i c l H U +.+.>.+.U l q 0 i > p ,.#... .0.$.#.8.l.{ r = = i c G G d x d G K i 7 @ % 4 a p p a p i d i > 6 a < % > = < a @ > 4 7 i u p = 0 7 % % @ @ O O % + > ",
"0 : @ > % @ % > > % > @ + < @ : @ % 0 > < % < > @ < = 2 6 0 > 9 < > 4 @ q = 7 6 < > 7 7 i < 9 6 < % > > 7 9 0 u i d p 0 > 0 i 7 > > p K u 6 6 0 z p a 9 7 d s r 2 0 p d p l p 6 0 p z i 2 7 l u 0 d p u x p c G G d G Z { { #.S L O.I Z Z 0 p E d d K d u p d l 7 r G G G ^ l p d c p z ) p z 0 u d +.,.J d x G L O.L G G Z L L Z d d =.x l H L G L I G H d d U G +.G G ~ +.<.p d p G I d p L { P L U ~ J L G G =.G { L I G x K I +.L L U U x I +.G I L ~ G K G U r.L d P x G I U p I { G I I x U G d U J ^ G H K K ^ J ;.~ x U d O.Z G #.L L  .S G G L I L U { [ I I Z L L { { L d G K U I L I x L P x J G d G L U =.G U d p +.Z P $.{ I d x K K K x d G G I s L { [ I I f K x K d G u -.>.I d G G H I L u x c x G { s $.L d G x $.+.d d ! x s d Z L L p G G d G d d K K p l s G G s I { L d A x L s p d d 6 r K 6 G d u x E f p 2 p d l i 6 U x r 7 x s d 6 l 7 r 6 l 6 2 u u 5 r r r r r r p 7 u u 9 7 H d s G s s G s d p 6 < 2 q > = 0 6 > p 5 t 2 = q > > > r 9 = > 2 9 a > > 7 > = 9 = > < % @ < + 7 7 > = < = + @ > % @ > % @ < ",
"7 > % @ @ 0 < @ : < 0 9 > 9 + > < > > 7 > = q > > i 7 7 > 0 > 7 7 4 z @ < 4 2 p = 4 6 i 9 % = 7 2 , < 9 q 9 9 > > u p i z i 6 2 i < : > a i 9 f i > i z 9 l z l i 9 p p x G l d c d u T p l 9 l u 6 Y z l x H K c J x 0 6 x J p p 0 G G Z p c K s c K c l K x U ] ^ d P G J x G x 9 c z V c h c T U I J U ^ x d G I x 6 ! G J @.J U x x U ^ d x +.d H K ! ;.H l H J G d E U x ( l U K c K K ^ } I ~ I U +.{ ;.G G x ^ O.~ U U ~ x L O.Z =.K ;.>.H G ) c x U +.U P J +.>.) l K A =.) J I +.$.+.J =.K H ;.U x T c ) ' c x &.~ G ,.U 8.U G P +.x G I ~ U J ^ I J ) l.H G 6 <.K x P +.I G K d +.&.d U G x x K J ) d G I x G G ^ ;.d d T p ^ U H x I d H K K K c K +.d =.{ L L U H 0 l x U c b u H H l w 0 ~ J x b d E ;.&.P x x H H K L s +.G p i z x x l ) J l l x f b K p J K x p c u u x d d K c l d x u d l K c d 7 a i z K 7 z f x p s H < z a > c > 7 2 9 9 7 7 6 r p 0 6 i f d 7 0 0 0 > u f t 6 u i 6 > 9 > > > 2 7 > > > 9 2 u 2 < 9 p 4 : > 9 u < > 0 4 9 @ > u < 9 = % < + @ @ a 4 @ @ > < @ 9 > > > @ @ 4 < > = @ > @ + @ < 4 O ",
"7 = < @ > 9 > = > > 7 = = > 7 i i > 9 > 7 0 > > > 0 7 % < i 2 7 l u p 0 7 4 i 7 7 7 6 p 6 = 0 p = 9 0 6 2 p d 6 7 7 0 p 6 r p 2 u i 4 = 7 0 i p d p i u 7 u 5 u s l p G d s d l p d l H t u 7 d f d G d 2 p u d H d p a 2 K ! K J u U E d d d d H c 6 x d u d G s G U f p x H K x d p s u d d ~ x d L x H U U G J J J p :.o.x >.U +.d c x K +.d +.G H x d I p U U K ! L d H u x G I L Z x x J I d U U s +.I L G U x x =.P I J ^ ^ O.r.$.I x G x d >.I G U d =.+.L l ;.O.I J >.{ { L ~ ^ J K +.U O.I J G L P G G S d d J J O.=.U x } U ) x U d =.P } +.G U L x d { x G I K K =.L U I ;.) s I +.u U <.G L d ) J v I U H c u G ,.G ) W 6 =.;.u =.>.G x U d p u G L G H J +.I x G c H d K ^ r p =.s J K x p H ) x G s x G $.I l H d x ^ x U J d r z x =.l r r K x p c c d p P J K d z d c K r p x r f x c 0 u d l c r b d > a u > 6 p x d r K l > 9 z < > p u 7 a 0 5 9 u u u 9 6 0 x 0 i 0 0 4 9 l 0 q 0 2 p > q z > 4 9 > z > > 0 2 > > < > 7 p : @ a 7 > 9 < > 0 = < 6 q @ 9 > > < : > @ > = : @ @ = > = 7 @ % > 4 @ @ 4 4 = > > O @ < @ ",
"< : 2 < p 7 7 f 4 > > + @ > 0 0 f 6 u p 7 7 p x 2 = : q < > i x 4 6 l x 6 > 0 7 4 p 0 7 6 P I L L L L O.P #.I d d 7 9 0 6 x d d Z U G x G G f 6 H 2 d J Z G x G G x G L s G d i 7 7 K L I P G L L G I Z p c 7 x 6 l u d U x p K I H G r H c x x x P } #.#.#.O.{ { { O.p p x l 0 x 8.q.q.A.5.{  .7.&.G x ) H U G I L L $.{ s P +.p H +.I d d +.O.#.#.{ I L #.{ x.G J d K x { $.#.7.q.0.0. .#.7.+.G I <.H I 6.8.6.I +.,.&.#.$.G I ;.H L $.&.&.{ L { { I { v.P x H I ) L { K.5.#.#. . .L d K x x U s.#.q.9.A.N.7.).S.9.8.d K I <.c ! E s I [ L $.G ,.+.d U ) J +.{ G { L %.L r H G I G d x +.} L G G I O.r.O.U +.d d { ,.x K L #.8.G 8.I L s s &.{ K G J I G U O.L G L L +.I H K J K U I #.5. .{ G #.{ { x ) H d P U s s U L J d O. .Z K l d E G P I G +.Z L U I I d G P H d p K l s s J K r r x I I d p i l p p l s I s s p p U s s i u d c u = K u u p f s d d l G > i z r 7 l z 5 7 c l 6 r a i u > 7 c p > 7 a > 0 > i i = p 0 p 4 < : 7 r p 6 7 6 = > 0 > 2 > > > = > = 7 6 > d @ : 4 < > > % > 0 o @ @ > % @ + > @ > 9 = @ @ > O % @ ",
"2 4 6 0 2 > r r 0 7 < < > 7 6 2 r < r p 2 - l d d 9 > > + 2 p d 4 p r p d 7 7 u > i 7 < p +.#.{ Z  .{ { [ { #.O.d 7 < u H G G H L G G I U L c 4 p i p U L L } G P L I ,.+.L d 2 p u f O.#.&.{ +.6.L { { =.l 7 x d x +.{ } I L L { x +.K ^ K l c d O.#.0.l.l.q.#.l.q.l.+.Z c u 0 +.tX<X;X7XrX|.oXS.|.D.G l p L L v.U &.v.7.O.&.{ 0.G L G ~ ;.d j.#.k.D.D.K.A.w.l.w.J ~ ,.O.l.l.L.D.D.D.D.).|.%X#.{ x d ^ 8.l.K.H.l. .q.0.l.v.$.+.I p I 8.0.l.H.B.A.w.l.0.8.,.x x ~ { B.+X].].q.tX*Xz.8.v.{ +.K d J pXiX*XuX5X X;XlX X5X{ p U I L 8.,.$.x.&.#.G.+.$.{ I U d =.L 8.x.w.w.v.l.O.x.#.8.U l u P Q.L L >.x.{ 6.&.L r.r.I +.G r U &.6.8.+.#.{ v.j.r.L I c u } c.,.{ +.I +.+.G I } K G U x J 7.A.C.L.l.l.C.A.L.+.G H H c G +.$.I l.T.K.V.A.6.J d p x d L O.8.8.5.v.w.7.8. .$.U K f d d G +.$.+.L +.+.U I &.+.p 6 c K p r L $.+.} =.I { { &., a p 7 K H G s G G G d G G G ..7 6 9 0 z d 2 H G s p x T d 6 6 @ > H 2 r r 0 p c u p f H p > 6 > 2 p c f d H p p p p > < < < 9 7 u z u d c 6 d f 9 @ > < > : : 0 = 9 9 > > > @ 7 4 7 % @ < 9 @ O @ = ",
"0 = 2 p > 2 > p 7 2 7 > > i 7 2 < > i 6 6 u 2 i x a @ : > 7 i p u l u q 5 H d u < 9 7 7 l G Z L  .I I { S I { %.Z 2 9 2 T d d d G G s s s d d 9 = N 6 s } { L s L G x d G U U d x d U L L G L Z L +.G I L I d p 0 I $.L J L $.{ { G +.$.O.G p z f { 7.0.L #.#. .#.5.9.L.{ x l s H.|.;X'.i.Z.S..XN.^.5XL u K G #.8.&.+.I &.j.#.{ T.v.Z ^ G K G 5.9.A. .9.A.q.6.{ K.+.P x L z.7.5.#.{ &.q.A.N.w.L...H s %.L.k.5.5.5.7.q.7.#.n.I =.} a &.l.8.L #.A.+X#.6.q.C.G K ;.f _..Xq.B.L. .V.T.{ P.@X0.U ) U *.zX XN.Z.Z.,XXX(. X`.+.U J { 8. .{ 8.r.I #.8.#.{ L x U +.U L 7.6.#.w.#.8.5.w.5.8.L ;.K d &.v.v.r.I #.6.#.O.I r.+.L +.P L ,.{ $.+.w.#.5.0.w.L x G G G G +.&.I { O.+.L ..&.,.d P p +.v.5.#. .w.B.#. . .#.6.s l p d #.z.z.q.B.i.q.q.#.8.U l K s Z &.w.O.#.#.5. .{ 0.{ d d i I G s I I L #.&.I L { I +.~ l p r G U L { { G L { { I #.x 6 0 7 r s U G J x G I d P G G Z u 4 > u H d d P d x s d G d p 0 r 9 7 x d d p d K d r f p 6 4 9 7 r c p 6 d 6 u d p 6 > > > : u p f u 6 c u - G x = > % = < > = 4 7 < > 2 6 2 9 7 > @ o % : : > > : ",
"5 4 > : 6 7 > i 2 i 6 < = 7 = i @ 7 6 0 p 7 > u p p < > 4 u p r d r i 0 5 s L d 2 % > 4 d L { L I G Z L L +.{ I G d 9 = 6 x d x d d G H d K i u 7 u r H P P } L P G G Z s J G G d K d =.L I P I P +.+.G { &.{ d 5 L L I x L { I L L L { I K H 9 d j.k. .#.$.7.{ 5.5.q.].#.d x s C.XX X}.D.D.Z.i.S.Z..X%.U U G $.{ { &.{ { #.#.{ 5.B.#.L x p r.@Xl.k.q.B.9.l.#.#.i.+.I H { H.9.S.$Xv.L C.q.9.9.D.8.( d #.k.A.5.k.5.#.B.r.I %.&.x U x y.q.l.8.&.5.B. .{ k.A.I G U 6 3XrXN.9.Z.N.9.A.#.8.Z.N.d l G n.jX_.S.S.4X`.).S._. Xl.x J L 8.w.8.I 0. .7.#.#.8.c.x L =.s ,.8.5.L O.$.#.q. .{  .#.+.l x [ [ #.5.O.I O.&.8.{ { I J U { O.{ #.8. .5.v. .5.O.x.T c I G G L { &.O.O.+.$.#.{ L x ) d G #.6.#.7.B.5.%.&. .#.0.L K b G 5.|.Z.9.N.9.N.D.#.0.x.d P d d #.#.8.{ { 5.0.#.#.#.{ s K H G +.} =.L I L G >.L L Z x K p 5 H P I p U P { { { L L x s 2 p p p L L +.G d K d d G L } r 2 < p d d G G G d 6 d G d c 7 7 > c d d u 6 d d 2 6 r u 7 @ > 6 p s 0 2 i 2 6 l d p > % > > 6 5 f 6 6 6 = r r d > = @ @ 7 9 = > > @ i 6 > > = = @ > % % @ > @ O + ",
"0 > > 2 q : > 0 2 2 0 7 4 @ > u > i 6 - > 9 p u s u % @ @ 6 6 5 x 2 p d d 7 x A d 6 6 6 d O.I { G I +.L L ..#.{ s 7 7 = l G U d x G G x s H x 7 q p K L L G I L { [ I x s G d s p 2 c { L O.U G L G  .{ +.U x U f G +.L L +.P L $.I L  .6.p 0 c l O.#.{ 5.%.%.#.9.B.B.9.I G x p 7..X.XZ.|.N.Z.`.Z.Z.5X6.L x d I V.l.5.0.B.C.{ #.{ A.P.0 J I #.5.q.L.q.q.7.{ 8.7.A.c G E G N.C.q.N.#.C.k.T.D.i.+X#.x +.#.7.q.Z.q.q.&.{ #. .0.&.s H d $.B.@X0.O.O.#.5.+Xq.5.J.L H f (.9.D.OX.X).q.N.D.D.D.l.G =.J I kX X X_.,X2X5XS.(.,X+XZ K +.O.6.B.{ F.q.5.8.#.6.#.Q ~ G S ,.,. .L #.{ G $.{ 5.{ &.d x K x.#.{ &.O.{ 0.#.*.%.O.O.I J L I 8.z.7.{ k.6.q.l.O.=.U u L 8.#.{ O.$.$.#.+.{ #.l.L d c o.x.#.7.l.B.5.7.l.5.&.O.v.+.K K G A.i.D.9.q.S.q.Z.Z.C.L p f p &.7. .8.l.#.5.#.5.q.k.l.+.s J G G L +.I P +.L +.G P { L 6 6 9 d G x s J I I G P } } U K s f q r } Z G l x G L I s G d f i 7 d x x d I x d f s d x 7 z < 5 d s H r p p 6 p d s G i = < f d d u i i u p d p p = < q : u > 5 d p > i s u p < > > > 7 i 0 > @ q > : > > > > = @ : @ @ O @ 0 7 ",
"7 4 : 7 4 9 > 2 6 u p = 9 @ 9 p 7 > 6 7 7 2 u 5 d 4 @ > > p p c p d d t u u f H G r 4 > U { L { L O.+.L I L [ 8.G 7 z 6 z d G G x G x p x K d c 9 2 G I G G U G S { L d +.+.d p p p x O.0.L L I I { #.L L U 7 K p d G I r.L { L +.{ +.{ { x u i x I w.B.l.{ { #.5.5. .0.+.d -.x 8..X^.S.Z.).(.(. X(.A.8.x ) G Z N.5.y.v.9.7.5.q.7.q.#.s E x I 0.5.A.5. .#.l.0.q.D.r l K L q.k.9.k.9.C.7.N.(.Z.D.L x } ~ n.z.q.5.l.#.&.&.j.V.7.r ;.{ J.k.5. .&.8.v.A.@X9.H.#.+.U -.A.B.9.%XZ.Z.D.N.9.N.&X .L U G } kX X X_.7X>Xi.,X_.Z.B.+.) G O.n.C.5.l.B.#.x.8.#.j.I d U G ,.{ B.U t.v.{ $.{ k.l.{ G c d I y.I L v.&.8.I I L #.+.+.,.u } F.#.k.l.7.v.#.5.w.d f ) +.#.5.8.L I ,.#.+.+.#.8.~ x z G { 8.8.7.{ l.0.6.#.8. .6.J ^ r } i.i.Z.N.C.N.5.q.Z.).I x 1.I [ L.0.#.5.7.q.7.5.7.#.B.{ d b K G L L L G G { { G } { +.9 l a f G U J H G d G I I L L x x 6 0 x I L d d p L I L d G G p 7 u G Z d d G G H p s J G 6 @ 2 x K p 6 H p r p r d x x 6 6 6 u p p d r r d d x 2 u > > > @ d u 9 r f z = d 5 i a @ @ 9 0 6 > 4 @ @ @ % < < 4 = < : + = < > > > > ",
"6 6 = > > 7 7 < 6 = > 4 2 4 > 5 u < 6 p d - i 5 d 7 @ 7 0 6 2 i 7 p r > > 6 2 d - 2 < O K {  ...I I G { &.L S #.G i d i x d 6 x p d H f d s U d l 2 u ^ L G G G G x L I #.} G p K d G I { L I O...{ L P P $.I p 6 =.+.L d Z { G I { I I L L G l G &.5. .+.#.#.6.9. .#.} L I =.u I Z.;XoX9.XX_.a.`.'.`.*.r K d { V.0.6.{ q.A.7.7.8.i.q.} H p t.7. .A.D.0.5.l.B.q.9.+.=.u G w.A.q.D.N.D.#.Z.A./.+XG U J { J.k.5.7.q.N.L.#.I 9.@X#.U J v.5.#.#.F.5.K.8.5.A.R.L l U ) D.N.D.A.N.N.k.N.q.N.OXA.L d G r.kXS.XX`.Z.(.oX XkX,X6.s K +.{ C.0.5.O.v.{ { 0.#.G.{ Z -.G L w.+X@.{ x.&.&.8.9.z.v.L K G F.L.l.&.O.G L j.j.{ &.+.G x J c.7.7.7.O.7.B.w.p.B.#.U K +.P #.#.I +.G G +.&.#.8.L G K d L B.9.#.0.5.#.L N.D. .6.G U p L A.Z.i.k.#.9.Z.Z.(.A.#.p a u  .B.9.#.8.#.9.#.#.N.k.q.L G K d L #.I I +.G { &.I p L I f p l x s J L I I I L d } } L x r p K d P G G G d G d G U G G d l z u x G p f f d l p x p d > > 9 G d G f u f d d p 6 d u p > > p G d p f x r 2 p a = @ @ @ l d i > 6 p 6 6 l p 7 > @ @ = 2 6 6 6 2 = = > 9 > < 9 @ + q < > 4 = @ ",
"> r > < < : < 7 2 7 a 0 = = 9 l d + 7 G x p 7 a 7 9 4 z > i l 7 7 u i p 0 p s G 5 < > + p {  .#.{ $.L [ { { #.0.s 7 6 7 K s f K d u d x G I L p p p p L I d L } G d I #.{ L L d G d ~ { L 8.&.I  .L J U L #.$.d p +.L L U U L +.L d U I d x U x p v.7.{ $.#.#.#.#.#.&.r.{ { L 7 O..X;X.XZ. X(.XX|.:X`.8.6 z G 5.D.5.#.8.5.9.7.8. .Z.5.d r 6 { l.7.V.A.B.5.5.7.Z.*XU U G x F.N.A.`.N.N.q.).|.N.C.L U O.5.w.{ 5.8. .S.N.#.{ 9.|.L l x v.q.D.F.q. .5.8.9.5.9.r.u U < Z.Z..Xq.).9.C.).D.N.OXk.L ^ I 8.;XS..X^.XXXX). X1X(.8.p ! +.8.0.%.v.O.L { 8.F. .w.8.L } +.+.G.[ #.#.I &.8.L #.{ I L G x #.5.q.I G >.+.O.q.v.#.Z U >.I [ P.7.5.m.k.#.5.#.7.8.L G d U L #.O.O.I G L { #.#.+.H d -.#.9.C.5.B.q.5.#.q.N.A.O.d H K I D.S.N.p.q.Z.S.N.Z.|.I p p r { q. .w.8. .w.5.7.9.9.l.} d u d O.{ I G >.L { G O.G I O.d d K p d L I O.L I P G I d &.G u u s P U G G d G G d t Z x p d r = u G d s > p f G d r u p : > = G Z G s r d d d d u r 0 z 4 < d s s d d p p z p - u < > > p r p 6 6 6 f 0 r p @ = 0 > 7 t 9 i > 6 7 4 < 7 > = > + @ = > 6 < 7 @ ",
"2 > > < : = > = 9 > > @ = 4 = 7 s 4 > u p > 4 4 - 6 @ = > = 0 7 6 7 p i d d p x 0 > : 2 G #.L O...I { #.[ O.#.F.I u 9 > c P G x G G d d d L I 2 f c 2 L +.L G I L L L I Z I G 6 x p J &.O.#.&.+.{ #.$.L +.O.s r t d { I +.$.G +.O.U $.$.$.p H d J 8.7.5.9.8.#.#.7.8.&.{ #.I J 0 K.`.^.7X}.S.N.N.Z.`.Z.{ x G I  .L.#.{ l. .q.7.{ w.i.r.I ^ G { v.5.k.7.9.q.N.N.k.9.L d G &.D.S.Z.A.V.S.%XZ.N.k.k.L U I #.9.0.B.C.6.8.8.D.).D.B.s l x +.5./.5.v.l.l.7.q.9.F.{ G &.I (..Xi.+X).D.D.A.S.S.N.{ x ;.x $.fX,XoXS. X,XD.(.<XwXB.I L I 8. .#.w.6.8.j.#.O.#.O.I L I O.$.{ { O.#.O.$.$.#.8.G U G f.{ +.L O.5.8.6.>.[ #. .#.&.J G I w.6.#.F.7.#.6.0.w.&.L L K d >.&.0.$.L { +.I { O.r.+.d x G #.7.7.6.8.B.C.q.L { v.#.U H p x @X).9.9.D.S.A.i.Z.B.{ x ! G  .%X5.{ 8.7.5.&.k.9.q.8.G d G G G { I I d I +.L I G { I x x a p G &.L I G d U } I s I d 2 p i H G U I I L G r H d f c u i 6 r U x J d c p x x p c 7 > > r P p p x d G r s p u f 7 > > 9 x s r 6 6 r 2 f x s u > @ 7 p 6 p G d p x s s K = > : @ < 7 @ = 9 2 = > 7 = = > 9 > : > @ > @ > > ",
"< = 4 < = : > < 7 % > < @ + % 7 u < > > 7 7 > i f i 9 @ < 7 = 0 f 6 7 r f 6 d s u 7 6 s } I P Z I P G #.{ { [ 5.G d z 2 c x p s G J s K G L G u z u d I { G K G [ { +.Z d U G u f l G O.#.{ { L O.#.[ L $.x x c p J U G I I I I G U L O.L u l T d #.5.7.q.5.7.C.5.I I I O.L J d 7.|._.a.Z.Z.S.A.S./.A.{ U x G { C.7.8.C.B.q.#.O.#.p.8.x G G O.v.[ #.l.l.0.A.q.7.w./ p H L ).`.9.N.N.A.i.Z.D.q.8X6.G x O.l.0.p.A.0.G +.w.i.q.m.l E K d A.D. .B.6.8.5.k.A.q.&.c.+.I `.5XN.Z.:X`.5.q.V.|.D.l.~ :.s 6.fX`.Z.Z.`.S.oX.X_.yXA.G L 8.O.#.8.{  .y.#.I #.&.I x +.O.I j.U >.6. .{ O.r.I #.+.c H U +.&.O.,.&.#.[ { { I &.w.&.s I G 8.$.8.5.i.r.5.q.w.O.P U G s +.#.{ #.$.I 8.&.{ L G >.s P L #.w.#. . .0.q.Z.x.I L &.Z p x x 9.i.i.B.N.9.5.A.q.C.;.d x L [ D.{ L 7.7.{ { l.9.C.5.I = d J G U I +.L I I G I { O.L s K 7 5 G +.J x K G Z I G G x d x 0 > - +.L s x G x s G d 4 P 6 > p r G x d d G d t p l u = 4 7 G d p x d 6 x K H t d u > % + 2 d K p 4 5 u 2 r d G u > > @ x u r H p s p G G d = > @ % < 7 @ 4 4 @ < 7 > = = 9 < @ : < > > $ + > ",
"@ % @ < 9 > 4 7 = 9 @ 2 a > > i u > 9 7 4 z a 6 6 = 4 a 7 a r 6 i p i u u d l r 7 d p > u L >.L $.>.L I P { #.$.G p M 4 p G G H d d I p d c 6 6 > i u G $.+.I G Z I L U U G H d c u K +.O.#.{ { +.$. .&.r.d c H 6 c U } Z L I +.I G +.I <.f p c x O.%.{ F.7.5.0. .#.O.,.{ G P p { 6XpX`.oX.X5XoXXX5XF.L p U I G  .0.C.#.B.8.5.n.5.C.8.r ^ x +.R.l.q.C.#.[ k.D.N.L.x c c G l.7.p.+XA.N.N.uX).N.!.{ I ,.U J.B.9.q.C.H.G.6.q.q.l.! U G r.#.q.R.B.0.H.5.#.H.#.P.} r x T.S.].N._.(.i.A.A.5.D.8XI f d o.lX_.(.,XyX>X5XyX>XiXq.U H I O.F.l.{ 8.L $.y.P.+.&.L L U u } x.#.{ #.w.8.6.{ 7.,.G U H G { 8.8...6.+.r.,.+.&.I x } +.=.+.8.q.B.i.C.7. .#.J.L x s x +.+.I $.&.d G $.O.6.r.U d ^ +.=.,.8.q.B.l.9.7.7.n.l.r.x K u J V.S.N.B.N.Z.i.C.Z.B.&.s c G { 7.l.q.F.5.#.q.l. . .6.>.x H x G +.;.I ,.>.G I +.,.U p p p p b ) K G G U { G P G H l H p l > 6 =.t Z U U d P G A 5 G p 7 i 6 x G d d G G x u H c < 6 4 u H x p r z p d c t d 6 7 @ 0 2 6 d x r f x r d s p > + q @ a p 6 r 5 p p p d G 2 @ @ = 0 6 > 9 < @ > 9 > > 7 < @ + : @ > 9 a @ 7 ",
": 4 > = 4 < 7 > > @ < 2 u > + i u < 2 a p r 6 > = < > 7 6 p l 2 @ u 4 u 7 > > f l u d @ > U { 6.L x Z L d { $.L G = 9 z d I I s A c t c p u l p 4 9 z d G { Z G x U I I $.G s G H u r G L O.{ { O.P L I I d l l > l I I Z x G d G S } G I x G G L O.[ L L #. .k.7.l.#.{ G c d c O.i._.1X X:X>X;X'.a.#.d G o.L I { 9.q.q.5.5.C.B.#.9.#.+.) f G %.).S.9.7.H.L.9.N.9.G K T d ,.#.9.D.D.k.Z..XS.N.0.s { +.d O.B.oXk.N.(.q.#.&.7.N.O.H +.x.O.#. .N.q.D.8.{ 7.q.#.p K %.%.9.5.A.|.,XoX.XB.k.A.9.Z c U U Z.>XkX1X1X<X1X<X-XoXS =.) G O.N.q.A.J.#.L 8.A.8.&.L L <.H +.{ q.#.#.k.5.5.l.7.6.#.U d G &.7.7.+.L I L #.v.I +.c U x 7 d 8.9.9.9.7.w.l.&.6.G c U J G b G Z 8.I N O.S [ { x ) c l l s 5.).N.B.l.7.7.N.q.{ x T 6 { C.Z.Z.N.Z..X(.N.'.A.I d c p d 7.}.N.q.5.D.(.k.q.B.0.I L f p } { $.L d { { } L d p d c 6 p 6 0 < G d G { { &.p s l u r p 9 u G } I L d G G x G G U r 7 < 9 d I L G P Z G d d G 7 d p 2 c 6 x p p r s x p x u z % l 0 u s G Z d p u d d a @ @ : : 6 s f x > > p x P Z 6 % < 2 4 < s 4 < i 2 : > > = 7 > > < @ > @ - 9 % ",
"7 $ < = 9 > > u > 9 7 < % % : > 9 % @ 8 @ @ 1 > 9 : > 5 2 = 1 2 a 6 i = & 9 z 2 a < < 6 6 q @ > = > 9 7 % q 0 > 5 c 9 a 4 i 5 - 8 7 i 9 i 6 p > 0 a 7 c s r 7 0 p 8 4 l p 6 f i 9 7 2 i a = : i 6 6 p r N < p u c r r d p l i 0 i u p 7 i p x u r x p G f u u l p I p i 9 m 0 x d > > q < % % q l p 6 a 0 c U K p G I p p d ^ x z G P x u u p r > K b 7 a l p H K L E E p p c l p b H H x c c K L U G G G x G G L G G r d 6 p c =.c x +.J 0 ( d K l d K ^ p L =.U l +.I G H p x I #.O.x 0 K U J >.l r G I f d +.d G ! c U G U U G 0 E x ) T u P x x ~ +.U p K I +.^ H u d v x r c x U H x x x G H G E i 6 l I J K K U =.G G o.x G x r 6 0 x d x U K 0 d E d x d G p d G ^ J z c 6 G >.s 6 0 c U x 9 q z T p i z d 0 b J L ^ p E z ^ P p H K G =.0 0 q 0 c l l a d G K d 7 x d L r p c J d U } d I c r G i > a u c < z 2 i > ; G L @ h T p 0 0 7 u 6 z q > 6 d 2 4 u 2 2 6 9 0 i 6 = 0 6 c 7 % 6 7 7 7 4 7 4 u u 7 z < @ 6 2 a > > 6 0 @ 9 c l 7 = 7 > > i @ 7 r : 6 i 8 : > 9 2 < 7 7 % % > @ @ 7 % > > = > = < % @ @ % % O O > @ + q % ",
"7 : @ > : @ 9 : @ 6 7 @ % % > 9 7 4 = @ > > 0 @ < @ 9 0 7 @ = > > 0 a > @ < 9 9 2 > z i 4 9 0 0 : 7 6 9 i > q a 4 a 7 > 7 a c 7 x p l 0 a i i 7 2 i i u p z K 9 z 9 < i i q l b u H f z 9 9 a x l d s i 9 0 b f p i z a l K K l p s b z 4 H U c b l c K p l l ) K K x K x d x x G T f G G u l ( l a z c x c d d d x E K l l ! x N K K L J l c K l l P K p H J K z U d d U U p =.T z K U U I x ! U =.U x ^ H s U x G =.f.~ d J J K ;.U x H K K H ) E G ;.;.U G U L =.P U H c G I l K ~ J J ^ ;.J =.E J K ,.d d @.H K x p ^ G L L +.U G J U d K +.K x d I I x J =.x ^ H U ;.x H U U x U G K K K K l I =.G T x -.U G d K U G f :.-.H x ) K u p U Z U d K U J b T c x K x K x ^ d H K d ^ G p z b x x d l 2 x I U d ;.x u K K s x d d z c p l x G G x p p u b 0 l p z d 6 f l z G =.d c l p K c f H G > 6 G x r r d > z f K E 6 z U U 8 6 u 6 6 6 z u > 4 > 7 l d 0 u 6 7 p a 9 i c i 9 0 > q 4 p 7 0 0 > 0 > 9 0 a > 9 9 4 a 7 2 9 0 4 7 > > < < 4 < < 2 8 = > > 9 @ 7 a = + > 4 > @ 6 9 > % : @ @ < + > > > @ @ * > > @ @ > % % > : > @ % ",
"> @ > q > @ 4 > > 9 7 > % : > 4 7 > 9 0 > > 6 < = > < @ > > 7 i @ > c r p 9 @ a 6 = z > > < 2 7 > 9 9 7 z 2 > 4 < 7 u 6 0 9 > r p u 6 = l > i l c l i i f = > 6 : 2 6 7 z k 9 l l T r u u u z u p K d p = a f d u i c 9 6 2 r x f Z f < u U G x x 7 l l x K 2 s L p u U G J H K t l G U J d x c x p p d U G K c z x H c l d U x d i p J G c c T ) 6 U ^ G d x c a U I G +.+.L +.G c J L L P d ~ l L >.d K ^ x G U U U P H G >.+.p L I r E H d d P G G H x b f G O.U +.U l d ~ U c b ) +.+.L ;.l x ,.o.^ J x d J p d J +.G L ~ J ^ K d G =.L I d H ^ d I f.x K x l J K K K G G G K H L L K u K x 7 p J J ^ c H d +.G H x K x u r d K K d c l G U x J c p c G i a p u ) i z U G G H G U K 6 l x x x J d l K L G K p d G c 2 l c u d < x d K c c u H G G u z > 9 x 6 a z d c 0 p d p z 0 c i z 0 z u a p p c P d p p c r s r 9 6 5 = < c > u a a z i 7 0 z 7 > 0 7 0 7 6 9 i 7 > 6 % u p 7 > i z > 0 p 2 < q > > < = 7 0 > @ > 7 6 7 4 9 2 = = : > > > 7 @ q : > % : > > 4 7 : > > < = 9 % @ O % @ @ % @ : @ O O + @ @ % : @ > > = > % @ > ",
": > 0 > > 2 2 = z 4 > % > < 4 z i u 2 p p 0 9 9 9 > < > > a 0 6 f i d s r i > a u z 0 < 2 z i 6 p 7 l 2 s H 7 > 9 i 2 p d 6 r d H U G G P 5 6 G K 4 > p U { I L x L { +.s i 0 d r p u K U G G d G Z s I G l c H z 0 l K G x U +.G +.G U s K x d G I I I L { L #.#.I L +.U U G d x x I G I x x I L U I x x K G G L 8.{ L S O.{ L { d r x c c p s x G ) I O.+.U G G d +.+.J G I L { G I #.&.I L d l P +.J U +.+.&.L L G } { O.8.O.E L $.I { { &.{ $.8.#.$.G d K =.U +.I G P w.G O.#.P Z } #.L l E x O.L *.{ L O.8.8.L I @.J ~ ;.L r.d.G #.L { $.I L U +.U c l K I c.} L I { { $.L d G ;.G U U s +.x.+.#.#.&.{ I ~ G +.~ x H G I +.{ I d } G I u H K c L O.I $.I L U { +.p J U I G x G U G G +.O.L I U G G U G Z U r U G K K p d d x p l K H x p H r G +.r T c x H { s p d u c G G d H p s d G u u x x x K p l K d x d O.I I K G I U 5 d p p l u d 2 p u 6 6 u d p c i > > 0 a 0 6 7 u d 0 r 6 5 7 i 5 6 9 7 l 6 > 0 7 = 0 = > : i @ = 7 4 6 6 0 @ = > 2 > > @ = % i 9 @ 9 7 > 7 > = 7 > < > @ < > = > > > > > @ + = > 7 > % : % @ > @ > 7 ",
"4 i 2 7 > p z 6 4 < % > 9 @ > p 7 f u r 6 > 0 i p 7 0 > 7 2 i 6 d H p x U G s G r 7 < p d d 0 u x p H l G P G x d 0 2 p G I +.L J } { L { +.d r z q r I |..X5.F.l.H.N.D.A.#.d r c 9 u I L 6.{ 5.{ #.{ O.L U d 0 f G &.L 6.&.&.+.{ #.q.0.&.6 z p S F.9.7.T.C.N.q.A.l.5.{ d d u d U x.L L &.&.$.O.5.0.5.G u u G 5.D.Z.A.N.N.*XA.l.S.B.G p q z U v. .G +.+.%.B.%.v.L.G K K K J { { O.O.8.O.w.B.&.I x r x I 8.5.6.@XH.v.6.%.C.l.{ +.-.s } K.q.N.tX|.C.7.k.B.w.d H U G I { w.k.@X|.C.L.A.B.8.d H s } K 5.C.T.q.).%XC.B.A.v.L -.x J ~ k.5.%.$Xk.v.l.D.B.{ } H - G J &.7.I +.k.L.5.8.#.+.d T c L v.5.7.L.A.5.B.N.q.K.8.G U +.G I l.L.C.w.0.8.8.6.8.L d H U G 5.V.A.D.|.L.B.A.|.H.;.d x U d &.$.6.B.l.5.#.8.8.#.L x G P K U { { r.I L +.>.{ U 2 l G L U H } #.#.+...#.S 8.&.L x c x K } I G { I r.L L I } L s a : 7 7 d #.F.w.#.8.&.l.w.$.I p r f x 5 r u d i 5 f d x 6 5 p u u f 6 x d p f G x G U s p - 7 u 2 d G Z L I H r G d d z 0 : 7 q = f c r 6 d c p d 5 = a 7 2 2 p 5 u d d 4 i 4 > > @ > @ 2 p 6 f d p G x p d p = 4 > @ @ @ < 4 2 > ",
"0 6 2 a = p r 6 > @ > < 4 7 > 2 r 0 p f u 9 = r r u a 9 = 6 K d s p d d d s G } l @ > d K 6 u d G 4 p p c d d P 2 p p = Z I { I d L G } G L I > 9 , - B.a.9.9.5.#.5.N.9.i./.{ 2 z z 7 { #. .{ 5.5.w.5.#.L I d 5 5 I ,.[ #.5. .I #.5.9.2.#.u p T d q.A.q.w.#.9.9.5.q.0.w.{ x l H x 8.w.l.L 0.#.{ 0.9.9.d c ' G q.`.a.N. Xi.9.9.A.i.l.{ x c M p 8.7.#.{ &. .{  .7.9.G x l U { j.#.+.#.l.w. .#.6.&.U K P { 8.l.7.V.7.q.%.q.7.C.0.G d K } B.S.q.N.q.7.7.5.D.L.+.d G ;.{ 5.|.i.9.B.9.A.i.Z.L.O.J x d I `.S.N.Z.(./.i.i.N.A.{ K c p #.7.8. .5.C.l.[ q.7.8.G U J U $.#.5.} +.q.l.0.#.#.F.L p c L q.A.k.i.N.q.N.Z.N.q.H.O.G ) G &.H.9.5.l.B.5.5.V.w.L G U l { q.|.i.N.Z.S.D.q.}.q.Z d U G d 6.l.9.5.9.5. .#. .w.&.H 2 d K G { #.#.{ 5.{ G L c.d d K G G +.{ { {  . .{ { L #.6.d K d x p P { x.{ O.L { { L +.} t > , 2 #.0.q.p.[ 0. . . .y.8.G r 6 f d d Z s c l r p G f H u p i 2 p d G H G d U L G d K 5 z > 4 G G L L P Z x d Z Z r = 4 2 = p d d s G p p d f p i z > > u f 6 u d s u u u 7 > : @ + 6 L 7 u d 5 d d A s u l 6 @ o $ : @ 9 > = ",
"u = 9 7 = 0 0 7 i 7 > @ % 7 z f s < i r u i r H p i > > > u G s d d d d G x p G p > 0 u p p 6 G G p f r r p d G 6 i 7 d U d G I #.P Z +.L Z I u q z s @Xi.9.0.{ 9.9.l.N.q.0.L s p u +.r.{ { { { { { &.{ +.G d L I d G ,.{ 0. .{ 7.{ 5.q.5.L l q p A.q.5.#.{ 9.0.[ #.w.9.0.H ! d U L { 6.L 5.#.I 7.#.l.I x K r 5.S.q.9.V.N. .B.D. .7.7.p G z t 8.{ { { #.F.5.#.p.5.G G ) G 8.5.{ #.L  .8.#.l.B.#.d ^ J O.v.0.0.{ { 5.A.C.#.k.j.p ~ U L q.k.D.N.q.k.7.k.q.q.6.+.d P #.A.9.9.w.9.N.D.9.9.|.N.I K U $.yXi.9.V.2.q.D.i.9.l.+.z K O.j.k.0. .w. .7.7.#.8.8.G +.U I x.{ } +.O.#.{ { #.8.H.} H K U #.5.w.7.N.N.A.9.k.2.T.7.d c x %.6. .6.0.w.#.A.p.#.d G E c L 9./.5.9.q.q.C.9.i.L.6.G c =.x 0.l.5.5.#.w.B.I I { L U p 9 d #.O.} I +.L L } +.{ $.x i u I F.{ { #.{ { L +.{ O.+.G r c f d L J L I { L d { I G P P a 4 d F.9.5.5.5.9.q.[ ..+.N.O.f 0 5 H E G K s p G G x 2 d p 6 4 > G x s x x d x s p d 6 : f @ 7 H G G S A G x r d P G 6 8 q = p - u p d u 6 r x p = > % @ p f c p p 6 2 p r f 0 = : : 7 s r s d p 7 u u 6 6 0 0 @ @ @ @ @ = > 7 ",
"6 = < 7 7 2 7 = a 6 @ : @ O > u x 7 6 s s s G x 2 l = $ @ p G x s l s 5 d x r d p 2 7 9 i p u x s d u d d p u U d > > c I G G G #.G L { I L } r q p t l.9.0.#.5.w.{ { 5.#.v.L r f 5 x { I } { L } &.L { L } U G P f ~ #.{ #.8.O.#.L +.7.&.G c 9 d B.k.{ &.8.0.5.7.#.6.5.{ d l u } #.L L 6.#.%.L  .I L L l z d l.N.q.5.l.7.7.7.k.0.q.7.G U 5 I v.L j.8.#.8.l.{ 5.i.{ L u G 6.8.#.#.8.&.{ #.5.0.&.H U d G H.9.F.j.F.C.l.6.#.k.8.G &.p &.=X .N.9.q.7.5.q.q.B.$.G K G 2.N.D.L. .w.N.C.H.9.).Z.I U G :.;X|.7.l.9.I.k.9.S.C.Z u K O. .F.#.l.8.{ w.l. .n.#.L U L { $.{ +.O.G { x.O.{ q.0.L J d s { 8.0.0.l.V.N.7.7.0.Z.w.U c d 6.v.#.w.O.8. .5.q.v.I J d H O.A.A.5.%.5.7.5.B.q.B.w.*.c K G J.8.{ { 8.{  .*.O.&.{ d H i x v.[ I I } $.O.L U L { d M < G 7.{ +.I O.&.{ L [ { +.d i z r G +.L s I { +.G P } U d s x d d w.D.5.L 0.5.#.0.{ #.7.L = 9 6 G I d H l d L s p u d d i i > u J r p d x d p H G p > 9 > p G d G G d G d x x d G f > % 9 i u c u p 6 d u d 6 7 > < + r u r p i 0 0 i 6 p 9 @ @ @ 7 H s d 6 p f = 0 i p 2 9 % : @ @ : % @ > ",
"f > > > r p 7 > 6 @ > 9 > i 2 p r 7 0 p p H s d d 6 7 = > 6 d d G x G G s p p I x i 7 6 u f d p G p f s G d r J d 7 : r J } L I d Z { J S { $.d z @ c 7.5.9.9.7.5.#.5.5.9.8.d 0 i 6 G $.{ { #.L L O.#.L &.{ d p 2 6 +.&.[ $.L Z L } *.{ +.G P d r 6.q. .l.B.9.9.Z.5.D.B.#.P p 0 I [  .5.#.#.O.{ 0.{ #.O.x T 5 v.A.).N.5.5.9.7.q.q.A.w.p x H Z 6.#.8.8.{ { #.l.5.K.,.I U L L { 6.#.8.#. .7.5.#.x.d L G I F.q.{ #.0.7.j.{ O.F.l.G U x 6.dXV.q.C.N.N.D.Z.A.w.r.x K f U.D.N.A.5.|.q.C.Z.Z.(.A.Z U d G _.Z.|..XZ.).N.i.`.k.I v K p j.B.#.k.l.#.w.r.#.7.8.L P ,.G U 6.O.>.O.l.#.L #.N.l.G c ^ G v.#.5.N.A.C.l.[ +XA.5.L U U G +.8.#.l.B.K.#.7.#.5.5.G U U &.T.9.9.q.6.w.k.#.7.B.6.+.K f } l.L O.6.5.{ { i.A.2.r.f K p =.,.I #.#.G +.} G #.$.G p c d G O.L { +.[ O.&.I { #.v.G u a d I L { { L G L L { Z x K 2 x c 6 O.q.0. .[ 5.5.6.7.l.l.G a 6 s G G x d d G p d d p P d p > i = p l K > i d H p d G f : < u G G Z G p G K G d G r p % u p f p c 6 p p f p d H 7 > @ @ d d > 0 6 p 6 5 5 p 7 2 @ @ p p r 5 p p 9 p p r i 6 > > @ + @ > < < > ",
"u > 8 < r 6 p = 0 2 = > > i d p 5 d x f = 5 x d d i > > 4 2 f d L r P P A f d G G > 4 9 d d x c G 6 p u l G G d d p > r I G G { } +.L J I { { d a > p 0.i.0.#.#.w.0.5.w.5.F.Z p d 6 d +.L { L +.{ L { L { =.s p p d { L  .{ I ^ I L +.L +.s p x K 6.7.9.7.0.B.q.i.A.k.5.#.I d p &.w.6.#.#.L L 6.{ %.w.L H K x w.q.L.#.B.@XB.5.5.8.9.q.p z c L A.#.5.8. .I I #.5.9.L ~ G ~ $. .8.7.8.#.#.8.#.#.r.d z G ..j.6.8.B.5.8.#.O. .L. .L E G #.S.9.N.5.0.9.D.).9.B.&.x J 6 I.N.k.9.N.T.7.T.%XZ.}.&XO.c 6 H .X).Z.i.N.N.B.S.(.%XO.x l L %.C.L { T.9.#.#. .l.G.+.G K G P { O.6.#.7.8.O.5.A.#.d ^ G L l.0.C.A.A.q.6.q.N.B.j.L U K G } #.B.5.#.A.8.#.#.l.v.U x d #.D.9.A.7.0.7.k.0.7.0.I G x A $.8.O.&.8.L { x.L.w.9.O.x ( u U L I v.#.L +.{ +.7.v.u 6 U x U L G O.+.L d I #.#.L #.x r 4 d I L I &.G P I { L =.U d 2 r i d #.l.5.w.#.0.#.0.[ 5.#.d 9 6 x K d p d c U G x p d P 0 = 2 7 6 M u d u c l t d x d 5 @ 9 f G U P s r s d d r u 0 2 > 2 p p p p f r x d p r d 0 > : , d d 7 i 2 u i 6 0 6 7 q @ > p d p u 5 6 > 6 p 6 6 4 7 > O + @ @ @ 7 = ",
"7 i 7 7 i 2 6 i 0 0 4 : > > 4 9 > d d f i 0 7 2 0 9 7 @ : 9 p G p d s s U G d Z d + < 6 r 6 u 0 p p f c d p d U 5 i z d { I +.I +.+.d I G L +.> p c s F. .#.#.#.9.{ 7.%.[ l.L d l l x L { U G #.#.+.+.{ I +.x d K G ,.L O.I O.&.{ L $.{ ,.^ p f x #.q.7. .N.q.q.q.N.9.l.{ d 6 p =.+.0.8.O.{ #.5.#.0.v.} p 0 G B.N.8.#.A.N.w.O.{ $.D.7.d z p G q.0.#.#.8.8.8.&.B.B.I d u I P.q.7.w.L { #.&.7.k.#.I f d &.#.{ 0.7.O.B.l.%.q.C.#.d c H { A.S.).D.A.0.5.5.)..X&.d x c i.}.S.q.N.B.A.S.N.q.,X|.Z R c t.oXS.|.9.i.D.k.A.(.oX#.d K G 6.5.j.#.&.#.7.0.#.8.l.#.K H } r.{ { O.L I &.{ #.0.#.I +.i ) H.5.N.7.N.#.q.z.k.A.v.G x U J m.7.q.B.9.7.6.6.l.l.} r G f { +XZ.p.w.B.9.w.N.i.C.#.=.K u G 7.7.#.O.#.0.8.O.L q.O.p 9 r P $. .{ O.x.{ L #.[ 5.H l T x { O.} I { L ~ I L 8.I { U K l u p P U G L } I } s x I } c c a 2 6.k.0.{ O.#.O. .0.#.A.#.0 q 6 G U p f 0 d c d s G x p 6 M = r c p Z c x d d r p x G : > > d L U x x d Z U x r 0 9 = 4 6 u p r d r 7 u d p r = > 7 % r p u 2 p p u 6 7 = > 0 > > 6 r i l p r d 6 2 i 6 u > % o % : @ > 7 > ",
"2 6 u > a 9 = z 7 @ + > > > @ > i r p u u i 7 > 6 0 @ < q @ u H d p x d G Z d d i > 9 0 p p f 6 H x p x p f r J x 7 u s I { d t [ L I I L L =.7 i z x 5.5.5.7.#.q.O...5.[ 0.L d c 7 x { { I L O.[ O.I L { I d d x d +.+.{ I {  .8.&.L { 8.d l l s w.p.0.5.#.N.i.9.q.q.N.5.s f H G L #.[ { 8.5.0.0.[ #.{ p x G N.N.9.B.A.9.7.#.6.5.q.#.x z f { 9.#.j.{ { w.8.#. .p.U K b J B.9.5.#.#.j.8.L 7.B.L { ! p { l.w.w.0.#.{ 0.B.q.9.v.x x d 8.$XN.Z.|.p.7.7.N.S.Z.#.H G c D.,XN.%X5.q.A.V.N.9.,X%Xx 9 x e.N.i.A.q.A.Z.N.Z.(.OX{ l K I v.9.5.6.{ ,.L.9.A.q.#.j.x d L J.6.6.$.r.8.&.w.{ L 5.x.U d G 8.5.q.0.B.A.q.#.q.q.7.O.J ! d #.9.0.w.7.A.5.C.B...$.b U G $.i.Z.q.7.A.q.q.9.q.D.%.d p l L k.q.0.8.#.q.5.>.0.B.8.d a c I &.#.{ L O.#.{ { #.v.I 6 d d ..5.[ L &.&.I L &.{ $.&.s s x d d } I Z L { L L x d { I r l 4 s 6.7.9.5.L { 5.0. .0.i. .u 6 7 G G G d d u r s U A G d r p p 6 G d d p p x G d p G d 9 = i x L p r G G d G s d d 7 4 > > 6 x H r c p p u r r 9 > : % d p r 5 p 2 p 5 9 9 9 @ + : 0 p > u p p r x r 6 r p 0 @ + + @ = 2 > > ",
"2 7 u 6 7 q @ = 6 : : > q @ % z u = u 0 6 6 r x f 7 > q + 2 f d d d G G d s L d 9 9 9 7 p u d p p f d G p d 6 d f 7 7 2 =.{ { O.{ Z U } S +.H 2 8 > 0 +.q.5.N.A.i.#.5.i.9.w.x = p l c t.L { I } Z { L P L +.d u z U G L L L { { L L 6. .#.L x p s 8.q.5.9. .5.i.i.5.5.9.r.u a H U 5.k.#.7.#. .5.5.#.I P x b d C.9.Z.D.i.5.A.9.5.q.A.8.d c ^ L 8.6.7.7.w.6.#.5.5.0.#.;.b u 8.2.{ 6.l.5.#.#.L 6.&.x J +.{ l.B.#.w.5.l.#.N.2.0.#.+.,.G } q.5.N.i.A.B.7.q.Z.).&.H ) U 5.=Xq.Z.S.oXZ.N.).S.(.).L M x >.|.k.%X^. Xi..Xi.(.+X6.+.H d #.q.9.l.{ L l.q.#.5.j.L G L L j.v.#.L #.l.v.5.{ w.l.} L G L 5.A.A.0.q.N.9.A.9.#.$X#.I H G *. .0.7. .A.D.7. .{ +.G U u +.l.i.5.{ L.9.{ l.5.C.8.d l H O.k.5.5.v.L 0.5.n.w.q.7.G c p x #. .{ U L &.{ I [ 6.G K z d { 5.{ { { { { %.$.{ { #.p r d x } I } L d O.I } G I L L 6 6 9 x L p. .5.5.F.#.9.#.9.8.L x u 6 G U x p G G G r x G G q u 0 2 7 c c d J r x d G G p u i 7 > H L d s d J d p d G d 6 > O > s d r 2 f 6 l p 6 r 9 > @ p r > r s d 5 f 2 u = a 0 > > < 4 2 f 9 0 5 u u p 2 6 > 4 > @ = : = > = ",
"> < r 6 > = > i > < 7 @ > : a 5 p : 4 7 a f d x p 7 @ % > 4 i - c I d d d H P i = 6 2 > 4 c d G p u H G d d l 2 2 7 7 : p L $.#.L } d Z L G p p 9 1 > L w.#.#.N.9.l.N./.D.O.6 0 a p p L L 8.+.d J { P { I L d z p d G { $.G G #.#.L 8.0.#.x x H x I q.D.C.B.9.D.N.5.l.B.{ p 0 l G 8.{ 6.5.8.0. .8.c.L L x 9 s 0.|.A.p.5.0.q.L.L.C.B.G d G J U G #.#.v.w.#. .l.q.k.6.L 0 d O.v.{ #.7.#.#.&.#.&.=.d I ~ L 8.l.9.#.0.F.#.6.8X#.{ +.{ 9 I D.|.B.#.C.N.q.7.q.@XO.s E d #.P.7.B.I.N.}.5X}.i.&X5.p ! x +.S.q./.).i.|.(.9.A.9.L U ) G v.#.q.B.6.#.k.7.G H.$.d U $.~ %.6.%.L O.#.5.{ l.l.O.G x I $.#.q.A.B.w.9.q.@X5.C.C.I I x U x.8.#.7.{ 9.9.{ 8.%.#.G H u ~ H.5.l.8.7.l.8.v.{ #.d d K d +.{ H.6.#.#.#.9.7.q.6.{ r H H c 6.l.{ G r.{ P &.{ O.d r l d I &.+.L I { { #.{ ..Z I ) u p G I L { +.L I J d { I } U i p c p { 7.#.{ #.2.[ 5.w.q.>.5 r l d x x d d x Z I p 7 l p @ 9 0 7 4 0 u G x p u p G s u > < p = s G L G u p u p 6 d G 2 = * = G G u 6 f p d f f p @ : @ f 2 7 6 u d u i = 0 i > = : < = > d z @ > p u 5 p 5 > 7 = 4 > > + > < > ",
", > = 9 7 > 6 4 : 4 = + > > > = r 0 q > > 6 5 2 7 = > < > 7 i T b 7 = i = 9 4 7 > q > 0 9 i 6 u p > a > > 6 l i 0 9 9 7 u r r 2 u H d f K 7 < c > 4 q 2 p L L I U U G Z I H 2 a z z 2 u +.U G A ) ~ U U J K c r < x J } +.P d P { c G I ^ d d x x c d &.#.{ r.{ %.v.m.e.s x d d u d >.O.S +.^ I d J Q x d z d I #.0.j.&.r.y.y.{ G d G U K d L J L G I $.O.+.&.~ L I G H K x P &.8.O.,.+.$.>.+.s l x G U I I c.x.+.8.l.O.{ I G =.J z x K.L.D.l.C.B.9.l.$XH.O.d -.p L C.H.v.v.6.l.D.9.H.r.+.+.^ H z T.+XT.9.V.T.T.B.B.v.I c U L &.%.8.j.5.#.w.v.c.8.#.>.U x L +.$.&.c.+.{ $.L r.{ { >.K l G } $.#.m.8.v.8.x.r.&.Z e.+.d r U $.8.8.&.#.O.t.{ ,.I d c T J &.l.6.b.b.x.$.+.+.+.L G x x u d @.y.$.O.~ #.x.G.O.L I c l c ,.#.O.$.L { r.+.#.+.U r -.d s ,.x I U U U I P P I I s p p G d d d =.p f d d J x x s p z r 2 d } O.6.r. .6.0.x.w.K 2 c f u > u x d l x p u c a u z p z 9 > : z r 7 H u d l d c p O h i p f K K d K l u l 6 0 9 % > > 7 7 c d u p d r H 6 = > > a p H a i z 0 4 9 i q > @ @ : > 0 f d r i a u u 2 i p > O > = = @ % @ @ ",
"> < % @ > i 6 7 > > q > > q % % < 0 > > @ @ O > : 0 < > > = 7 p % O : > 1 O @ i 9 9 9 > a > > > 6 + z % j 9 7 7 q < 7 6 0 > % q 4 r p u u 8 q 9 < i 8 m > = p p 0 @ > % : 9 x d z l 0 u H f 6 x p r - d 6 p d d 7 d G d Z I I { H x u r 5 i z p u q 4 r r x d p x G s p s K G u z 2 0 K U 6 = l x x K l z H J d p H s 6 x u Z d h 0 K x d c x ^ ~ H x I O.} d 0 l H P G P K p O.{ G f K G d G f c K J G d s G d u L v.I G +.I G l T d  .#.5.7.7.0...7. .{ U K ) c I { L G d x d I G =.U I G K U K [ #.#.I &.{ Z #.q.I s a G I Z A d G w.{ G O.{ G { G u c G L L x L I G l x I I P O.J z i K U J K G L L Z G p H x L &.x E Z { L L U ;.G G G G c l u x L I { d d Z r d G L } ~ c T q 4 r { { G d I x L K s I U c p U L L I G L { L S L G G d d x I U G G x u d s d G p d c U f l f i c z u c 6 > K l p 7 p z p i f I { G L { L G d i p i 6 6 p u p u 7 i p u 6 @ : 0 s r f p 9 9 = 0 2 7 i = u u 5 > > < 7 @ = 9 = r u = 0 9 > @ % > q % @ s d 5 = u 0 u > @ > @ > 7 r - p 7 i > 6 7 @ @ > > < i f 6 s d 7 + > 7 @ d u + % O + : = @ @ @ ",
"7 > O 4 i 7 @ & O = q > = > > 9 > # 4 6 6 2 9 > @ q > > i 9 9 < @ < 4 4 = 1 q > : > 9 > u 2 z a l 0 > r 2 > > 7 0 > 9 u z z = 7 7 @ q > 0 c a 4 l x > 0 z i z q 8 6 B H l p p i l d d i : 0 0 q : f T r u x p z c l l q , 1 1 q # i M l u I x p x x K H f z c b < c i 6 p c z 0 0 ! K < m m z 0 c l 2 a z c z 7 c b z , q a l l U G U x L L U z i z z p T z q z p +.c 0 x O.L x q 0 d x J ~ ^ G b K H c T U c c l 0 c 0 v x d J G O.U 1 q p s ~ i u K G U J p c d ` c 9 H c ;.R c x ~ d d >.&.d H 7 c a 9 N 0 z ` c x L +.=.H J G d x J x ! p f U G i b H U Z } } z T K } ;.G I +.+.l 6 x r.S I Z K ^ ) d G d a d J -.a p c ;.P ) p c x E p K G H K K l b c l 7 b m z z T K K z l T p l T 4 N c E c p c x x v z x I P K a : z c 0 Y r 6 N 6 a K i < 1 a z j 1 m i : b L 6 a p d x K 0 < 9 c x x 7 2 l K d d a 9 7 9 q : > 4 > < i c p 0 7 6 l 7 0 > c l 7 1 : 6 G 0 : * > : 0 > q > i c 4 > 9 0 > u u = q > z 8 q = > < 9 6 p > = : > = q @ > < 9 > > @ > 2 = = > 2 4 @ > > > + % O = > = > > > > O > @ $ o & % @ : @ % O % 4 2 % @ o o ",
"< = @ @ 0 5 2 = 9 > @ > @ 7 0 > < O > > 6 > 9 7 @ @ > 9 @ < 7 a 7 r r > 7 > > > 7 > 9 9 9 i 5 r 6 7 i c 4 4 2 c u 7 2 7 2 2 u c d t p u 6 r 5 6 c i 0 0 6 r s 6 6 p u - 6 G c 9 2 2 z p 4 p p p i d x s x G x 6 u l x s r p 5 p = d 7 c p x x d p r x d f s p d 0 6 u ) d c c H d 0 K c > 6 d 6 p c z l u z d l d t G p L L U d G G -.c G ^ G d d d d G L G d d H K p E p K H J l c U G *.I p u z d x r x U Z L ~ d G c K L +.) H G d G c f K G H J Z U =.K d x H x J =.d I L d x K G x E @.L G P x U ~ s K x b G d =.U d x G K W.d d ` U x U z x H U G I J +.! U u p H G L U U +.G K ) K @.G =.P d d c x I ) d ^ U p K u U J 6 d G H G U x P ) p K K d x J H p p d G d d G x E c p d d x 5 d G u U x x d U U x d K u 5 f d p d c p p p d f f l K t u l d p = u f p p x x l z f f x 0 p u u i l p > 0 c K > i 9 d x d d u f d c 7 6 0 0 7 i 6 u 0 2 d 0 6 2 = 6 E d 5 q 0 2 f u u 2 6 2 0 > > 9 4 0 i 7 9 > > > < i p 9 6 p a < a % = 4 0 % % < = 9 = @ 7 6 9 > < < 2 2 > 4 < < > @ : : @ > > @ 4 $ : > , % + > @ > @ @ O > < @ @ : > > ",
"> > d d s s s G p 0 @ @ % > u 5 c i f u f u d x 9 % z 7 = 7 9 7 p u x 0 p p l p 0 7 4 @ < l s d s d d p u x x i 7 i 6 i H G +.P U +.G I L G d u a 7 p f r G s } A I d L G d f u u i c d x K d d d u L L p r x H f f r L 8.&.{ ..#.$.I G 2 p p r s H G s U I G I L L G p d c K s U d H ,.L { L G I x d H d s c x L L L q.q. .L S G x G 2 N a c e.#.9.B.5.#.#.9.7.P z x +.^ p z G d d L #.{ I d x c x Q I L } #.j.O.#.&.L { O.L b G a U m.O.p x U I &.L d x l c =.l G G I L { Z I L d G +.+.d u G 6.J O.{ O.+.{ G { G d K c U G x J S c 6 d I L d f d L +.} x ,.l K I O.+.I { +.x f G K x K U G {  .d s U d L +.{ x +.x d J I +.G G I d G r U G x d ^ J d d G L I J I L L O.G f G H +.J L L L J L G I L x G d d U c H s U L d L L L u l p T K x s L {  ...L G L L Z L p p i i r G p p c d u z 2 6 d z @ u T 6 0 p p G s 5 d 0 0 2 2 q 6 i 7 < i f r d s d r d s 5 = 0 G d p u Z L d P Z r z d x 7 i , < > i > > 2 7 u 6 u 7 6 = 9 z > 7 q @ > > > = i 2 7 > = > : > > 4 = + % % > > 9 9 O O @ > % = @ + O @ > @ 4 7 + @ : + @ : O + > = = ",
"> r H x u d G d d d 9 > @ @ > p d d d f z u p l u > > < 6 i 6 2 H u r x d d s 0 > 2 0 9 2 u U U s x f r d d G x 6 0 0 p P L L S G { L L  .{ +.6 < i 6 H G I I I J G G =.L G f 6 c 0 x +.{ ..&.&.x.G { v.$.P d p Y p +.F.7.#.#.5.A.I I O.) l c c H G L ~ L +.+.I { 6.x.L u u u s I $.+.L O.&.#.$.&.&.+.P E a 2 d 9XB.D.oX'.`.@XA.@Xz.I d c 0 Z F.q.).)./.Z.D.%X).{ x U &.+.6 ) +.O.x.&.8.0.8.x.U U K s r.#.8.5.q.5.#.n.w.l.8.L u x < G #.{ I I r.L L I ~ x U L +.u 8.J.l.R.8.y.H.H.l.r.{ L K U L &.w.l.w.#.8.k.l.w.l.L s x I L J O.v.8.8.+.{ J.I U U ! J +.I L s G v.j.0.#.8.#.+.x U x d G +.G 8.L.;.+.r.#.&.&.S U G +.U G I O.{ &.s.O.d.+.O.G P K U U I O.&.v.#.+.x.%.#.v.P c K d I +.L >.+.&.I 6.&.$.+.Z d K d l I &.8.&.{ v.#.#.@.J r l x d #.L.@X).+XL.V.+X).&XT.+.5 z K r d L L U U Z G c H J K 5 r p 0 K L G } U I U x c K H 0 u p 5 9 i U U I I U G P P J p i d K d s P G U L >.G p G G 7 u O > 2 H i u p f x p d K p 7 > = u 4 @ 9 f d p p 0 p K 0 + : % > 6 9 i 0 9 = 9 f d 2 + @ 9 < + 5 > @ > > 4 : 4 9 0 = % : + > @ a < 4 @ ",
"2 6 c 6 s s p p f P 5 = % q = r 5 d x r r l d 5 f < @ 4 6 r z 7 d p 5 d p x r p 6 < < p t G G G s p d K s d G s i 4 > r +...#.O.d Z G L [ { d = 4 0 f I I Z H x s s H d I G G d r u d #.B.[ P #.B.{  .q.l.$.p u p d r.#.L { L  .{ O.{ { +.f i z G G +.$.I { O.S ..#.6.$.G p f K I 8.{ L +.I #.{ L { &.d f c r l.oXZ.9.).Z.S.S.`.`.oXD.G c p { S.`.k.N. X'.9.9.D.i.G G L G O.8.L O.%.{ { { #.8.L P K p Z &.I #.5.8.&.5.5.l.9.v.L c.G U { #.0.0.8.+.$.8.O.$.r.G x U l.N. .0.w.{ 5.7.l.l.L.O.d K G Z q.@X9.7.w.7.k.7.V.6.L +.U I #.l.l.7.p.L.6.#.8.w.I u u =.G O.w.&.#.#.5.K.w.{ l.8.U x c G &.#.8.0.+.#.#.8.{ r.#.P d x P +.{ I l.7.} #.8.} $.s G x s G j.#.&.8.#.L 6.w.5.v.&.t x d I { { I L O.+.l.I I +.U p p > x #.q.G 6.$.{ L 6.&.{ G l c s A.oXi.i.N.i.).Z.i.`.`.q.c 7 p U O.{ I I I I G G L L I P p a z s G } d x L L f x G P d d p 0 u f l s G G G P Z d G P u > u r d G 2 s r p { { } H p 2 9 p a c x d 5 r u p x G s u 0 @ p = > c G x G p 6 2 p d > > > 9 u i i i u u u = 5 p p = % % < 9 6 4 6 6 : % % @ < 4 : = @ % @ > < 4 O ",
"4 d p r i f p u r p s 2 @ % > i p d p p > u x 6 f z + 4 i p p r u 6 G x r d f r u > : > x G s p d p p G d A s x 7 9 4 G #.L L { I G L I P { U 7 9 4 5 G I I G G G I I L I Z U c 0 z G {  .#.I L 5.8.#.9. .L G x 5 s 6.8.L I j.$.{ { #.{ { d r i t { { { O.G I } { I { &.I x c z P 8.{ O.+.G { 8.6.G &.L z i x p.^.`.Z.V.A.(.(.(.(.XXS.Z U P  .`.i.N.S.).(.Z.N.q.S.x s p I 5.F.8.[ #.8.%.#.6.5.r.s ! J $.{ #.8.#.#.l. .8.9.9.q. .} G G U &.5.8.{ O.O.#.{ #.c.U x d 5.l.A.7.5.5.H.w.5.N.OX#.r H H +.A.5.5.q.8.B.0.5.N.C.$.d K L #.5.5.k.5.7.q.#.q.N.O.K ! x L +.B.#.I 6.q.0.%.l.N.B.G K c G 5.B.{ y.{ #.0.&.L #.F.O.U H G ,.{ #.6.0.j.w.{ #.r.U $.H f G r.5.{ #.8.{ 7. .{ 5.&.J p x >.{ &.I G +.#. .x L #.{ p b i G l.9.w.$.{ { [ { { #.+.l 6 l 9.Z.(.).q.Z.S.a.q.9.^.i.r > p s { { #.L d +.I P } L [ { p i 0 d L L d d Z L A r c s G d 7 < u p x G P G G G s G G I r 7 0 u K G r x U d { L Z G p 2 7 i 2 6 d p r u p u d p d K 0 > : i l s d d s f p p x f 2 > 7 < > 6 2 u u 5 6 p 6 d f 2 @ : z @ > = i 9 O @ = = = < > @ % > > 7 = = @ ",
"4 u u d i d d d c p p i > > 7 d > 6 d d d 6 x x p 2 @ % 2 p 5 u p p c p r u p 2 p 6 a = p G Z G G G r p x d r x i < 7 f I X.L L L L L d G L I a > 9 c { { L =.J x G L d { L U 9 q > G x.#.{ +.&.{ 7.#.L w.{ d G H G { 0.#.&.L L &.#.[ #.#.J u i 6 G { { I L L } { O.#.L L U G 0 U r. .{ +.$.{ O.{ L +.~ p H x k.,X/.i.A.S.^.XX|.A.S.#.d ! r | 4XS.V.S.Z.N.(..X`.A.6 K T { 5. .8.{ #.&.Z O.O. .+.s l x 8.5.5.#.L #.#.H.8.L #.A.G G x I +.S L 6.=.{ G #.#.$.G x z G 5.A.B.B.l.#.C.6.#.p.].6.r f U M.A.q.D.k.{ #.l.9. .z.$.x H x G.q.9.l.#.#.C.l.{ 5.8.O.L G O.&.O.w.j.{ 5.#.8...7.B.L K K I #.7.5. .&.{ 6.#.L j.8.I d K d ,.6.#.#.5.[ 0.k.A.#.d K G H ^ {  .5.%.&.0.9. .{ 8.L H -.p Z O.#.8.{ { #. .L O.&.{ G b b x I { { G +.8.#.[ P &.O.f a H q._.S.N.A.q.Z.D.N.i._.D.p z i t +.L I x H G I G G G G { s K 0 p } L G G P G G L G d P x > 9 i s O.Z G G d s H d I d b d i r p U U s G L P S G I l - = 4 i s s H H p 0 l d d d f = > @ p G s u p p d r u p 6 i = + 2 6 2 u f > 7 5 c f 6 = < + % 4 < = > = = @ 7 7 9 2 > < @ > O = 7 7 > @ ",
"6 u u 5 r s d Z p 6 p 2 7 < > 0 p u l 2 d x r s d 6 : > > u p u p p p t r d u f p 7 4 > u x G Z s G G d G G x H 7 = > 2 G { { L L #.L x L I { l 4 2 r P } s d G x O.{ O.G U G u 7 2 G #. .#.O.L L 8. .{ 8.#.s d d r r.5.9.#.L #.8.6.8.6.8.d l c f P { { O.I { { { #.L &.P U d K x O.{ +.{ I O.{ S U { L G f s R..X(.Z.}.S.:X.XN.i.XXL.5 a 0 F.:X(._.S.9.p.|.i.S..X2 f K d w.v.I { #.#.8.O.{ x.+.x M x #.q.0.8.{ l.5.5.8.#.w.J.d K d I { I $.+.G { v.#.I r.d c x z A.7.S 5.7. .7.8.C.0.9.5.U c G G q.N.A.l.{ #.7.0.5.F.d P K K J.i.B.5.$.#.B.5.{ 8.l.S +.$.s r.#.8.#.7.6.6.l.I #.l.+.G =.L #.{ q.F.8.O.{ 0.x.O.{ { x K x G #.{ 5.&. .B.B.[ l.L u K c G x.5.6.{ #.q.#.w.q.#.&.Z U G L { w.{ 8. .#.O.$.+.O.&.G d d J +.&.{ #.#.{ { +.G #.L 0 i d q.;Xi.9.q.N.Z.Z.q.N.Z.D.L d 9 s #.{ s K d L d G p Z L I H 2 q G L d +...d d L I G U U 6 7 9 > K L G Z d G Z d d U d x u i l s I L G Z d J G G P p 7 l = 0 p d G s l d 6 p x 5 p a 4 : 7 s d 6 p c l p > > z 2 4 > 4 7 7 6 6 9 2 7 = p 2 @ + @ > @ 0 7 > > 7 > = i 0 7 < @ % % % > > = > > ",
"d = 6 r p 6 f u d H p @ @ O @ c f u p d G p 5 d x 0 + % = p p 6 i r d r 6 < u G 2 > @ 2 s G L r G i d G d G G I u a = c >.{ { { { { G G G S L r 9 a 5 G G G d p H I Z s Z P d 0 c 5 G #.[ w.6.L  .#.#.7. .*.x i u G 8.[ #.#.#.#.8.[ #.5.6.d 5 p d G G { { { { { #.{ 5.=.s G u p I { L #.I I I P L L L L 6 i s l.A.i./.(.^./.Z.Z.Z.Z.N.G p u v.`. X(.Z.S.Z.i.Z.).eXK 6 x I #.#.$.6. .w.l.5.6.&.{ L i x +.{  .K.#.#.5.#.7.q.w.7.G > L +.J x +.{ B.5.G +.Z G I U G x =Xq.9.7.#.9.5.#.q.9.L.L +.L L { ).Z.V.5.9.L.q.k.#.l.%.G G Z Z 6.9.l.{ 6.#.#.6.5.6.L G p r x.8.q.w.5.{ y.,.#.B.l.L l E { 9.q.q.#.#.7.#.#.0.{ #.I G K Z { { 7.#.6.L 0.p.9.j.G K K u d l. .{ #.&.I 5.7. .v.+.d < c &.9. .{ #.6.I { I I L 8.L K d x { { I I l.9. .L +.#.L i w s N. Xa.+XZ.Z.i./.Z.i.-X|.d > 4 G ..L +.L Z P L L d x I P u 7 u G P I x p I G d U G d I H = a 7 x U G d G G { } L G x d 0 4 f d I Z I G p I Z d G u + p u 7 d s H x p H 2 5 G r c 4 $ < 4 c p p r 5 z u 0 d x = 9 4 @ 0 f p = > > : 2 r 6 > @ : < = p > = 7 9 > > = = @ = > @ % % @ @ = > = ",
"p 7 p d d 5 p d d x 6 4 : : @ f r x d r 5 p 6 s x u @ : > 6 d 2 p x d 7 M 5 r u = 9 9 7 f d K d G u H p d G G I r i 4 s L I L +.{ d L J G I O.p 0 2 x L G G J x d L P G =.I d u z p s { [  .{ L 6.{  .5.#.{ I 6 6 s &.#.+.#.{ 9.#...8.0.#.G c 6 c I Z { L L L L O.#.X.,.d x ) 6 x $.{ { { L I G U $.{ G c a r 5.).+X5.V.D.N.i.).`.`.a.I p 7 ..7XXXS.N.`._.N.5.Z.>XG c x I 6.{ { w.0.w.w.0.{ #.x.>.Y x I $.I R. .8.B.#.0.0.N.5.G T L { I L &. .7.v.$.L I +.} p x x 9.i.K.5.#.Y.q.7.0.B.B.{ +.L G 8.[.N.6.7.A.7.B.6.#.w.{ G U H %.#.w.#. .8.&.6. .!.v.G G =.U #.B.L.#.#.#.#.#.5.l.8.G c K Z 6.w.C.$.#.w.w.8.L +.l.{ G J >.#.&.{ #.&.v.&.5.B.{ +.d z b G n.K.7.+.I $.q.0.[ #.&.d 9 u { #.I $.O.{ { I O.{ I +.L U z d 6.#.L s #.B.L O.#. .L f q r N. Xq.i.q.i.A.S.Z.q._.a.G 0 z d +.I } d U &.&.I d L s I G c 0 p } G s r G L G G s K { x > > = f G d U J G { G d L G r z 7 > d J I U G G L L U K 7 : l p 7 d d d d G d d x d G x = @ 0 p r r d u i u p c 2 u > > > % u l 6 0 9 > @ > f c 4 @ @ > < 4 9 6 7 9 @ > 4 < = 9 9 < @ + @ @ > = > ",
"p i d d p x p d s d u 9 @ : 9 f u z p p p d H p d = > : + d H s f 5 p u > 2 z d 0 6 2 6 z d 5 s x J G G s Z d U 2 @ > L #.{ L I L { { x G +.U - u > l P L d p G G x U L G G G p r 5 G w. .{ { #.#.2.#.5.{ 7.L 6 x L y.0.9.L ..6.6.I [ 0.O.7 a 0 i &.{ L I L I O.G 7.{ I d u J d c &. .{ { L G &.} L { x l c Z I..X(.Z.7.q.A.(.q.A._.`.s u u L [.i.#.k.|.Z.S.p.`.1Xd G p G O.#.$.&.{ O.I O.O.&.$.G u s 6.m.&.&.6. . .#.8.O.q.6.I x } { x.O.#.I G G #.x.{ $.+.J z i C.N.i.A.#.l.F.F.6.#.5.#.^ v x r.q.7.#.5.7.N.k.#.5.B.%.G x c P. .6. .k.6.%.#.{ R.L J ! =.d r.7.6.8.#.%.q.L.#.#.K.#.H l G 8.0.5.{ { L #.{ G &.5.+.x d G l. .#.7.{ &.G { #.q.8.d d z d l. .{ { +.6.%.#.&.8.8.J x G $.{ L +.{ #.6.L #.6.L L G 2 0 I 6.5.7.#.d { L J L 0.#.H q 5 N.`.i.N.p.k.A.q.D.Z.i.2.U > i G G { J G H s d ,.P I I Z G c q r { Z G x G d G I G { G d d l 7 c { L p d { { L U s I u 2 > 0 p U P Z I G x G G d 0 0 > % < U d t f f d d G s d p = 9 = 2 s s u 6 i p 6 5 @ 7 9 > = > 7 0 > 6 u 2 4 7 4 5 = 4 > > @ > < 0 @ % < % > > < % + > @ : @ = @ @ @ ",
"s u p 2 6 d d G x p 0 + @ > > 6 d @ 2 x G d r u x i > > > 6 d d 2 > p 6 z 2 r u 7 6 u 2 i p 6 p c d G U Z G H l > < 0 d { L G L { { #.d I ..s d a q > Z L L d x d d L G d P d d u f J #. .#.{ #.{ #.5. .L w.#.d r d 8. .p.#.0.#.{ { S 9.l.2 9 l H L #.{ Z G O.{ L 6.v.{ G f 7 u x +.I { { I L +.+.L L x z p t i.:X`.i.N.q.Z.(.i.D.gXZ.Z _ p L ).(.9.N.N.a.(.S.(.hXc 5 U @.L O.I $.L { P } { #.L l x d 5.5.L { 5.9.9.v.{ G 5.7.+.d L { $.[ { ^ d G { #.L { L d p 9 S.N.A.D.7. .{  .w.5.B.8.G u d +.C.l.5.9.).S.w.0.#.7.{ ) a d l.N.#.q.9.#.&.{ q.O.L x p r x &.#.#.l.5.7.A.q.5.5.0.8.G d U I 5.5.7.6.#.{ #.$. .#.{ K l G 6.y.w.w.7.L 8.r.{ q.&.G H r P 5.0.l.{ { #.L { 7.w.P Z G G L I L O.#.{ #.O. .&.+.L d p c { &.{  . .} { { ~ { #.#.x a > 7.oX^.i.N.9.Z.q.N.S.D.B.+.s i p U $.p U =.I G G G { { G d 0 % 7 +.6.} L G G +.G L { H G K u 0 t L L d d } L I I G S d 6 7 f s L L L L L Z d Z d 7 u : O 6 G G x p u x r d Z d l 9 2 @ 4 s d p 7 0 r u 6 7 4 > 7 > 6 6 7 4 7 5 r 7 @ > a 0 0 > @ 9 = > > 2 > @ = 4 = > @ % @ > @ + @ > O $ ",
"u 2 a 9 > a f 6 p 7 < % 4 : + 7 z u 6 f p u z 6 = > < < > u u 0 4 0 7 p z > = 6 z 0 7 0 > 7 K H z d K f x l 5 i = 0 7 u p +.O.$.L d $.$.{ } d i = 9 0 P L { U d G $.L G +.G 6 z l 6 p I 8. .#.5.8.N.B.9.8.$.p z i u $.w.9.[ { &.L 8.6.9.{ 6 z l G s I $.L  .O.&. .{ ..+.x d r c U H J +.I +.U K #.J L d c z 5 B._.a..X`.'.a.^.7X:XyX5.d b c L Z._.;X_.(.'. X:XyX}.5 c U d #.5.{ { { j.,.O.{ w.O.U =.L L v.0.#. .5.7.{ 6.#.A.8.x u x U L L &.G { &.O.L 5.&.G f l 4 N.].B.9.N.C.7.q.A.q.H.L ~ U s U Z.A.v.9.q.N.q.7.#.0.L d c r #.i.0.D.0.7.8.l.5.+.v.r.x c f L v.w.q.9.#.&.5.w.#.6.=.l p d I x.8.5.#.8.8. .0.0.J.I p p x Z w.5.0.6.5.q.%.#.G d d f d { #. .#.#.F.9.{ #.9.8.Z p x G { l.[ { { #.L { [ { #.I x H c x ~ { { { I #.#.#.#.#.L - 0 6 L =X`.^.i.Z.Z.Z.i.a.(.N.s u 0 d G Z d =.s G G d +.d O.I s i a d P G I d I G L G G L p p = 0 0 p U P U 6 H s L Z x p 0 z > p L { S L S I L L L U p u @ q p d s H G G s x x d p p > @ < > p d p r r i 6 i p 7 > > 4 = 2 0 i u i i p > 6 > 0 > + > 9 9 : 2 u i = @ i = > > + @ > @ > > > O : ",
"7 = @ + + @ = O > @ O > < > 9 > = 0 2 5 a > @ @ > 0 > % > i 9 > @ > 2 6 = 4 z 4 6 7 > 4 < u 5 r = r 6 - p p u p 7 c 6 7 7 G L L Z u d s Z x u 0 7 7 0 6 s G { d U } d s H p i u u > i G I ..O. .#.I  .#.L 5 < a p p p +.{ L I ,.d I {  .{ d l c 6 K H I L #.I d #.{ P x d p c H G u l x G s r K p u +.U p a K L 9.A..XS.%XD.A.D.`.I.L l 0 l I L.S. XZ.A.|.k.S.5.{ G d K s +.{ 6.8.8...O.+.+.&.G d { d d ,.8.0.F.6.c.6.l.w.#.G l K p f G K +.&.w.$.} U r.{ d c x j { l.{ { %.B.5.5. .H.&.u G ^ I H { H.F.6.A.k.5.{ 8.6.K c K d { 8.6.#.8.8.&.&.$.G +.L x T f G { 6.V.6.{ +.&.5.6.I f 0 l G U L #.#.{ +.I { 8.{ L x x K J K ,.{ 6.G 5.#.{ Z K l K x H L +.O.#.8.8.0.&.#.#.I Z H d p d 0.w.&.8.&.I #.$.&.{ L G c u 9 x I U } O.#.I $.#.$.l a p H s { N.`.`.Z.D.Z.q.).D.{ s c i u d I K H U ) x H U G L P 6 i p G p 2 G G d P G d G G l 0 > q 2 p H d d G G G P I G 6 7 u 6 u 5 G +.} d d } { { d d q 0 9 2 4 > r K x G 0 7 0 0 r < & 0 > 6 r l c u p d u r 6 i < = 2 u i i 4 = 9 0 0 7 = > % : > < 2 4 > 0 2 7 > = > 7 7 > = = 4 @ < % @ 2 ",
"> = : > : < @ < : > > @ < < @ < , @ > = > 4 > @ = > < < > > > @ 6 9 > @ 7 > : 0 > q 9 + < 2 = 4 : p 4 6 7 0 0 9 0 2 a 0 < 2 l - 6 p 4 2 4 p 0 a 4 z > > f f 2 2 f = 6 p 7 9 a l 7 9 > p r 2 d d r s p d 6 6 c f r f p < 2 p G d E d r u p u d 5 d i l x p u 6 d x x x 5 z 6 d H d z l G ) x u l 7 p ) G G G c 2 H G d s Z U p d A Z s K l p x s x d d L s d d p = J U ;.L G H U U d d s U s G J 0 L x z p d G U d p J r G I G H l c c d H d d x d x d G p x U U l G s P G H u d I L I x G K x x i L G s d @.x K U s 5 s ) x d d H G r d J p d d G ~ d x x x U G G I L H G l G G d K G x ^ G x G I d L d L L P s L G U H G d x U f x G H G G x x l x U G I +.G L A G s Z J ) K c l G d I G K r p H x G d x d l i r r d H H s Z u u p p 9 K d c f l d d s Z d +.I Z r p x r p p a K c u i 2 p u r i 2 u l z 6 r p u 6 u d d 5 2 p p d < > 0 i 9 5 r f p 7 2 5 u z c 6 > 7 i 2 6 p p 2 p H r u 2 6 4 7 > > 0 l 7 = > 7 > 9 > 6 d = q 9 @ i f 7 9 > 7 2 7 > > 4 i = 9 > 2 @ @ = > = @ > q @ @ @ @ < : = @ > @ < < @ % @ + @ > = > @ O = @ o ",
"> @ @ > > % @ < @ < q : @ = < % @ % % % < < a < : > : < < > @ % u 7 4 @ > < 9 u q < > 7 7 i 6 : @ > : 7 : q @ > a < 7 f 2 7 > 1 > i 4 @ , > 7 u u p a 9 : 7 z 0 p & @ z 7 > i z q 9 > 0 9 , : : > a > > z d f u x U i 1 < i p 7 0 0 a q b r p d l z z i q < m m > z z a 0 c v d l p p p r p M c c 0 > < -.L K j a q 1 & h z > < q c K K x H a q k V q > > w m K ( u d I J p a m l K T d E ) 0 b b I G d H H b i H K T R z p J G c K G J G H 9 1 9 l x c a G G K G q p G H T 4 z T z a l z K l ( a H c T z p c z q ( K G x p ;.K U b K -.z z T a c K c x I ;.U z i h x I H T x d =.J d x J G G l H z z H K f T ) G d d d s T i a d c m , p I I x f l p K p u c c p m c T s G L d p x K p u q 9 z p d u u c c p l U d c x x f M x q a z 7 x x l a c : q j > j a 0 1 q 4 c p p p b d r p p > p p z 7 q < 0 c 9 p K G 6 9 z u i < 4 6 u p 6 6 i a f 0 z > % < 9 < = 6 = p = > > , @ 9 : 4 = @ % q q 8 > 1 > 2 u > & & % = z 0 2 p > 2 9 < - > > % % > : > % : > > 4 > % * , & % @ : : > > + @ % < @ : , : % . % @ @ $ * O O @ @ + + @ > > $ ",
"> % = = q @ O % @ % = @ > @ 4 7 - 2 r u p p r 5 > % > % q a 0 > 2 u r 5 7 p r > , > > 0 u i p s Z s d s P Z r 9 7 9 > 6 a 7 7 p 6 2 7 s 6 > 6 4 c 0 < q @ 0 c 9 f r a q 7 6 z i h < 0 l u a 7 z > 0 : q a 0 H c c i 7 7 p d 2 z q q 6 G d a z a p p u c l G G K z x l d 6 G +.S H 0 s [ [ G s G p 0 H G x c u P l K c l J d +.d p a 6 i G P G d U d p d d U K z P v i s G H ) z i G ! K p H f c ! 0 i l b z q > : u l K p z f d U l p G x J H r p u K 9 a d d K I m p H p = q m z z z K p H d z J z i m q z M > l J U } E d c K a x f 0 p l b q b a a K G U K E z $.+.r d N 7 l b l l K H G H p ( J -.z H ) x K K u ) s T 9 > l c h p H c K c ( u x c a z a i 9 , k b 8 a x u z l p d N i H P l z 7 z c c p d K z 5 6 m > M i 7 < l f d x H U G z 9 q i z f i q m q 7 d d c 0 0 % q > q a 4 9 9 > c 7 z p 6 i z 0 9 < < 9 c r 9 % % i K p 7 9 0 z % 1 q : > q q 9 : a p r l 0 : a m > @ q % @ z 0 > q > , , % @ q < > $ > : 7 > @ 7 > @ > @ > % = < > % > q > = 4 & % % @ > q 4 : & + : : O > @ = @ @ = = 0 2 6 @ @ @ < 2 > % = < + @ + ",
"7 @ > 7 > 9 = > 4 q > @ > > > p i r p r 6 9 u H 7 < % @ = 2 9 4 a p p u 7 p i 2 = % > 2 p G x =.U J } +.+.G H U p 0 > 2 f l 2 c f p 6 K d 7 a u f < 7 a f d s 6 p s p d p p u i < 0 l s d H x x 6 d u s 6 6 p u 0 < p x x d f f 0 d p J K t 6 H 6 d c G d G G x p G H c K l H x K I n.l.l.v.v.j.{ #.L u 0 p K x ) x d x x K G G K x d G x K x s G +.U U I O.I G G 6 H U U O.I 6 G G L G H +.d x H H G d I L { { { #.L I d I J 0 U d P } I I +.x L U I d U f K c I T G { +.G x d U x x U L G U J L L G x d I I G U G Z 5 E G K d G I { { L #.{ O.I r G +.d x G x x Z L G P G d L u I p G x H ,.s G U d s s G U d c G K H d x x J G K d G s K l p 0 p d d Z L L s t d L G d c z r 0 f x d s d H 0 d 0 c G x 6 i c u G s G p d s p u J G p T d p H c i i p x p p r 2 x d l f r i 9 > p s x d p p p 6 p 7 i 7 4 z 6 p d d u 6 s d p 6 7 u p p u p 5 p 7 2 0 5 5 0 2 u = 7 7 > i p > 6 = 2 9 i > 7 7 6 > : : > 2 = 9 > 6 i 7 i r u 0 % @ > i 2 2 7 @ 7 6 5 > > > = > 9 = = + > > = > : = > @ 2 4 > > 9 4 9 7 > 6 7 0 4 0 2 > @ @ @ > < + > @ ",
"7 7 i i 7 > 2 a 7 @ % q > > 2 r 2 0 p 5 > 9 i G G 7 : 9 6 6 p > > x s 0 0 < u d d > 9 7 H I I d d Z { Z G L { { L 5 a 6 0 z p u i P G d K G 2 = 5 a 6 H G G G G d U I G } G d 0 i i c d d I L I { I &.#.I c p p r r =.L { } G I I O.I H u p H K r c U I I G U U I O.+.G K x d c d #.D.5.5.0.9.9.K.N.0.H p l u x U L +.I L K s U ~ +.G G x i G $.{ 8.6.6.+.{ &.+.O.u H K p L &.r.L &.#.L O.L I I x Q P P K.%XrX_._.7X.X|.S.+X5.L +.G U I I #.v.} &.#.7.v.,.d x c d G { 0.B.B.O. .B.7. .G } I L d L q.F.F.B.l.q.B.l.{ &.p c l c L |.=XZ.*X|.).|.7XXXO.I G G G x 8.l.K.5.L.l.k.K.#.L +.I ^ p c G  .+.+.x G L d &.G s d K u G O.5. .l.,.{ O.I +.p c l p J w.q.i.N.C.K.L.N.).#.d c U u K G L L +.s G U ) { ~ U 0 l x s +.&.l.0.{ $.8.7. .I r i x x 6 d d +.G L } I { +.P s d p d u d +.>.L { O.I I <.P { G 2 < > - d I &. .{ { { O.{ 6.f 6 0 9 r d d p p 6 G d p c x p d u @ 9 < 6 Z G G d s G U G 6 6 u 7 u x { { +.P +.J P L G d = @ % > x H l c d c G d x l @ > 7 % p x 6 p G G r s H p > @ @ @ 7 6 5 p d 6 7 2 p 5 6 x > O O @ > @ = > @ ",
"5 0 7 = 4 2 6 r 0 > = > % > i i = u l H i 2 p s G = > < 2 = 9 p + 6 c 0 > r p p d 2 > 2 G { Z s s U L G S L L  .L s 0 4 i u 6 0 7 Z d > 0 x p 7 r 9 6 x L P d Z G L L G G I r 7 c 0 G } { d +.#.{ L { { { f > r f 0 I L { O.G $. .I L +.L G x u l s d U L L { Z } G I Z p u p i I D.i.q.B.0.2.5.5.5.H.L 0 p l >.d O.{ { +.L $.L G +.I G H l +.&.5.#.#.#.G #.#.{ #.=.l d G { 6.l.6.{ I { #.#.x.L p U L 6.D._. X'.;X;X XZ.`._.A.G U E G I O.6.O.[ { 8.5.#.8.G l x 0 { z.w.5.5.z.#.8.N.B.5.} K l G $.A. .N.9.9.q.].9.{ j.&.d K d { _./.i.^.Z.Z.^.S..X&XL x K x I q.9.A.q.9.B.5.0.A.#.L c.,.d L +.#.~ L +.+.O.I $.v.U d x l } 0.9.S l.[ #.v.I U 0 K G K O.p./.N.9.5.a.N.i.`.D.{ u H c x s +.{ I +.+.[ L L I Z p 9 p U I { l.5.5.#.#. .5.6.I 6 l p - +.#.%.{ L O.G &.L } L r p z 0 d I { S &.{ G I Z { L L z 4 i p 6.&.{ 0.{ [ { { 0.0.+.r > > i K f f x d c x f s G r p 7 < > 6 H I G G d G p d Z x > 0 > 6 }  .{ G G L S { } I L p > 0 < d Z s d G s s G Z r > : 4 4 d d l s r d p x d s 4 @ @ @ 7 7 d d r r 7 p r 2 r d 9 @ + @ > > > = % ",
"7 > > = 0 q = 2 i > 9 % + @ > 6 l d d r = u d d p 6 > = 7 > 4 6 4 p p d r z 6 6 i = 7 i x d G H G G Z G P I L { Z = 0 a r p d s c p d a p G U 7 < 0 0 d G s d G f d d f r I d 7 i 2 u L { } Z G +.J Z I I G l r d s I } L { P I { G I #.+.G r z f { { x x +.#.L G I x G L d p i L %XZ.7.5.l.q.i.[ l.q.I x 9 r r.0.I Z O.{ L 8.{ U I J d u H G O. .+.I x.#.{ #.{ 6.I r d G O.[ [ w.L +.I O.&.&.G K 9 u L ).Z.i..X(.i.S.}.(.2XrXG H a r &.{ G  .{ L +.%.S #.O.J H ) 9.5.L L &.#.8.O.{ #.l.#.p z c d 8.9.9.9.8.7.N.i.C.q.{ U J d l.'.i.(.Z.Z.A.^.i.q.+X#.r 0 } H.9.w.N.i.N.C.{ 0.A.w.Z p l x I &.L } L L $.+.~ L $.I J l d 6.0.[ L L #.{ { #.L x c ) G { w.q.9.B.9.A.l.9.a.].$.r p c I O.{ L I O.L { { L I I Z l - G 5.0.L L 7.7.#.#.4.6.L c l f I 6. .5.{ I { L &.L L P K u 7 u x { L { L Z d L L L G U > > a G #. .{ L L  .{ G { 4.+.p = 2 r u 6 7 d p 2 0 K - p p i > i z u G d G U d r s Z G K a < @ 2 U [ L G { L [ &.L L L a = > 7 u p H d s s d r Z z : @ 4 9 u u p l 0 2 f p s G > : > > = l s u r i 5 u r f 0 = d = > 1 % > > @ % ",
"< < > = a 4 2 9 6 7 > > @ > 0 u p 6 u 6 d p p d p r < 7 9 i 6 u 4 5 > p d u p 2 7 2 7 = d G L I d Z } s S { I P L > > 2 p d d x x f x i p G K > > > p G G d d G d L K c x I ^ 9 = > f +.d G L J G x G G P G x c x G O.G P L G G I J L [ $.f i a p I I G x G Z L I x G J I U d z d A.Z.k.7.#.q.q.#.l.#.{ p i l { { L G U #.{ $.} G { U d a f I #.0.{ J L O.r.#.I } { d c 6 } 8.r.#.+.+.L +.L L U d q G  .+XA..X,XXXN.A.D.a.(.(.d z l p &.#.I $.#.+.G #.#.#.$.d p G 5.8.L L L #.{ I { v.7.I x b r c w.N.H.6.O.#.#.q.9.H.L K K s +X'.|.).9.S.S.i.=XN.).#.p 6 O.L.7.#.5.q.C.#.8.0.4.l.d p z I O.I I L =.L G { L I G { x l d r.w.#.8.$.{ { L &.I G G J x #.k.#.0.5.7.D.5.q.4.q.0.x f 6 G &.O.L L I L &.{ { I G I G a f 0.p.&.+...9.7.O. .B.P u 4 0 { { w.#.L { { { L G { ~ x d i r K I G I s H U s U L G U 0 f f s #. .#.{ +.r.{ { O.q.+.p r > 7 r K p p H z 7 p r K p i 2 7 u d G G d G d 6 G d d d p : q t G I S I { L } d d { I 5 > i 4 p c s d x H H r d H 2 + @ 2 0 6 > i p p p p d s 2 > @ @ 0 p r a i p u p d 5 2 7 6 9 + $ + % > @ > ",
"2 : 4 > > 4 > > 7 > > > @ > > u p p p u 6 4 6 p 6 u 7 < > 6 p 9 2 x u u p < d H i > < 4 p G L d H G d L G d L { s > q > d K p x d 0 p l G d s > 7 6 2 G =.H Z d G L I c p O.Z > 0 p P { +.{ P P U I L G L U x d p x +.L +.s U +.G x L L +.x 9 9 6 d G { { G G G P L P I G s f d d B.i.N.A.9. .q. .5.7.{ x K p I { +.+.L L p c J } { I d u p U &.{ L $.O.I { $.O.L I d K 0 } { { +.+.I L I { $.} u c d 5.|._.`.`. XZ.S.k.N.;XoXx z G G O.$.I 6.#.8.[ #.8.#.U l l x 6.l.q.K.[ l.l.l.{ L 6.{ L ^ H +.k.0.#.8.7.5.w.0. .q.I u z s D.;X9.S.S.D.).i..Xi.S.{ U =.Z 8.#.&.5. .q.0.k.q.0.F.G c U d $.{ +...x &. .#.L J J +.G G L &.{ #.#.8. .v.{ [ 8.S u x G 8.#. .q.9.5.5.A.5.2.D.6.d 6 c d { +.G G P I L L ~ G ~ I H 0 d 0.9.#.} &.#.#.#. .r.P 7 b 5 Z O.G L { { L I G { { I P p G G d I O.L G d d G G J u d K c 2 G 6.{ { U L G { { L 7.I 5 p u H H t G G s d p d d G H f 7 9 6 U L x u x G G G G L U s > 5 - L I Z G S Z } G } L ~ p % 0 < 2 J d d d r p d d x 7 % = 7 u d i s p 5 > p p r p > 7 7 = 6 0 p 6 u 6 p p 2 6 7 > @ O o % @ > > @ ",
"7 > > 2 7 > = < 7 > > O % @ > p u 7 d d s p i r s f % O @ < p 7 9 p 6 7 7 7 5 d 7 @ > = c P G s p G G { +.U I ..G > 9 p d d r f L u u d d G H 7 a 9 u U L d G L G Z d H s L G 6 p u Z I I S L L L L L G L L d a 0 H x Z +.G I +.L P } I L u > K i l L +.{ I G L Z +.L I I G u u d l.N.q.9.0.k.7.7.V.C.x x p d ~ I I G { +.G d L { +.P 6 c z U +.{ { #.8. .L O.O.J I U z 6 $.&.L d G $.O.I G O.O.x H G  .Z._.^.a.i._.S.q.Z.(.|.x M p G O.{ #.{ O...8.#.5.6.U 2 -.p +.{ 9.D.#.{  .B.{ #.8.#.x K d L B.6. .#.B.p.w.8.q.#.I i z x 5.`.a.Z.i.S.Z.Z.oXi.*X#.s x L r. .&.N.w.0.0.B.9.N.#.G p z s +...#.9.G L v.%.L P { G P U L $.O.{ 5.#.#.8.5.{ j.+.p x G #.B.A.i.N.9.q.0./.S.A.#.f c K d L t.I G U } G U P d ~ d d 9 p B.9. .#.#.{ { 0.{ #.c p z r G &.d L { { O.I { [ { I d u c p u +.d G I { G I d p P L s 6 i d 8.{ #.{ I { { 6.[ w.{ u 7 s s s d s x x r s K G p d r 2 9 i d P d x G G G G G Z G U i 6 p J P G G L L L I P S I u O < 0 x d G s d d d G G x > : : < d d u d d p 0 d p p 6 % + > > p p 5 u p 0 0 5 u 6 i 7 > $ % % + > 4 > ",
"7 @ > u 2 4 > 4 > 0 a + @ @ > 2 6 0 u u f p 2 d d 7 9 @ > > f l r > 0 u r u u d p 9 9 = p G G x d x d s d G I L G s = % p s G d d d 6 a s d H 7 7 i 6 x G P Z G u L } S L I d p f 5 K } G { I P p { I I +.+.p i 0 p +.L G L } d I { G Z I d r l 2 U +.Z I { +.d L L P J L u 0 4 d w.N.5.].B.#.5. .9.v.d p a 5 } #.G { $.L &.+.L I #.$.d l 9 d #.{ { O.{ { { $.{ #.I G x d x.#.{ O.I L L $.G O.I x q 0 L ].S.u.a.`.i.A.Z.:X_.N.G d I I &.#.&.{ { { 6.{  .#.x 6 ) > 8.6.5.7.y.I %.6. .{ 5.#.t z p ;.A.{ 9.5.A.7.{ #.7.0.I H c Z q.2X;XS.(.D.D.A.S.q.B.I x U x #.5.p.K.l.#.{ w.9.N.q.L I } } c.G L #.I { { { O.I O.+.p c d I { 8.[ #.#.{ 5.&.{ G f i 6 I p.S.A.q.5.q.9.A._.q.{ p d U G P I Z G L { { { { L d d i p u 8.5.9.#.+.X.{ S L +.f z H 6 G #.L #.#.L { Z {  .%.6.d a q 2 G G P U U G G J G I G +.s p z G 8. .L } I I +.G { #.&.d s f u d d d H 5 x u p d d U < < p s u Z d G G d G d G Z x u > < 6 I L { L } L { G G  .{ r > > > G d 5 u G K l u 5 s 2 7 % > s p r r s K r f d p z > % @ > l i > 5 u 6 = 7 0 2 6 6 7 > + @ > % @ = ",
"4 9 7 5 r i @ @ 7 6 7 > @ > 4 f u p r r c p l d p = > % @ @ i G d 9 0 d p f r p u > : > f s s s G L s J G d I G x u 6 7 i d G d K d x p x G r 4 > 0 u { L G U G x G L { P G G d c 0 x I { $.L { L I L O.G U 5 p 4 5 +.&.L I I I L I { L &.c 0 a l G I L { { L L +.O.L L U d z p J w.9.9.0. .7.5.p.9.C.I f c d +.#.{ &.O.[ { L G G #.{ s a 7 G v.I I { 6. .{ ..{ 6.=.s 6 x #.#.%.I L { O.O.O.O.L l 0 6 { *X.XZ.`.|.i.).q.Z.%Xi.I K L { { I #.{ { L #.#. .$.U l 6 2 #.8.l.#.#. .#.0.#.0.l.&.d 0 d U 9.9.0.9.q.#.{ #. .H.L d K d k.(.(.S.Z.q.k.q.A.N.l.G x c d G.0.9.{  .6.L q.q.9.q.+.H G I I d I L { I P +.I { +.G d c +.I ..#.5.6.{ { #.{ O.G i K p $.).Z./.q.q.9.7.9.S.i.w.Z G d x L I { { } L { { { r.I J f r ! {  .q.#.L { v.I L ,.I d c J x I I L #.{ { 8.#.#.{ 8.P p 7 i L P I d d } L P d U s Z d 2 q s #.#.{ { I #.{ d L I +.5 u f u f d H u d x r p u p G 9 = > f d G G G x d t x +.P u @ > 4 5 G I L I L L } L } #. .s > q - d K i p p p 0 d r c < @ % > G f 0 7 s P G 6 6 2 9 = @ @ 0 2 7 4 2 z 2 7 u > > 7 a 2 < > @ @ + > > ",
"> 2 6 @ 4 2 2 2 > 7 = > : @ > 6 r d d r p 5 5 d G : @ 9 > < u > 0 > 2 d d 5 u d 6 > > 7 p G P G G A I } G L L I c = i c p 6 r f u s G 5 s d f u i > 2 U L d G I d L L L } G p u p @ l +.[ S Z } O.L I I L +.s 7 l p O.{ G G d d G L { +.{ l i 0 H G d I I Z G L { $.I { I p f K G 9.4.w.6.{ q.q.9.i.L.L c K 5 G I Z { { G L $.{ x I I Z =.K d G U } I I L #.#.{ #.x d p p ..{ L Z &.#.{ +.8.#.+.t c x { D.N.i.S.S.Z.S.9.9.(.S.d p d L O.L I 6.{ { { L I O.+.~ c G 2.#.w.q.w.5.q.{ #.#.5.{ c z l +.[ l.B.5.{ #.l.#.L F.G K c u 5.a.S.(.A.A.9.i.`.S.N.L G T G %.B.N.q.7.A.C.0.q.N.B.G l z s 8.O.{ L  .x.{ I L +.0.G K c J &.v.L #. .+.#.r.0.L U u H r &./.i.i.A.i.A.7.#.0.5.L.L i x P L { L { $.L I c L O.I s l p f O. .7.#.{ #.#.{ O.r.G - p z p +.+.I [ { { 8.{ {  .#.5 > 0 d p G } d d d G } Z G L I G i a x [ { { G { L { +.+.G +.5 = l 6 d r d c d p u d u G G 0 9 9 6 d L L s d J G O.s G x 7 a p r G G L { S L L d Z I +.r > @ = G f 6 p s r p 5 x d @ % 9 > - r p u H s u 6 r p > % o @ 0 d 6 7 = > i r f 6 i i 6 = @ % @ @ > > : ",
"< > 4 + > : 0 i > @ : + < @ > 6 d d d u 6 r z d > = : 7 2 = 0 9 > @ u d p 6 i a i < > 4 u p d d G r p d } I O.G 2 > > d H u i u 5 d u H x p l f 7 9 0 d } G s G U G U G G I 5 5 i 7 6 +.{ L I I { G G x L L P p 6 x } L P U G L { P G S L p 9 p d H G L P G G +.{ { L U G r d d d v.q.#.#.l.7.5.q.S.p.x d z 6 s ,.+.I $.L J } &.J U Z P P H x { { L I { I { 7.7.w.d 0 a d >.+.G } { #.O.G #.{ { I l d #.B.u.S./.Z.(.).q.N.S.A.G i x L G $.O.L I G U } L +.I Z U H q.l.{ #.w.9.#.{ { #.x.O.p x d +.#.#.8.7.6.6.#.#.7.z.G ^ c d #.)..XZ.Z.S.N.Z.Z..Xq.I G u d L B.k.N.N.9.q.A. .N.8.d 2 M d $.#.I I [  .{ L S L &.G p x s L 8.{ +.{ { { L y.{ G f P d L 9.i.(.q.B.q.q.B.B.9.z.s < d d U O.L #.{ d x I L #.+.x b p p b.#.L &.w. . .5.{ #.=.x z 0 G $.L L {  .{ { { 6. .&.p 6 0 x d d P G P x d G G K G d 2 i 4 u #.{ G { +.{ { #.X.+.+.r 6 < 6 x p r d p l p d p H d u < 0 > s L P x d p L I s x J 7 7 u s x G L &.{ I d P s Z I s 7 % 2 r H u s s l d s G d @ : < 9 6 0 6 u s p 9 6 f u @ @ q > 0 p f 6 @ 0 > 2 6 6 6 = i 9 + + @ > 9 : + ",
": @ > > 9 > @ % > % > < + : > < 9 > 7 < z 0 9 @ > 0 0 > > = < > 5 p 0 2 2 4 9 > 0 > > > = u p u 2 l r 6 d 2 i s 6 0 7 > u x s f c d p c d u p 2 > c u 6 x f ^ G G G x G I x p l 6 d d p U } +.I G G G H G x 0 6 > 2 G P I L ~ I $.+.&.U H c u p 6 x U +.G ! v +.} } J G x p z 6 f } +.L $.8.I +.+.%.L r K 0 p x U K x I L G d G I t.G r u u d #.#.{ &.>.+.8.{ O.{ K c x p u o.t.} G d d I +.d G K l K G 6..X4X%X)./.D.D.+XL.L Z G d P L $.O.I &.I L +.+.I d G H 7 { r.L { &.#.#.8.l.l.+.r x ~ G G 7.l.{ 6.v.#.8.8.q.l.G H c G { B.).D.D..X.X`.S.w.6.G d K x p b.7.G.7.D.N.q.A.l.{ x H ! G G I &.I ,.&.#.O.L &.{ G x ^ G I { #.r.+.$.&.I U H K G G 0 x r.K.).).B.p.w.k.Z.A.&.s l K p u U r.{ I I G { { +.U u r f x +.L +.#.l.0.l.0.O.O.G s z a P { { &.O.#.#.#.#.5.8.r.G 4 a u x +.d p G G x d U G K x 0 0 7 G G G I +.I } +.L d y.I p 6 2 > d H d G z 9 6 d G p p z > > i 5 s J L G c x d d G u - = 2 > p J L } G I I } { +.U 2 : u i 0 c G H d G f s G p < > % < c s p r u a a p p d < + : > < 7 p p 7 0 2 z 9 u p 7 > @ + @ > > > > 7 ",
"> & @ > = > O @ @ @ + 1 @ : > % : : + @ % @ 9 : > @ > < @ > 4 4 f l > > 0 7 = > 7 > 4 : = 4 7 > 4 7 0 < > > > 6 6 9 > > 4 s d u 2 u p > = 7 0 @ i 7 > 6 a u p u = x d p d G p 0 2 p G 7 0 G t s Z G G p 6 l u p u a i d d d G Z G L s I 6 d d p i 0 p x x 0 c r p G G 0 0 c c 9 a 5 u u K d = u d d H p c d x K d 6 d Z G G G H G G d i 0 > c I L { L d s G p x p l x G x u l U G p z p G G d G 6 x p p P  .5.#.{ {  .{ { G H U d p d +.P x L I L I U J p G d H l d G G G H G { G { { u i c G I d { O.L I O.L L Z { L x d K U L G O.{ 5.w.C.#.6.d t K l x i d G { I L { #.{ L d +.U x G x 0 ! +.I d L I L { I I K +.G x G J { S x I G s s c K G x l x +.L #.{ I 0.G [ 5. .p 9 G U l z d I G G J H { +.s 0 9 6 H r 0 x G I L L Z G Z x d r p p t x G } I G ~ S S { x - d u 0 0 x U r z l 6 p f p p x l 2 6 d d - I G x r d d G x s 7 i = 6 q 7 s s s u u f 5 p H l > = < 6 i 7 5 s r x 9 > d u 7 0 9 9 @ > p d s - d d s Z L r + q 6 6 > > u t - 2 u p = = : < > = 6 2 p 9 > > 2 = 2 6 > O @ > @ @ = 2 7 = > 7 @ > = 7 > O @ @ 9 : O @ = ",
"@ : @ > @ @ @ 4 0 % % > @ + : % > > > 4 > % > @ > > % @ > > : i 6 > > = > < @ < i 7 < < > % 7 9 > 4 7 < q z 4 > 7 7 < 4 q = u 4 4 6 i 2 q > < q i 0 9 0 i 7 6 7 : r 0 6 9 0 p 2 p d u i a 2 p c p p d > q 4 u d d i i 6 p d 6 u u 6 d H p i r i p i u x c 6 p i f d 0 7 c c p 0 p ) x 7 l l d 0 H x l z b f f l d d x c p x H d H p f a f x K K x x x H x r 6 x p c d c d x l K f u 9 l G x K d c E f H G p G G l K d s x 5 c H p K x x d d G d d G d U K u u K z T G U x x d s d G x x K p x K 0 d U G p K 6 c x G d G H x x P H x 5 p G x s d x p K U u c G u f d 6 s G G u d P G d x d d u x d x x d x x s d ! K d x p 0 c x K d G x f v E x l c K d d G s d G p d G p l x G c l c H p s c d z u u K u u T 0 u p p 0 p p K 2 a x f K r 6 s x r 7 u 6 6 s p r c a 7 d d 6 9 p f 6 p 0 f x 0 2 Y 2 z p 6 z 6 2 l 2 p 2 2 p l 4 8 7 a = 9 4 a 6 > l p 2 6 6 u 9 0 6 6 i > 9 q r 2 > > > > 7 > > > r 9 4 4 0 2 6 6 i 6 > u - > : q 7 > 7 0 > 7 > > 7 6 = = 9 > @ > 6 > @ > = < > 2 + > = : % @ > 9 @ % > @ @ > @ > @ % $ % @ @ > = @ @ + ",
"@ O O o > % O > 2 @ % > @ > O % > > < : > @ % @ < % @ @ % > > a @ @ 9 : 9 a 4 > @ < q > > @ > a @ : @ = > i 2 7 : % > = > : q @ q @ 9 = > , > 0 0 4 7 2 l 9 @ > z i @ < > > 9 z 9 a 9 9 : > 4 4 > l 9 @ q > 0 c P u 4 9 z : q q 9 < a d G p 9 0 7 c 6 7 a 4 7 i 7 7 m a p d x c l G x 7 i 4 f p x G G 2 l l 6 d c G 9 7 7 q 7 6 q q q p d } x < 4 c l ( 0 c c K i x x M u d U 9 i i 6 p K s U c z K G G =.c a < @ z 0 a R u u u ( J d N u b c x p H p d K f r ^ I d u U x E > 9 b z 4 G +.d l i l , p H 0 0 p T 9 a p z c K l c l K z z g q z z K U p d c I I ) l z 0 l ) v v c l H c p c P 6 z p c H i T z z q d d G K l q q z c r l c 2 u d G x l r d c p l p Q f l q z i x p p 6 c z 2 < > a m % % H K G f u z c l b b p 7 q q 0 z u 0 x z a T : O > N u l q i 4 i l c z z z 9 4 6 4 9 2 u i u > 0 i 0 4 < q < > 4 @ q 9 = 4 > > a 0 z 7 u : > z 7 i a 6 7 < > 6 i u 4 % @ = 0 q @ 9 q > > % > d p 2 0 9 4 > > j > > , , % : 2 < 9 4 > @ > 1 % @ + @ @ q 0 % & 4 > O % O % : : % @ < @ @ % : > : > @ : @ @ @ : % % @ @ > @ @ o % + > ",
"> = > 5 2 2 6 6 = 6 0 > @ > u 7 x @ = = p 7 > > p > > = 4 4 6 i 9 s K i 7 5 5 K 2 6 6 r H Z J G L s L Z Z G G d > d l u 4 2 < i 2 d L Z G s i 5 K c r 0 0 0 s Z G } d G d > 7 p i > 2 I O.L { #.I d s I I d i a p c d J x r 7 s r J x 7 6 G u a i f 2 G  .{ d Z S G I G l i z c p I +.I L +.d x J L c d 9 z 6 d G O.} } r.} } L L d d G U l l G G x ^ d d $.$.L z 6 c N u L { #.L L  .2.5.5.I x x z z 9 c s G G Z L { d Z d J p x x K K G L } x J K d G p i p ) ^ f l P G L s +.L G p x ^ u q i K G L L { G I I { +.G d G p c H G p J } s x L O.G z p J G f a K x P G G G x x { G U x G ^ I L +.G U U { L G d x c G l z u L #.#.I  . . .Z p p c H P Z G H 7 f x x d i p K G H p a d d I U d G } p c f 2 H l s f 9 h 6 d d u 0 0 s < q l c c 7 i s d d p 0 r s p 6 r f p l z < f I x G p G x x l 9 0 = z f a d d c d 6 d Z L t s p 9 5 i i i 4 > s 2 = 2 6 p > > 2 7 > p a = 4 s d Z s d L S J d = 4 @ % > 6 6 7 l 0 6 u 7 @ @ 9 z 9 @ : a 5 s l 7 > @ % : : : = 7 > > > > > > 6 > > % < : > < > = O % > q @ @ 2 2 @ @ @ O > @ % O 6 > % ",
"> > 9 = a 9 > 7 < 0 > @ % > 7 0 6 > z 9 i 5 > < = i 9 @ : > 7 u 2 p s p 6 i i p 2 7 7 7 6 d x d x 6 G I s G p l > 7 = 7 z d = 6 d G s K K p s i a N i 6 f G G } G G U G d H i > z 9 d &.5.9.w.l.$.&.0.8.#.I s f 0 2 x I G I =.L $.U G ^ I s z > 0 E L +.&.{ P I O.L U K d d p G G U S L ;.=.x d G G U J r p 0 K { G { O.G L $.O.&.U p d x p d d +.G I I U O.O.d ;.G G u d L 0.k.C.F.l.v.q.q.6.{ d d d x x =.} I } } L O.I ,.x x E d r p } I I I &.L } >.I r 0 p i H P U J +.G +.I +.L #.G x c d K O.$.8.#.#.x.&.#.#.6.U ) ) u G >.O.I +.L U +.O.,.+.s G J p f G @.>.I =.I I J +.G J U p d +.{ { P L L L +.G +.{ s d H f G v.q.#.v.v.B.T.#.+.P d d K +.d J G K +.+.+.G d H c E d d u f } { G ! U l U P d 2 p l H s I { &.8.I #.+.#.G d 0 6 c s x G x H K d I U x p d H u 2 > c r Z L +.+.I d U K G d 2 7 6 7 u c G U G x G ;.U U I 0 f 5 a u 6 c E z c c c z z u a 4 > i r t U O.&.+.$.$.{ G { >.= 2 > 7 4 r 7 7 0 d 6 p f i < 0 < > > 6 2 6 z > c i < + = @ 7 : a 6 2 7 > 7 q q > > > @ @ > > > @ 0 > > : @ @ 0 0 7 < > = @ @ % @ 2 7 @ ",
"7 0 > 2 i > 7 > < < < % @ % @ 7 0 6 7 @ r d u > > a > @ @ 0 0 r a p s s l 0 a u 6 > 0 0 2 p f u u x p p x K s G G 0 9 2 d t H x U f r f G G x i = @ u J L +.L d p J Z L I G r 0 i 2 d #.9.q. . .#.p.q.9.B.l.G p f s L {  .{ 8.6.+.{ #.q.$.l 0 x c U &.L { +.#.{ +.{ I U G d f x U d G G I d 6 d U P G U ^ c 6 Z #.L &.{ { I I { &.+.x d 6 l U S d U L I L I I { O.I p 5 G l.5.0.5.w. .{  .2.N.H.d I d d U } U } I O.} d.O.#.L d f G G G >.I L { &.+.*.#.w.G d l c G I +.+.I e.L U O.#.6.+.6 p d { 5.6.#.5.v.#.7. .#.{ x b b P $.{ 8.+.I =.P $.Z { #.x.x x G L O.{ I G d U +.x 6 G J d 7 H +.6.+.d { { I L O.{ I L x x G G.+XN.q.q.5.k.5.l.R.L d H c p J >.t.d I L L &.{ L t f x G K x { L p G d v G } } G d l 0 P p.D.7.#.#.N.A.A.i.B.r > z r G I G x c p L L G L s s 0 0 K H s O.{ I $.{ L { +.} G G s x G 7 u G G L G } x I { $.d p 5 p u p p d d d x p t d p u z l q 7 L 6.#. .{ { +.{  .5.L L 0 0 < p s G d 6 u 5 d c f u < > 9 6 G p 9 7 6 s u 0 x = 7 @ > % 2 i u 0 7 > q > > @ @ > > = % > 2 2 2 > $ > 7 4 = 6 7 7 % > @ 9 > @ > ",
"7 < > > @ > 2 = < @ > % @ @ > > u r > > i p d > 0 6 = > < < p p 0 p x d 9 + r x i 7 9 p x H d r p d x s s p G G G 4 7 i x d d s s G x 6 u G p > 4 7 0 +.{ G L d d I d L } G G p q 7 G w.9.5.#.9. .q.9.q. .7.G u x x >.5.0.[  .5.S &.5. . .K 6 K 2 L #.L } S  .{ { { { L p p 0 x H G d d d p x d L P L d u 0 p J #.L O.G { &.I I L { Z H c 6 J $.} I d L L I } I O.L x c G w.7.k.A.q.7.#.5.Z.D.[ z O.G G +.L L { { L I Z L #.&.d G H G } L I O.L { { { { 0.>.7 K l ,.d O.{ G } I I $.{ L } 6 c G ..#.5.[ B.#.#.#.w.6.{ x i 0 p x.0.{ { { O.I { { O.{ I c 7 x I } G I { d =.G G L I J c z d I G G G +.{ U { +.{ L Z G c s O.N.i.2.A.D.N.9.N.q.{ r H l U I L L P { &.I O.{ ,.p d H d d L { +.{ L d G I L $.G l 0 > A N.9.9.#.D.i. .4.u.D.d 9 M u G P I d G G G I d d L G r > a t I 8.#.S I #.L $.L { { { G p 9 u d I G +.L L G G d L O.H 0 u 6 r d 2 u G d d G s s r p 7 7 7 G  .#.{ { [ { L 0. .6.#.> < 4 u 7 f r s c u u 6 u d < q % p H d r 2 p d p d K 5 = % @ O > z 6 p 6 > @ 6 7 > > > > > @ > 7 9 7 > @ @ > = > 7 6 > + % O > > = > ",
"7 7 0 = 9 4 7 6 q > + : = > q 9 > 9 i f 6 > 7 7 2 u 7 = > 6 p > d i 0 9 > H Z d r = @ > s d d x G d p G s f x s G > 0 f G x i x s Z x d l d d l i > > x G P d P d s =.x 5 J d r i 9 G w.9.q.7.5.5.9.9.5.#.6.d u p 2 +.&.[ { ..#. .&.{ 5.#.L T d 0 U O.{ +.L #.{ $.{ y.r.t u d p c G I G H s L I x G +.c f z d G x.d Z r.S L ,.L G 0.I d G r G +.6.&.L L } L L L L I c > L 0.q.q.#.0.q.k.C.D./.{ 9 p 6 A &.{ { $.+.I &.O.I L &.G c 6 U +.S { O.G I #.I { +.G u d 6 O.L x. .{ G } I { I +.J l c G } L { b.O.S l.{ #.#.r.G x U 6 I k.%.L #.6.y.#.#.&.I p K J d +.G G >.I d H H J O.&.d l K s O.{ &.L p U I L G U { G d 0 p #.V.N.q.0.q.#.0.A.N.+.2 p s L I O.I U I L K x Z +.G x p 5 G +.L G 6.I I s I I L G p i c K 8. .N.l.q.5.[ Z.q.5.G d 4 0 H G G G L U x G d x E G r p l u d L #.O.I G #.#.d d I I P > @ i +.{ U d { { J J d S ~ x = 2 > x c p d U x p d d G G d 2 7 = 5 ,.#.[ { I #.L L L 6.L @ q 4 5 u l 5 u 7 d u p u u 4 4 > u 6 r f 5 r s r 6 d r @ % @ % 2 > > u = 0 > 0 = a > + < > 4 i 9 @ @ < q > > 7 @ > < + + : @ @ @ = > ",
"4 > i = < 0 = 6 4 > > : + > > 9 4 6 = u 6 + 0 i 9 i = > 4 6 p d 6 > 7 7 > p p G r > q i p x d d x G t p c r G d p @ q p t r s d p G U x p d G 2 i > i x d G d H G L d G c G r x d @ x H.i.7.&.5.0.5.q.7.N.8.p b d 6 U I [ #.{ { { O.{ 5.$.G > 9 6 +.{ L L { +.{ L G I +.P l c H u G G G U G U I d x I x = a u L d G +.e.S { +.G K #.S s K l G $.G { L +.I L I +.#.l p 7 d A.i. .#.p.7.k.#.5.2.6.p i H d L { O.I P L { P +.#.6.L K i p I I { $.L P r.L L { x t G K &.#.I +.6.L L L I G G J x H x +.U L +.#.O.&.0.+.5.#.s H ! G L  .L I &.#.#.5.{ I G l d d p U U d L G G d U d [ 8.d x K G 6.{ 6.L r G >.L K U $.G u 4 p r.5.9.L. .N.N.B.9.5.O.l u G r.G @.G G } P U d d +.L x 6 u U +.{ d L I $.{ I I L G x u f p m.#.N. .{ 5...5.9.9.U r u < x G p I G Z G x r d s p G x < u L 7.{ { O.L #.{ } +.I +.r = < 4 { { x G $.{ d U L L G r 4 z 2 d d d d G d x d x G s l > : i d ,.[ L &.[ Z L $.{ { L > 7 < r l p 6 2 0 a = i u 5 < @ 6 c d p d p s f p d r a > > @ @ < a > 7 7 0 p > 7 7 4 @ = = 7 4 O : < > = 2 : 2 > @ > 9 + @ + > > : @ ",
"7 @ > = 2 4 > @ : 7 4 + : > @ 2 r 2 > p > 7 i 6 2 > > q > 2 i c p a 7 u u 2 d u u < < < p p p x s d s l d p d l p 7 > > d P G t r d G d s G P u 9 : 6 G { s p G I } d P Z G d 5 a = x 0.N.0.#.{ w.#. .5.B.&.s l d d G 6. .j.I I I L } #.{ I 6 z 6 I  .#.{ [ { I L { L [ ~ d p f x +.L s G I Z d d I G >.f a p +.O.} O.I 8.#.#.+.U { L G d z G <.L G I L +.+.P L 6.J x W G K.q.q.N.q.7.9.q.N.i.l.G p J } J L I } L L L Z I { L =.r 9 r G { I +.S L G } { I $.G K < { &.G Z { ..L $.r.O.&.#.d ! p c #.8.{ { { +.8.5.9.0.O.p l G 8.I 8.&.L { { { #.{ #.G p H U I I { O.L +.P { +.{ $.I x l s 6.{ +.I } L I U G I #.{ H p d 6.N.9.A.N.l.{ N.9.5.F.L u d I L L L { P L I +.I ,.u K z p u G } L L U G { J U ,.} x u 2 Z 7.9.7.w.q.l.6.#.5.q.U s c d G G G G L P L ^ G G d x H d 2 f { 0.5.{ { +.L L { L I S = c : d 8.{ G +.G d L I { &.P d = 4 2 d U s G L x d 6 =.d u d = > > d #.[ #.{ { L L { S ..L 7 u = 9 d d c > r u u 5 c c = @ 9 2 x x 5 u d c 6 p d r = @ > 4 9 7 7 > 0 > = 7 u = < : % O : u + > > @ % > = > < > = 0 > O > 0 > @ @ ",
"6 > < 2 9 = 7 : @ < 9 > @ $ > 6 p 0 0 6 0 u 2 6 7 6 4 @ @ 7 i u r l p p d 5 c p z > 7 > 0 a 5 d A x d d u c G d G 9 % a H d Z u f x d d d G G 6 < @ 6 G ..d s G A L P I G I d 0 f 6 x 5. .2.#.#.q.w.9.i.N.#.s u p r L 6.{ { Z #.&.{ { { { U 6 i d G #.#.{ { { I I &.+.#.I r u l H G d J I G G J L G U S 6 q 0 L w.{ Z [ { { { { I } L s p 9 t L +.L &.G { L G I 5.{ x z p #.2.N.B.L.q.q.7.i.9.F.G z s G ~ L P G X.I I +.&.L { >.} 9 f } P d G L { L I L L +.x x 6 { $.I I +.8.I I L L { [ ^ H d G #.5.8.{ O.[ %.9.#.q.$.p p G ,.O.0.#.I { { I I { 6.>.G p K Z L { G I G &.{ G L { P c a G 8.{ Z =.#.L Z U G L O.I d G x I D.A.9.A.C.5.9.N.B.#.d l U L ;.I +.{ L } L +.L G K 5 c c r J [ } G x x [ L d d L a 4 c L q.i. .{ k.#.5.#.i.B.G u c 7 d G I d G } d d x L J J 2 5 H s Z  .7.#.L X.O.{ #.I S U 0 i 0 r ..#.d I L P O.G I  .+.G K 9 4 p d d d G p 6 s G f H u 2 : > s 8. .L ..#.{ O.O.#.&.Z 2 0 7 i r s 6 p d p a 2 G r > < @ > G K 0 7 d 0 6 p p f = q < 4 7 6 > > = 7 : 6 > > > = > @ > 6 > 4 = < 9 : = = 7 > > @ @ @ @ > > = = ",
"> i = > = > i > @ > 2 = = O O 0 7 5 2 7 > = = 9 9 p q @ @ = 9 6 s 0 d z u 6 p 6 0 < < > r d p p s d p d p r p U 5 2 : 7 u d d d p p r x G G d 4 7 > < G { I x x Z G d d I G x 0 4 6 d { 5.q.0.#.5.9.O. .5.#.L u i r { { { L 8.{ 6.L { I $.U x l 6 G $.I } I I } { I L &.G p z p f G G L s d d I d G L d d p u 2 O.{ { #.{ P &.G J I Z d u 2 K L +.I L L I U x P +.I u : u l.i.B.0.9.7.9.N.9.q.w.p l p d >.~ S #.I I +.G d { { p x H d K c u U I I I +.{ L U u z J ~ d ,.} { { I +.I { { L K f u x 7.0.w.#.8.%.%.#.7.6.G p l u G 6.I L &.I G L 5.8.8.P c 0 x d U G I I L L I G { +.c i 7 p +.#.L L d U I { I +.L G H K u { B.p.9.9.i.D.5.9.N.I 6 c >.L L +.+.O.x G G +.d d x f x x t I G Z #.L d s G L L } x 0 0 G #.q.q.{ 8.6.{ 5.5.0.G u x p s G G G s x J d s { i 2 s l c d } L { 8.I L I L +.L I L p i a d } L G I I G I G J d  .G @ > 7 u p x d x G d x G u U p 6 0 5 Z +.L I I s G >...[ { { , 7 p p 6 2 p d r 6 p 6 s p > > > 7 K d > 6 p d G p f p = > @ = 6 9 = @ i 6 6 < > i u 7 > % > r > 4 < = > > > % > $ > = @ O % < 4 @ @ ",
"> > % : @ 9 7 > @ 4 7 @ : @ $ > = 5 4 i = > 4 > 7 > @ @ 9 = = 6 l r p u = d u 0 0 > > i = d G 5 p l x r G G G d 2 4 4 > 0 p f G x x d d s s d 7 p 4 u G } Z d J L d s d G A = : 6 9 c 8.i. .0. .5.{ #.F.{ v.U 2 0 d &.L [ l.7.{ { L L I { x p s p } { I L L S { { G U I s c 7 i d G P L G c d U L L ,.p p a d c +.O...#.{ +.S +.J L I H = > l I { L P L L P U Z O.I H : u @X9.q.5.9.i.N.N.q.9.&.p K d s U G #.#.I I I G d I { x p r U d x f L +.L I #.O.L x p r d L d P I { L L I { I I d r l l ^ 5.0.5. .#. .9.5.7.{ U 0 c x G O.G G +.+.p I { { +.d d c K c L L L I L J P } &.I u 0 c d +.L L $.d I } L G G +.U x r d ,.w.q.A.0.Z.+Xq.9.N.r.0 x U I L { O.L } U { L } d l d d x I P H d { O.I L J U } } l 0 0 I 7.q.#.#.5.5.p.2.q.w.G p l d d I L G P p s U +.+.i 2 G u 7 p { 6.#.S L #.O.L [ L #.{ p 9 @ r { I I G Z G J Z G U I d > 4 0 5 d d d H G s s G x d d 6 : r { { L #.{ I S [ ..L I { % = p c p r p p p z 2 p s p > > 7 - H 5 > u d d s s d 0 @ q @ > 6 9 a @ = p = 4 7 0 > : @ + 2 r > = 7 > > = 7 @ @ @ > > % @ % 8 > > = ",
"> @ < @ < 4 @ % @ > > : @ > > > > 6 > = > p 0 > 9 = > > > > > i 0 r u f 6 l p 6 i > < q 9 i 6 d l p l l d G K p i i > = 4 0 2 f f x G d H d p x a 6 p s } P Z G I G J L d p u p 4 8 7 #.A.5...{ v.5.D.A.#.O.s 6 i r +.#.0.#.L 5.w.O.L w.l.s u z r G +.I I { { #.#.O.+.) 7 d u K p L I L I { Z I I { I r 7 z u s I L &.#.#.{ 5.#.&.r.L p u c d L O.s { O.+.G I &.L d x r d w./.A.9.N.D.q.i.D.A.I s 7 K c x P #.8.O.L L +.&.I d l J b G G L { I +.+.$.Z L { J u r 4 { &.G I I I G Z I I K p x x p H w.5.6.8.5.9.q.w.w.8.U z d x s I &.&.Z G L #. .{ $.x K K 7 G v. .x L L L >.{ L P d x G H G J &.{ &.L x L { +.c l c x p } @XZ.9.B.i.q.#. .G.#.6 u u x { I 6.O.J Z ~ +.} L K 6 d x I L P G d } O.{ P G d d x 0 7 G B.q.q.w.q.q.q.q.Z.A.I > 6 d L +.Z d I { G Z U G d G d 7 0 r S #.5.5.0.{ { #. . .0.[ 2 z 6 s { L L d I G I { L { I p p 4 q 7 I Z u d x d G r x s u 6 @ = H { #.9.[ $.#.{ 5.S &.{ O 0 < 2 f x s G d > 6 c 5 u @ > > 2 G G d 5 p d d d d 0 + 9 + O 6 = > i u z > 2 6 0 @ @ > 7 9 2 > = = 2 2 7 = = q > : % % @ O o > < = ",
"< @ @ % q @ % > + > % % @ @ @ % < 9 > @ 4 > = > 7 % > < o > < 7 @ 7 > @ i u 2 < = 9 4 + @ + > l = = = < 2 d 5 7 7 9 0 7 r > i 6 r 6 H p r > 6 6 2 > 5 r U d d x d u x x p c r 6 p z = d L Z G L G #. .{ &.G 0 p f r s I +.L I { { ~ G L L G K p u d x G I L L { L I G p 9 7 p H p I L G L { L G G G d K K 0 6 s +.I { I I I { L #.H d d d d d d +.H J L { L L L Z H f p s I #.{ 5.w.[ #.l.0.#.G 5 z l 7 f G I { L K x L { G d p x 0 d H L $.s r I L G I I s l p i U d } &.J l K +.L G 0 p U } p r #.%.O.{ 8.v. .L &.{ s G x K J } *.L I J U S { >.G p d G 2 d O.#.U U U G L U G u G I G K p J +.I [ ,.J U +.d s r x x u s { q.5.l.6.&.I y.[ s K K a z >.{ I =.U I G r I L d u l s s U G U p d I L H G u p d u 0 s 5.0.0.{ 0.N.B.q.w.{ d p f x d d d Z G L I r G G G <.r 6 T 2 r { 5.#.#.$.I #.#. .{ +.2 u Y s G { { +.L I $.{ I { G 6 7 2 9 p J U l u u G x d G G x 4 0 @ 2 I  .9. .+.#.{ { &.{ t 7 7 < 9 6 d G d c 6 p p l = 4 0 > > p p s c 6 r c x 6 p > 9 < q < 9 7 5 2 6 2 4 0 4 @ > > = > 6 9 9 4 > > = < > 7 2 @ + % @ > % q > > ",
"9 % O @ @ @ : % @ @ % + @ % @ @ = @ @ 7 @ + % : > > > @ % 4 > > $ 7 > 4 = > q < = = > > < : 7 i i > a q + > > < = < 9 = > 6 i 0 > : > 5 7 > q 2 4 7 z u 6 0 > 7 0 2 6 u 6 0 6 l 6 u 7 9 = 6 p r r s p 5 7 5 = l s d u 2 = 6 d l 7 p u t 5 0 i p r c = d r 6 i p l 5 6 6 r c p E 7 r 6 d d H x p p 6 d d l 7 z d x x u u 6 d 6 p Z > = H G 6 G 6 u d u p f d d p d f c 7 c f d d d s d u d d G d d r p x H u s d l a = d d 2 M c x 0 K r 6 l x u 0 l x K G 6 a b x l p d s 6 0 ( l 7 i c U d u x x s H 0 2 p s p d 6 u K r p d d d r d G K x p G r 6 6 u r H l r Z u c p G u u H x U x u l d U x H u 6 U d > H =.d J J P s s d r P p d c J x s x p r P J d r 7 c l ) x d G G d d l 5 K u 6 p G d x 2 r c d p l i H s G =.5 I I d I d > i 5 G f u 0 K K p u c p p G p u i 0 u z 2 x G s 7 d u H G x o N M i i 9 s x d d 2 b p 5 d x d 2 9 > 6 u = 2 z l p d 6 i d 0 d < 0 i = u x u r c d t d x r f @ < z i i > 2 5 6 6 z 7 > < < 9 2 > < > 2 7 7 7 0 = @ > 9 @ = > 7 = 6 2 4 9 > > > : = @ > > @ 4 = @ > > > > : @ @ @ % + @ @ > > > @ @ ",
"% > @ o @ 4 = O + % : @ % % > = : % > 0 4 @ > 9 > 4 > @ : @ > > > > 4 0 > = % % 8 , @ = i i @ 7 r = = i 7 < : 9 9 > q > > > > 0 > < < 6 i > = : 4 9 u 9 9 a : > 9 z 2 : 7 i > p r r 6 1 h z u 7 f p 8 q % : a 0 r 6 l B 4 < 7 z 8 f 6 z l 0 i K c z u c z z 9 9 q z c x G l p l 7 c z c r f H 0 i 7 ! 6 7 T f b i 0 p i a a 0 < z c 9 6 x G K i u 2 b T 9 z f u 0 c K l c 7 u l b 6 K x 2 T c l c z U G c z p l a 9 p c T > i l p p K c z i i x x z 7 u p i 6 l G a 0 K T z p d u c l G +.x z r x a c z a a a > m q > ) l l d K H z p G p l d p l T l i l a 0 9 c d z p p c 0 0 K d i z r =.L 6 a K c x l p x L I x K G ! N 6 q r j i p 0 p G H f s U d z 9 c z 6 d p z 6 c u u c 0 T 0 x c x 6 m 9 E d d u c r i a i 0 = u > 8 > q b z r d u i 6 r 7 a z 7 < 7 s < > 0 a > 7 z 7 % : q = 9 c > 7 , > > 2 > 7 0 7 f f p = 9 6 u 9 x 0 q i 6 l q 7 2 6 2 i 9 > > > 9 0 2 i u a < % @ > < > < % > a @ 0 p p > % < q 2 > 0 > > 4 < = > > @ q % @ > > % % O % > 4 > > > > i i = % > > + > > @ @ @ @ @ > > @ + = > @ @ * : @ > @ $ @ @ O @ > ",
"@ < : + : > 7 > > 4 9 + : @ > a p % > > 2 6 > @ @ > q > % > 0 9 4 = < > > 4 7 4 > : 2 > 6 = 5 r s x p - d p 7 2 9 < 0 p p > 4 z : 2 > 4 7 p r > a 0 = 7 p u 7 6 2 d d 6 d 7 i 7 i d i 9 > > 6 6 6 6 9 4 a 2 p p K x 5 0 7 K u 6 7 s p c 0 0 0 : c 6 p 6 4 > z r f d x i 6 u p p i d d s d 6 2 u p 5 l p d u p d a x z p c 0 z z 9 c K p 6 u u l H p G u i 2 K u d p a > i p 6 r H x 6 H p f p c d H s G p 6 p l G u d 6 c d x u f G d d u p s G U d x p p K c x u T d x d d x G r p d x s r K p d 6 p 5 i K z u p a u z p x x H K z u 6 6 f u K f d a p K u a i 4 f p c d z K c d z z 7 H K G d c d d s x 0 6 x x u x x x p 0 z p 9 T p l u p K K x u d K x c i c x r K x r u T l H p 6 c d r 6 a K K 7 f p 7 p f p 0 p f i p z 9 4 i p K 0 7 f f p c p 6 i 2 u p q z i 0 2 p z z q : z z u 7 4 6 1 l 6 z a 9 z = 4 @ z 5 > 9 0 > = = c 7 2 6 4 i = u > 7 u 0 > i 4 2 9 7 > 0 4 4 < < % 2 0 0 > = 4 4 6 = 0 q $ > a > @ > : < > < > > : > 9 @ > : = 9 > > 4 < > 4 > = @ % @ @ > > % O > > @ 9 > < < > O , > @ > : @ % > @ o % % + @ : @ ",
"> @ @ @ = > > 9 > 0 2 + o @ 2 r u 6 i > r x u = > > > @ @ : > 0 4 p 9 : > 0 i 7 : = 9 > = K >.I H L t.=.I ..+.p 7 7 r p x r z d u x u 9 a H s 5 a : 9 4 2 G J 7 f I O.L G u c 7 i 7 p l u z z c 7 7 l - t c 6 d l i 0 G d G G f G d J x 6 a > > 2 p c > z p G G s 6 p q a 6 l x x d 6.x.+.d b ) I T i s z u p u p f x H p d G G > Z G d z 7 a p d +.I x T p J G c f z u K K H } L O.I L U U G G r x u c l 9 x L { { +.Z x ,.I 7 p d > r U r.e.P P +.I K i G J G > c I d U ,.6.0.I O.~ ) f d K z H U x d U Z d P p d K z 7 E G p G G d z ( K d p H z r G c d i P > z f x U s x K z u c d c 2 l H J L U ^ U c N 9 6 i i c f d u x d 0 c 6 c z l d K l p 0 d G d l d z x x s c p u d K d 5 H H l z s x > 7 6 c i l d f f 7 p d 6 6 p p 6 x p a 2 d l u p f c r 6 x f u x = a i x r l u 0 p 6 u 2 7 Z 6 l c K 7 z 0 6 c 7 i s u 7 > 0 , 9 u < , % 2 0 0 > z 7 0 2 7 u l u i 0 < 7 s r 6 : > i 7 > < 4 6 = = < i @ = = > @ % 1 > > @ : % < a @ 6 i > < 6 i 7 @ < > > @ q > % q % > 8 @ > % O + > 7 < = = : @ @ > O = 2 > > + @ > @ @ $ o @ O ",
"2 @ O r d 6 > = @ @ : % @ : < > 2 2 7 d d r 5 c r 6 > 1 > > = 0 i > < 2 0 0 p s x a > 2 G {  .&.[ L L 5.5.{ #. .t i : > 9 , 7 f H i 6 p x a l 6 u = 4 l c H U d P Z G d s P r f d s c c d } { L +.l d d d d d 2 : 5 J $.{ L L &.w.L ..,.d x p 6 r d d G U L I L L L $.c > a l 6 +.q.2.5.$.#.5.0.i.9.w.&.d d u +.{ #.{ s H } { { I { L > c c d G I G H I { { } U { H 0 4 d  .L.A.#.0.7.{ 0.0.#.d > u l K U +. .{ d ~ I I { L } c p 0 J F.q.8.$.[ 8.6.q.9.B.U i G A [ i.3X<X:X;X'.gX_.a./. .d 0 l I x I { L J I { +.U H u c a p I w.5.%.L c.~ { L I -.d x G d L &.#.#.O.[  .$.x I E - l H I L 6.8.8.w.l.6.0.4.+Xw.Z G b 0 l K G U O.J d L 6.H l d c 2 K U L L $.G U 5.#. ...r z i l G L ^ I O.+.{ I U +.L d l z p K U G L { L U L #.Z P i > < a i +.I L G I { L L { x d 5 p s s Z d P P Z G G G G L c p 2 z 9 7 d I { O.{ L { { G d L G 2 a 6 l p I G G } G d G f s u < > a p s G u p G G z 4 i H 0 0 : < 7 p G I L L x d p d s @ 4 : > p r u u f p i p c > + > % > f 2 p l p p p p r < @ % > 4 = % > + 2 7 < < 2 > @ > < < 9 = @ 0 > @ > ",
"7 % 7 0 2 > > < @ @ < $ @ + 8 7 2 = 4 c u 6 i 2 i p = + > < 7 7 7 u i 6 4 = 9 0 i < = = G } S { L L { L { L { &.d r > > 9 > r p r - p G 5 p d p a < 4 G Z d G x J - G G d I t p 7 2 H d x I G d x s U K K c u z u l G G { L G L { { { L L G p z N c d I G Z G J d ~ P d p T p l ,.#.2.5.S [ { { 6.5. .} p d H I { O.+.x } I I L L } G s a 6 U +.Z d p S $.L G G L s l z Z 0.5.{ #.{ { #.v. .8.$.d l p s P I L +.I Z L I I +.G U c 0 d y.5.{  .#.5.L [ #.&.I p p u { A.).S.q.q.].i.N.i.%XN.G i s u G +.G P G G } I p G d d d 2 G 8.{ { Z G L L { P p d U d p ^ I  .G G } +.L I L L G U 6 G +.{ [ 5. .#.L 6.5.{ 5.{ d x l d d P d J U d I [ G s x c c d I G d H G x $.I &.} G l a u J U J d x G G I s I I d > 7 z d G L I P G I I I L } u 6 l 7 d G L +.G I U P p } } } u u c u d r G U d x d G d G d d i 7 < u G G I S G L I L G G { L t u z u d x r H G p G d p p L u > < x H d 5 x G s r 9 > H 6 = 2 > 2 G G G Z d K T p x H = 7 < > p p f u r x p - f 6 > @ @ : 6 5 s 2 7 5 6 u l r @ = @ > = > > a > % = > 4 < @ < > + @ > @ q > > < ",
"> @ 0 = % @ % > a 0 > @ > 7 < < 7 > < > 7 6 6 6 4 c > > + > 4 0 = 2 6 i 6 = 9 < 7 + > u } L L L I I { L S L { &.G 2 2 p u r d s c x p 6 p L G i > : 2 G S I I u d i s H d G G 6 q 2 u L d G L H A G s G H z 2 p 7 5 G +.[ $.P L G I { 5.&.p 7 7 > < x L P x 7 U P 4 p K Z x p 5 I  .0.6.{ { #.L O.5.5.+.G x > d Z L I L G d I } H $.G x E 7 G L P L L I } d G L 8.G p a d 5.9.9.9.7.#.{ L 0.w.,.U a s d I L +.+.Z O.O.G P { L p 0 z G $.{  .9.6.#.{ 8.&.{ P s p <  .D.5.i.Z.9.A.w.8.9.Z.5.x 7 p z J d G L L P L +.d K +.Z r d U { L { &.{ I I #.L U L } G d J G { P L +.G Z &.&.{ I ) 6 u >.L { 7.#.N.{ G @.{ k.#.d c x } L G P I J p c Z { +.G i f G G I G d J G d ^ p P P 2 9 d G I G x x r 6 U d L U I > < z 0 G >.P s G L G x x } L p 7 t U I s G I I 5 U H z #.L f 6 7 6 x H U p 2 l U d U s G I d p 0 u I p } L L I G G G G  .{ r 4 2 2 x G d G p d d G d r G r r - 5 x x d c u 2 p H r c s > 9 : p I L d G u d f p x G 6 > u 0 i > 2 7 = u p 6 p p > @ @ @ 5 d p u 6 2 i > 6 d p 4 % > < 7 2 0 < > = @ @ = = > @ 4 @ @ O O @ @ > ",
"% % < > : > > = 2 > < 9 > 7 i i 6 7 7 @ > 2 7 i r 2 @ q @ : 2 > < 6 > > 7 = i u > q > 6 L L { S { Z I P G ..[ s d 6 9 i p G x p 5 r p a r d x 6 > > 7 P { Z G s G G s d G G x @ > > H G L U d G G I Z L L r u r 7 c L { +.Z { U L L { [ { l 9 a c p d G =.d 2 Z &.H d d d p d - &.5.{ L { #.#.{ {  .7.&.d 5 l c s G L I I J G I d I G - d > d +.I P O.I G P J L I U d u G 0.9.q.7.#.#.#...#.5.L s z u G I I Z G L L +.J x P I U r 6 d 6.5.#.5.7.#.O.{ { [ +.d 4 i  .).A.Z.9.A.p.7.#.9.A.K.,.c c 6 Z O.~ G G d } { L G G G c b U { =.L $.O.L L { O.+.I G } r G &.L L >.s G >.Z { $.s l b p +.{ 5.#.#.#.6.{ &.{ 2.0.s K x G +.G L +.L x c G U L 6 5 7 x I P L x G G p L Z L G d z d p U +.L L P x d I I G L K z = 0 Z L Z G G L I L x G P G 9 d L L d G U s G U I 2 +.L p < 8 > d d H s p d p d G x { G 5 N c p G U { Z P G x L I G  .L 7 i i p x s G d d f r d U S s d x p 6 l f H x s f H d p p A 7 i < p } L s G G t p x d s > O u p 2 r z 2 0 6 i 6 d d @ % > 9 i d d u r i 6 u 7 6 p > o @ > > 9 2 7 > > > : > @ > = = > > % % @ > > ",
"> % $ = 7 9 > 2 2 @ 9 > @ > > u u u 6 0 6 r p u p 5 4 > @ 0 f = : 9 > 2 6 6 r p 7 z @ 2 P { { { #.L L G [ 5.5.I x @ : > d H u = d d p 4 5 d d 0 7 = 6 G G d d x I d d d d l 7 9 > < z Z { G r G Z G d G P L A u 4 p L #.L { I I I U +.I +.d = 0 f d P d H u K L L L &.G u > 5 K { { { { #.#.L {  .5.{ +.5 u K p L I G d +.L G G J L G f i 0 c ,.L x I L L L H c d d l 7 U 8. . .5.{ { +.#.9.5.x.u d x G I +.{ { +.G G +.L { I +.x p G F.q.{ L ..L I #.#.q.&.x u 9  .+X).Z.9.9.(.5.5.k.9.#.L 2 z p { &.p Z U U { G I +.G d 9 = +.5.L U } { L x.$.L =.d 6 G G +.L { #.{ I +.&.{ G J u 0 d G #.{ 5.#.0.L 7.&.I  .9.5.p i z Z } ~ G L #.G U I K U K c a u G Z L I L { { L I I s c z 0 u H d d +.{ G H L I I G s 4 0 l x s G I d d G L d J G d m 7 x { L ~ c u U G J G U ~ p 7 a p d d G G K d x K t H G Z u > < u P { I L U G { L L S [ G : % 6 x x d d d x I s p G L H p 0 9 0 i r 0 r U d l r r p d > : @ p P d d d x H x Z d G 6 : < 4 z r d 7 9 > = 6 p r 7 : @ 7 6 2 6 7 7 a r r 6 6 @ : % + < 7 @ @ - p 7 > @ > @ + > @ @ > @ 9 O % > ",
"> @ @ > @ @ > 0 > % > O % % 9 2 6 > = 6 6 2 p - p u > > @ = 0 0 > 2 i 2 i : 0 u = % 9 7 d L [ L  .L L L +.6.L L G @ : i r 6 > 6 G G f 6 r G s > 9 : l G s p p K Z G G x d x u > 9 9 r G P G l U { d c x Z =.s = i 0 I { L { I L L S I L L K u p u p H d G x d J I d { +.r 9 q d +. ...{ #.#.6.{ #.#.#.+.6 p p d { I x L L d J G d d H f 9 7 d G G d P L I t P G I z = > G 8.5.5.O.{ I d  .q.0.{ 7 P x 5 U { L I [ L G L L { L U x G d #.{ 6.O.#.{ I { q.l.I p K p [ OXp.9.+X5.q.q.B.i.9.l.G > 6 z { $.U I G L L L G O.P p 9 6 {  .G J d L { +.s { >.< u H U L L L L x.+.L d &.+.^ l > x +.#.#.#.O. .O.&.{ L l.A.5.d 4 u I I d J U L G { L Z x u W p l U G #.+.G L L L x +.P d 2 i p c G G L [ d d d P L L 5 4 9 K c G $.G G K G L G +.G 5 a 6 d O.Z G 6 G +.G G P s G u = 6 s d x s d d G H d d d G d 2 i a - G L } I s G I I d +.&.r > 9 7 p d G d l d d d d G G K = @ u d 2 d d r d r u u d x 7 = z > x U d H s G d d s G I i 7 @ > c 2 p u > < = a p u > > @ u u 6 2 0 > 7 6 u 2 2 < $ < % 4 7 @ @ < 9 > = @ = @ 4 4 > @ @ @ 7 @ = @ ",
"> > : q @ % > > : : < @ @ @ > > 9 < 2 r 2 > 6 l 0 p 2 > 9 @ > i 2 2 p 7 : > > 9 0 > > i L L O.L I I { { [ G G &.p > < 4 f i 7 u f s d c r d G > > : 2 K I s x x p r l s d U x 6 = > G H s d s G } i d d s x a > 6 6 U U L G } I p #.#.Z +.U x r r r G G x I s H c x Z +.x 0 z 2 $.+.{ #.0.{ #.{ &.I ..8.d 6 i } I L G G L A L d } S d K z < x G d I I L L U I O.=.c 0 a d 9.q. .{ d ~ O.{ 9.{ U d d p p +.L { I I L I P I L I p 0 u =.+.L 7.6.#.$.#. .{ L I d s i 2.D.9.9.A.B. . .q.9.A.l.s 4 i q G { d G L { p G U O.J x c r L { ..#.#.{ &.I G I I I J x G I #.{ H } #.&.O.P P I d d G I { #.6.%.O.%.5. .{  .q.7.s < d +.O.G Z s U +.G +.+.U K u u U I L L I G G J L H G I G 6 0 U I L J J L G G d L L ;.x i > d Z d G G d d P L I P x l i d d P I L G =.G s G G L G K d d u p P I G d x p x G u G P > a 9 5 +.L I G L $.{ L L { L u 0 p z 2 p G d p d d Z G d z 5 > : 9 H Z x G r u f u s s G 4 7 7 2 f U I s G d d G L d d 7 > 6 p i 7 4 6 4 i z u p p > % % i p d 7 0 6 u 6 2 6 p z + % > > u > % > < 2 4 > > > 2 6 7 @ % O > > 7 : ",
"> @ @ @ O @ $ @ % @ @ @ @ O > a = 7 7 i 0 7 0 7 = 7 0 = > < p 5 d 2 7 6 > 9 7 7 7 < > = I { { I I L L 9.#.d L 6.Z 9 @ 9 d 6 a p u d u p r G G a q > @ G d L G x s t x l s G s 7 9 u x s G d d x d l G U P d > < i 7 r L I { L G d #.[ [ x.s 5 p p u G G d { I G 2 G x G d 6 r r ~ {  .{ L L L #.#.+.#.#.x 9 7 d L L P G G I P Z G +.d c 0 6 U } } { G G L +.d L L t 0 u P w.5.w.G O.} +.#.w.#.U s i i x G I } G x I L I $.I { 2 p r G {  .3.#.0.#.5.0.[ } &.L l p [ p.9.5.i.N.0.5.N.N.i.9.Z T a 0 { G P G I +.K I G J d - z p x { L #.{ *.L I +.I { L d c p =.{ #.0 d { { L { { &.L K 6 d O. .{ #.&.#.#.0.8. .N.0.d z G O.L } P x d G +.Z L L r 0 x d G I s G U G L U u G L d u p G { +.G x d G H U L L L u 6 i d G G s c G U Z L G G d f p d d L L L L L L d x d I { p p 4 p x P G J H r d c 6 d x I f z > d L I L { L { I G +.[ G d d 7 z 6 p Z d G x d U Z s d d c q = r G f d 2 f s u f p l > 0 9 @ r d d G d d s u P d c > : r u r p > 7 u 6 p 6 f > % % @ u u r 6 2 7 6 p 6 7 r 2 > < % @ u > > > % 4 2 2 2 > 2 4 = O % > > 2 > = ",
"< : < : > : > < 6 > % = : @ : 9 9 7 f p 6 u i @ = i = @ @ > 7 6 x > i i = 6 p p c > 7 @ =.&.[  .[ Z { { [ { #.L d @ : > i p s - p p 6 p x H u > : < 7 d U r L L H d c t d H G 6 7 6 G G I I I s p d I Z L I l 6 9 > +.8.[  .I L L #. .[ r.H = 0 H p f G I L =.G Z G G x 6 u p H I 8.#.L G { 5. . .#.j.G r c u x G G G Z } G ~ L L { G r c 9 d G L x l P Z L U G d d f i G 0.0.#.#. .{ v.L q.A.L 7 i d s G +.I G G L G Z } I +.x i i G  .p. .L 5.2.5.7.A.9.#.I p 8 5.).p.q.S.^.i.5.9.a.'.N.d i 2 G I I ~ ^ s s L L L $.d 9 a p J U { L S +.u p { I >.d u l c J }  .L G G G #.#.L +.I d z x 8.9.5.#.6.{  .q.5.N.A.I d 0 f H L L $.I H G L d d H c z 6 x G x d p x G G +.Z I U l c d G +.+.G } $.{ p G d #.{ > 0 c x { L I G G K d { L $.H - 9 6 f J O.[ L L P U H P G I p z z > s G x d x d G p u u d I 4 + 4 f Z L { { I I L { L d { I - 9 < 2 P Z I G d d s c p d x 2 7 > > 6 p l p d z d d G G > : 7 x Z d G G G x x G G s G i @ : 0 G d u = 2 p 6 u 6 r > @ % : x p d f u d u d d d = > % @ > 0 7 > 0 < > 4 9 > % @ > 9 9 + + o > > + ",
"> < > > o : @ = > @ + @ @ 9 < + 2 > 2 6 u 2 q 4 9 q > O @ : > < - 7 = 6 7 = 2 c 5 6 9 > 6 I #.8.&.G P { 6.S { G - > > > r s G d p 6 0 2 x d = 9 : q 2 l J x x +.s H H 5 c x 6 i 0 z 6 U I G G G c d P G -.d 0 2 i 4 p { { L $.O...L { +.G p < > f p 5 G U d p x U K G d l 0 6 p r { #.8.G I v.8.5.L d K d u d s G x U G G I G P U U G u c 7 6 I ~ p 5 U I d d G G l p 0 s } #.5. .6.O.#.#.5.#.U : d K d p G G G G I +.I I L G H 7 0 G F.#.y.&.#.w.0.w.9.{.{ G p > #.@XA.9.+Xi.q.A.A.Z.|.#.6 c f p x I p G } U G G { L 6 i z 6 d G ..r.{ L H U #.r.d d l u i u I r.G K U I O.6.I U G f l 2 $.0.w.#.$.6.#.0.9.H.#.d x x p r =.G G x d G G U ~ p p d d H d G J J I L H I G L p 0 7 6 G I +.d L { { A U G L H l 0 p 5 Z } L L G d I L { } 5 p a = 0 U G { +.G p d 2 d x p u 7 p u d s d U L d 2 6 T H 7 x > a 7 2 s { L G O.O.L { { I +.s 9 0 9 > U Z Z P d d c r J P b = 4 = p z = 7 c u 2 p s H p > 9 = c f p I L G G d G G s d 2 > 4 7 d 5 r r d l 6 u 6 l > % @ @ p f p 6 u d r 6 G G > 1 @ @ > 7 < 2 < > > @ > = > @ > < > + @ @ < > + ",
"= @ > @ @ > % > 9 > @ q @ @ % > > > = > % @ @ : 0 @ > + q 9 < > @ < + < = + > f a > : % 2 - r i z l u x l 6 i > 7 9 > 0 < 4 6 z u u > 2 - 7 p 0 7 > > u = r 2 u 5 i 0 H i > 0 i 4 0 7 7 0 i 6 u i 6 i d p > 7 9 p 7 7 u s d x G G u s G 6 i i 7 u p d f 6 7 0 0 p p p r x i u r p G G x G x I x } i 2 6 d l d 2 u x c d p u d 6 r p 0 0 u > 0 G =.H K c u d u U x s s 6 r x L { d U G G P x s d 9 x l p p l G U d c U L K x G u 6 z 5 G I +.d s I +.$.L +.u u p c p G l.w.k.0.8.y.&.{ *.d H x l c x G p G -.K G G G p ~ G J x 6 G s G U G G I d G d l i 9 c x K G d d x =.G G d d 6 u p p u b s K I I O.P G &.P d u 6 l H G G d i c c d d } x f x p H G I J x d Z x d p d d x 7 p d s 5 d K G Z U x G c u u l 6 r d b H s L I G G x K i i d i f G p G H d d x d d z 6 > u u p s d K s d U d 7 c P d x f p > < K U d G G U =.t d I u 6 0 > 9 d x } d K G G H s p 5 % q a 0 > 9 9 7 z u u p = 2 l f 7 < > 0 H G G s G s d p c p 0 0 = > 0 i r f p p 6 2 u u 7 9 @ @ 7 0 6 u p 6 @ > 6 6 @ : 4 < : @ > = > = > @ > > > : @ @ @ > 9 4 = @ @ ",
"= @ : = % @ > @ @ = @ @ % @ % 9 < @ % , % @ < @ @ @ 7 < = 7 > > = q @ < < : = < @ = > : = > > @ O > 2 @ @ : @ 9 u z p > > : = 7 p l p i 0 9 0 > z 4 @ , 7 > > = z @ 0 = = 2 < u : > 7 a @ > 4 p 2 > 9 < q < 9 6 u > j 0 : 9 > 4 0 8 4 7 > 4 l 0 7 i 6 9 < 4 l 0 2 b p p b 9 p l c i a @ a u u 7 2 9 7 6 p l K < p 7 u i 9 r p p > i p 7 p c 0 > 6 0 i > > c 6 u 2 T d 2 p d x s 6 z 7 = i > a c 7 c 5 d i 7 K p l 6 > 0 d p p p z z d c 7 > f d p 2 u r f p i c p > u x p d p d r u 0 6 G G d c 7 K x 9 r u d d p 7 u -.G d H u x a i 7 x d c a p K p 7 p r x l 6 H K 5 p p p c i z d d E d > 7 u x 2 u x u 6 7 l T f s x G f d K 0 6 z l G d d d c d p f u l d p 7 a 0 G G ) f 2 d u c 6 0 7 6 p r r p 6 0 u l l u = c x x d 7 2 7 u 9 > d H > p x i > 7 7 l K i H 7 9 c c u 6 l c u r 6 l > 7 u f 6 p p 7 p p 5 5 9 4 5 x 2 p f 0 < = 9 z > 2 u p 9 = r x u > : > h > 6 7 = > < 7 6 0 9 0 > 6 5 9 < + > u d r p u u u 7 > = 9 u + @ > > 6 6 = p f 6 0 2 @ > > > = > @ > = > @ : + + @ @ 9 = o o % @ = : @ % > @ @ = @ @ @ O < 2 > @ = ",
"> = O % O o @ = > @ < > % : @ @ > = > @ O @ > > @ = , 9 + @ > @ > > > @ < @ @ 9 > > > 9 @ 9 : % > 9 9 = @ : > 9 @ 4 < > > 4 9 > 9 2 6 l i > : > > i u 7 > > 6 < 6 @ z > 7 i i 2 6 7 a 0 9 4 9 z z 4 7 > < : 6 l u a > 2 l z = 0 p = i 9 7 l u 7 p p > i > 7 l u 7 4 u 6 p 2 = d i < 7 z f > z u l i f u i r u 0 K b 0 a 7 M 0 0 z a z l p p z a 0 9 i 4 i T p < 7 : 0 H K x 0 p a b z < K p < 0 9 p f U ) 7 p p c a l u p 7 9 H c 6 6 x H p 6 ) d 0 c 7 c l i u i u x K i p u d f c l p p K d p i f u > p p 5 l 6 4 < x p 5 l K d 9 i z a l i j r c 6 d ) d l c T c p l 7 c l i i l f l x c x p c H p H d x ) r i u c u d z 0 c l > z 0 u l p u 0 6 2 f u 4 i d i c p d x x p 5 K u 7 9 i a H c r 7 > f d d r 0 6 l p d p 7 7 l > 0 c i p c l 7 7 z 7 7 p 2 9 0 > u z a 2 2 p p p i > 9 7 z i > 7 u l 2 > > i 5 c 0 7 9 > z 0 i = 9 i 7 9 > a p 0 > 9 > 2 < > 9 a z 9 @ > i > : i 9 9 > 4 q 2 9 > > > > < < < = 2 @ = < > @ 4 < a 9 = > > < a > @ > = 0 < @ @ = > @ > 4 > @ 7 @ : @ > @ > > > @ @ @ % @ 0 @ > % > % % > @ O O @ = = + > ",
"> < > > > > : 9 6 < > O > = % 4 = > 7 > > > > < > > : : : < 0 9 < > > > > 6 7 7 z > 7 > 4 < > 9 2 7 : > 0 0 6 7 = 4 7 z 9 = 0 > - > = - 5 9 > @ % 7 6 9 : = p r d @ 2 z p 6 u > 7 9 0 6 l 2 2 + u > u 7 l > u r a 7 0 p H c i c p 6 s p p f 0 p p i 2 p p d 2 d P p 7 f p u 6 p p l d r 6 @ 0 p s s d l 6 a a p p 5 4 6 r f < 6 > p x 2 l l r p p 7 2 s s d 7 9 z 0 0 d d 6 0 u 5 5 s r s G d 0 7 H d 5 f 6 0 6 u u 7 0 p 0 p p p K l s d f r p d i l u 2 p u c z x u p 0 l d T p d G U G p l p c x x M K U d p f p p u c u i f x r l d u 0 p f p p c l x 0 p d p 7 6 c 6 u r p d d d z d d p G G u d p r G d p p 5 x u c < < f r c u 7 6 u u d 9 p c U x d l c 0 H G d l 0 0 c d c x 0 > p Z d d u p x d c d 2 d x x d l > = p a u p p p f 0 d c 6 d K u z 9 > i 7 7 0 9 u l p 7 > @ 4 = 2 u 0 > i l > q > 0 p 6 4 > 9 4 < = i > > p z 6 p 7 p a 0 > > > > < 7 6 f 6 6 z i = 7 0 6 6 > + 6 u 9 : 2 9 6 = 4 7 7 > % % : > 0 9 : < 7 2 0 > @ @ > % > 9 < = @ > : % 2 = @ > > @ < > 7 > @ > > @ @ = @ < > + > = = 7 @ @ = = % @ + % @ @ > ",
"> < : > = p 4 = 4 4 : > @ = = > > 0 i > 4 9 > 6 7 @ @ % > % + > > > 9 f 2 a i i > = < @ 0 i 6 p 9 > f p 5 a 0 > > : @ = a U G J d H U U { P U 2 9 7 6 p d u l d G s s H 5 f f > u 7 = p p p s G U L L H p H l 7 z > K t Z I d U L L I d f 7 u c u x G U G G x G U L H u 2 7 4 p p G +.I f H d G $.G x x u 6 > p +.L #.{ { L L G G d s p c 6 = G L I L +.L Z G I d z z l d s K P $.6.j.8.{ { +.G 9 d l i 6 K G P G ^ G s U x U d i c p s d G U 6 c G s G K u r c f x c p f c t G x d d x d p a 6 f L G H s d U s p s G d c i 6 d 8.L $.#.{ y...S d d ) l p d H G L G U L { G O.J l d f c f H I P G d H d x G s x G H K i l d +.$.G { L L { x p H z z G L O.L G G d s Z G d 6 a p > K d x U G L Z G L K x 5 2 z 6 x s G x 0 d l f P x 5 4 6 d d x d d x x 5 p x i l d d u 6 9 > 5 d K G G d s u z G u p : 2 9 0 7 0 a > = 9 = a p 7 9 6 7 7 N 6 2 6 2 7 9 0 u z f 2 6 < 8 7 6 r f 9 c d ~ I G d u > > p 4 @ 7 s d p 9 > 6 u r > = + % > > > 4 > 7 > @ 7 = > @ @ > @ 7 > 7 : : = > 7 7 q 7 @ @ @ > u d f = 6 0 2 p 2 > + + 4 @ + @ @ > O @ ",
"< % < @ 2 f u 2 < = 9 @ % = 7 > @ p u 2 2 > 6 i i 4 > @ @ = = z : 7 6 p r > 2 > 0 > + : 9 6 a s 0 4 6 G d 0 < < 7 > < @ p } Z S L Z L L [ { [ d 0 2 > i x f p x d { +.x d f d i 4 7 u T 6 c c L L  .[ d G K 6 = K u p H A L { G G G { E 2 0 z l i L L G p G d d G 5.#.x i < < 0 f L G P G P L { } 6 G H d p u I #.0.9.9.9.0.w.#.+.} G = a < p ,.#.2. .#.#.8.O.6.[ 5 a i 6 G +.&.[  .5.5.5.#.$.} 7 p p q l } I I Z &.L Z P { { f x u 7 l x x G r K P { L x c l u a c d x I U K J P +.$.x c i d 6 G &.L L +.I L $.G K c d p z d L l.0.7.q.S.i.a.B.L d r c l d U $.$.#.5.#.q.#.G.+.0 < c l 2 u G L { x +.L O.U G K Z K i 9 G l.N.9.&.6.0.0.#.x i d c 2 G 0.5.{ r.} 8.=.U H J l 7 : > 7 G G G P I P &.{ L U < 4 u c f d G x d G G d Z p z = a x d p d x d H x p p x J U p x i @ > p G P Z I L I d d L U u > 9 d i 0 i i a i 0 p Z x 6 > 7 q 2 2 r c H i 0 l p d A d c < < > > i H d p u d [  .G x l q 0 4 + j 0 G +.l l 2 r f 6 0 : 8 > % q 0 u f a @ = 4 i 0 @ @ % i 2 : > = > > @ > % @ @ @ @ @ 6 d d A d d r x s p 6 4 0 > + @ % @ 7 @ @ ",
"@ @ @ > > = 4 @ @ > = > @ % > 0 > > # : > 6 4 = r > % @ > 7 < 6 7 H s s f 4 7 p 5 7 @ > u 6 > q a p 6 > 0 f d x @ % , 7 Z x c x d G c K G G +.9 > % > K p x 2 p u u r H d u 4 > q 7 u G G G G L Z G d d A p d 0 2 p I I G L +.d I } I ..Z u p d p d c x s d s I G d G x 6 i 7 H J d J x G O.{ d { P L Z s q 2 [ q.9.#.{ { { 5.9.a.N.S p z 0 G [ #.L +.{ #.I G { 9.c 4 & 7  .#.O.L 8.5.{ &.Z O.$.p p 9 d G L U x x L I L t P G u f 2 6 } I L s G L +.{ L G { { u f u s _ d x K 9 p u u x d d q i f L +.G c d x H G U U G G i 7 O.0.9.l.#.#.5.5.q.A.P 6 K A d G #.0.{ #.l.{ { 8.{ #.G l p x U d d A L >.x L L $.I s x d 6 =.6.5.N. .9.#.0.i.B.L 7 p G U { { 0.{  .{  .#.#.L O.U p i G L #.0.9.5.#.{ L #. .L 6 6 u p x U I P Z G G O.{ $.s = 7 6 G L G r G P s G G l { P r i 7 d L ..Z { d U Z L { S [ $.> i a > 0 H d d G s G U G d p 6 9 0 9 = c G d l i 6 p x s [ 0 6 i 6 0 c G L r p u 5 s p d p % : 4 c f 6 G I Z G L G G I i p O q x 2 9 4 u p 0 > p 6 $ $ % & 5 p > 2 p 2 < 4 u r > % % o 2 G f s x x t r 5 s d p < @ + > > > % = = ",
"> > > > = 9 > % : 9 6 > @ @ + i > 7 9 > @ 9 6 < p 2 = @ : @ 9 6 7 r r d f > = r 6 = @ > 0 f i = p r u 6 2 5 d l > @ @ 0 U s s H L s f L Z I d 7 = > = p u s d d d u 6 p s x 6 = < : 6 I G s G G G L I p s H f p a u x G } L d G +.S L O.+.s l 0 u d d d p H d J s f I G p < 0 u G L U G d +.{ Z L I O.G 6 i p ,. .#. .{ 0.#.{ 9.p.q.L > 4 < s &...{ { ..L { L O.7.L u 9 5 &.{ G I S #.{ L .. .{ d 5 6 p U K G G G G Z I I P P x s i x I x G I P L I J I L G H i H p f G Z G s d U G d +.{ u 4 i x G } G x d x G s Z L d c 0 p #.#.0.#.I { #.9.#.#.I r H s G O.I  .&. .#.L  .6.{ #.s z 7 x G G U x p G G x ~ G I A p x 5 [ 0.9.7.6.5.9.5. .K.L u < x G { 6.{ L #.{ { { &.{ I x 4 6 d { O.[ 5.{ I { &.{ #.I r a 7 d J L L Z U P Z L L { H u i p d Z P H d s x f ) 5 G G p 4 7 l L I Z U G G Z I L U L L u 2 0 6 d d d d G G p d G d G r 4 = 7 c 6 x p x 6 u p s f J d 0 7 6 6 u u H p r d p x f l 6 7 @ @ a f r s d L s G s G x 2 7 @ 6 6 2 2 9 > 0 0 2 5 q + @ < O 6 9 2 0 7 9 > + p 6 9 @ = % u r s p 6 s z r p p r d 4 + @ @ @ @ @ = > ",
"2 > : @ > > @ : = > > > @ @ > > > 0 0 6 < % = 4 p f 7 O O < > 6 u 7 > r p u r r u 6 2 > i p f r 6 d r d d f r x 6 9 @ > p s G x G G d A Z Z G p @ 0 K 0 p 6 H p P z d i u G p > < < u Z G d J G 6 P +.x P U c > 0 i G G G P d G d L { L { u 6 i = G L s d s d K x x S Z l 4 9 s P I P d s J L d d I { x 6 7 r O.{ 5. .5.7.#.#.0.6.q.{ 6 x l G { { L r. .#.0.#.#.{ L s r f L L { #.d } P G #.#.L d r p l J U G U I P d K x G I d u > d H G d L G G d d L } l @ 9 9 6 G +.L x G O.{ G G { I x l u H d G x L ~ L G I S O.p 9 7 d v.#.I { 8.{ #.5.5.8.+.G c 0 J #.L 7.O. .G L #.7.9.F.d 4 1 7 I &.G P c d G d x L #.G i q 5 P.).q.5.w.9.7. .9.A.L f > > x #.#.{ #.#.#.G L { { { x 9 u d I #.[ O.d I { #.I +.L = q 9 c G G p x L I L I L I u d 9 6 G X.d K d U d 2 s G r x p > z u d L G K U G I L s l P d r 4 a d s 5 p c c x p x d f d c = = > K p d u 6 d x d 5 r p K > 6 l r d 9 7 p G G x p s c = x l > 4 H s p 6 K u x p G u 5 > < 7 < 6 2 6 > < 2 r > 9 7 9 4 = @ @ > 7 + + : > u l 7 O > = 5 d p s - p 0 d H d - s p @ @ @ > @ < 2 > ",
"2 : + @ = > > 7 > > > > @ + > > 7 < 4 7 : > > i > 0 < @ @ < 7 6 4 7 i 6 > i p r 6 7 7 > u 2 l f > u d u 5 p 6 r 2 2 7 = 6 G d u G L d f G G ^ 6 > 7 d d s 6 r r d u 6 p x s u = : = x { G G U U x G s L G d d > 0 > G G G G G L L L { [ L l = 2 6 d d u H H s s G H G G x 4 > P G d Z } L Z G L G { I r 5 l 6 L  .7.5.0. .#.{  . .0.I 0 6 6 P  .5. .L { 5. .5.{ { K u c l G I L r.I x A P O.#.P 2 p 6 c x L x x P U r G G x I H p d K d G d G +.L L J G d c p 0 p d H { d G J L G G G Z P G x l f U G p G I I s L { ~ l i 7 t { k.{ #.#.#.7.5. .6.#.s 6 p L r.[ &.I 6.5.{ 6.#.#.#.d i 9 = { { Z Z x G L ! H d { G p > r l.N.9.9. .q.5.#.w.B.{ 5 0 6 $.{ { { { L I { L L L { G 6 c x L [ ..L G { { O.{ #.{ 6 0 4 r P G x K G L L I #.L s u i 7 G { Z d r U G J p +.x d u 7 6 6 U L d d Z I I Z G r I G 5 p 0 p d z r r s G l r r p x d = 4 @ u d d i 2 U S s r l r r 2 9 r d G u i x d G G f p 5 i u 0 > p x r x p l d l 5 d x 7 : : < 7 4 0 l u = 6 z > > < > = 0 9 > 7 9 > > 7 7 2 = > : @ % 6 Z i r r p d 5 p p 5 i p > @ O % @ = 4 @ ",
"> % < 4 > > 4 6 4 = + % + + > @ < 7 = 5 = % 7 6 > @ @ @ 4 4 6 2 2 7 6 > > 7 0 f 2 = < < > 6 0 2 7 4 6 p 2 6 r l 0 > 4 = z d d H s G U d x I G 7 0 > + c G d = z p 4 - s U r > 9 4 2 p I Z I d d L A d L S J x 7 > 7 G I { I L { $.I { ..+.f : i u d G p d { G Z d K d p c 7 7 x G I d L S } Z s Z J G H r M < } 5.5.5.#.{ #.9.5.5.9.6.p 6 6 p L 5.#.L I {  .{ 5.{ p 0 a p =.d G U G G L Z +.L P u H p G d G I L s L } P P P G r c > p +.L G H G G } G d d I d f r K d p d G G 6 p c d G d p l p c +.G G J L s d P +.s p K z l &.9.9.9. .0.#.[ 5.#.L s p x S 8.{ { L { %.{ &.L #.{ G d d G { G I d P I d P G x O.P d x s #.p.| N.w.0.w.#.5.#.6.s K d U G I #.#.{ { #.{ L 6.$.d u : u O.{ [ G I 6.{ x { 0.[ d i G s P L G U U S L L L } G 6 a > p G I x p d G G r d J G 6 a a 2 d L I +.L L I P &.O.L U 0 > = > c p 0 x d d p d u G i 5 > i > l d d f 2 d s G p p G s 6 q = G { r f x d p u u s K r = > = s G d d p r 2 H G Z x > @ 2 a > > a 2 u p = > p u = O @ = d d r 7 > > > u > > q > + O 4 d d p 2 p d s x d 6 9 2 = @ O O = > @ @ ",
"% > > > > @ > 9 @ > 4 % % @ 9 > = i > @ q 7 5 r < 9 > > > 7 i i 2 > 2 6 p < 2 p 6 @ % @ 9 i = = > p 6 2 0 f p c 5 = 9 7 7 r s d p G d p d G s 4 @ : > u x f 7 6 p c t G G i < 2 6 z d U G L G s L G P G G +.l 7 9 7 d I L I d I L s } L L d 0 0 > p U U d d L G G s G H d 6 z p l x G U { L U H Z L L f a < > 8.9.#.{ L &.#.{ 0.w.9.L l 2 < d I  . .I L +.#. .{ #.p p 9 p J G U s L L I L I d U s 0 r d J P G H d d P s Z G G x U : r I G P d l d } L G U G s c p L K c c d c 0 p K s G s c z < 7 d Z Z H G G U +.G G K f l d #.2.7.5.{  .#. .#.6.U s p p S { { { { 8.#.{ +.{ #.+.x p d G =.d U P L $.G J U d G Z s x d } A.N.B.0.5. .w.5.w.L s u d G I } [ 0.L ..{ #.{ { { G 0 i r L ..{ { { L { G G #.{ d i H G L d d s G +.I Z S $.d 7 9 2 d d J p d d d U x d Z G 7 4 i d G P G G d L G d s } { P > > q 4 p 6 z x d x 6 x d G i p f p 9 0 r x x r r p x 6 d d d > > 2 d P p s r s d p s d x u 9 < 0 l J d s 6 p r d d d u 0 > @ 2 > > 7 2 r p : > p p @ , @ > d p > > > 7 > 7 7 @ @ @ > + > 4 x x u i p p r p = 6 i > O % @ % > @ > ",
"> % @ @ : : > % @ 7 i O % % > > = i 7 = @ r i 5 4 p > 4 > 2 p 2 > > > u u r u 7 7 @ > > a c 2 7 q p u 2 i s 6 4 7 9 > 7 p s G Z s x s G Z s c t 7 @ i c = 2 z p 6 x s r > 6 7 7 i l r d I G G L I G G Z K d 6 i q 2 s L L L P G L L I G U I p > @ i H P d p K d d G J G u p z 6 u I H u K u d d G [ #.p 2 : d 5.9. .&.#.{ O.[ 5.7.9.&.6 q 2 G +.{ { >.{ +.} G { B.G d c f J { } L #.{ P U G I ,.G < 0 6 G P d G d } G s U G G K s a 0 i G U x x G p G I ~ 6 7 a u G G p K U d x 7 G G } U p 7 9 p G G d G G G H s L I p 2 i u #.9.&.O.{ O...{ +.+.+.u i u L &.L +.5.0.[ { U I  .l.G c f d +.I U d Z >.P x L L L H u u 2 &.0.9.7. .B.#.0.{ 8.{ u > l L { &.{ I { #.I 8.P Z J p p u G L } { [ +.L [ I 6.G I x p f c J L I G G +.L } L L G p d f G p u f H d s d K H s d u > 7 5 J X.G G G d G s d d G d 6 z > u x H f c f u d H f d x 5 p f r z 7 6 d d r 6 p p p s 6 = < > r p u d G J 7 p U Z p p > > @ u d G s r u f p 7 p p > O % u p i 2 2 6 0 < > 6 p = , @ % 0 0 4 @ 4 > @ > = 0 = > 9 > = 0 f d f d > 9 > > r r 6 > O O z > @ = 0 ",
": O @ : 9 > O % > 6 > O O : > > r 2 0 9 = 0 = = > 5 > + : > = a i u 5 4 6 r r u i @ : > 7 u 7 0 = r 0 7 p 5 x 0 > % < > f d Z G 6 7 p Z A f c 2 i 2 7 i u p 6 d p 2 i i 0 x x 7 2 2 p d s Z I P d x x Z Z d u > 4 2 c L L I L d P I I { +.x d > > 7 d I G s p P r G Z G d = 9 > H L G r d c G I } 5.I i 4 i d { p.2. .{ 5.#. .{ ..9.O.> q 2 d { 0.#.L L #.L G { #.J 0 u x s G I I &.L Z G +.S G G l u x x d G G d G G H 6 G U p p 7 2 x G G d G d G p G L z : 0 = G G d t P L G t P Z G G p 0 p G L G U G d s H d +.G d l i r #.q.L L 0.#.L #.{ { G u 0 u P +.L I q.9.6.{ L { 6.#.s p 7 p G d L { d G G x G } I x p d 5 &.p.5.0.L N.[ 8.5.q.{ 6 > p I { { G } { { { G L +.H p c = G I Z G I #.L I { O.L d H r 2 r x I G L { Z Z { G I d > 6 p x G p d H s x d p d G d s u 4 0 x Z L J d L d U G I x L 5 6 > 7 x x s s d d p x p u x d 0 p r f x s d s x r p u p H z < 4 2 > c u G d x 7 r G s 6 u > : = p d G p r d d 6 i c x > , > 2 r p a < 7 9 2 4 2 > < @ @ @ 0 @ 6 > @ % @ @ < 6 7 @ + @ 7 c 6 2 s 0 > 0 i 2 r p 2 > o @ 9 > = 7 2 ",
"> = : 4 > > @ = q % + 9 < @ O 7 r < a = 2 6 2 7 6 > > @ > : @ 6 2 < 9 u r 0 2 7 9 > 9 > @ > 0 f s G d 7 c f p u < @ > 7 > a p K 6 p H G x s l d > = > = l d r d z r H f f G p 7 > 7 i } I I L d L d Z L G =.f @ > u K G Z { { L #.L { 5.8.6 > 4 2 6 H U G 6 d G I u d 6 < H 5 f p J L d P L { Z #.U s r 4 q 7 d &.0.5. .{ 5. . .9.y.I 6 z 6 d $.5.L G  .9.#.[ #.%.= > z x G K d P G P I I G s P x i u 6 T K d A I I G x s L L s x a i d x L I } P +.Z L U c > i i Z G G U G L L G x p U x l 6 c u J J p u I } { p d d r c i 9 +.%.5.#.#.O.L 0.9.v.d q P L p p I { 2.5.5. .5.7.#.{ u p r H G S +.L L d d x G d K p s c 0 I K.S./.i.O.{ N.).0.G u 0 r d O.{ { O.#.{  .G G G { G 4 d r u P L +.L L G { { O.G 6 z 9 6 K Z { } I P G L { +.= 6 c p p d x G G G s G L I L G 5 2 9 > f L d s I L d s Z L G d > > a p s d x d G d x s d G l 6 > @ 6 L { d d r x G K d d d H 0 7 < > x x r P d s p x x d = + > a p r 6 p H d p p 5 s d > q < = 7 u u 6 6 = u f = 0 > @ : @ u 2 < 9 = = 2 > 7 0 @ @ , @ 4 r 6 6 p r 0 0 s 6 = 9 > @ @ + 2 @ 0 0 6 ",
"% % > % > > @ @ > @ % > @ % @ < = # % @ > 7 : : > > > < > @ > 7 2 + = 0 > > < > < 7 > 4 @ @ > 2 0 p 2 9 0 2 l 0 9 = @ 9 @ O > = 9 > 2 u 7 5 > > < @ 9 7 r l l u i r d p p p 2 7 0 9 > s L I d s U s d G G p 6 9 i 2 5 x L } P G { } { { G > % > i u d s d l d x G l z a i d f u z K G G G G P d { 2 l f > z z > p +.y.0.G L +.L { L s d u 4 f d { } L ..#.&.&.+.L 2 a i 9 2 l T d P I L { } U G H p i 0 7 z r J d I P J U +.G f p 0 p s G G G L d L G d H d 6 l 5 x K x G s I J G f d =.G > u d r d K P G G G G U r H p p i 0 s &.7.#.{ I 5.7.0.Z 2 6 p U c x G L { &.8.8. .#.{ L p d s G U U P d J x G G G U d i s x 2 d 0.5.q.l.#.#.5.5...G u c 6 H G I I { I G U G G U G G > x p > p P L } p H I U Z x 6 i > > u d G r U x d Z L f = 4 l r d H s G d G G 6 G U G d 7 2 c a > K H d L x d U U } d u 9 6 0 6 x u t G =.5 r c G d d > @ > u G U d 6 p x s G P r r > = 4 9 i 5 p l x x K d p u i 9 2 = 4 > x p r p - p p i H s 7 > > 7 6 6 7 2 > 9 2 6 2 z > @ @ @ 6 0 > + > 7 f = @ 4 : @ @ > = 2 0 p u 7 9 5 c d < > o @ O @ > @ = i 0 ",
"> @ = = % + O @ @ 9 > % @ @ @ @ @ O @ 9 2 @ % @ > > > % @ : 9 > 7 > > > @ > + 4 < @ < > 4 < 9 % > O 4 = = > 7 > > < 7 > : i i : > i 2 7 = = 9 > q 2 u 6 = = < < 9 2 < 7 7 > 4 7 9 = > = i = > p 2 6 p = x 5 6 7 i > 0 2 l 6 = 0 @ > = 2 5 p i 9 4 0 u 0 7 9 6 u p < 9 i 2 5 7 2 p > 6 7 6 2 u s 5 l c p 6 p 0 7 6 7 p = p 2 u H 6 6 x = 2 i 6 c p u = 2 l d 2 6 d l H p 4 9 > f u p u 5 u u c u x p r u i 7 6 l l 6 2 d d u d 5 0 9 p d x p p 0 p p d p l 6 2 K f p l a i l u u p d d c r c l 0 7 x s x ) l r s u u d l r p p d d 6 P f s G x p 7 K d i 5 6 G H s > d d s p x I p p l x p 2 7 G d p E G d 6 c u 0 f p l 0 u d 6 s s L d 5 u l x p 6 f d d p d u r u d d d r r z f 9 i 6 p p u 2 i r r 7 u p u i i p G p = r l p 9 r 0 6 l 0 > 2 d p 5 7 p r 0 6 6 s d 9 7 6 p 2 = d p 6 6 r r 5 = 5 r 7 i > 0 i c 6 6 9 > 0 i 0 = r f u 2 0 > u p u l 7 = p 2 > p > 2 9 7 7 > = a = @ @ u 7 7 2 7 0 > + 6 f u = 7 u < @ > i 7 7 @ > i 6 2 i 7 : = > 7 > > @ : % > > = > = % @ > = > = @ @ @ > @ + > 2 @ o > 7 @ + % + % + > > o @ @ @ > ",
"> > @ < > > @ > @ < @ @ 1 @ > > z > > > = @ @ @ % : > + @ @ @ @ = 8 < > @ : = 2 : % > < 6 > @ + : > 9 @ 9 q > @ 7 > 4 = 2 s 2 4 4 q < 0 > > 9 > 8 < > r z + + @ + > 4 > 9 q > < > > > 9 9 < 4 0 : l l 2 > 7 z 0 9 > a i < @ < q 9 > : 0 i 5 5 9 = p u < 4 z u 7 i l i > 2 i 0 9 6 z 0 > 7 q = 4 : d p p c 6 u 6 0 > q , > a i p > 2 z T p 2 6 0 4 9 i 4 0 0 > > d d r 7 9 9 6 c z > z a 7 i p i 7 l r u u u p l l 7 z p 5 7 0 0 z p u < H c i z 2 p p p T p p p p z 6 = q 7 > p p u x 7 = H c 7 6 G K 6 i i u 4 T x x c p ! x c c , 7 p c a = q a K p 9 z i x x K q q a r 9 2 d H c p p u 9 a f l 7 2 d H l u p i u a z p 7 N q > 7 K r 9 i 7 K x u 0 c 7 q 0 i f p u r K p 0 i 6 6 0 i 9 4 c 7 u z p 4 r c u p u p l = q a 6 u z 9 i c f > q 9 u l i i 7 i > 9 a p p i < 4 i 6 4 7 i = q 9 7 l z G p = < 9 < @ > 0 9 < % a = 4 4 > 2 l 6 @ + > 0 7 7 > = : = i > 4 2 : > i a < > > % q 4 @ < < 2 l > > 6 = 0 > : : > > > > > % < > = u i > > : = : > q = @ > > 2 : + = a :   O 4 = > @ > = @ % < % > O + @ : O O O % % > > = O @ @ > O ",
"= = @ % = > 4 9 o O > > > > @ > a 6 < = > 6 = % > @ 9 > + 9 9 > > = = + > > a = @ > 9 @ > 6 > 2 6 2 a > % + = z 8 = > > 9 p = 7 7 = = 4 > < a 2 7 > @ > > > = 7 4 i > 0 2 7 9 9 9 9 > q < 9 i - 2 6 = 0 a @ > p 6 7 4 9 6 0 0 > z = 6 q 4 p 0 p 6 u 0 0 a a = > 6 G p 6 9 9 6 i d = > i d 6 a 4 > s u i 6 9 i 5 d p 7 > 9 0 6 p u 7 r 6 l p u c > > : z z 9 < < i u 6 c d 6 i 6 0 6 a = a i 2 u > p 0 u c d x p 6 6 < 6 p 9 6 7 l i 6 > u 0 > z 0 z p 0 0 2 z p - i i r d 0 u f 6 U d 4 i c p 6 H 5 f > > p u 0 E 6 0 u c p d H i : > c 7 9 p 9 i > 7 p 6 p d 0 5 > u l p p 0 u G 6 i u s d c 0 z 0 i 6 p u i 2 -.p p i 7 u 7 z 0 i i z 7 u l r 7 p x u 2 9 7 i z i d z p 6 7 7 i 6 u 7 > @ c u 5 > i p 6 a > = p 5 i 9 : = 2 d 7 > 7 6 5 6 4 a p 6 u c 7 6 7 > 2 = 0 6 9 l i 7 a 9 @ > 4 = @ > 4 2 4 7 @ a q : i l 0 2 0 < 4 i i > 0 9 > < < z 7 % > 9 > 9 > 0 4 = 6 0 > > 4 > > > < < : < < 0 6 > > d z 7 > 4 @ 4 q > 4 = 9 9 i > > > = @ > % : % + = @ < > + > + > @ + @ q % % > @ , : + @ @ @ % @ @ @ + % O : % > > @ + O O @ % % @ ",
"% 6 > @ > 0 > > > , O > = O > a @ p 6 > 9 x x p u a < > < 7 > = > p 0 % 9 0 6 9 @ < > @ : i r d d r p 2 > q 4 d = > 9 > : 0 i d 7 6 i 2 p 9 7 7 7 < : 8 a l c d d l x r r p i i 7 2 6 u = 6 p f r 9 p d d 4 > 2 u 2 u d d d u p d d d 2 2 9 < i 9 9 u p 2 i 7 d r U G d i 5 6 p ) 6 9 K p s p i < d p 9 > q 7 G G d p z u 6 c 5 G c 7 0 i u 7 p l i 7 d s p x c 0 a 9 6 c H x d p x G d P r x =.a z d r H x p H f d u d s 6 f u 6 p l 0 a u G G x x d G 6 5 c 7 7 K Z L L U U G U } G p p p f c s 5 p z c l d u G u z f c d K 6 c d 0 d d u f x r 9 p H d x a d G H x G p G d f x 6 z p f r H p f x 6 p c 6 l p d s 9 4 z f s K u d 6 d s x f p i p x d p p p p p 6 l d 2 > a z 9 6 H 6 H f d G c 6 0 p p 2 7 i f 2 d l > u l f p l T 7 a i 6 5 x G s 5 G G p p c 7 0 f r 6 c 5 6 > i z 6 p 2 = r @ a a > 2 6 2 p s d G r = 6 p A 9 > @ > 4 u f 0 < > < 2 2 7 i t 9 4 7 > > = 7 7 6 6 = < > 7 7 9 > 4 s p < > 4 = < 2 2 2 4 > % 2 7 > % @ 9 < @ @ 9 > > > % < 9 @ > > @ > > > > < < = > + > @ > > > @ > + O @ > % % = > @ @ % @ % O + % ",
": > < : > @ > 2 q @ > @ > @ @ = 5 2 t a p 2 5 u p 2 = > > @ = 7 6 0 9 = > 2 2 u = > 7 < 9 0 i p 5 x d c p x p 2 > < 9 @ i 9 = 2 > p 7 4 p u 6 > > : > 2 d K G H I Z P U =.U 6 @ > 9 i H Z s p f p p x c H p 7 7 4 2 p x s d s K d d U J x 9 i i i l x l 6 c p G d H s i u r u p 0 G G d d p s d K x x 9 i u p K d d G J s s =.f d r K x 6 p l p G ^ U s P I L Z c 6 a @ 0 d L O.P I { L O.I L P x > 0 c x d s s G G d G G I G r u 7 c d G G } } I G U G G u > < c G +.r.8.5.#.L { 5.0.v.G = z l 6 J U G I I L I I I J u u i 0 d +.I G I U I L G U 6 < 6 p d 7 U I { G G I I L I G l z 6 6 G s G U d G +.G d G G d r b 6 c d G +.G P Z d L H 7 i d x s d U } { } I x } L P G 6 q l - H H I I L P E I G p f p p p p u p U G U J s i G d 5 a i 6 G &.I I L L { } } } +.G 7 7 2 p r G } P d d x G G s 6 u 9 > < p I { x } +.G P I P { U p = > > 7 d G u K U d A p 2 Z > % 4 0 4 p 0 c H d p c l d u > 7 0 2 @ i 4 7 7 9 6 u 7 u < > > > a > a d d 5 i a 6 u 7 = : : : : > a 0 @ = i a 7 > @ = , @ = % 4 0 = > = = = > @ + @ > + % @ < % + @ ",
"> + = 2 @ O * > 0 @ o @ % > > = 7 i p r s > 4 6 G 2 = > @ : = f d < = 9 = : = p i 7 4 @ 2 7 4 > : d 5 P t s x a 9 > > 2 0 9 > = = s i i 2 p c i < % @ G I G s s G G G s G G l @ : $ > G P d z r p G d % u H r @ < 0 l d H c d d 6 G d d d i u p = d d r i d d d d 5 d u l l 7 4 7 Z P d p a c d L L J d > i 6 0 u d x d P Z P d 0 p d 7 7 f G p G Z d s K G d x L d z : > d { { #.L { L #.5.I s S a < 6 H G d L G p d p x I L u a > p +.{ L Z L { S } O.{ p q 9 > G } L {  . .{ { 2.5.5.{ 6 q 9 9 x { L L G d } s I L d 0 i d G { x G { L G I L O.I p a 0 6 J 8.Z } G I G d G L v 0 u i c x x +.L c I S { I L d c z 6 6 u G I G L G d I U c 7 c G d d } L  .[ Z I Z S  . .+.f < p s P L S I I P s { I G 2 x p 0 z x x d d P S L i I x r 5 > r G L Z { { S I L S L #.{ u 9 a u G X.{ G G p p d G d s u s 9 @ p 6.{ G d L L L [ { L U s p 2 9 6 p d t G L S S H d [ 9 9 = = 6 x = i t r p G d d p > 2 < % 4 i = i i 7 7 6 u 7 7 q > @ 0 u 6 s G G r r 5 p u > % > : = = 5 6 > q > = 2 2 = > % > > = > > % > > i @ @ @ % @ @ @ @ > = > @ @ ",
"2 @ 9 > > @ : < @ 4 > = = : > 7 a > > d u % % 7 7 < % 9 7 0 7 u p 7 < u 4 7 u l 5 = i 0 7 5 l p > p 9 > r 5 i p 6 % , 9 5 6 7 f r p r = u 6 7 % % > @ x G d G p u b s L Z u z u 0 6 s d p 6 p d l x p f d u 9 > 9 = i p p d A U z 6 c < p d p > 4 f p 6 s K d P s p l d d p 0 p 6 s x r i u d p u u s p x i 7 p I G p a p d G G p x G d 2 = 5 } I d G s G f 6 d Z 0 7 = i L r.L { { { I { { L G 0 4 > G d z u a K G G G p p l p m > x { I U p G U d d L } G x p 9 X.$.6. .{ { { { I +.&.L G l 6 r +.Z S G x P I d x U p 6 i u G L i c H d I { L I G d l 6 i H G G L $.{ L G I G c 2 H l l u c I d 6 G { d K H p A l z 0 l I S { L p P L I L K i < = l =.L I ,.L +.I G L P G f 0 d Z G L I G { G s l x U x s u 6 7 H d G I p s L I A I s p 1 < p { G U s G L G S I  .L K % i 6 6 d u 5 K G s d d G f l r 4 0 5 x L L G d L G G S { { r 2 q a 2 = u G s 6 6 i l u 6 u a = < 4 a 0 u < 2 p u 2 u 7 O > @ % a 7 6 r < % > u p > > 7 9 @ @ z p = 7 q 4 p d r < + O + $ 7 2 = > 6 6 = 2 > 7 7 > @ 8 > @ = > o @ 7 > + @ @ @ 7 7 @ @ @ @ + @ @ ",
"2 9 < > i > @ : + > > < : > @ 7 = 2 = > p 6 > 7 u > + > 9 > r 2 : 4 7 p 7 7 p p d @ : > > p p p 7 d 6 2 p d u 7 i = @ = z 9 7 r d u > < r p r 9 4 4 7 G d d d G d K d S U s p p < 9 z r p u 6 f p x s p p H 7 = q 7 p G d x s d u p d G d x i 2 z = d x d d 5 d x G d x p u 7 2 l d x p r x d c 7 s =.r a 9 > d L p z K d { G I I f s b 0 > p G G U G p J d G x G 7 9 8 u G I { #.L L { { #.+.U u 2 < d c d d p x s p G Z r f u 4 @ r Z G G s P x G I s G K l p z L { 6.{ #.&.{ $.L { #.I s d 9 7 &.L G H d G I U d s c > 0 x U +.J G d s d I G U U r 0 p i 6 d d J G I G G L I d u z f u x x G G G P I G d d ~ r p 6 = P { { { I x G U S I d 2 i p ! I L L L Z G } } L L } p < p d L L L $.G d d G d L p d u i 7 s I L d d I I L d } d 6 > = Z +.Z L G L I Z O.{  .+.L = 7 z d d H d p p x d G u r 6 0 9 > p I L Z I G G G G I L { d 5 > 7 0 p d p 6 0 a 2 p u 2 i 6 = 9 > 6 p p c l 6 p d 2 9 4 = > > 7 G d u 0 0 > i 7 4 4 7 2 = = u x s 6 6 2 i p r 9 = @ > @ u 7 > 7 6 9 7 @ > 9 @ % @ > > $ 4 = > = 7 7 @ > = = > = @ O @ $ = > @ ",
"< 7 > > 0 i = @ > < + > @ > @ i = p f + = d s @ d p u O @ 0 p > @ 4 r 5 u < @ r z @ 1 > 7 5 6 7 0 u p u 2 l s d q = = > : 4 0 > 7 7 = 0 r r 6 a = : 7 U d p H r f d G p I d 6 6 4 > i p d r x p r d s p d U s > < d p p 6 d H 2 f x d d L p > 9 = 9 d r 6 l 0 r u K s G d 2 4 7 d r x H s d p p d G G r < : = I I d x U Z L G G L G G = 4 a p P r d x d d +.{ s G G l a H P { L &.[ { L G L [ L t l c 7 f r x G I p H G G G G z u i G U S G G d U L { s p l 7 0 > I 8.{ { #.{ L L I #.7.+.u < i z I L G x d d G L ,.d i u @ r G J L L I U 0 2 J J J x > l l x G K v r G I L d I { H 7 q d J L L x L L d s d Z +.p 7 u p P { S G G G G G { L d u d i r L #.{ L G G U Z { L L Z 6 > 6 I >.L U d d +.I d Z d 7 9 l 6 u d G u x d G d d G p i 9 r +.>.I S w.{ G G +.L { +.s d 2 7 K s s G x - d G x 2 d f 5 9 4 p O.{ { L I { s r G { } r 6 = > - d d z = i r 2 l K 4 x u 9 i u 6 p 6 0 f 7 r 6 u i 2 5 0 6 7 u d 7 r 2 2 = 2 u i 4 O > > u d d p c 6 7 > u p = > > > 4 9 < @ > > > @ 9 @ O $ $ O @ : < = 9 > = % q < = 2 > + > @ O % = > : ",
"6 @ : 4 2 : > < 7 7 @ > @ = = u p r y a 5 r r q r r u @ @ 9 7 7 z 7 = u i 9 > 6 p + > > r 6 p r 6 7 u p p s r 6 o < 4 @ > u 6 5 = 0 9 r d s z = * > 0 G s x p d s d d d G P f u 7 9 p 6 u u x d d p d c r G d > 7 r c r p d d i K u r d P u 4 a @ r G d i r p d - l c p f 2 p 7 p d x r d p u r d d r u a > > K P 6 p G d U G s Z G U = = 2 x G d d G d r L Z d d l u = - I {  .{ L { } L { ..+.s 6 5 p P p f G d x H x A d G 6 r d d G G L O.Z G G G G H l 0 > 4 { { { #.{ { &.O.8.#. .L 6 9 p > { =.2 p P u G G d s p i 2 p G G K I L L G c d L I s i i p ! G l 0 d } L u d { { d 9 4 i L I d x G +.G K d K L d z z l Z +.U d G G d d I { G 5 d x d L I L U G L d G I $.O.x i 7 u +.L G s H { { I } I U 6 a 0 6 H x G x d p d d d P H z 9 6 G Z { } I L L { I { G I U t < 0 p s s s u f r d d i s f 7 4 > u { L L x G Z I d Z I P r u l q f p p 0 6 u p r 6 0 6 0 4 @ 4 > t p f u 6 i 6 u d = 2 4 = > 6 7 < u r = 9 < 7 6 2 = % @ = d s d p u 7 6 2 r p > : > > 7 6 > < > > @ = 4 > > @ @ * > < > 2 > > % @ < = @ < = = > @ @ @ @ > > ",
"> 7 > > 7 6 2 6 f 7 : % o @ < > = = = u u 2 0 4 d 7 + @ 9 > 0 a l 2 2 2 < 6 u d q > < = 4 u p f f 2 2 0 d p d c 7 > > < < f H f 6 r u i 6 t i @ , @ > d G d p 5 K s H p d L U 7 - 6 d p p u u 2 x p d s x l 2 > > 6 l p d d G H 2 d f x d p i = c d r 7 i G G G c r 2 p p 7 q 0 d p f 6 u c c G p d G p < : < p G d H d H d d c s G x = 0 u f r d d G G d d x H P 9 9 > r $. ...P d x P { O.L U u 5 r s P x r c s d f s x x x u 6 - c L L L P L G U L L I x p l : L L  .I L L &.+.%.#.{ L p 0 a u J s =.} I H G d d G p c c d I  .c d I L d I G I G p i 6 6 K G x x P Z I G G I G p f 4 > } L G d p d Z K l p I x > 9 6 +.U x I L H G x L U d 6 d x G +.I G x d G G I d P G r 7 z p U d Z G G P s u J U d r p 7 4 x s p d x d p G s s 6 p : @ G { G U p L #.&.d p L } p 4 9 p G G I p 5 x H 5 p H d s > 9 : 6 I { G x G I I G I H L d 4 : > z p u c l s p p 7 7 p 2 4 @ > d d p u d d 6 7 x d d 7 % + @ 4 : 4 0 7 2 4 9 p 6 2 7 : @ @ p s d f 9 u u 6 u u > % + @ p 2 @ 9 > 6 7 = = : > > @ > > > 2 > > @ % > = > @ > > @ % @ > = @ @ + ",
"> 2 @ @ + < 2 = 6 > + @ > @ = 7 0 2 > 6 d i 6 6 x i + > = > 2 2 s u 2 > 2 5 f f = > 4 > p 6 5 5 - a 5 2 p 0 r p 7 @ > > = 2 x p r r 5 7 = 2 r 4 @ + 7 p S d G G G r G s p L G = a 7 r f s i 2 i 2 d G G p i 0 : 7 6 p f p p s s 9 H s d x r u 6 p c f > 0 H s s f 6 p r d u > 7 d x f u p u p J u L G i @ , > r G d G s G G s d Z c p > a 5 G d s d x d G H t x Z 7 : > l { #.[ L L s L { { #.G p d x p d c s d G x d d d G x c p = K +.I P L I p L I Z I U = 7 p G I #.O.I O.$.[ { #.{ +.d 2 > d p d U U L G p s U P p 6 u d L #.c 2 Z } L G P d d K a i l G J c P Z G G d L U U G 2 7 u ~ L Z U p x I G l d } x 2 7 p } G S I I I Z L U d H p p f G } Z I d x I L I Z d d d p s t d G +.I Z d d p d s G p c a 2 x s s H f s x r d +.r > 9 u Z +.G d G L L L d f { +.r @ > > x I d x p s H 6 6 s d d - i : 0 +.S G G A s d Z G Z +.s = = = i p 6 6 p p x 6 0 u r i > 9 > p G u = p x > p d p d = % > > 7 2 > 7 7 < @ i 2 5 i > = @ > p d s s 6 u p f x 6 + $ : @ 6 i 9 2 > > = f > + > : + + 9 7 i 7 @ @ @ > 2 < > @ @ > % O O > : O > ",
"> > 9 @ 4 = @ , % : @ > > % + 9 < i 6 = i u 6 u d = 2 : > i 2 5 d 6 u p r p 6 7 a @ < @ i u l 0 2 f u r i 7 6 p > @ = q > = 7 > 0 i - 2 9 = i 7 < @ c s L L d G d p P Z d G G > , @ z K d p z H d 7 u G p r > > z 4 p c p l d r G d d G I d 7 9 4 9 5 c r r d u p z G U d > a r p x d r d r 6 x i G x p > > i d I s d d P L x G } d s 0 7 u A H d I U r G d d O.I u 4 > x S { {  .{ I  .{ #.{ G U r 9 > 2 U Z G G d d x d d d r 0 > i G L x d G U L G L { r 7 6 f p { &.L { +.{ [ L L O.L G b 0 f L G s d G L G P Z x H 0 5 s d L x d d P G L d x l l < 0 d d G H Z K K d { } G K K 6 i i x G L L x H f d s G J p u l = L #.{ L P U Z { I G x x p 7 p P L { +.G { L L { #.I s 6 r r K H G S I d G G G I G d a = 6 d G G G d x G s r U c 7 0 d d L L L $.L L G L { [ { p 9 9 = u s s G U x 2 c s x l G u > < 6 } { P } I G P d d S G d 6 2 @ < K d p 2 7 6 6 6 p 6 i @ 4 = t f r 7 2 p d d p r 9 = > 0 5 z l 7 r 0 : > u 2 7 7 > 2 4 > c p s s d s i p t p = @ > > 6 > 0 7 < : = < 7 2 @ < = > @ 7 = 7 7 @ < @ > @ : = 2 : % @ O o O % > ",
"> = @ 7 < > % O @ + + = % : > > 2 6 7 > 7 p 5 u 6 @ > < @ 6 0 i 2 0 0 9 u i > > < > 9 > : 6 6 i r > r p 6 u p p > > > > 9 q > 7 > 9 u p d > @ i 9 @ > d P G J r H d G f d G f > > + > u t 5 p f d 7 6 x G f 2 7 = > 7 5 i u d f L d p d x 6 z > > > f x 5 7 0 z H 6 d d u u 7 4 c u r s K d p 7 s x r 2 7 z p x G G x U Z d K s P P x 7 9 u f 5 s G d d H G G { d d p q 6 &.&.{ #.#.L I +.{ G =.s - i m < P G G G p d d Z H p u q < p G G G J G J K G I +.d 4 c 6 d +.$.I { +.{ { r.I &.L p l 6 2 Z I G x s I L G G U 6 i 6 c G L L U d G H d L G d 0 6 9 p u G J I p s J L L G G u i a > d s d L L d p p U Z x r f p > K +.L { G s L d L G d x i 7 2 I I I { Z { G L I { U p 9 u > l p G { L d G s d G G 2 @ : c f s p x x d s P G d 0 a u r P G L { L { { I L { [ #.d > 2 7 c < x d s l i 6 H s > 0 f > @ 0 d L G d L } G u G L r d s 0 > > x r 2 7 > 9 u u p c 0 6 2 i 0 p p d u 7 p p d i 4 2 0 6 = u 2 5 2 4 9 > 5 p 9 > = a > @ p s G x x - 6 H 6 5 9 < > > < = 6 7 = @ @ @ 0 u + > @ @ + 9 > = > 4 > @ = > = 7 > @ > @ + O > > o ",
"% $ @ @ : : % @ > @ + > O % % > > < = = = 0 > @ @ > > > > > > 7 7 2 = > > > > q > @ > > 2 = > d 2 = 4 7 > z l = 4 > > 6 2 = > @ @ > 0 > - 7 = > > @ > 2 d 6 7 = = 2 6 p p 0 > > 9 > > = d 6 p u i d p 0 > 0 6 i 7 q = 2 p u u H u x u 0 2 6 0 9 < a 6 2 p 0 > 2 a 6 0 2 a z 7 7 z l r 5 f p 0 p 5 r p 9 r 0 u 4 i x x G x p l l d l d d a : > r r p x G d d c x c z 9 i 5 x f 6 G G G d G d U H u 7 6 K p 2 2 P d u z f G z i 7 < 9 < 2 x x s d x d U L t i 9 p = d c f p G L U G G U G K K u u l U U G p G I d x H f z 7 i u d $.K d x d H U x U G u u c z s U L L I U d p P G G u z a 7 f J x P J U G s U d r d d c 6 i c s I $.6 x G s d 2 6 d l 6 x G G +.+.J l u { U d 2 0 0 : p J I H H x U d p P s > 4 9 2 l 7 l l p G r 6 x u p i a = x { Z I { $...L { P w.I 0 0 9 0 2 r r p r x d G l l 6 r 2 9 > 0 G x G G K H d u c x l > > 7 a 7 i l i u 6 u = 2 p p > 2 7 2 2 7 p u 0 i p p 2 2 l 0 7 > % u d r i = < 0 0 2 @ % 4 > < < 9 2 r 6 7 > 7 6 > @ < < @ o > 4 > > > @ @ > = < < = = @ @ = > 2 = > % > @ : @ @ @ @ @ @ % @ % O o ",
"> $ @ @ % @ O @ @ @ @ > < @ @ > + > 8 @ > % @ @ % = < @ @ @ % % % > > @ @ % @ > 4 @ > @ % : @ > > i > @ a @ > q $ > 4 = < > + : = > q = : > q : % > 2 i < : @ < , < 4 @ @ > > 9 > > q > 7 4 < > > 7 6 7 @ 7 0 a 0 9 % 0 4 7 > 7 > p > 4 % 7 7 7 9 a 7 0 c > a 4 > 0 4 @ > > 0 i 0 7 c = > > 7 0 u 0 < a 2 6 9 > > 7 u > 2 4 > 2 6 r d u 7 @ < z 9 4 2 x p = 4 c - 2 0 u i 9 = 7 d p r 5 i i u > 7 a r s = 9 4 l 6 4 = 9 2 5 i < 4 i 7 z 0 7 i 7 p > 0 p i > 7 l : 6 4 i > 0 0 u i 2 l 2 u s 6 p s p f 7 6 d p i 6 f r p l z r f d p d p p 9 6 i > r x p u r p s p G p p d u c s p f u u 2 a 0 r K x p d f f r c u f x u 9 < = c G = 2 u f 9 z p i @ < 7 u > > r > = i s p > @ 7 > 2 7 c r 6 = f d > 9 a 0 z 4 7 0 u < 7 7 u p i 2 2 0 6 0 9 2 i x H s r G U s x G Z = 4 9 0 0 M 7 0 0 7 9 6 r p = 7 5 6 > > > = 0 > 0 > 2 z = 0 6 > < : % p 2 2 = 4 0 > 7 9 a 2 p > : z u > > < > @ 2 > 4 < > 9 0 @ 7 @ 9 2 9 > > > > > < > % % @ > = > < > < > @ > : % > @ : : % > > @ @ $ % @ % % > : > > > O > % : = @ @ @ > O @ > O @ > > = @ @ > O ",
"% O @ > > O @ > @ % > 4 8 @ @ > : @ + : 4 + @ > > > > > @ @ % > % = < = % % @ > @ @ 0 > : : O % @ > > @ < $ o 4 % < 9 + % > @ 4 2 % @ > 9 > O > > < > > % , @ i @ : 4 > q 0 9 a > = 9 9 q < % > > % < 7 p > = @ 7 9 0 : % q q 4 , @ > a a 7 0 > i 7 > i 9 i 0 a 9 6 0 < < 2 > 0 0 > q 7 9 q z @ a i 4 < > 9 > 9 0 i p 7 9 q = f p > > > 7 c z < z 0 7 p i 4 = p 0 s p < 9 a = > u - 6 4 > a p 0 : > p p u z < 7 i 9 > 9 < l f 7 7 l l p 7 q z 0 9 z < < f c u 2 > i 0 d p 7 z > 7 9 0 i - p c > u l z 7 q 6 i 7 > 9 p = a 6 u z 7 x d u 0 9 0 z p c l 2 2 f d d 9 c = 9 a z 7 7 i p 6 c 0 < > 7 0 r 2 0 i < 7 6 9 9 6 l a % : u 7 q 0 z c > q f 6 c u i b p > u p f x r 9 > 9 c z z < = 9 i i z 7 > 9 7 4 4 > a 6 0 z 7 9 0 i p z < u 2 i i 7 7 u i 2 2 6 > 6 6 > > > i 2 7 6 i 6 > < > 7 > < = 6 > > a 7 0 < i > > > i > < > 9 4 > z i 7 4 > i 0 = = i 4 4 7 6 s > : + = 7 9 % q > > 2 > > : > < > < @ @ * % + > < > > > > : 2 2 q @ @ > $ @ : O @ @ : > > < @ % > @ @ @ > q + $ < + @ @ % > > > O + O o % @ @ @ @ < @ @ < @ @ O % > $ ",
"> = > > = > = > : > @ @ + : @ > 2 > @ : = = 4 > > > + % @ > > @ > % > < 7 = + 4 7 > @ > @ @ = % 9 2 i 0 > 7 9 > 9 4 9 > > = 7 < a > @ = > @ @ > > < > > @ = 7 = i 6 = 2 2 4 = 6 > = = > > = > 6 5 % > 6 r i 4 = i 7 0 @ = = > 6 > < 4 5 f u < 4 a z 0 0 7 2 6 p > 9 p l a 4 2 p 4 = < < > 7 7 > = r 4 > > > > u d p 6 6 u > 2 d p a z 9 u p 6 0 6 p p 6 c 7 r c @ d c 0 > p i 0 z 6 l 2 7 p d 7 9 z r p p 0 0 9 6 u 6 > 2 2 r l p c p 2 a > 6 u u a - 6 l d p p 7 c u G u 0 i 0 p z 2 9 l z l u 6 d 6 = i d 2 2 < d H p i d u 7 7 d p H f p r d r i 0 z i u 7 0 i z 7 0 7 0 9 9 z i x c u i = i p > i i 9 9 7 i 9 0 i i 6 7 7 6 y 6 z 0 > < c z 6 l 7 u d u i 4 z x 6 i < @ p u p 9 i 9 = 7 u 0 6 = > 7 7 @ = p 6 6 d p > = p r f 7 0 p r - 4 > < u i i 9 > z u 9 q < 7 p 9 7 > p 0 9 2 2 u i > 0 > r 4 2 > i 7 a > > 7 4 4 > = = > > 2 a > 7 6 2 7 9 = = 9 > 0 z 6 4 > < > 9 > > + @ z > 7 0 + 7 > @ 8 = + @ 0 + @ 0 > > > < 4 = % > 7 > @ + 9 > % % > = > > > @ < > @ 4 @ = @ @ > = @ O % > @ > @ @ % O @ @ @ @ > > @ > @ @ @ % @ + @ ",
"6 r 7 > 2 7 i = > < : + O @ > > 7 = > 7 7 2 = 7 = > : % = = = 0 > > > > > > = < 7 > + : = d H u 6 d s 0 6 d x u = > @ < 4 7 > 0 = 0 u 9 > 2 0 9 > < @ r x r z 7 f d u p 0 r = 7 9 7 7 > s x G G Z x p 7 u u p 6 7 4 7 d L I G t l r f s p 6 = = a > u - r 4 > p d 6 6 4 - p 4 = p z p d x G x s G x d 6 > 4 9 d d 6 0 f 6 u c 6 r 4 7 f 2 > z 0 6 p p 6 p 5 r > 2 @ 7 p f f p p 6 u r 6 r d p i > p > > 0 r d p d +.d G G x r p 6 > p p d d G H x t H d x r u p z 6 6 p r s H x d s s u p 6 4 7 z r G +.G I I Z { P p s 6 p z 2 d p d d K p r r G 6 0 i u 0 0 6 u 7 x d s p H z 5 2 p 6 r i G d x G 6 0 0 > H G 9 9 7 i 6 H G 5 H L s = > z p 6 f i i p p r 9 6 5 - r > d 9 u p 7 p x G p p H p p p r l c = 7 > r p x d r x s r s 2 u 6 6 2 2 0 6 p 6 4 9 0 6 - 0 6 6 7 i i = p u p 6 d p 5 u 0 6 > 2 7 7 > > > i 7 7 7 u p p 6 7 > 4 f > > = G d s - f s t 5 6 = > a q > > > u 5 p r p p d r 6 = : 0 4 2 4 2 p 7 > 7 2 = 7 @ % 5 @ @ 2 2 0 6 > > i > = 2 > @ > + > > > 4 < > : @ + = @ O O + % : : > > > @ @ O % + @ = > o @ > O @ O : ",
"r > > < = p 6 @ > < q O % > > @ p 9 = : 0 0 7 2 2 9 > % % 2 u p 0 7 9 7 4 9 > : = @ @ @ i d Z G u L s f c I Z d = % @ 7 = a 9 9 4 r u i t u = > > > 7 f G r 6 9 f x 6 7 z l 6 9 > 9 7 H { L I L I { G d d r 2 6 0 q 0 U L 5...G L P G Z G z @ z 7 2 p x G 4 > H G l i z u 0 0 7 p x 5 G L I I G L L I 0 9 7 2 p p f c i d G c p p p s s i @ < p d K d f d x d x G % 9 u u r 0 d x x p G c H G l 6 0 < 4 6 H Z } L +.G S I U x 6 p : 0 o.G G G I G U I Z U i 0 u : d u H K p u K x L J x p 6 9 2 4 6.5.0.5.#.6.0.7.#.G l z 6 r x P 6 G I U c K U U l 6 6 z 0 c d P G G +.U d x d f x u @ 0 E +.O.Z { d r U d G f u 0 7 6 9 H L J L I P T d 6 p 5 x 0 i x H f l P G c K U H 7 4 7 9 d G P G G L I +.G Z H d u 9 7 d p P +.Z L L G P J x u i 0 u 6 p l d 6 f x u p K d d 2 = 2 6 s 0 d f x U d s u K i 6 7 j q > u 6 r u u u 6 s z d : 4 > = : l &.{ O.G G } +.$.U H > 7 = = % 0 } P I G s P G G G 6 > u = i x x d p i i i f i > @ 7 : > p r d f 4 r d x z 4 = > > < : % = = > > > < < > @ : @ O + > @ 7 @ q < O @ > O : : > O @ = @ @ O % ",
"r 2 > : 2 : > = > > > > > + = > > > 7 > > > 4 7 2 9 % > = = 0 2 2 = > = 2 < 2 7 6 > % o p d s t p d r d r s d s 5 9 > @ u i i 6 > p 7 6 p p p > > > > 9 2 r r 9 2 r 2 d x s l 6 > > > G { [ S Z G s s P P ) p = > > f G L L Z P d G I G x i 7 l 2 6 c p c f 5 H s f p 0 6 6 7 a u s I G s G { L d L L x a 0 = s d x u p p p p d u z d u p > 9 l p H x r d x x K G 2 4 : = l G d x d s G G d d x 2 < 0 f P } { { { G L L I P x u 9 z 6 P I p G G r I s Z J z 2 p : x d f s K s p x x p G H u 9 0 z 9. .5.7.{ { 5. .5.8.6 = l s G L G d +.G r d G s P s 7 u z G P G S I G d U G G G 2 a > 6 +.L [ I G J } I I d d > 6 K p 6 5 5 G s p d H K d p z 4 i d K G H G L L P d p d K 2 9 u 4 l s G d d x d 6 G d p u 9 6 z L I G U d I I { I G 2 i > 4 s d r d s x d u x J G l > a 7 7 a d r f d p p s p d p t 6 7 > > p d i i 2 d 6 5 f x a p 9 , 4 r #.{ { L { { #.#.+.+.c = < : u G S { L d G +.S G G 6 @ < < 7 2 r r 5 6 p 5 c 6 0 7 @ > = x G 2 i i p G s r i % @ + 9 > > 7 @ @ @ > > < > @ @ > : @ > @ > @ < @ O < @ > < > @ O @ @ > O @ % ",
"> > 0 < 0 > > 9 < 4 > > > @ % > = = 2 7 @ = 4 > u 7 @ @ < < 4 < u , > > 7 2 > i 6 < % @ < z f 2 p 7 = G z > i f p : > @ z 9 2 i 0 9 > 6 d i f > % > @ < 0 c s p i 0 p r s s p p i @ 7 U G I G c c K d [ L x 2 > q 2 x G d 0 u I x p d t K p 2 < p r x 6 > d 6 f G s d x 6 > 9 7 0 I { G i d s G G I I f = 4 0 c x d d f d z p G x 6 r 9 i 6 d c d r 6 p p r U x I G < & % d d d d } L s S G L G = a 6 G { { $.L P G c G P L p i > u P { G d G G f l K d c p 2 c > G G x x H d d H 9 x P Z 0 z 6 } 9.5.6.{ +.#.#.9.9.5.7 a a r L L L L L d p d f x G { p < p d L p I P 0 p U L I s 6 9 4 p { { S I d S { L L I P H i t d d c u d l K p s d c 6 i @ p L r s { L L p G U G U x p p p > 4 G G d K d d p x H H 2 a 7 2 J L Z Z P +.Z I [ ..d > 0 7 f x i f x d 6 u s d P x u i i > > x d d f > 7 x d s x d p > @ 9 K p > > i p i i p s p f u > = p { { S 6.{ L L Z  .2.U > > @ r } d G J u d Z L I s 2 9 > > 0 4 > u p u 6 f u > a > > @ > d x 6 0 r x p s s f O . @ 2 = > @ @ O @ % > > = @ > > > > < + @ : o @ < % > @ = = % > @ O > @ @ = ",
"< @ > < > 2 < @ u 9 @ O % O > = 7 9 > : 2 u 7 = @ 6 > > + 7 > 6 7 O 4 7 7 = 6 f > @ * : 2 d p 6 = 7 d 2 2 d Z d d < 4 = r p = 6 Z : > > @ 2 2 O : a 7 z > 9 > = s r u 6 l p 5 i 9 + p K s d U P Z { G 6 H L G 7 > 7 l 6 H x x G L G L Z U = < u 7 = s d G 6 r p u u f x r a i u d I Z d x I G G p p L Z 0 > @ r 7 0 i p p G p d p l 0 2 a 6 u x d P G p K p f d G a 0 > i G H u P I G l l d U x u 7 = I { L x d G P I s G { U u : = x L I d r G d H I L I p 4 i = d G f : a Z L I x d d d u i 2 a 7.#. .#.[ +.#.{ #.&.f q 0 p +.L r U H d x =.G x x T 5 4 6 0 G K 4 G L { p s G G 6 u i p x K L L G u s G d d d l 0 7 p K G x +.L x K d G G t i p u U G U L L { G x +.{ G G u 9 q u I I d p H d U G G U p 7 9 > c G G Z d I G d G Z U G = 9 7 i f f 0 p H p f d z 5 d p 7 1 % 0 l 5 p p d r 9 9 > u d t < : > u u > 0 c r r u 6 d a 2 = = > G #.[ L $.{ L L G G I H 6 - 4 2 x H d p i r x d G f t @ O 7 2 < 4 > p f 6 0 4 p 2 % = < 6 p u r p i 7 d s s 6 @ 9 < > @ + > > 4 > : > > > % @ $ O > @ = % @ O @ O > > @ @ @ > $ O % > > o o ",
"= > > = < 4 % > > < @ % @ @ @ q d @ > 0 p u 7 7 4 < @ @ + q 9 > > = 0 = < 7 7 6 4 @ % > q p r r i p 4 p i 5 p x u : @ > u u p 6 p 7 4 9 = d 6 > > = = 2 u p u z p x x 5 u x p 9 > > i p s x Z s d L G d d I p 9 9 > d s d d p d L d Z G G i > 0 1 i c d H p u 6 6 d f d i < > p d O.G s d { L G s x P d 6 0 7 x H r p 0 p G x d u x r = i 6 p d d P s p p p f x d > 4 = i s d d G Z Z d r x U x u l u d U P L L G G L G A s G 6 0 > f G U G G G G d d G I d u < < G U d 6 x G Z x ~ G G d i z p -  . .#.5.{ 0.6.[ 7. .r 9 i s G G H G p d d s d d G p d 7 6 H p d s Z L +.G G G U p i 6 x x G I I G G d L I J x p 0 7 < K d L Z I p f G L U p a 0 u G L d L U s p p I L d x l > p p s U G s x d d d G G d 6 0 7 x G G L L } L G Z L U p 7 0 2 2 l d s d d p p d 6 p f u < : = d x f 6 6 d p > p r p P 6 > 7 6 d l 2 p d 5 r 0 p p r 5 2 7 = G 7. .{ Z #.{ L { L d d 5 = > u H d P s p x G s G G p > @ 7 = i u 6 6 p i 4 2 6 u % 8 7 > x d s d p = G Z p i % > @ @ > < < 4 @ @ = > > = : % > O % > > = = % @ = @ < @ : @ @ > + @ O % > O ",
"2 : @ < > 4 + @ % > @ @ + % < > > = 0 u 2 > < 7 > > @ @ > < > < < q 2 @ > 4 6 > : : $ @ = d x l u 6 - i r = p G @ > @ > 0 2 p i < t K i u r p < % > 2 p f p r d p p 6 p d f 5 7 < > i G L d L G r s s U U r u > 9 0 x G G s s G d d G Z L d u > @ 4 u 2 = 9 i p G H t u 7 > = 2 x G G d G I s Z L L H i > 7 7 c x d d r d d d r p d J u 7 > 0 } 6 d s H G d p d Z H u > 6 G G x d Z x c x x r H 7 6 u 2 l d L G Z G G G d d x 7 l = l d d S s P G p d p c G r 9 4 x s s P J d d 6 d G P p > < 2 A 0.5. .{ 6.#.[ #.5.5.s 9 x d p G H p d U x u x I G t a u u H x G I Z d t } G s H > 7 0 c G Z P G Z L x G L L U K 2 9 < 2 G G p s x x d L I d 0 < i G I +.d p p U G L G J d 7 6 > 7 6 r G G d f H H Z [ G > 0 i r L L I P s L L L L I d < > = 0 l d p r 6 s x 6 p d u q > < i G d d 5 6 6 p u r d d z > 9 6 d d p - d p 5 f r 0 u 5 d u 0 = U { { { G { L L L { I G > : @ p I Z L Z d d G G G H s = 8 = < 7 6 u u > 4 2 > 6 0 > > O = 7 d Z d u d H s p i = @ % o @ 9 2 > + + > > @ : + @ > @ @ > > > > 2 4 4 @ @ % % > = @ @ @ @ @ > q ",
"2 = > = > 4 > = @ @ @ 1 + + @ > @ 9 = 6 > = > = 2 > > @ 2 > = @ + = 7 = @ > 6 > = : @ @ 7 d s s 6 6 i u 5 6 d x 2 > @ > 0 a = 6 @ r p > r u i > @ : 7 p s u r p p p 6 p s d l > > + 0 d G L J d c U d s d x d 2 7 > x x d x d x G x d Z x r 9 4 > 7 p p 6 7 = x d p p c c 6 7 6 G x U G Z G P x I G L l 7 > < d d u d d s H 7 p d x u p 9 9 r U H p r s s d l p I G 2 , > x L s G d x r H r p d 7 7 9 6 x G Z L d G G d G G P i i > 6 H P G G G p f H r s P d u 4 P H d G p 6 d u x d Z d 6 9 l U 6.#.#.{  .{ $.{ 5.8.s z 2 d K Z u G G Z c d s P H u 6 0 6 d H G P d d G I L G } > z : > G L S L x U G d U G d 6 2 u 2 6 d x f d f p x s P G 7 @ > d G I L d U I L I I I U > > 0 0 0 f H G 5 s s p G I L 5 7 9 p +.G L G x I G I L P r < 0 0 d p p l l d H p f d x f @ = 9 p u p u 6 z p x f d G 6 2 > 7 r 6 H r l H l i 6 p r r s d 6 7 > x { { S I I G L +.{  .d 4 > @ s G I G L s x d r d H s @ = 2 z 0 0 6 p > 0 9 = u 6 7 > > 9 p d u p u f i p p i % @ > % > > 7 7 : > i = = % @ @ @ @ @ : : % = 4 % @ % < < + @ > % % % @ O O @ ",
"= 2 0 @ @ % < = 4 9 @ @ % : @ 4 > 4 > > @ = i p p = @ q = u 6 7 = 6 4 < % > u u 6 4 O > 6 d t H - u p p u r r 5 7 6 > 4 u 5 p u > 7 > i r 6 7 @ % < > = 6 p r 5 t u i u c u 5 2 9 > > s S L H s d d H s Z P u > 7 = c l p G U p K c G U G > < > 6 f p f i i p d u 5 p r z > 7 a d G I s d H G d G G I s 2 > < 6 G s l s H f 6 d f s 6 7 q < 6 I d u u s s d < < [ r 6 i 9 x G p G d x s H G d d 9 q > l I G G I H H d Z L L G > < = x I G s x s s p G d s H 6 p 4 s P x 6 c p 7 c t l p G p i 6 G  .#.7.#.{ L { #.#.&.t u 6 p U G G d x p f c I p f f p 2 u c d G x p G S s G d G d 7 @ 6 G L L { G d G G K =.G d 6 i f p x d H s p s z p { G 7 a 9 l I G L I P G Z I Z G H 5 6 i 6 r u H G d J G 5 u d G u 7 = 6 G s x U G d x G L { d < z 2 s G p p p s u r x x x H 2 0 4 7 6 l p p a r r r d u 2 2 u 5 > > l 5 5 9 0 2 5 u u d i 2 2 7 + x &.{ L +.I L L L I X.Z @ > @ 6 U x x d G d G d x K s @ @ = 6 = = = 6 d 0 0 i i t > > O > G d 6 a > 0 = 6 r p = O % @ 2 > @ > > = > = 7 7 @ % + : > > = + > > @ o @ > @ @ > @ + @ O 4 % + @ ",
"> 2 7 @ % % = 4 > 9 @ @ @ > = = > = 7 4 @ > 5 7 9 < @ @ = l i 7 i = 7 : > : > 5 6 < % @ 7 x d s r 0 r 6 6 6 a l 7 = > = p r i u 6 7 = 7 2 u 0 < @ < > < z 0 p l x d p 2 7 6 f l 4 > i x S G s d Z > p d Z d > > i = p G s d d - L d Z S I > : 0 0 p s s p f 6 d x 6 5 c = 7 i r G { L G U s G L s Z +.} - 4 > u P p G d s r p x i d u = > i d s H p l d l K r 0 [ i i 7 0 f u d d d x Z G G G d 2 % = d P I L G Z d d L G K x > , r d G L G x x J H r G P p 6 p 9 d K p p H s U d p H H d 6 u 7 K 5.5.#.0. .5.0.[  .&.r p z = I { G d d G x 2 d I z 0 u u 7 d d G G U G x P { s d p p 2 6 G L L I G L G Z d G L H 0 2 p d p d d d G d p r U G i r > 0 d I { S I I G I Z G U r p 6 c c d d r d G U d c s x 2 i 4 > I L d L P G S L L L P 4 : r s I r p d x p s f 6 s s d 6 0 7 r d p d p r x K d u d d a 4 q > 0 f 6 7 7 r z 6 6 c p 6 u : @ H 6.[ L L L L { L G S G - 9 > > H d d s P x G U d x 6 @ q 4 6 7 7 p u d 0 6 p p p 7 > % @ d d s > > f f r s c = O : @ = 4 > @ 4 6 O > 4 2 @ @ @ @ = q = > > = : @ > > = > @ > % O @ 2 O > > ",
"= = q @ = q @ @ @ < @ + @ : > 4 > % > 4 4 @ > @ O % > @ @ = < q 4 @ : < < > 4 > @ > @ % > u s p r 6 p f > > a T @ $ 4 @ = i 0 p 4 u i 7 0 x d = : = @ q = > u u u d r 4 p r u 7 > @ p z s G G G U U x U G s 4 @ @ 4 s I O.G G Z L G G X.L d q % % < u G G 2 2 f r i c d 0 9 > u G { d G { G I } [ Z G x u p > c u 5 H d d G d p p J u 7 > 9 p p x p p u x u d A G @ > i 6 6 p H s s H d J d G H a p f z > d G I G { L d f 6 i l < 6 u d P G d G L x u J U G u > a c l x u x G t G G s J G p i p a 5.0.L { 9. .9.9.5.#.p i z - H I i d G s x f U x 6 0 u d f u x G I d r 6 P G L G u 6 i H G L Z P L $.P G I ..+.s c 9 > 6 G I G G p p 0 d c x 9 u 6 H U G L Z Z Z G G I G d G p 6 p r d p s A f d G p r p p p 7 p G I L S L Z L L { I 6 4 + a r p Z G p p d s l p d d f < % 0 f p s u r d u u r s s d O @ > > z r c 0 6 2 u p 4 > 7 p > : > U ..5.#.{ G [  .#.} H K = 6 7 7 H O.I G I d Z G Z K > 2 : @ : i p d 6 7 > 7 r 6 0 = = < > p G G s f r s G x p > % @ $ 7 @ > > 2 < @ > @ > < @ + @ @ , < 7 @ > > : > + = 4 + @ $ o @ @ @ 7 @ ",
"> @ @ $ @ 7 7 > % O % > @ @ > > > : @ > < + $ O O % > > % @ @ + > = > 4 @ < = % 8 % @ q + > 2 6 = p u 7 7 = 2 > @ > > % > < > 7 < d 7 0 6 6 p > , % @ 9 @ i z 6 : 0 p 2 u 0 = > q 9 i u u K L s u u - s u 0 > 4 q > p d G x c G x s d } } s < : % : 7 p d 0 p p d > 7 > > > < > 5 f H G s H r s G d s 6 0 i 2 7 2 u p 6 f d p a 2 s d 0 7 7 i 6 u p f d 2 6 K d u i i 0 9 d p d U G p d p d d 0 @ p 0 7 0 c x G H s G 6 z 7 7 p 0 u z 2 6 x L d d Z x r p x 6 > 4 < d G G x x d f G G G d a 7 4 2 0.8.+.+.8.0.#.q.5.L x > 9 d c +.r G G G z p d d d 0 9 > f G x f I d G K U p ) d p 7 9 u d d d K I G d I } x L s 6 z 9 6 K d p P 0 6 l c 2 0 < a i u U G P x G d c d d p H l 0 7 0 p d u u l d p p d i l f = = p p G +.G } P } x G p = i 0 > 7 p G p 6 2 f x x r x u 7 > > 9 d u 9 i 6 f 9 = c s f < % : > 7 < > 6 p p 0 p d = % u a < > > 7 G } { I L I L } H 5 > 2 > 6 = 9 p L L G H d U G = > 7 > % O = 7 > < z < 2 a > @ > 4 > 4 i 7 l d u r p x 7 @ % @ + $ < > > > : % + % 4 < > % O @ @ O > > = > @ > @ + @ > > @ O $ @ @ > % % ",
"@ @ @ + @ @ @ @ = @ % @ > @ @ @ O @ % + > @ @ O > % % q = > > : > : : > @ % > = @ @ > + > @ @ 2 > @ @ < 4 > = > > > @ 2 4 O   = > > + : > > < = @ < @ = @ $ + > > > @ 2 6 2 7 = @ = > 7 7 > > O > < 9 7 @ 2 @ : 9 = 6 > 6 > = 7 < > 7 = 5 = 9 0 @ i 6 2 > a > p i 0 9 2 4 0 > @ > d 0 = 2 5 p 0 6 > = > 9 7 0 > z i > > 6 > 6 6 7 > 7 u l 4 > i 2 9 7 l 6 p p p > > > 0 7 > > 6 9 0 < 7 > p 7 a 7 > z 7 u p > 6 6 u 5 5 u 0 2 i > u z r @ > 7 H z > @ a u p u 0 r z 0 = p = r 0 7 r 6 7 > 4 z z 6 u r r G 2 p A t d p r u x u 2 6 0 l u < 7 7 p K d 0 > 6 u 6 2 p i 2 = r H d u 0 6 > i p - 2 r 0 0 p u s - > 7 9 z 9 i 0 > 4 5 0 > < 4 r u s i 0 u c 6 7 6 u u < r l > > 6 p 9 4 > > 7 6 > 9 7 > q > d c % : : a 7 6 > = 7 u u 2 = p 7 > a a = p 6 u 6 r p > 7 0 = 2 > > 0 7 7 > 7 i 6 9 4 @ > 9 u > 2 0 = 4 4 > 0 6 6 2 6 i 2 > 2 > < 4 9 @ > = r p > @ > u > = > < 9 , @ = > 2 = > + = = + 0 = > > 7 < = O 7 < i > > @ > > @ 7 @ = < > : = > % @ @ > + > % @ @ O : > + % @ % % @ @ O % % + @ : % O @ O o @ o @ > > @ > + @ @ + > @ @ ",
"@ : > > : O @ : + % @ @ : @ > + > % % @ @ < @ @ 9 @ + > > > > = > @ @ @ @ O @ < % @ > > > @ % @ + 8 > < < > 9 @ @ @ > > 9 @ > < > @ > 9 > > , @ > > @ 7 : @ % > > + : < 9 > q 9 @ > : < > < : % : : @ > : > 9 9 7 = 8 @ : @ q 9 q @ > > : 9 > 7 > > < 7 0 9 > > = 9 - > a : : : > > > < > > < > u > a z 4 2 z = 2 = 9 q 7 7 i i 9 0 0 0 0 > 2 9 < > @ 9 u 6 9 0 @ < c z a 2 < > > 4 i 9 9 7 a 9 0 6 2 9 0 7 q q > 9 7 0 q > 7 9 7 7 > f q > > 4 0 > % = r i 6 9 d 9 7 z z i u a 4 i z < < 2 2 6 i 9 i l 7 > > i > > 4 p u c u 0 4 % 0 4 < : 0 6 0 u p 0 7 7 l 0 d 4 = f 7 6 9 z 4 4 9 6 6 N > 9 7 > z < > a 6 z i 4 = 6 l > q i j 8 9 < 6 i z p p u p > @ 9 7 0 < x i > : > i > 0 q 4 z 0 > 4 9 a @ > c 2 % q p 4 @ 8 < 9 < < < 0 7 9 9 < 6 6 = 6 > 9 0 2 < < x 7 i a < i i 7 9 i 2 > > 7 < % q % 5 z = 9 < > 9 : > < > i > > 7 9 > > > 7 > : % > 4 = % : > @ : q 1 @ 9 > % > : > % : % < @ : < % > > > > @ @ 9 > > : < 9 7 = @ = % > % > @ O % @ % @ + > : O % > : + @ & % @ @ + + % % @ + % @ @ + % > @ @ @ @ @ @ % % @ O @ > O < O O ",
"> @ + @ > @ + > > > > > @ @ % @ : : @ @ @ > < 9 7 > % @ @ : = @ = > > 7 2 7 = @ : @ > < > < @ @ > @ + < > @ @ % > < < @ > > 7 > = > > > > = < + > 4 > : , = i < @ = 4 > : = > > < > > > > < = < > > = + % @ > 9 9 : = : : > 9 > > < > : > 9 < = < % 0 4 > > : 2 > 5 i 7 @ > < 9 9 4 7 > @ : > > > + > 6 4 > : 9 i = : = = > > > @ 9 z = = p p = 4 : > 4 > > 0 z > i 2 4 i 0 a 7 < 2 i @ 7 > 7 @ > 6 0 7 q @ > > 9 4 @ % q p p 7 > 9 = 0 u 7 7 7 a 8 6 7 c 6 > 7 z 4 6 > = f z 2 i i 0 > 7 l u p 9 l l c i < 9 q i : < z a 2 7 6 p < < > > > > q > 9 6 2 i 0 a 7 i i 2 G d > 2 p i p l 2 2 @ > a i 0 4 > z z 7 7 i 7 p 9 0 6 5 6 > d p 6 < > : l u 2 7 6 z 9 = 9 7 u > 7 7 0 7 > > > < 4 9 6 7 < > 2 9 > > a 0 6 < 0 2 4 i 2 7 0 > 7 4 % 0 i 9 2 z 4 > 9 7 > < 4 2 > i 9 0 > > 2 p i > < i = 7 6 > > 6 > > > q 4 = = % @ > < 0 > > + > > 4 > > > < < < : @ 1 > q > % % 6 i 9 @ > < : @ q > > % = > % > @ < > > @ % @ > = = < > 7 > > 4 @ > % > > % > @ > q @ O < > % @ @ @ O > 4 = @ % @ @ @ > @ > > + + > > @ > o O O @ % @ @ @ @ % @ @ ",
"@ @ 9 : > > < > @ + : > @ @ @ + @ 9 = > > > > = = > > @ O @ = u c 9 6 d d d p i > = = < > = : 6 a > > 6 < < @ 8 4 % o O > 0 0 0 m 9 2 p p 0 = < = 4 @ + > x d 5 s p 5 7 4 6 > = a 4 > 0 2 7 0 2 2 > = > 2 4 > > > > > > > 7 > < 6 4 5 6 u 7 > q 0 4 2 6 p p p p r p i q 2 7 < 0 7 r 6 z f 6 0 i p 7 7 > 7 q = f p > a i > 6 r 6 2 2 = > > i u = p 6 6 c p 7 d 0 6 0 2 < 9 u u 7 < l p 5 a d c 0 @ 9 i 0 7 > 2 5 6 2 > 0 6 5 6 > < l i p 0 p u r r 6 c d d 9 0 < > > K i p s d c u 6 u G p r u p a G t 7 7 6 p 6 f 2 = 0 l < : z d d d d d f p d r 7 6 0 u 7 7 i l G G Z d 0 z G p 6 z b 0 9 2 2 u i : a r 5 2 2 2 u z 7 u Z I U G } L I I > = > 7 a 2 6 c i p 7 d i 6 u d f p > i 0 > = p p l d u p u @ 6 p 2 0 6 a 0 r r p l d s 6 4 > 6 = 7 4 u > 7 4 7 p 0 > p 7 7 7 > 0 i f p p u d p G d x p 2 y q > < < = 0 4 9 9 7 = p i i 6 i 7 = 4 7 f 6 0 > > > > = 6 = > > 2 7 4 = 7 2 7 @ 9 = > a : = > < > 2 r l 7 9 > > 7 6 : > > = < = @ @ > 2 2 2 = 4 = > @ > < > > > @ @ O + 7 9 < > O @ > + % > @ @ > < = = : O @ > @ @ + : % @ = % > ",
"@ + > @ > @ < = : 7 > @ + > % + = 9 2 2 2 7 @ @ @ > @ 9 = @ a H Z 2 i r s p f 0 = > 8 @ < 6 r 2 7 7 p 6 > 7 i 6 4 @ 1 4 2 4 > 7 6 0 > = 6 u z 7 @ , > G I p 5 G I Z x d x G p > a > > > u u 7 2 H l p l r z 7 > > 0 z p 2 u f 2 d 2 x d p 0 < > > 5 A d d p c s d x x d p 2 9 > p x p G L G c d d L f @ > 0 = 6 x p l p H d G H x p 2 u z > 5 I { { I L { &.+.G G 2 7 0 2 6 d r r f d x c 2 6 z 0 4 > u J I P L G Z U K p p d 4 0 r 6 i - G s p x x r u d i 7 8 a u d c t 2 l H d c d U x = 4 7 2 p d u l G x u x x x p 6 7 p P { { #.#.I U L 8.#.d 7 > 5 p K G d G H K x d d p x = > > > u G +.G u U U p c H l 7 6 7 6 d w.#. .#.6.0...8.#.G > q 6 p f p 6 f u d 9 p f d d p 2 > 9 7 d d d p l s G d G G 7 u z 2 6 f G t 4 x x d G s 2 q 7 > s d 0 p c s G x d x f u < < < u s d d G I Z P G U L H p < = 9 < r x r f K x 2 2 l P f 2 + 9 9 7 p 6 = 7 l f > > 7 i > + < = > 9 u 7 = i 6 u 2 > p 6 @ < = d x G d d Z H f x f p 0 q > > > i a r u d p z = = % > > + 0 7 > < > > > > > > > O % % @ < < < = > = @ = > = % O @ @ O @ > > > @ ",
"> % 7 > > % @ + > 7 @ @ > @ @ 9 = + 0 u < @ > @ > @ @ 4 > 2 z t Z s p r r r d 0 = = = > < p r 2 = p r 2 4 @ - p = > > = > 9 > 0 = 2 2 4 = u 2 4 $ O + { S d p d s s s G d G d @ > @ % 0 f p 6 2 s 0 p p d r 2 4 > > u 6 r 6 c u 4 0 d d d 0 7 > @ d x p 5 d x s G p p G u 0 2 + 6 u d s G s r d d d G 9 @ 9 d - r x d t s s G s d a s r 9 7 p { L { L X.[  .[ ..I 0 i 9 < c u x s f u > z a p 6 6 q > f L L I I P G L G x H l u > 6 p p u d c s s d 6 p d u u 2 p d l 6 f p H 5 p G s s x 4 < 9 l c s x d s H x d d U d 7 9 d G 2.5.0.[ { { [  .7.I d 4 6 r d G p d x 0 r x d p d i > < p G L L G u l d p s =.x 7 i 7 > d w.2.|  . .{ L  .9.w.6 % z u 6 u d d d r 7 c x d = 0 9 9 @ l H s u r c d s d G G 2 9 6 > > K P > p p u d G d 2 4 > 0 d p u u d Z G d d d u u q 0 > 2 s d I G Z } G s d L L G = 7 > 7 d Z I d p G s s s s d u q 7 7 2 2 0 0 7 6 6 i a 9 u q > + > = 9 0 7 > 0 a 7 i > u - : 2 > x Z d d Z L A d s G G > + < > 7 u p p s 5 5 7 a p % % > $ > 2 7 > = 2 : @ = > @ @ = > = 4 < > > O @ % < = > : % @ O O @ > > @ > ",
"> @ : > @ 4 > > + + % @ % + : > @ > > = > @ > 7 > % : = > 2 p d e d p l d s p 0 @ @ % < 4 4 2 i r 6 2 0 6 = 7 l > : > > > 2 6 7 i f 2 i : x 6 > O   > U s p p i p r d d d s 2 4 % % > 9 u 2 p 6 5 < 6 7 p = = > @ 7 i u u r r 2 4 > 7 p 7 @ > 9 > p G p 0 x d d d d t L t @ > q i u G d - r f x d 2 x l 0 0 7 p d s G G d 6 r d s G G 2 6 < d L L L L { { L L ..L > : > < 6 6 H d p H z 2 x H d 2 0 > i d G d r G d s d d p p 9 9 > i d H p d x p u d l l d t > 2 d K 6 l G d f d f s G U i > > u 7 7 K u = d d d x d l a 9 6 {  .I { 8.#.O.L { { ..d p d 2 P U d d d G G d G I G i 7 q l G L G x x d d d x G x l d 9 2 s 6. .{ L [ #.L [ 5.#.2 , 9 5 x s f f i i u x p p i 7 0 0 i c p p p s r f x x d d 7 > @ q f r p c 6 p c x d d f 7 > @ c f t x d s 6 H G r G d @ > 6 7 d P G d G L d x s d L I 6 > @ 6 K Z G d d d d x r s x p > = p 6 7 7 u p 6 6 9 9 9 2 > > > 9 4 > q > 7 z = - > > u 6 @ @ > x s Z s d p s s d G x > O % > 2 p x 6 u r 6 u p i @ O + > % @ > 6 > 2 7 @ = < > @ O O + @ > @ @ > > = = < < = > : @ @ % O @ = > ",
"% O @ @ @ 2 7 7 > o $ > @ o > % $ > i = + : = 4 7 > @ @ @ a 5 f p 6 r r d H u > > = : > 6 7 > = u > u p > q > = > > o O @ 7 p r > d 6 6 2 u l > : O q K s r i 7 s d x 5 p p 7 : > > > u r r s d i 4 5 9 0 , : % @ 9 2 6 > i p 7 2 i > 7 i > % @ < 0 p p x p r G r 5 G H r 7 z 5 p d r d K f d x u 0 d r = > < r x u p r u 8 : z x A r 7 i = l U G G L P d J } { [ 8 > < q r d 5 d Z G x 2 s G p > < > f x f i p d u f x G } H = : > 2 6 x p p f c d f Z u 4 7 0 u p u 6 p P L p H r d G G 2 q 7 q 7 u p p p p p d s U x = 8 2 } 9.i G  . .{ I { J I s G x p G G d J G S } r d L Z r l > 6 P I G Z G H d x L d r s r a 4 H { { &.{ L #.6.#.{ +.u i 4 u G s s u u A x d u d d 4 9 2 6 u 6 2 p p u p f a 7 p 7 i % d G s r r d p x p p c f 7 9 : p = s d u i = 4 p H { x = 9 > 7 p { d G x G G d K s L } 5 > $ > d J s p u i s d l i 5 d 9 2 f r p r d d d p = = i i 7 > > u 6 6 a > > > = a 7 > 9 2 O @ > d G U G s u f f s x s = > O @ 2 u p s f = u s p 6 % @ % = O @ > < u u > = > > 7 : o O * = @ 4 2 4 > 6 7 > < @ = > = O @ = > @ % ",
": = : > @ @ > > = @ % O O > > = 5 @ 7 r 2 @ @ > 4 @ o o @ 2 6 x S s s s s s u u > *   + i r > > @ p > 7 6 6 p u 9 @ % 4 > > 0 u 6 @ 4 < 2 9 7 9 > % = 6 s G G d Z Z d t G d f > < 9 = q z p r p 2 @ 9 2 2 x l = > 2 i > @ 2 r u f d s p 2 > q @ 7 u u x r K p s G G x G x 9 > = z f p s P G d G u d d x = 0 i d P p > c d G d 6 r c 5 2 < > x #.L [ #.{ Z L Z { { , % q 5 d Z s H d i : u d G i : i q = r G } P c 6 d G G Z s > @ 6 z p 0 9 u G d 5 > a 6 2 p a 4 s G d d l i c d p u G G p < 0 q G d s f 9 6 H H Z G x 7 > t L w.J L { S O.} I 6.} 2 0 a p U d d G Z s z a p G z 4 < 7 d G d d d P G L G 6 u s x > 0 6 P #.G I G  .O.{ L  .$.s m > = f d G x u f 0 r s c f 6 > : 2 x d d i r G d q p H p < % @ 6 d r s d l s G L p d r 6 0 > r z 7 > d G d s d p 2 r i : % > x P d G L G c 2 p H p 0 > 9 9 > f x p s d G s d s Z G P i > % < : 9 = @ @ 9 7 > i 4 x 4 + < 7 4 2 7 z p p s > 9 4 2 > > @ c I G L s G x p d G d 6 4 4 > - a q @ 9 u r x p - : @ % $ p @ O + = 2 4 7 6 6 + % : 4 = = > > = > > $ < > > > @ @ > = @ : > @ = ",
"> = = > @ = < % 9 > @ O % O @ 4 < @ % > < @ @ < 7 @ @ $ O 6 p u r r p p r 7 2 u 2 > @ @ 7 0 7 > : u = > > u i 6 < o % > > > < i 4 9 = = 7 > 4 > : @ > H c s K p d d p p u s f @ @ > < = 2 6 9 0 2 6 7 9 u 6 u : < 2 > 9 % i z 2 7 u > 6 l = > > = d p 7 2 x p p p 6 s s H < > > 6 l u 6 f d x u x s x l > > = x d 5 f = x G d 6 f d G > 4 > d { I L L G P +.Z Z [ 6 > 9 > d K z s s d d 5 d G u + 0 2 7 f H d r u d f G G d K 9 > 6 6 6 6 4 u H d r i 6 > z a > > G P f d d u r i p u c Z d i 6 c s c u H t d p 5 p d l p a 5 +. .x G { L L Z G ..I p 5 2 - x H d 5 x P d 2 f Z u = = 4 p L G p d d d s x s p d P 7 0 r P &.L G I { } I L { &.p q 2 u p s H p d 5 p f p d G i : > i d d p i 6 l c > 6 d d 7 > i 7 c d p d u r U d 2 d z > 4 > p d x p p p f f 5 p U d = = > > t G G d s x s d r p S r 7 > @ > f s f z p d d x u s G d + : > = 6 i 2 > = 9 > = d + 7 : @ > @ 4 7 0 = > 5 p 7 > a 0 < 0 4 0 G Z G d s s d p s K 6 2 @ > 2 > 2 = 2 u r r d l @ @ @ O > > > @ > > O @ i 9 O o > + = q > > > @ = @ 7 % O @ % $ @ @ @ @ > > + ",
"> % + = 9 @ @ > > 9 @ o O O % 4 : = > o % 0 7 @ > > $ % @ 6 d - i 9 6 p 9 0 - 5 6 > < @ < = 7 6 < i 7 < @ < 7 4 > @ % + > 9 > > 4 9 > i 2 = 9 > > % @ p d p z u d l f d f p p 7 4 q 6 f u > @ > > u 5 0 > 0 4 > > @ i i 2 > > q p 0 7 7 0 5 u 2 > z d 6 u 7 p p r r x d d 0 7 0 p z p 2 6 d p r d P f 7 @ @ 7 r 6 p J r 6 c p p x r G 6 : q u I I L O.I L P I G ..c 5 < 9 u d 0 d G I r u x x f 4 z = f c d u d G G l d x d d r x u 2 H f x s 6 2 r G x l i 7 = 9 G K 5 c d 5 c p 0 r d d p 0 4 I x u 9 r U G i u l l r 6 a @ G Z l P { { G L L #.L d z u u l x x s d d G x L Z U 2 0 7 6 U L J Z G x r p d J G c u 6 2 p L { I { { G } &.S } 2 9 6 u f x 6 6 d p x x f d d p @ 5 7 6 r p x s 2 0 7 > u G p - = > d d x d p d 6 7 G K u 7 < > 6 r s d p 0 i u u p G d = 9 > 6 H G Z U p d d G H x S d > > < 6 d G r 0 c d r u u r U s = < > 6 f u 4 = u p @ > u d 4 @ i 7 > > 0 6 > 2 6 r > 7 > = > = 7 p u x l d G s s s p s 5 4 O O 5 u 6 4 = u 7 7 d r + O @ o > < 7 4 : > % = > > @ O O o 4 @ 4 > @ > > > > % @ $ > O O $ > = + > > ",
"> @ + < > = > > @ @ @ @ O @ @ > > u > O @ > 7 = = > + O @ 7 p 2 > = 5 5 2 r t H u = 4 % > i 6 5 2 < > 4 > i 5 p = @ > @ > 6 2 7 = 9 7 6 6 2 = : = > + = H p r p s s p x d s p 9 7 > > f p 7 > > = i 6 d 2 0 4 = > > u r p 2 6 7 6 @ d t f u 9 2 = p d d d p u s x d d d u > % 2 p 6 0 5 f d p 6 d Z s 4 % @ 0 c r p r f d p s p s a 6 0 4 = s { s I I G L I G Z [ l 6 = > d 2 2 6 x G p f p d d 0 9 = r d d x d x u s x s r x p u 9 0 x d s d p p d d p p 2 7 z @ 6 p d x p c d p f s d d 6 < 0 } 6 6 T 6 x G 5 u i d r d 7 > x  .G L ..S [ { S 6.G p 7 2 f G p K x d f H d P Z G r a > r U d G G d d H d r G G - - 9 7 G { [ L { L I L #.#.U u 2 9 7 r f p c d s r 6 d d p u 9 > > 4 f p r 6 u 0 p p l u p i > u u s d t u K r u r s 6 9 4 > 7 c p d x u 6 6 f d t x 0 9 4 2 r x s G d G H s Z s G G < < < @ s L r u x s u d p 6 G s > @ < u f 5 i 0 6 6 6 = p s 7 7 > = > 7 7 7 6 7 0 6 - p q < @ = > f u d d r P s d p p d u < > > 6 p 7 6 5 u 4 5 p f = O @ + > : > = = > @ + < 7 @ O @ % > > @ @ = > = 9 > > > @ % @ O O + @ @ = % ",
"@ > % > > = > = > 7 @ @ @ @ > @ @ 2 4 6 0 + @ i 6 @ > @ @ > p f 2 p u p d s p d = @ * % = 6 6 7 2 0 0 r 0 p 5 u 0 0 < % > p 6 2 z > 2 6 u 6 9 > < 2 > 7 s d G Z S Z s G s d f q 7 @ @ 4 - r u 2 5 = > 0 6 u 4 @ @ 7 0 r s d r u = < d A d > > = 6 p d Z d p 6 s L s s G d = 8 = i f 5 H Z s d 6 p t d 0 9 > > r Z r r K d G d d G c = 6 6 6 G $.[ { G L  .L { { { 9 9 q = c c r f p 6 u p p s c u > 4 9 d d d d d s t d d d G 6 > > z p s p f f x x u 7 u l 7 9 q H s H s r p d G d d s c 0 @ 7 p p s G p p p d s - u H f 4 9 P { L ..L L  . .[ [ { 6 : 2 J I d G G Z s r l s d t = z = u G L G u G I d r p u G d 2 4 @ K +.{  .I G L {  .5.{ s 6 7 2 c s d G 5 G d x G p i 6 i 4 0 l d s r 0 f f s 5 u 2 2 : 7 r s c u x 5 p f s s x 7 > 0 6 > 0 6 7 u p s r d G 5 l i > < 2 5 x d Z Z s p p d r t p 2 > > 6 p x G x d p G G G d L d > = : = r p 6 9 9 > 7 5 7 p 7 = @ > u t 9 6 = i > > 7 i 2 : @ : = s P d s d d p d H d d f 2 7 7 6 u u 6 = t p = r 0 6 > + > @ @ = 2 7 q = @ 7 0 = % $ @ @ 7 $ @ 7 = > O @ = + > > 7 : O @ = % @ @ ",
"@ > > = @ 4 > = > 9 @ O > % > @ > @ > u 6 % > 2 i @ O > = @ < 5 7 d r 6 d r u i > : @ < 9 > > = > 6 6 u 6 u p 6 = = 4 + > a u > 2 r 0 u 7 p > @ > = 9 i 2 p P d P d G H d p = > 9 > > 7 6 i 5 2 f @ 9 p > 7 7 > > > i d u d 5 6 f q 6 s 6 > < < 7 6 x H H d d c L P K l = = > < 0 p d A H p x d i s G 6 > 7 7 u G c f r G s K x d a 0 z < = p $.[ { L { L L I L S @ @ q 2 d d p 2 u p 5 p p s E = 7 < @ 9 5 G d x G G s d p u u @ > > p H r r x s d u u u c 6 + > x x u u d u x d G G x p 2 u > > 6 d x d a 0 l J c x p 2 7 2 s +.e.} d G } { { { Z 6 : > p U s p I L G u p s P K 0 q 4 6 x G U p I Z d u p 6 G p 9 9 = d P L ..L P +... .#.{ s 7 7 9 f s K c > c p p = i i 6 5 0 5 i - f f r u d p 6 l 6 > > 7 p 6 u x G x d f f x d 7 = 6 p > 2 6 i 6 t x d s s 6 a 0 > @ 7 f p G G U d s d G d 2 c 7 > @ u H d x s d s p s H S x 2 4 > > 0 6 2 = 7 4 9 7 2 = 5 i : 9 < : u 6 4 2 u u u 0 7 a = O @ = d G G Z d d G s Z G d 5 2 > 7 6 2 u i 2 6 f 5 u 9 2 7 : @ < > = 4 > 7 < + = 7 > > o o 4 > > 7 : > % @ % 4 % > O @ @ % @ + > > @ ",
"= O + : > + @ % > @ @ % @ O O 9 > % @ + $ > > @ > @ % : @ @ : > % > > @ u % @ 0 + @ @ @ < = @ > 4 > = 7 7 > > : @ = = 9 @ O q > q > > < = = 9 < > 4 7 @ 2 7 > > i 2 p 2 > z u = > > > 7 7 > 0 = 6 7 > < < 9 9 > > > @ 0 4 4 4 > > @ : % = > 9 7 9 > 7 i > d H r s 2 7 4 7 7 > > > 6 z 5 p 7 6 x p u x > 7 a = 2 2 2 K l u 2 z = i 2 6 > > 9 9 p G x x G x d f p d 0 0 < 2 p u f p p p p f d p i > i z 9 i i > i 2 i H i 6 < 2 i 8 0 = > 7 d H p 4 7 a u 7 r 6 a 2 p u i u H u 7 5 p 0 6 = 6 6 9 0 0 0 6 9 2 6 @ 7 i p 2 i 9 > 4 7 = 6 c u u L d p i 7 i 7 + c p p d x l 6 p s H u 7 9 z > u u r x G H p c p p d i = < l 5 G U L I d } H G U s 6 7 9 2 6 u i 0 0 = u i 4 6 c z 2 7 > 7 p p x p 6 u 7 z z 6 9 q a > 6 i 0 f p f 6 a u f 8 @ < = u u 7 z 2 2 2 6 p d > 7 7 9 > > 0 f p p 6 l f d i p H p > % > = 2 c u 2 u c d x f d @ < 9 = > < > 7 0 7 @ a > 0 2 4 < > > 0 @ 7 6 = 9 = 7 6 6 = < = > = > 2 x d Z Z s d G L G G 2 < @ < - a 0 9 a = 2 u 7 4 > + @ + , @ @ > @ @ % + 7 > @ @ @ @ = > > : + > + = 4 > < > % % O @ @ % O + % ",
"7 o @ > > % O O O O @ % @ O o , $ @ + O O > > O > % O > @ % % @ % @ % @ % @ @ > : = > > @ @ : < 4 @ % < @ > O $ > : : = > @ @ % > 7 > 9 > < % % % @ = < q < % > O = + O O < 7 > > > < @ > O > : < 9 < o < > > < : @ > @ : @ @ > > > @ @ @ > > > > > > % @ 2 p > > > > @ 2 i i 7 9 7 = @ @ > > 7 2 r 7 4 7 4 = q 9 = u i > 2 6 > > 7 - z 0 > q 4 i 4 > 2 6 = @ 9 7 = 0 9 < 4 a 2 > p 2 0 = > 0 7 7 0 = 7 7 8 : : 7 O @ q 7 > > 4 - > q z = 7 6 > 9 > 4 f f 6 7 i p 0 = 4 7 6 0 2 7 % 7 : a i > 9 7 a > < < > z q 0 > = < 0 > 0 q : : q > > 9 9 > > < > > 9 0 % > 0 7 > 7 > 6 u > > > 4 2 9 9 7 p 6 5 6 2 2 2 r u 7 7 2 7 6 0 p 7 p 5 - > 7 f = < > 9 2 a 7 < < < > > > i > u 6 > > i < 0 > 5 7 > 4 > > = = 6 7 < > 0 > @ > u 7 > % u 2 > < a < p 0 2 9 @ , 9 7 > 9 7 7 = 7 0 7 > 7 > > @ 7 a = = > r 7 > < : 4 9 6 > @ > 2 6 9 7 2 @ > 9 > 7 @ = 9 6 > 2 = 4 < > > 9 > = < % > < > : < 0 7 > @ < 2 > 9 , % 7 6 p U u r p x 6 z > + > > > 2 = @ > > > > = = % @ @ % O @ + % @ O O > @ @ @ @ @ o > > : > O @ = @ % O @ > + O @ % % + @ + > ",
"> @ O @ + % @ O o @ > @ @ O $ O @ O O : > @ O $ @ @ % % O > > @ < O % O O O < > @ > > > % @ % @ > > @ % @ 9 4 % + % : @ > O @ O % > > o % > > > > < % = 9 > 1 @ : 0 < @ > 9 q @ > % > i 7 > @ > < + @ > > > > 0 > @ 7 9 : 7 4 > % > > $ > 7 4 % > 7 7 9 7 > 7 @ , 9 7 > i 2 2 0 : : < < 7 > O @ q @ < 2 9 q = 9 > @ % > 7 : 4 7 9 > 7 0 7 > 9 6 a > = > x p i > 7 < : > i < > 4 < > > = q > 0 < > > 2 4 > > : > < < 9 9 = > : > @ < 0 i 0 = a 9 > > > 0 > l i > < : > - 2 4 a @ q 4 4 > < 0 < 7 4 : > 6 a > = > 0 4 > 0 0 6 0 a < > 4 : < i 7 2 : 0 2 7 q 9 9 > : > 1 > 9 0 > = : = p z > < i z 7 i 7 7 > q > p z < 9 9 6 6 7 = < 0 9 0 7 7 7 9 7 0 7 7 7 6 u > 7 0 @ 6 z > > i 0 < > u 2 > : a 0 r > 4 > < > @ > > a 4 > 0 < > : , > 6 < 9 : > q i 0 > : < > = 5 > 9 7 i q > > : : > 9 % > 4 a 6 @ 9 6 a = > > : 4 < = 7 > > 4 > u 7 = > > 4 < = = = > : @ o > @ 9 > > + @ > 9 % @ > = > @ > > 4 0 > > > > @ O > > @ > @ > + + : q @ % @ = > > > > @ 4 @ o @ > * % @ > @ O @ > @ @ @ @ @ @ @ : # > O > > : + + + % @ % % O @ O + @ @ @ ",
"> @ @ , @ @ @ @ @ o @ @ @ @ @ : @ & + = < @ @ + @ @ @ < > @ @ @ > % q q @ < : > < @ + : : @ @ % 4 @ > % + > > < > : % < = @ > 7 > @ > @ > : > > 9 7 : 9 @ > 7 % > > > @ @ 0 @ % 9 @ 9 0 < < > @ < 8 > 7 = > i i 2 4 4 > > q 9 = = 9 = @ 0 > > < 7 @ = 4 = 0 i > @ 2 > 9 < : 0 > < = 7 i 2 > > @ > 9 7 7 q > > 7 0 = O < 0 2 9 q > 7 6 i < > < 4 > > q 0 d d 4 = 9 > = 2 a 4 7 i > @ > > 4 < % % @ 7 0 7 < = 7 9 2 > = < > > > > 2 9 i 7 6 9 = 7 z : , q = 7 < > % > 7 a r 0 2 7 > @ 7 9 > 0 0 i i 7 9 6 p 9 > 9 0 u 7 > > i p 6 0 7 6 > 9 a 7 d > > i p 7 6 i 9 > < i > 9 7 z 9 > r f 7 @ 7 0 @ 6 4 i z < : > c 0 u 6 6 q q : l 2 7 6 4 = < 0 0 u c 6 a > 0 0 4 6 0 p 6 2 9 q 0 9 > : p u 0 2 a 2 u < = 0 4 > 9 9 > 4 = 6 = < > > > @ < > 7 > 9 u 2 2 = 8 < 7 l r > 2 6 9 , @ > 0 @ > % @ > i 9 6 @ 2 2 i > > > > 7 2 > 4 > = > > @ > i > > 4 i = = 4 @ > > @ 0 7 @ = 7 4 : @ 9 < + @ % > > @ 7 > = > > % O $ O % : % @ , @ > % = : O > : + 4 @ > > @ > @ @ * % % > % > * > > > o @ @ @ % @ @ : O > > @ + @ @ @ @ % % @ @ O @ O @ > @ @ ",
"> % + > : > @ @ > @ o + > : > > @ > @ 4 = o + 7 = > + @ < % % > @ > > 2 2 7 @ q % 4 = : O 7 i = = > @ @ > 4 = 7 > @ % < 4 z d d p l f d 0 > @ @ @ @ @ % = 0 i 2 @ > > @ = 7 9 @ @ > > @ > p i 6 > 6 0 u q @ @ : > 7 < > > + > d p % 6 u f @ + > 4 4 9 u 6 2 5 r d s > < > : 9 = 7 l r 6 i 6 d l 2 r 2 0 % @ > 9 2 6 > u 6 u 7 2 2 a 7 > @ 4 > = < , > 7 - > @ 7 < 7 q = r t 2 @ 9 q > 9 6 6 > > 2 z = < x d d s x s d r d I d = 7 > 2 l d i 2 i 2 u 6 f 0 7 < < q r x f r d d d d d x 2 6 u 6 6 r u G 0 5 p u > = x K = q : > 6 I 5 u d L G s x p > 0 p 0 0 2 d Z d d d d > u G 6 5 6 i = 9 0 2 9 7 > 0 6 d s r = = p 2 4 9 6 p s 7 6 i 4 4 > > < 9 7 2 > 9 6 p r + 9 6 @ = 7 > = : > 6 d u p = = 6 u u > 4 > 7 > 2 p d P p 2 2 s Z f @ < 0 > < 7 5 u 6 = 6 2 7 @ 7 2 7 > > < > p 6 l p 7 5 - - r u u > = > 7 > 6 r p 6 = 5 x - 5 @ @ < 4 > = < > u p 7 7 > > 4 0 + @ : 6 u 7 = = 4 9 @ @ i > = 9 $ > 2 4 > @ : @ = : = = < > : > > @ o q = > = @ > > > > @ % < @ 9 < @ 6 4 > > 6 7 < $ + : + @ < @ @ = O @ @ @ O O % @ + @ O @ @ > @ > ",
"> @ + % 0 @ + 4 @ @ % @ @ > + % > 7 > > @ : = 6 a > O @ @ 4 > 7 9 6 - f 6 0 > > 7 = > > = 6 7 6 : 6 7 6 9 6 > 7 = < : = u s x Z s s s d d c 7 < : % % = 9 0 7 p 4 z 7 4 a 7 0 6 > > = > 7 6 2 6 9 r p > r 4 < @ > 9 > 6 z 6 % d r 6 p G p > @ 9 < 7 7 d G p 5 x G J f r i @ @ > 9 u d u r H G p G H r 7 < m > 7 H s G H d d x d G 6 @ > @ 4 z 6 l 6 = i z 2 7 l 6 d l > 7 l U p r p 0 0 d E p r 4 > < 0 d { ..{ { +.{ { O.0.L 4 4 9 2 x G p G p p x d d l 7 = 6 : d { L I { I #.#.{ { G 5 4 9 > u s x x Z d d c x G d 2 < % @ p 8.&.#.8...&.I { } l 6 2 6 6 a L { #.+.{ } G L { I 6 > 0 6 u 6 K 7 H p 2 H x s x i z i 7 9 6 G G d d c H d r > 4 @ > 0 r p p r s P p z 9 4 6 > > : q 7 G S G G f f d G G > < 7 6 a f L Z L I G U I { { 6 < < 2 9 p p G z u c x r i p 7 2 2 > 6 l =.I I G U } } x U I p < : < + p I d G x s U G p P 0 = > > > < 2 u p u d z 2 9 p 2 9 > @ 4 7 2 7 > 2 0 > 2 9 u 0 6 $ < @ > : > 2 2 6 - 6 p i = @ @ = 7 : > 4 % > @ q = > 9 > @ > + > > 2 6 2 = u s r = % O @ @ @ 4 O O % > > < 2 > > O @ > > : > O @ @ + ",
"> @ @ > 4 = @ @ > > @ @ @ @ @ @ 9 > @ @ + 7 = = > > @ % @ : < = > u 4 p 0 > a i > o % @ 4 7 = > > r 7 = 0 > 7 > o > @ = p H d s G u d p s G d 9 = > 7 < f 6 6 > > 0 6 u 2 l 6 9 : @ > z u u p 6 0 6 = > r p p @ > 6 = p d s d u p i 5 s 2 : % : = 6 H s u d s s s d p d u @ < 9 2 - p H p r p = u x G u 9 : @ 5 L s u i s G s d x G 2 6 9 @ i u p p p l d 6 = 2 d c > = = p l p p d f p 5 G d r 7 < > 6 I O.{ L L L { [ L { I s p 7 > 2 u d d 6 r x x p t p i 9 2 L G { &.I S  .L L O.8.I 4 q 7 z d d G G f r G P s 5 9 @ q p d { O.L [ { L L { P G G 6 @ = K G Z { L Z L L { { P < > > 5 x d r u i c x d l r l i 9 > > i s G d G r s p t H c 7 z > 4 H x H p s s x c i i c 6 < 2 > > E G s p d P z 5 d d 7 > % 2 p G L L L L G I L G d > 6 7 = 0 5 5 d p u p 5 H d r 6 4 7 - Z O.Z P G S L { d d { s % : * = L L L G s P +.L Z P G p 4 q + 2 c d = > 2 s 0 < 7 6 u p o O @ @ d i > 2 0 i = = p 7 : % > < 7 u 6 6 6 6 u = : = > > > > 7 + = 4 : O > @ > 2 > @ @ 9 @ 7 i = > < i = 2 7 > @ @ @ + % @ > > : > + > % @ + > @ = > @ > @ @ > ",
"> + > @ + : 4 O % < @ > O @ % @ = @ > < @ = i , = > > > O = u 4 > = u < @ = p a i % @ @ > 7 i 7 > d 6 : > 9 i 4 @ > > > f l p d d d f p s G s 7 2 0 0 6 r u p 7 5 7 6 5 2 d u > @ @ > u 5 6 u 0 s 7 7 i 6 s r = i 4 0 c r s x 2 x 2 7 6 > 9 @ @ 7 d G G r x d r s 2 d x x 9 9 4 > 6 f r d u i 7 7 r G 7 4 > < u G r 0 p p s G G p L d 2 0 : 2 p s p f 5 - 0 6 s r > = 8 7 9 p s s d u p 0 d x r r 1 @ A L { L L +.I { I { L U K 6 6 2 p l u d d u 6 p u f d u > > G { ..{ I L { #.O.L { [ > @ > u r G G s d x d d G r 7 9 4 u G 6.Z [ } { L #.L I } x = > 6 J P d G L } I G S S U u 7 4 i d d l x = u d p f 7 5 H 2 9 > f H p p d c d p s G p i z r p p p p d c 5 p d 0 u r d 2 0 > > P s p p x G u s d d 7 9 , = U L I { G L G d Z I c 2 i 7 u p p p f p p 5 r 5 d d l > 0 r Z I L G I L Z d P d { s = > % > I L I G A d d G L G S G = + @ 2 p p < 7 9 7 > > 0 7 6 r @ $ @ 9 d = 2 i > 9 > q 2 @ + % > @ p r 5 9 @ 7 4 9 : = p 6 % @ 6 a > > @ 4 @ > > < % @ O = @ 6 7 > @ 4 > > < 7 = + > @ > + > @ @ @ = > @ > @ 4 : + O O @ @ @ % < ",
"@ @ % : = > % > @ > 9 o O O > @ > @ > > : > + q 4 > @ @ @ > 2 > p + 9 4 @ a 6 @ > : % > > p p 2 > = 7 : 9 > 7 r + , @ 6 x p r p s d p p u d s 4 9 O @ > 2 2 > 9 a 6 u 2 > i 0 7 > @ > p u 6 7 a u i > q 6 p > > > = i r t p 2 = 6 2 f p p 7 = 4 q d s s 5 p G s d 2 p x K > @ > 7 l d 6 5 f u u i d d 2 > 7 @ i G p r p K t u p u L t = a < 2 s c 7 = u s 0 a x u 9 7 > 9 r d d p f u r H p p z f o @ G { +.L S G Z L I G L d > > 4 7 i x p c d 0 6 p d A s = : ; d } L { I I [ ..I L #.{ 6 4 z P p x d r u H p r U G d i 7 = G X.{ { I G [ 8.L P L u 7 > 7 x U P I I G L L I I G c < % 0 2 6 x d 9 l r d 2 p G x 6 9 0 5 d x d 6 f d d r H r 5 > p > 6 6 r x p G 0 l s s p - p u > p x d G G A p p d G G = > : i d G I d G G G d d +.r 2 = @ d p i r 2 p d f z p x r 0 > > - { #.G s L L Z G L H  .G 7 > 4 < G S L Z G L u p Z d L G > > > 2 7 5 7 7 0 2 = 0 9 6 2 = > = 9 6 2 = 7 6 = 2 2 > 9 @ > > + > 9 p r 7 = > > > = 2 7 @ : > 7 u 9 7 7 : > + @ > + % > @ = > > 4 > 4 7 = 4 = 6 = > % > > % > > > > > > @ @ < > % O O > @ > @ > ",
"> % > > > : $ % = = @ O O O O @ 2 @ = > 9 @ o - 6 % @ @ @ u 2 7 r > 7 7 6 7 > < @ = > + 9 d s s l < = 6 2 > < d 7 > O 5 s s x p p d u d p x z > @ & % > a i 0 i d r u > = 4 4 < > O % c r = : u r 0 2 7 2 9 < < @ 9 > r 6 % : a r i f Z P 7 $ > 4 i p f c s s s s 2 p s 0 7 > > 7 > 0 i p x Z r 6 x p : > > + d d s s d Z d d 5 f L s @ % > 4 i p 7 9 0 4 2 5 t s p > @ > d d p x d p s x s u x > * > s { L X.L { [ } { S #.O.> : > = - d x 6 f H 5 6 d x c 4 q , [ L S J P S { [ [ #.#.s 2 p 0 d G l l u s r 7 p d L G 7 : > x I  .L P { 9.#.Z d G d z 6 l G Z [ S G L O.{ G L G f > @ q z r d x 6 x d x r H U d p 6 7 u d s x H r a p u p 2 < : q 2 p 0 u x u l 4 4 s H 4 - a 6 > p G d G d s i x d d s 2 @ @ p P { I d d G s G d L G = q @ u G 2 0 z 6 s p x H 6 5 2 0 q 4 Z { { G L G L H Z L [ L 2 < 9 > G I G p G G d i f p I u O : = > > 2 u r p 6 p 7 7 7 > 2 < p d - % 9 5 5 u p > 6 9 @ 4 = @ 4 6 6 i f f 2 > 2 2 d > @ 7 2 4 6 9 2 = > a > > 7 % > > q 7 % 4 > > > 7 6 = > 9 = @ O + 6 : + = > @ = > = > > = @ o O > 2 = > @ ",
"> @ @ > > % 4 7 2 @ > @ @ > > + > : < + : > > @ > % % , @ > 6 2 @ 7 6 6 > 9 0 s @ % > > a 4 + 7 < % = 4 @ % > > % O O > > p p G x d 6 r s p p > : O @ 2 6 > 6 r s i 7 2 r = : @ % O 2 A Z p i 2 > = 7 > < 7 > 4 > = i p r p s p r u G Z f @ > : > L } s 4 f p G H Z s G r 9 > @ 0 d 5 6 p s s p Z s p 9 > q > d x u 6 d Z s G G s L p O % @ u H Z d d l 6 s d x c > @ : 5 s p p x f u p 2 u s l @ @ < r +.Z Z {  .~ L {  .{ Z c 9 @ > d u p f t f f s s 6 9 1 = % {  .L { L L { #...{ O.Z 4 1 4 : P { L s s x p L S f 2 : a = L #.[ ..G G w. .F #.I u > = - G P L [ Z L G I L L } a % > i G s s P d 9 = 2 d d f 9 > > > 4 x d x > l = d s d s : 7 i u p d 2 f 6 4 G L s c u 4 0 9 O > S L s i x i t S Z d = > 7 u L I Z P L S d L L { p @ > O 0 s d G i 5 t d t s Z I - 4 0 > d O.I L L { L d H G { { 2 < < 2 L { s A L G S G P G d = @ % : 4 p d r 2 7 2 9 4 > 2 d 9 @ O > 6 = : 6 7 4 > @ q 7 = + O @ 7 u 2 7 5 4 > = 4 4 > % , O @ 7 0 > 2 2 4 7 7 4 = > @ 2 @ r 7 + 4 : = = 2 = > > @ @ O @ 4 > @ 7 > > > > % O $ O O O % % % > % @ ",
"> @ + @ 7 @ @ % % @ > = > @ > > @ O @ > = > = > < > + @ @ = z 7 @ 0 9 i = = 5 5 i = > @ 7 7 > 2 > > i > @ > > @ % O @ u 5 6 p s 5 p r 6 p G d + % % > 0 > @ q 6 d u - 7 p 6 2 + > % @ u p 6 > 2 = 2 6 0 = 6 9 > > % > i r c d 6 i 7 5 x d 2 > 4 > p G s p 6 r s r d f G 6 7 $ > i l u u p p 6 x p s f 6 2 4 = d H u p G Z s f d p d c @ > 9 2 f p 6 2 u p p f 6 6 @ < : 7 f c p 6 i 0 6 p d d c @ < 7 p I I L I { L s L { { L r 7 @ 6 d p 2 > G 0 p d f p 7 p 4 q L I I L { I L { { Z I L 2 > = a x s G s x c d x d x p a 7 > I &.L G I S { { P { Z d i 2 6 d I d L I Z G G J O.L p > 0 6 r l x u f 5 7 4 f 5 s u a 6 7 p z x f i L 2 i p Z x q @ 7 r r u u u u > d G p 2 = 2 2 0 > = d L d 7 x 6 t G s x 0 % 9 5 P I Z p G d I P d I p = 4 q 2 c l 6 5 p f c p f r H u > > @ G L G x G { Z G d d L H > + > @ U I s x G G G G x s d p < > @ 9 i 6 2 a 0 > 7 > 7 2 2 a @ > > 7 7 7 < > > 2 2 = > @ % > 7 0 2 6 a = > = 7 0 0 = > @ @ @ < > > 7 9 < > 2 > = > = @ @ > i < > > 7 4 9 @ 4 2 @ @ @ @ @ : @ > > @ : @ @ > < O % @ O + + % @ @ ",
"> > @ @ @ @ o O @ @ @ % % O @ 4 > > > 4 > > > > > @ @ @ 7 u 0 > 6 0 = 2 7 r f a z > @ + > i 2 p - u 2 > 6 r 5 > = > : p d r r d p p 0 6 t S G = O , > 9 9 < 9 2 r r i i p d u 6 > + @ i p @ < a p z = > 6 u 5 > : : < 2 6 p 7 7 i f = r 6 9 > 2 @ 0 s U d r x d 5 d x d 6 2 = @ @ 2 u p 5 l > r 6 d K 7 @ < > d p 5 p d s p x G d p l 0 i 0 7 6 2 z 2 i z - r p f < 6 9 > u r p > i d d G r 5 4 : K u e L } [ G G { { I G L ..2 > 0 z 6 r p 0 p f p 2 7 f 2 7 < : Z I I I G G { L I L { L 2 a > z f 6 H d 6 z 7 6 r x 5 9 0 = K L } S &...L x L L +.d > > 4 x I U x I L Z G P d { d - @ = p f 7 @ r H x z 7 7 G 2 p p i = 6 p 6 p L d 7 p G s < < > z G i c 6 7 s 4 2 p 5 l 6 > p l d H p p p d x d G d p = > < 7 G G d d G d I L - G G 5 = > = d f c 6 u d r 7 6 6 0 0 4 q > d S d G G L Z L G x L s @ * : @ d L G d G s d s d H S G 2 % @ 6 0 2 7 7 9 > 7 7 2 u 4 > @ > > 2 a 6 @ @ 7 p r = 9 > : @ > 4 < 4 4 @ 7 0 2 > 5 = @ @ > 2 = > 7 u > > 8 > < > < > > @ : 6 = 0 7 7 i 6 6 > 7 @ @ @ 8 @ 6 = = < % @ > > = < 4 > O O : @ % @ @ ",
"> : @ q > > = > > % @ + @ O % > = % @ @ > 7 < 4 > 7 @ > = > > + s > @ 2 6 p 6 5 5 > @ O 7 6 7 6 > u i > 6 d p 4 @ @ > 2 l p p d s r 6 r s Z d = 4 > = = 6 2 = 7 f 7 9 5 r 6 0 > q @ > > 6 7 2 7 a 6 7 2 c 6 = 7 @ + 7 i u - 7 u p 5 p 6 > @ 6 9 = i s P G G d d G G s G l > < > 4 0 p 5 r s r p s s d 2 @ @ @ d G H d d d d x s d 6 p d > @ 9 f = 6 r r 6 p x s x 6 6 7 2 6 6 c 0 u x d s p i 7 = > = d L [ #.S I I O.S L L G l 4 6 = 2 p d G 5 d 6 i r s 9 > < = L { G { L G L { I { { I - 8 9 6 G s x x f p G d p s p : 7 2 d { [ L 0.I L L L { +.d > > @ c Z S d s { { d I  .8.Z 7 < > p r r i p d t d 7 6 l p 7 9 > 9 p p p p x t p d l 7 < 0 6 f G u s s c d < 2 d x l 0 4 = 6 s P s G G s d s s d d r > > = p I I I d G Z G d I d 5 > 9 9 u 5 p x d r x u d c i 6 = @ > p { Z I L I Z L G d G p > + @ 2 x L S P d d Z G d r { d @ < > 2 p 6 2 2 > 2 7 0 6 5 @ @ @ > > > - p 4 0 7 6 u a < = @ @ > > > > 2 2 i 9 2 4 4 6 > : > > 4 = 2 7 > > > > 2 7 @ + % O 0 2 5 6 2 7 6 = 7 4 4 < % O @ > 2 > < @ @ @ @ > @ = > + @ O O % > > > ",
"% > = @ @ + 7 6 > > % o % @ : @ 8 > @ @ > > < > : q $ > + % : 4 2 > 6 u 4 o @ p > @ @ > 7 7 6 7 = 6 7 > > 7 > 7 > @ % @ 5 f p p r x c s d z p < : = = q 6 6 a 6 a 7 0 t f p > O > = > 4 2 9 > 7 % @ q i 2 9 4 @ > = > u d d p p Z p G b 7 @ > > 0 d Z r s U d d d G Z d 0 @ > > 4 x x u 5 s d r Z G x 2 > 8 7 p =.G d r G P s p G d d $ > @ 9 p p d A 5 p p p d P @ < 6 7 9 > l d 6 6 6 r p u 9 0 7 o 9 G { L +.O.L L { 0.{ G = = % z i r P d p Z p 2 d d 6 > 0 > G +.X.{  .} { [  .#.6.G = @ > i d I J p s s P d G f 4 @ 9 u { 5. .0.S { #.5. . .Z 0 7 0 i H { { { { P S { [ ..+.> @ * = d H d d r d 5 r p i 2 p = 0 < 9 d d x d c 2 Z x 4 : < i i i x d d x d d < l L x r > 2 0 2 p P S Z U d S L d d G 9 @ < 0 s P I L L { G [ L } u @ > 9 > p s G d p p s d d p x 7 > 4 4 x P ..L L { G G L I L s = @ > q x } G G p Z L S G d H p = % % = d 6 p p > 4 7 2 7 5 > < > 4 = u r - 5 i @ > 6 @ > > @ > @ > 6 > > 2 9 @ 7 i > > @ : + @ 6 5 > > 2 6 i r > 7 > > @ , 5 a 0 = 7 > - 5 u 0 > @ > @ @ : > = > @ > > q % @ @ @ @ > > o = 9 = + ",
"@ + = > @ % = : > @ O $ @ + = + % > @ + % @ @ = > O O $ % $ @ > @ > = = > O + 7 o + % @ : > : 7 + > = = < @ > 4 > : o @ : 2 7 p 2 u u 6 r 2 > = @ 9 > > > 9 7 > + 0 0 7 > 7 + @ > > > > 2 9 7 7 > o @ > + @ @ % @ q @ 7 i = 6 p u u p 6 4 = > > 4 2 x p 5 x G 6 - d d u > @ > 7 5 r f 7 7 0 d u s r 2 = 7 7 0 > 7 5 x l c s r p r s = O $ @ > 7 = 0 p 2 7 p 6 5 2 @ 4 2 7 < 7 2 f 6 0 p 0 7 6 4 - 7 > = a H s s G U G Z I K p @ > 7 d a 5 p z r x p 6 l p > < 7 7 2 p d G I L G { L G G 2 : 1 > f d G f f K J d d d p @ > 9 7 I  .&.{ { +.I L { I f p u 4 4 2 G L G G r d J G s r > q < 2 u d G G u p c u u i 7 p < : > < f d H 2 = p G p @ @ 6 0 = 9 6 p p u 6 d 6 p s p i 8 > 7 > z d Z t f c G G Z G i 9 9 > 7 u d d d G G J L I L > 7 i 0 @ 9 K H r 7 c p u u r 6 7 < : 7 6 s L L G U p G G G s 0 2 i @ @ u x I G K U G G G G = = > O > > i u 2 7 2 7 4 > 7 = 4 > @ > = 9 > @ 2 a @ : > = = 9 @ > @ : q 7 = 7 < @ = > = > > + @ + > i < = > 7 = 6 > 4 9 > < % 6 7 > = 4 7 2 a 2 < @ : % @ O > < @ % @ > < 7 @ O $ O + % O > > > > % ",
"% + O @ @ @ + @ @ @ O > @ @ @ @ O o > > @ o % > 4 > @ > % O @ % @ % O o > % O @ O O @ > = + q : @ > @ < > O > @ : + > > @ % @ @ 4 7 = % > 0 > # % + : > = % > % @ : = + + 4 @ > < > : @ @ > > @ = > 2 > 0 % O > O : + % > > > q @ + @ @ > 7 7 7 @ @ 9 2 > = > = f > = a > > > > > > @ > % @ : @ @ @ > 0 > > 7 = > 4 6 + @ 2 6 6 7 9 7 4 7 > > a 4 < 7 > = > 9 > > < 4 < = 9 9 > = 2 @ = > > > = > i 6 % % 2 > - p x G 0 @ 9 2 7 7 < 7 p 9 % > 9 > > : < 0 i i > 4 2 > = i > 5 = 0 > < a = 6 9 < > 0 = > 7 z 2 6 7 < p z 0 > = 6 s 2 > f p d 6 = @ > > 0 9 7 6 4 0 > 7 6 i 4 < u a 4 < < 2 7 > 9 r > i 6 > 6 6 9 i 4 > 7 z - p > p 2 4 @ @ 6 r i > @ > > 7 2 % = 9 0 < = 6 > @ > > % + > 2 a @ > r > 7 9 @ > 9 < 7 > 2 p 7 > > > > 6 0 @ > < 6 a i + + 4 = > @ > a a > 9 < = 7 7 = 2 u 2 = @ < - > 6 4 @ @ = @ > 7 = 7 6 2 7 > : 2 > > < 7 q @ @ > = = > 9 > @ = < 7 = : > < @ @ > @ > @ > 4 q > + + > > @ > @ > : > @ @ > > > + + > % @ + 7 7 > > > = + @ @ + = o = = > + = > > + + @ : % O > @ @ O % @ O + @ @ @ @ @ @ + O @ % > o @ + ",
"% @ O O % @ % O @ % o @ > O O @ = $ > O % % % @ 6 % @ > @ @ $ @ @ % O % 4 @ @ @ : > > % % = @ @ % > % @ > % @ % @ @ > @ @ > : % > > @ % @ > % # @ @ < < @ O @ % $ > > : q < % @ 4 % @ % @ > @ @ 7 < > = @ @ = 9 % @ > > > 1 @ : & : > o 4 9 % % : > < 9 q @ @ : > % o 4 > > < @ % q > 4 0 $ O : % : % > > = < : < > @ : 4 > = > = > > 9 4 4 = @ 7 % @ : > > @ < > > = , @ 7 : > = a > < = > 0 > > 7 p 7 9 = : 4 2 6 4 @   % 4 a 6 : @ > = @ 9 > < : @ @ > 7 u 7 > i z > 8 > 0 1 : : @ > 4 i 7 > > 4 > 9 > > > < > @ > 0 6 4 : q 0 % z @ > q > q > : 9 > > 4 < 9 % 1 @ 7 4 = % > a 7 @ 9 0 = > 9 0 9 < > > 4 = > 6 7 > 7 > = z = u r q @ > d u 7 : 4 = < > < % @ : < < : q > < > : , @ > a o % a > < @ : > > 9 > : > : 4 9 , @ < @ @ : : : > = @ a > $ q 7 > : > % @ @ 7 i 4 : q > @ 4 q > @ > , , 9 > 1 > < > < : < : = + = % @ @ < 6 4 > > > % % : = > @ < @ @ > > @ @ < @ % > @ > @ > > = 7 @ $ > % @ @ @ @ : @ > % % > > > % > 4 @ > @ 4 6 @ @ > @ % % % % @ @ @ O @ @ + @ @ O * @ + % O @ @ % % O @ O O O O @ @ % % > O O O O O @ @ ",
"> % @ @ @ @ : : % < @ O @ % % @ @ = = @ @ > @ > @ @ O @ 4 = > @ = + > > > @ > @ > 4 @ @ 9 @ @ % @ > @ + + @ = @ % % + > : 9 @ @ : @ < 2 @ @ = % O = > % @ % @ @ % < < : > % > % q > + % 9 @ @ < > < % @ @ > % @ < O > 6 = > < @ o > 6 9 > @ = < + a 7 = : @ > 9 > : @ : % % 4 : > % O < 7 @ @ 9 < i > > q > < 4 > 7 > 2 < 0 q + = 2 > @ > = 7 0 : < > 2 o @ % < q < < 2 < 4 7 9 > = 2 + @ > 6 p > : > < 0 @ : > @ 0 7 > > @ > 4 > @ > i 7 4 q > > > : = 4 9 4 9 % > > d > > % 0 q < < 0 i 7 6 7 > > i 6 9 0 = > 7 7 0 4 > < 9 0 6 0 u > 8 @ a q > 7 4 7 > < 7 6 9 9 u i > p = = : 0 < a < 2 > = 0 7 > q 7 0 4 > i 7 i > 7 > > 9 > @ = 7 2 9 = = : 9 7 6 9 % : > p > $ 9 9 2 4 9 4 : + 4 4 = 4 @ @ 0 a > < > : < @ i 0 @ : 9 0 : 4 : > 7 9 7 > > 4 < 7 7 a > = < > @ < q 7 9 > % = 2 > = 2 7 7 < @ = > 9 4 > 9 @ : < > % % q > 4 @ : > > 4 < = > : 4 @ 7 = @ @ > @ < : @ > > > > @ > = = % @ 4 < @ > @ @ > > @ 9 > @ @ > = @ @ > > @ % > @ > @ @ > + @ % O @ : + @ @ > > % o % > % @ @ > @ @ @ + @ @ + % @ % @ + @ @ > > % @ O > = O $ @ ",
"% O : 4 @ % > = > @ @ @ @ O % > < > + > > > > @ : O % O > < @ @ 7 < 2 6 i > @ > < > : > @ @ < 4 4 9 a < > 6 4 : = % O 4 p > > 7 4 = 4 > < 9 7 > @ < > = @ > < > > % > = @ @ = > > < 7 > > > 7 p > 7 > @ @ 9 > @ @ > > i i > : 4 , > 2 = < 4 % 9 7 7 2 4 = > > 4 7 < < 7 > @ > @ < < = > < 7 0 7 = 4 4 @ > @ > 9 > > 9 0 = 7 > @ = > 2 > > > 9 7 = > < 7 > @ < > 5 < 9 @ = a 2 4 a 9 i p 0 u = i l 2 @ 4 > + q = > > > u < @ : : > < 4 9 0 > > > > < i 2 = @ > 7 9 > @ p H 7 = p - 2 z < > 0 6 9 4 7 6 u u 2 9 i u r p > @ > 7 r u p 5 i 2 p s r 7 = > 7 > 7 p p d 2 t 6 u p c H 7 > q 0 > f @ u 0 f r > 7 9 > > > 7 p 7 7 < > p @ > > 0 < = q q < < i 6 0 = > 9 d 7 = u > 2 < > > > > i f 6 : < 4 = 6 6 7 @ < > 2 6 u > 7 > 6 > > 2 p 2 9 > q i 9 > 4 = > 0 7 6 p l > @ @ = q @ i 6 4 9 2 0 = i 9 > 4 4 @ % > > > > 4 > @ 9 = > > < = : > > > > = > > @ > @ q < @ 1 @ > 4 > > > < 7 p 7 > < + @ % > > > > < > 2 9 > % = > @ @ : > > > > % > O > @ > = > % O > O > @ > @ @ % + @ : @ @ @ > O @ : @ > @ @ > = > O > = % @ @ @ @ @ @ O % @ ",
"> = > > : 7 > = > O % : @ O % 4 7 > O @ @ 4 = = < % O @ > > > > 7 4 7 @ > 4 : = > @ @ : = 2 6 r u = 6 i r 2 p 2 > % > @ 2 + = 6 0 > = > 7 0 9 @ 8 % > f u 6 @ 0 r % 2 u 6 2 > > + : 9 6 r c 5 f 6 p x f p p 7 = @ 6 2 u p 7 5 6 0 r r : : 4 = 7 7 @ 6 7 7 7 < 9 6 < 0 u > + @ @ > 6 l > > p p > i > p 7 % < < 2 l 2 > b 6 u = 6 z i 2 > q = = f 0 u 0 = 9 0 7 7 5 = = > = u u 6 c 4 = p d d u < = < z p z i 6 H c > u G d u = + > i 7 2 u r x d 6 l p z 2 @ = > 9 d l r x L G U d G G d i 0 i > 7 i r d u > 7 d s d H > q : 0 d P G L U I P G I } p = 9 0 2 K d I G G G G s L [ s = : @ 9 d 2 d 0 s f p 6 < 7 6 > < 7 i 6 i 6 u d z 0 7 a 0 > < < = 7 u p l d p d u x u p u 7 % > < 0 c p 6 6 f r f u r u 0 : > 7 6 p x d d x 6 d > 0 > 7 > > > 6 7 l r d i 2 2 f r 2 9 < < 7 d s u f z 6 z 7 6 p l r = > , > p 6 > 7 0 2 4 = > 0 q > > > @ > 0 = > 9 = 9 i 6 7 = 9 o % 9 : 7 d d u 6 = 6 6 2 > @ @ 2 = > 7 6 > 7 > = 7 2 < > @ > > > 7 : 9 4 = f 4 > > > > @ @ % > > 7 < : @ @ < q 7 + @ % o q @ > 7 O % < > + % @ % @ + O > @ @ o @ 8 ",
"> > % % @ @ < = @ * O + > @ + > 6 % > @ @ 9 @ : 7 > O @ : > > < @ @ 9 4 > > > > 7 + @ > > r s 2 s @ 6 p r 7 5 9 = @ = > 4 2 7 2 > 9 > > < 2 2 > 2 @ : u s p @ 2 s 9 7 f p = < @ @ @ @ r d p f p d u s s p 5 6 9 > > 6 > = > 6 2 r s 6 9 7 @ 0 > @ 6 2 9 u 7 = 7 5 0 u 6 i = > q @ x p = > 4 - 7 i p u > < : > 5 s z 0 6 7 x d d 2 u p > > > 2 f u 7 6 i r 2 4 6 0 > = q 0 > r d 6 7 i d d r u z > > 2 = = 9 = d s u u l d x = > < > d d x H u s f d G x u 0 > > @ d U G p L S [ L Z G d d i 4 = 9 d d d p 7 u p 2 d u 6 9 4 > r I G { P L s L { { K i = 6 2 l G S I I P I L L L P 6 < > 7 G d G - G x 2 p 6 6 u 6 > 9 i 2 d 5 r 5 s r = i z - 6 9 < i s p d d s 6 6 d u G f 0 < < 7 u H s s f u f p u x p 7 2 > : < 6 L p 2 i x d @ @ p 0 > > = l d u d p 7 p r r u d 6 > 0 + p s f 5 u 6 p p u r d d = > % > i 6 6 4 p u 7 2 0 2 @ > > > @ > 0 6 6 0 7 @ u 6 2 d 0 > = > @ u f r u 7 6 u 5 z i + < > 2 9 = 7 > 2 0 > > = = > > @ = 9 > > 6 6 - 5 > < > 6 @ @ @ @ = 4 6 > @ < > @ + 4 < @ @ O > % < > @ @ @ > o % o @ @ @ @ @ % % < O + ",
"= O @ = > @ % > > @ % + @ + > = > @ > = = > > > @ @ > % 7 > @ > > 4 < > @ @ > > < @ % O 4 6 6 2 7 > > u 5 > 2 6 > = O + : i 7 > > 6 i 4 > p r + @ + 4 > < > @ 9 > > i 6 2 @ > @ @ = @ 7 r 6 6 5 G 5 p s r d > = @ o 8 0 6 = 6 7 t 6 d u r = = @ 0 > = 9 > 0 a 6 > 0 u 2 = > > > @ > 9 > 4 > 7 7 5 0 f = @ < % u r 7 2 6 6 6 2 u r u 0 @ , > p u r 5 u f p i 7 0 6 2 > > < = p x 6 p x r f p r d 6 @ 7 p p 7 2 - u 2 z i = d p @ < u a 6 0 l l d p x r 6 u u p > > d G d s d G L { s G G r @ > > 9 s f p i 6 u r d 6 = 2 5 0 > 7 L L G L } d Z S { L r 7 9 - G I P L { d d G S I G r 9 > @ d G 6 r 0 2 d x 0 p p 6 7 > > 4 l r 6 0 u c 5 d r = 2 7 > > > p x d 6 6 > d p r 6 7 7 > a 7 i p r d t r p K d p > > > 9 9 6 l u - 6 0 r > > < + > 2 9 6 p f 6 p p u z 7 p d < = > 0 u d d 5 r H f p d s d - 7 > > @ > 0 > 0 = = 0 p 2 5 @ 4 2 = @ > > 6 9 > 7 > 6 0 7 0 @ > > > 7 i u > 2 = i i 6 6 i > < + @ > 2 5 = + 2 > @ > 5 p > O O : > 5 2 5 2 = @ i 0 2 + @ > : < > % @ < < > % = > @ @ @ > o @ @ @ = > @ > > @ > @ @ @ O O > O > = > ",
"@ * @ @ > > + > > + @ @ @ + > > < > = > > = = > 7 @ < @ = @ q > : 6 = > 7 4 = > @ > : @ = 4 6 > % > r r 2 > 7 f @ > 9 % + = 6 > > r 4 = = l 0 = : < 7 > % % 0 2 @ + > = > = > > @ > > 0 2 0 6 z A r f 2 6 f @ @ : O @ 9 4 7 7 2 i 7 p 2 2 i > @ > 0 < 9 2 = 2 0 9 > 6 p 9 > = = > 9 0 7 4 > 0 p > 2 p a = @ @ c 4 u 0 2 9 p 7 7 c p 6 > = + i 6 u p p 5 f > 7 0 = i 7 o > a p f d d d > 4 i = G 5 % < 2 0 z i p a p r 2 i s d @ % = p x 2 = f x s G d u 6 6 5 7 : 5 d G x x p Z } H p +.G @ q = 7 s u = 7 a 5 5 p i 7 i p < > u { G P s I P I G I Z r > 4 = G L L r s I L I Z I H = < > > p U p s 0 > x d r l 6 > 0 = > 9 7 r 6 6 6 f d 5 7 7 a 6 @ 0 9 u 2 i i r i u c 6 q > @ = 4 7 p 6 p x p x u p r s i 7 @ 4 p u 0 > p x 6 6 p a @ 4 7 2 7 u p r > > 6 6 f u p 0 4 < > 0 u d u d p d p u d s l 4 < : 4 > % 9 > > : < i 2 7 4 r 6 2 4 > > 7 - > 7 > @ > 4 < @ > 4 > > = 7 q 9 4 0 5 2 4 = > > @ < > + > 7 9 = % = > > 7 0 > @ @ @ > 2 i 2 4 @ > 4 2 = @ > @ = > + O + : 2 > = > > @ @ > % @ % O : @ @ @ @ + = > = : @ @ @ % O + > = ",
"> O @ > 4 > @ @ % @ O % @ O > : % > @ 2 > @ 4 @ : @ + > + @ @ : = 5 9 > @ > 4 > > @ @ + @ = u > > 6 2 2 4 4 @ 2 @ > : % : > = 7 4 i > @ 9 > > @ $ > 4 4 4 = 4 7 @ 0 9 > @ > : @ % + @ 9 6 6 f r p u r 6 6 d p > : = 2 @ > 7 = 9 6 > 9 6 = 9 + > 9 2 a 4 = 6 2 = 7 0 6 i 7 @ > > > 9 9 @ 7 0 = 7 l i = 6 = @ q i 2 p 2 = = 9 : 7 6 a 0 @ q > 9 u = p p = i 9 > i 2 d p % 4 u p 6 p u d u 6 0 u l 2 @ > @ 4 4 9 y 6 x x 7 i u 2 : + = = p l = r c p x p u u 0 7 < = p d s d p G d Z d u Z d > : % i d p u r 2 z u 7 r p u 7 9 > p } p G G G Z Z Z G s 0 > 9 6 d s L L L P Z J P Z } 6 9 > 7 6 u f r < 9 > f d > 2 i 2 9 > a 2 6 u 9 > 2 i 7 6 2 = 4 @ 9 0 z 0 6 7 p f 6 6 7 z u = @ u p u > 4 r r d 6 r d u i q @ = 5 p = 9 d c 6 6 p f = @ q = = p d 6 z r 6 p r p f r 4 = % @ i 6 6 0 r p u 6 p u x p > = @ 2 7 9 2 = 7 7 7 4 = < 7 9 = % = > 4 7 > > 6 i < > : : 4 < > = = 7 = 9 = 7 i = 7 0 7 = @ = < 9 > > > = > + < > = > @ + O : > 2 i q @ > 9 > 9 < @ @ > = @ % @ q > + % > > + + @ = O O > > % @ @ > > @ @ @ > > O @ % + + : + @ ",
"2 > @ 2 r = = : O @ O o o @ @ @ % 9 > > 7 = > % = > + @ @ % % + + > > > > > = @ > @   @ : > 6 6 u d r > 2 : @ 9 > @ @ = = 7 < 4 > r 6 @ 9 @ : o o O 2 r 5 r 7 6 r p 2 = 9 9 > > @ O @ 6 p r r u i s 6 f p d d > > f > = : 2 6 p u @ 7 > 9 > % % @ > 2 > > i 2 > 7 9 6 p > < < > 9 p p > > i d > p = < 2 > > < = p d p 2 8 2 7 6 4 0 = @ = > 4 2 u u = 6 p 0 r d 6 d > @ - G d = r 5 u f u u u 7 = $ @ 4 a 6 5 5 p p r d 0 l > > : > < u d l p p s s G s p q % 9 = U d G G s } p d d p P G 2 > % 7 6 r d p 4 i 2 6 u p 9 > 9 > d G I U p u x +.I P x > > = r U I L P s I G L { L ..u < : = p u 5 2 7 p > u a 7 > f 6 4 > 6 6 i 6 d p i 6 d u 7 > : @ 7 u 2 6 u r p s p 7 i r d 9 > 6 2 l 4 6 t s d r u f 5 2 : % : > x p 7 p p 2 x p p i % @ 4 6 p r f d s r p d f d r - 4 * o 0 i 7 > 9 i 2 2 6 6 d s 4 9 7 r f r i 4 0 > > > > < = > < @ @ a d 2 > > 6 f > @ 4 r < @ = = > q - 5 > 7 7 p u 6 r < # > 2 r > > > = < @ = < @ % % @ O @ > 2 2 > @ 7 7 < 7 > @ @ + O = 2 > 6 @ O O @ > > > @ : + > % @ @ @ @ > @ @ $ @ @ @ @ + O @ @ : + % ",
"= $ O O @ @ @ % % < 4 o % % @ 6 : % % 2 4 7 < - > = O > > @ : @ > > 4 > > @ @ : > o @ $ o = u > 5 4 a > : < d x @ % @ > 6 7 9 9 = @ : > < 7 6 O % > + > 9 7 9 = 2 = > @ > 2 i @ @ @ 7 a 2 0 l 2 f 7 u r p i 2 4 % @ q 9 > 4 2 2 4 s i 7 u 6 = > @ > 7 5 6 = = i 7 > u 4 @ $ o + : < 6 = 7 i 2 > : < 7 9 = > 6 5 2 4 s i 2 i 2 = r G u = @ @ = z 6 f u 2 p 4 = 2 s % > $ @ 4 p p H d p u r 5 i i < @ @ 6 0 > i 5 > 5 a 7 u p p > @ 0 p G p 7 5 G s x d 5 2 p 7 9 > s G P G x s s s 6 l K d 2 4 > 7 6 d l 2 a 6 p d p r > > > $ 6 #.p G d d G d L x x = < a > p L [ G G G L P S G I 5 = : 2 p s f d G r d p s d d r > % > 4 2 7 4 7 l G r u i 5 > > > i s d 6 z f u 0 > i 6 u a @ > > i i r r u t l 7 r p 6 < < 9 @ 7 l u u f 2 0 7 r p > : > 4 > 4 a 7 r u 6 7 u r x d 5 @ @ @ a z = 7 G d t u u p Z p @ < < > < + 7 p 6 6 u p 6 - 0 p 6 7 + > p 2 = 9 > > 6 > > % 2 + q 4 @ 4 p 2 < < > 9 = > 9 & @ > = @ @ = @ > 9 2 2 = > @ @ q > = u p 6 r 7 : > = < > > > O @ 2 > = > % > > @ > > @ + % O O % @ % + > : > > @ @ @ > @ O O : = @ @ @ ",
"7 o + % @ @ O = % = @ + O @ @ 9 4 = > 2 > = > i 4 > O > % @ a = @ 2 @ @ @ : @ @ < @ O @ > p 6 7 5 u 5 2 r i s u : % o + 7 : @ > = > : 7 9 = > @ > % % a @ = 7 = 0 = > > > i > O @ @ @ 2 p 6 2 2 6 > 5 r d r > @ > > = < > 0 6 > 7 0 i p u i + > % 2 2 7 6 < < 9 > @ i i > + @ > 4 7 4 7 7 > 7 2 7 = 4 7 @ > > 4 i 7 > 6 t 0 i 6 7 l u @ > % = u 6 7 7 = u i > 6 H @ = 4 > i = 6 r r p 0 6 d d l > 7 = > 4 2 i p p - 2 i - p = = % 7 0 Z d 5 p x 2 5 u d p c = @ = S G s P P s d G d G P r > 0 9 6 l r p i - > p p d c 0 @ z > x { = P G s s Z Z s A - 7 0 > l s I I G d G P d Z L 7 4 > = x p 5 6 d 0 i 6 d x H u > > = r r 0 u 2 6 6 p 6 i 7 2 4 > 2 d s 6 6 6 7 u - 6 = r > @ > > p > 6 6 6 u p 0 u d u = > < : 6 r u p s p r 7 p 6 > < @ = > 2 u i u r 2 2 d 6 6 6 6 > : @ r f u p d s x u p d s c 4 @ = > 7 > i < > 9 4 0 6 u u 2 > @ @ : 7 7 < > @ = 4 0 @ > u > + @ 7 0 6 6 6 2 > > > 9 < + @ > + > > > > = > = 9 = < > @ @ % > 6 p 7 0 > 6 > 7 > = @ @ + > 2 9 % + % @ % : @ + : o % @ @ > @ > > % @ % > : % + = @ @ @ @ O @ % @ ",
"> % @ @ @ O % @ > @ o O @ > > @ + 4 7 + = a > = = = @ O % @ = 6 @ = 4 > @ > > 0 9 + @ @ @ > 2 r p 5 5 6 d i 2 4 @ @ : > 9 9 > < 9 0 = 2 > > : > O $ < p @ @ 4 > @ > 4 u 2 < > > @ : > u u 6 5 p u 7 0 s d p % @ > = > 4 > > = 9 > > 5 s p @ @ 0 > 9 2 2 4 0 7 7 > 7 > = > 4 @ O q 2 > > 7 > 2 p s = u 6 9 9 @ > 7 6 0 u 6 > 4 z 7 7 6 + @ @ > i > 2 7 > 6 r f 2 7 7 7 6 > 6 6 6 i 5 f 6 0 s G d = u 6 4 p p 5 f f 7 > 7 u r 7 7 @ > 0 d d d G s 0 7 6 f 6 p 7 > @ G d s s L d G G I L { x = 9 a z s r p 6 4 p > u 6 s 9 @ q 6 6 L s G p d G G G d K r 2 = = l P G d G L +.s s { P 7 q 9 6 c r p r u d l = d p d p i u > d l r 6 i 2 7 7 7 7 = a > > 6 p d r i 7 4 x s 2 i 6 6 < p p 5 u > 9 = 6 u i 6 s d 6 @ @ < i 2 > 9 p s p p 6 0 2 u 9 = > 0 u > 6 7 4 p t i 7 4 < : 9 = = d r 6 r d p p p Z Z d @ @ @ % 0 2 @ O 9 7 7 = > 6 6 7 % + 4 7 = 2 @ @ 9 7 = > > 4 a 7 @ @ > > 2 p > > 2 2 > > @ = > : > @ 7 < > @ @ > 9 @ = > > = @ = = 7 + @ > 7 @ = 2 @ @ @ @ % > = @ > @ + @ % + O > O @ @ @ @ @ = @ > @ + > @ @ > < @ @ @ O + % > 7 ",
"> O @ @ @ > : + > % # @ + % : @ > 7 0 @ > 7 > @ @ > % @ O @ % i 9 4 = = < > @ 2 > : @ @ > > 7 > > 2 u 6 u 0 = : + : = @ 4 > = < 2 = > 4 4 @ @ @ > > @ > > > > 7 @ > 2 7 9 @ > > > + > i 7 5 p s f 7 u d s 4 > < @ = : = 9 0 7 > 4 7 6 d 0 o + 9 @ > = > i = = > : > = p 4 > : @ = 0 4 = : 6 2 7 p 4 2 9 @ @ = @ i l 5 = 6 r 2 2 6 > 9 > = 9 9 6 9 = 0 i 6 p p 6 6 9 = < 9 = p 6 6 z l 6 f r G p 2 0 > 0 > f u 5 r 2 4 p c 2 9 q = 7 = p p s U s u r r 6 9 7 2 q > x G x G d d G Z G G I s : @ 7 = x d r p u p 2 u 6 x 0 > 7 < 6 G G p r d d s G G x 2 z 9 > z I L L L G I P I G G = O > > 2 u p d 6 7 l u s f r 2 2 > > 6 i u 6 6 0 6 0 7 6 = > 7 9 7 6 p 6 u 6 2 d p 6 0 = q > 7 a p f u 9 > 2 l a 7 u x 9 > < > 7 6 - 2 i d d r > p u i > @ > u f p 6 i 7 6 6 7 5 i c @ + 9 6 p x d r s r 6 H G d r = > 1 > < 9 < @ > 2 6 > 7 i 6 = % + + 9 9 0 9 > > 2 9 7 a u > @ = > + 7 6 r > > 7 6 = > < 7 % o > > = 2 > : < > @ 4 > > @ > % @ 2 a q + : : 9 < 4 9 @ + : > = > % @ $ @ @ @ @ @ + % > + > + 9 > @ % > > @ > = > > @ O @ $ o O > : ",
"@ o : % O @ @ O @ o O @ @ % > : @ o > > @ $ > > 4 4 = : @ @ % O > > @ > > > O > + : > @ @ O @ @ @ > > > > @ @ : > > = % > > > > @ 7 > > > 7 > @ % % > > > 7 < < 0 7 @ : + = q > > @ + a 6 s u 5 > p i 0 @ q < 9 @ > 4 o = 9 4 > u 7 6 > @ < @ + > : % 0 7 6 9 4 7 6 i u 7 = > < > @ < 7 9 4 i q : 6 > 9 7 @ 4 6 2 d d 6 6 0 p p 7 9 > + = 9 2 7 9 7 0 z i 6 z 6 2 > > @ > 4 6 r < i 6 p x d 2 2 6 % $ 6 2 7 9 6 p 5 l 0 9 = 7 + < 5 f i p H r 7 l d f > > 9 = > 4 6 p d G f p d p r x d 6 6 9 > 4 f r 0 2 u l l 7 p z 4 : z = 9 p p p K G l d x z = 4 @ > : = J L U x p d d G p z 5 q = = 6 i 6 c l 6 d G c 0 6 = < < > 2 2 z 9 > p r r f a < < i > = < 9 2 i p u 9 > 2 i = > > % = % p 5 p 6 a s i 6 p i @ : q > @ < u r 2 6 < > p = 7 % @ 4 2 u f 6 7 p p p 9 p d 2 > > @ > @ 7 2 i c p G p 0 a > > > > > @ @ > 6 2 q 6 r a 2 > > + < 9 O > 9 > 2 8 > > p 0 @ = > > > = > 7 a 6 > % < 6 2 7 a @ @ @ < < + 4 > % : @ % : % > > @ O @ > 9 < > 9 % > 7 > @ > > @ o > > > + > > = : @ @ @ = % O @ o + > O @ @ % O @ : % O + + @ + @ @ O o ",
"% % @ @ % O O @ @ O % @ O % + @ @ O @ > @ O % > = = @ + < > O % + @ + @ @ O @ 0 @ > > @ O @ % , + @ O O @ > : @ @ > @ + % @ @ @ O = > o @ 7 > : > > % > @ @ + @ = @ % @ % > > + > > > + > u 2 > = 0 = > : @ = > @ @ i : @ % > = > > = @ @ < 9 > > @ % < 2 > > 7 @ = 9 > 0 : + = 7 > : = > < @ @ O 7 > O : 4 7 > = 5 6 9 7 > < a > i 6 7 7 @ : i > @ > = > @ = = > + , > @ > = i 7 @ @ > > = > a O @ < > 5 % @ 7 5 p 0 > = q 7 @ 4 2 2 2 = 7 > 7 > i d < > > > % 7 6 0 0 = > 7 7 < @ > 2 2 0 7 > > @ 9 < > 7 2 @ = > + > = > 6 0 r > = 5 p < > 7 > < : % @ > = 2 s r u 0 6 d H 2 4 = 7 < 0 0 > 2 - i 6 p u 0 % = z > > > 9 i > + : 7 5 6 > > < 7 > 2 9 @ @ = > > 6 > > 2 > > > : > > + 7 > = = = = > s > > > @ = < > > 7 0 > > > % 0 > > @ @ 0 6 = > = 7 u > 2 4 = p 6 = > q > @ i @ = = + 7 6 @ @ % @ 4 < @ > 9 2 > 4 = 7 7 = > = $ @ 2 > 9 > 4 @ @ = + @ = 7 + @ < @ @ % > > @ = @ @ < > 2 < + @ @ > % > = @ @ % o @ @ @ @ = % > $ + > > + > 4 + O % + O @ + = = @ @ = % > = = @ % % : @ o O % @ @ % $ @ @ > % O @ o O @ @ O @ > @ + o ",
"@ O : % O @ O > % > > @ = @ O > O $ O + % : > @ % + % + % + O @ = O @ @ % % @ 4 > % @ @ : > @ > = @ o O % @ @ = > @ % > O @ , > @ % % 8 > @ : @ > + @ : @ % @ > , O * @ : > @ % > % > @ : > @ @ : % + 6 9 O % > > = = 7 9 % % < > < > 7 > > > @ > @ % @ @ @ > > % 7 @ @ @ > z + > < @ = 2 > @ % : 6 > O + 9 = = = = @ + @ = @ @ < @ 0 > 4 @ O > > > : > > > % > > = @ 4 > > , 4 9 @ @ < > = : = = 0 9 @ < 7 9 4 @ @ = 4 4 = q 7 4 9 > 7 > > > > > % @ < 2 > = = 2 7 > < > > 0 4 > > : 7 9 0 = > 9 < 4 > > > < 1 < % + > > > q a i @ 6 u > @ 7 < > = 2 0 > 7 9 @ > 4 @ 9 : 7 = 4 : > 4 i 0 9 > = 2 + 7 9 > > 9 @ 4 0 > > > > > 9 @ @ 9 < @ > > > > u 9 > < q @ + > r u < @ > 7 > i 7 9 > % < > > 4 @ q 7 7 4 > @ @ > : @ q 7 > 9 > O < : > > 7 > < > q @ > 7 < : % < , = @ 0 > 4 > > 4 < O @ = > > > > q @ % > 4 @ @ > @ : 4 @ % 4 % 4 2 > 9 > > : 9 > @ , O @ : = > < + > + > = = > % % @ % @ @ @ < > @ > > = O @ % @ @ > = @ @ = : @ @ > @ + @ % @ @ : % + @ 9 > O $ % < @ O % @ o o O @ @ @ O @ @ @ $ $ O @ % @ % o @ > @ @ @ @ O % % ",
"= @ O @ @ + @ @ @ > > @ @ + @ , @ $ @ + @ @ @ @ O @ % @ O : @ @ > O @ % o @ > > > $ % > @ o @ > > : > > @ > > = > @ @ > @ % @ @ 7 % O = > @ > @ O : @ > @ @ O = % @ % = > O o @ @ % O @ > < @ + , : > > = @ > % < : > 2 > @ @ : @ O = > + : @ + 7 @ @ 8 @ @ : @ 4 9 > @ > 7 < + % : < > = < @ + @ @ > : % 4 + : 8 q < 4 : < > % % > < = > @ % , @ O < 7 > % = > = > > 4 = O @ @ @ < > = = > : 1 > 7 > @ < % 2 > + : > > 5 @ > 7 > % @ 7 7 @ 7 > < % + 6 l 0 @ @ 9 % : < + > @ > = > 7 i > < 9 > % 9 > @ z < > + q : : 4 4 = : 9 7 @ 9 a > > z > 2 > a a > > = % > > @ @ > > > : > @ > 2 > @ > < 2 : 4 > > > > % > < < 4 9 > > 9 4 > < % : < 4 9 > > > > 9 > = % @ i i @ > 9 > > u > 9 : + > > > 4 @ O < > > > @ @ : > @ > = 5 = 7 % + 4 7 7 > 4 > @ > % @ > @ > @ @ > > + % = < = 0 < % % @ % q + = 4 + @ @ @ @ : 4 + @ % > O @ > > > @ : < @ : + @ @ > > + @ > 7 = : > % : @ > > @ % @ + @ % O @ @ @ @ @ > 9 @ + @ @ = @ < @ = > 2 @ > % % O @ + O @ > @ @ @ O > o @ > > @ O @ @ % $ o @ > > o + @ @ @ + O o @ @ + @ > > +   + + % @ @ ",
"% @ @ % + @ @ + % % % % + O O : @ > @ @ % O > = + : % > @ O % > = : > @ = @ @ 4 @ @ @ $ % @ > = > @ > > > @ % @ > = > @ @ @ > > = @ > 6 > = @ @ : > % @ @ 6 u 2 2 0 > 2 = > : @ > # O > = % @ @ * > 4 > O $ > @ > + > 2 2 7 > % % > > @ @ > @ @ = > > 7 6 > 7 > = 7 = > = > @ 9 = = u 4 > > > > = > > 9 = @ = = 4 7 6 2 7 @ @ 9 7 < 0 @ > < > = 7 > 2 = > > = = : 0 @ = 2 $ > i 6 > > > > = : 4 @ < 9 = @ = 4 9 : > > < 4 = < : @ < > = > 2 = = > = > > > : @ > 9 < @ > > > > 0 7 > > > q % > @ = u 5 > < 4 u u = = : 9 2 2 0 @ i u > t r 7 = 2 > = < < > > : @ > > > < > = = @ < 9 > q > > 7 = > = > > a < @ 2 9 2 9 4 > = > = > 2 @ > 2 = 6 8 9 7 4 > 7 @ @ > r @ 7 > > > = > 4 > @ < > 7 < = > % > 2 < + % 4 7 = > 4 = > > = 7 @ 4 6 = 2 7 < > = q = > = % = 0 @ > = > > = > = > > : @ > @ % 4 < 9 @ @ = : : + > 7 2 > > > 4 2 > @ @ > > > > > 7 6 = > = > @ + = < > @ : : @ @ > 6 @ 9 % < > = : O O @ > > > > > > = @ > : = , @ @ @ @ < > = @ % @ @ @ @ % % # > % @ @ @ > @ > : : % @ > > > + $ @ + @ @ = @ % @ @ @ O % @ + $ O o + ",
"% % % > > = < 2 % @ @ + O O O : = 6 > > 9 > > > > + @ @ @ % > : > > : = > @ 4 > @ + q O @ > 7 > > @ : > 0 = > , + = : + @ 4 i > 4 > : 6 6 u < @ + @ > > > p d u 6 > p 4 2 7 : + q % O = = > > 9 > > > < @ > > @ > @ 4 x H i p l d x l < = < @ : > = u i 2 > 9 = > > i 7 > > O < = i i = 2 9 0 i - p u + > 4 : - 4 p - 2 0 q 7 6 p 7 l @ @ > 2 9 6 d d 6 i > 0 u > > > @ > > > 6 i 2 0 9 i 6 2 4 @ > 6 : 7 9 > 7 2 7 6 c 2 4 : > : > 9 f d f c l f p a 2 2 < @ q > @ > 6 i 6 6 z d 0 q 9 @ > < = @ L G r x x p I U r i 4 2 0 > 7 K r r d G r d p u a 7 < = > > 0 c 7 2 0 0 a > @ > > 4 > > = 4 > z 0 7 > @ < < 0 > 9 @ = 6 l u l l c p z i 4 4 0 > 7 6 i 7 < a f d z u d 2 7 > @ > > > 2 r 9 i i 2 = 7 7 4 @ > 7 0 > i 2 6 7 7 9 K p 0 > 9 > @ > 6 6 l 6 p p u u d i z > @ % > @ = < 4 @ > = > = 6 @ > < 2 > @ = > 7 > 6 i > = > u % = < > @ @ > i z r d H d u 6 4 i > @ % % > @ 0 6 6 7 a > + 2 < @ @ @ 7 p > 2 9 2 9 7 4 < > > @ @ > @ = 4 > 4 @ > 7 9 > @ O + o > > @ > > > @ = > > > + > @ < @ @ > > > : > > + > > o @ @ @ O o @ @ = ",
"@ O @ @ % @ @ @ > @ + % @ o @ > = @ @ > = % > = : o > > @ > > = @ @ > > > > 4 = @ % > @ > u 7 > = u 7 > > a 2 = < @ * : > 2 7 = < 7 % > > r i = @ @ @ 7 0 i 7 7 > = 6 > = 9 @ O @ @ 9 < > i 2 7 > 9 @ > 9 = > % o @ u d d d d f c x s G x o @ : % @ 4 2 > < 7 9 r 2 5 6 a o @ > = = 7 p u p 7 p G x H = > 2 2 0 = u r > = 6 r 2 u 7 2 > @ @ = 2 > 6 6 u 0 p 0 = 5 % > > > > 2 p 6 r i 7 2 i 2 7 > : = 7 f a 0 u 6 a 6 u d 6 = > > @ d G d d r s x s x G p > : 4 > u c 2 r 7 2 u u p p u - r q = z G x U d r G L s I G = < > > l d = x 2 0 z p G G a > = > > = u r p 6 7 0 f i 7 6 < : > 9 > 7 d 2 < > p f 0 2 4 < > > 4 d x G s 0 G d r u i > = @ < 7 7 r p f p x l s d c 2 7 % @ 0 u d p 2 6 5 6 d d 6 i 7 7 > @ @ 0 7 7 7 9 6 7 p 7 = > > @ 2 p d d d H G d x d I G > < o < p r 4 < 9 5 2 f r u 7 @ 7 4 > @ > 6 4 = = > p u > 6 4 + > @ % = p d t r r f p p p p > O > > 7 = = p 2 0 7 > 4 > 7 9 O @ > : @ > 6 9 9 p r u 9 > > O O > 7 f 2 9 6 6 7 2 a 9 @ % % < > > > @ > @ > > @ = = @ O O + % < 7 = + > O > @ > 4 < % % @ @ % : > @ ",
"% O % @ @ @ : @ @ q @ @ % O @ 9 > > @ > O % > 7 @ % % @ @ @ = > : > > @ > > > > > @ @ % > 6 7 @ @ 2 = > 7 6 5 @ + @ o @ 7 2 < < = = % % % u 2 < > > @ i 6 @ @ 9 2 7 a > = < @ @ + + > < 6 2 0 > = u > > > < = O @ = l d t s d G 6 > S Z p @ $ > @ < = = 7 < 0 2 p 0 > u 0 % > > q > = p d p = - s p d > = > > 7 7 p s 9 > 2 6 p 5 0 7 > > > 4 7 @ i 6 6 2 f u 7 s 4 @ % 7 2 u 2 p 6 4 i 7 7 7 = = @ > > 7 > u d 5 r p = 6 x 6 @ % > p d s d f p s G s G d @ @ 7 : d u p u 0 4 u p i 2 6 f 9 < @ l G s d d p G P d L d p > @ 0 9 p l d 0 > 9 = s s 7 > 9 4 @ z K - p u 2 7 = 2 d 5 < a > 9 6 > r u : i 6 r u 6 7 > @ > 7 6 x d G r x d Z x 6 > 9 : % < l d s s p d l t r f p > : @ 7 x t p 2 6 6 p p p > 2 7 > > = > i l < = 0 6 2 5 6 < @ 8 > - d G G s Z I d s L L G > @ = 7 p f > > 6 p u f u 6 i p > @ O > 4 6 7 < > = 7 r = > > > % @ = = d s 6 a u 6 d p r x q % 2 7 : > 9 5 7 7 7 = 7 > 7 @ @ > = = 9 6 7 > 2 = r 5 4 7 > + % @ 7 7 6 = = r 6 2 = 6 > @ @ = = > = O @ @ @ @ % @ @ @ O @ @ > > 2 9 + % > + = > > @ o O @ > + @ @ + ",
"> @ : > = > > @ @ @ @ + @ : + 4 % = : > @ @ @ 0 @ % o O @ @ 7 2 @ < @ @ @ > > 9 @ + @ @ > 7 4 @ @ 7 > > > @ 9 7 @ 8 % > > + @ > 4 > @ > @ 9 = @ @ = > > i = < 6 5 7 2 7 6 2 0 % : > @ > > @ = > 4 = > > = 9 0 @ > 7 u d d G G x 5 4 p s u > 1 > @ 9 > i 2 5 i > 9 = > 0 2 i : @ 9 p u > = 7 6 7 d 7 0 2 @ > % > 7 4 > 4 > < = q r p 6 > > @ > z 6 u 6 p 6 r 0 i p > @ > 7 i = 7 7 > 5 u 7 < z > > > > @ = 6 6 u u - > 9 7 p u < > = H s G G d s d P d r H u 4 @ > 7 p p 4 = i u p 2 = i r = > + p L G s s G G Z Z G s d = O O > c u p d p % = f d u > 7 > = 9 u r p = 6 i 2 p G p 6 > @ 2 i = u t < > 6 r 4 2 p p 2 7 = > d p } d p f G L K u = % > > p s p d d 6 x d s d f 7 > 4 = p u u p u 0 r q i u u = @ > > 4 > > i p 7 = 2 i 6 0 > > < 2 H G s s s Z x Z G d G p > 4 > = 0 7 a 9 6 9 @ = @ 7 9 2 > @ @ > > 4 9 % > + 4 = q 2 9 > @ > r H p 5 p p 5 6 p p l 9 @ $ O + 7 7 > 2 = 7 7 > 6 < > % % = > 7 > 2 i 6 = 2 u 2 > @ > @ + 4 > < > 7 @ 2 7 2 6 O O + = % @ > 4 O @ > : @ < 4 > O @ % = @ > @ O @ < > 7 + % + @ @ @ % @ = @ @ ",
"> + = > = @ > > % $ > + O @ @ > O > < @ > > @ 7 > O O # % 9 6 = = O > + @ > % > @ @ % O > 7 7 = > > > 4 @ @ 4 9 = > > @ > q @ 9 7 = = > > > < > * : @ 6 7 7 6 r > u - 2 2 d < + : @ % > 7 > @ < @ > : > a 7 > < = = u d U G d s d p 6 r c = + @ @ 6 u u 4 6 > = 6 > 2 9 @ : @ @ = t G 2 4 6 p i d 9 d 4 > : @ i @ 6 5 > > > 2 = p u 7 > : @ = 2 u r r p f 7 2 - > 4 7 : @ = 7 > 7 0 7 7 6 7 2 0 > % @ + q 0 5 > 6 4 7 < > 7 > 9 6 0 d r G d r x d Z d r p 7 2 9 : 6 = 9 - 0 r 6 p 0 9 9 = > q = T [ S c s d Z Z d K d i 7 : % 7 d z d s x 6 2 f p f > > < > a 0 u 0 6 u u 6 p 5 r 7 @ > < 4 > 6 u : > 4 7 7 5 6 6 u i @ a H s d u u p s Z G r > > @ + p s f p 6 p s d f u p 2 2 < @ 9 p 6 p 7 6 2 % > r u 4 4 > > 7 6 > z i 2 0 > = p r + > @ p p d s d G p x G r s G > @ @ = @ > a > > > > 9 @ > u 2 7 > @ @ = 9 u = @ % @ > 4 = = > > % > 0 r t p p - s u l p i x 2 @ O > 9 2 7 7 2 > i 2 7 > @ O = < 6 = 6 4 6 > > 4 i 7 = 9 > @ @ > O @ : 9 = 7 6 6 2 o O % 4 % O = > @ @ O + > = = > @ O > = : @ O < > @ > 2 + + % % @ O @ @ @ O O ",
"> @ > = @ @ : O @ @ > @ % + $ @ * > < @ @ = > = > > @ O @ = > 2 < $ @ 2 > @ @ > > O O O = 4 7 4 > 7 > = = 2 = @ + @ O > 9 : @ % = = = > > = : % O > < 6 2 2 7 6 4 i = 6 u 6 = @ 4 o + > = @ > 4 > > - > f > @ @ = u K G G d d p p G p r u + O @ O = u = > i 5 = < 7 > 7 7 + : + = p u > 7 f r @ 5 7 p @ < > @ 9 7 i u i 7 < 6 i = s u = @ < 9 : = 6 - 6 7 > 9 = % > + % @ - p < > 6 r 0 i i 0 i > < > @ 9 > 6 i 9 < 7 2 u 0 > + = > p d G G r G d p s x H > + : % 9 0 u u p z p u r f 5 = 4 < @ c L d x G G d G d s d p 6 @ $ i Z 7 s s d r f 5 u c 0 @ @ 4 a 9 > > 4 a 7 > i u p 0 % $ > 2 7 p t 9 i > 2 > u p i = = + p K s d r p p p 5 r r 6 < > 6 H s s p 2 f x d f u c > > > @ q p 6 2 7 i 2 > 7 4 > 7 > = = 7 u 4 > > p r 2 > i 6 > : @ u d p f d d x s d p G d 0 % @ : > > 4 > > u 7 : > p 2 4 : @ 0 9 @ 2 5 > > > 9 9 > > 4 7 : @ O 4 i d f 6 u p u 6 p s p 4 + , : = : > 2 5 2 < = 7 > > > % + u 4 6 7 7 0 9 > 2 6 4 @ @ @ @ = < < 4 > = 0 < > 7 % % O @ O 9 2 7 @ = : = > @ @ @ > @ % @ @ @ > < > > > > % % @ @ O O % > @ O @ ",
"% @ > > % $ > + > O % @ % @   > + > = + : % > > > > @ + % + : : = @ > 5 > % @ 4 @ O $ + > 4 5 = = 6 @ @ > 7 2 $ @ % % @ > = 4 + > @ : @ = % > $ O @ > 6 = 6 > = = 6 = 7 2 0 : @ = > : 2 > + > % = @ > 5 9 = O > > 5 L S s i 7 d r d d G i o O : o > i 2 2 6 r c 2 f 7 i 7 < 9 @ > 0 > > > p 6 6 z d d 7 > > + 4 > @ u 2 @ 7 u = p d a + @ > 7 = % > > i 2 7 7 = 4 9 > , + s d 6 2 u p 7 @ 9 2 7 > 0 9 4 7 6 7 2 7 < 9 2 6 2 @ O % % p u s u d x p f d L d > O > > = p u 0 5 4 > 6 p p p p 0 > = 7 u G L d d d d d s d p 0 % @ i d > i p u 6 0 i p p > % $ = u 6 2 = 0 7 > > 9 6 f 0 % > @ z d f 5 > 7 a 0 r 2 r 4 @ * 6 d S r d f p p 6 f 6 4 9 @ @ 2 l s p d p d p u r K u < < % > = p i 4 > i 6 i - 2 i r 2 > = p 6 0 2 > i 2 0 : = i 9 @ O 5 } s s G Z p 5 p P S L 0 @ @ O 4 > O : d r = = p 6 - a = @ @ @ > i = < 8 + > 2 > 6 < @ @ @ @ 9 P r 5 r i r l 5 s d r = = @ @ > > 4 2 7 : = < 0 0 5 O O + 4 6 > > y = 7 2 2 p i O . @ @ 7 2 = = @ i 7 2 u p > O O O @ 2 6 2 O @ 7 2 + @ @ @ @ $ O @ = 9 7 @ @ @ > @ = = 4 = @ O % + o < 2 ",
"> > @ > 4 + = 6 = @ @ @ @ O @ < > @ + @ % > + > = > @ @ @ > = > > = > 2 > @ @ > > @ @ O @ @ > 2 0 @ > 0 < > = > = @ % @ > @ @ : @ @ > 2 2 > > O @ > 7 6 7 r 6 > r < > 6 r 6 : O : @ o 4 i 4 6 2 < i 7 > 9 > : @ @ 2 x 2 + 6 i p l r u 6 i > @ < = O 4 9 > = i u u s 6 i % O @ > > 4 0 4 9 a > 6 d 6 i 9 @ > > 2 a a = u 6 4 > > - 9 > @ < + a t z 0 2 6 p u = @ = > = = > , 4 5 2 9 > a 7 6 6 5 p O % , 4 r p 7 @ 7 a u i p i = 6 = 7 d p r u G G r r p a = + 4 > s G r - 4 7 5 p 6 i > > a > @ > I d d d d l = p p G G > > 2 > c 0 6 x r s x l < f 5 s u @ 0 < u < < u l , = i p < = 9 = : i u u : > i > a Y - 6 > 7 > 4 x x z G p 6 s d d l < < > > x d 7 7 7 6 6 H s x x = 2 7 6 6 > = 0 r 2 9 4 = s 9 : @ 4 + < 9 6 6 > 9 > > p u i > 9 = s G s d d s u l d s p P - @ % > u a > > 4 = > 7 = O > 9 @ < > @ O 1 > 6 0 2 4 > $ > > > > + > p l 6 d p f 9 2 6 G 6 z 2 O > : > > = p u p > = q O O @ = % 4 2 2 > @ 7 4 < > 2 p 4   > @ > @ 7 > @ @ > > > % + @ O @ O % O % = @ + @ < > = = % @ @ @ @ 4 O # @ @ = O @ O @ > o . % > @ o + ",
"> > = O > @ > > O @ % @ + $ O 4 @ @ > @ @ @ + > > > $ % o = 4 = % 6 > > = > @ 9 + O O @ % @ > 7 u @ = 2 6 @ > i : @ @ @ 4 : > @ = = : > = : : @ > % > 6 2 p 0 > p = 6 2 i 6 @ + > @ = @ @ > = 4 > = > 7 2 < @ > @ - G p s s s d p S s r i = @ < < p 5 : O 2 6 2 2 d u 6 > = + > i 6 6 7 = r p d r r d 2 @ > @ a > i = 6 6 = < = = p > O > = 2 z > 7 u 5 5 = 2 9 i > 9 9 0 + = i 6 2 2 5 2 p u i r + % + : u 2 7 > 2 2 6 = > 7 > 7 > l d r d s d G G u r u 7 > q @ d c r 5 6 u f r r i 7 p i < > 4 { G p G Z d u p p x p = @ < > p u 5 r r x x 0 u p i 7 = 4 7 i a 7 2 7 r > = 6 p @ @ > = = 2 i 6 = 4 5 2 = i u i @ > > p s s r L s x s p d t @ < % 0 c s d r p r s d G d = > 1 @ p p 9 7 u t 2 6 5 2 6 2 > = : = > 7 6 - 7 0 > > > r 0 > > @ d I P d d L d d d d s P 6 @ @ @ 2 2 > 7 = 9 6 7 2 > > 5 @ % 7 > + @ @ 4 0 2 > > < @ 7 > > > = 5 6 5 d t r r p r d - d 2 % % @ 2 = 7 0 = 7 % > = % @ @ > + > 4 4 > 7 = 7 7 : 6 6 < % = % < @ 7 9 @ @ > > > @ @ @ @ O @ @ : @ > > > > % @ > @ > @ @ @ 7 @ @ + : @ % > @ @ > + % O O @ @ > @ ",
"@ @ @ @ O O @ @ @ O @ @ @ O o > > > % @ @ @ 8 > > @ O @ % @ > @ > > = O @ 7 7 = = = > @ @ @ > 7 > > 2 7 a > > 4 @ O O @ @ = 0 < 6 6 > = : > O % % O O 2 u 6 7 u 0 > > < 7 4 @ @ > = 4 < @ > > > 7 = 7 > < 4 = @ @ = 7 d Z d G r d Z I S c + O , O r r @ % = @ > 2 u 2 : @ > > @ i 4 6 r p p r u s s G > % @ @ a 7 6 2 u 6 r i > > r i % @ > @ > 2 0 6 5 7 7 6 2 7 > > @ = 0 7 4 6 0 u 7 p r p 2 = > > : = i p 2 > 7 2 i 4 0 = 4 > > p G d Z Z d s p 6 x u 2 @ 4 + , = d f 2 u u f 7 0 p 7 > > > > Z G d s L I d 5 s d p a < 7 = l s d p f = 6 p s p : > > < 0 6 q 2 u 6 = 6 d r 2 = % > : r u p t u r = i < 6 6 4 = > + z d s Z L r H P t t p > 7 + 7 p d d s d 5 G Z t c 9 @ @ > f u 7 2 6 6 6 2 s r 7 = > @ @ = > r 9 u 2 7 7 i 7 6 9 > % % 6 G L Z d Z Z G d Z L I : @ > = 2 7 < > = > p r > r 2 2 @ @ $ @ u u < = > 6 9 @ 7 > > > > @ @ 7 f p u 6 p u x d d r c 2 O O > 7 6 p @ > > > 2 7 = > % > > > 7 6 2 6 > 7 > 2 > i = @ = % @ > @ > @ > % + = % O @ O % > = + @ > = > % o $ : @ % + @ @ > @ @ > = @ @ > = 2 : @ O O @ @ > > + ",
"@ % O @ o @ O % o & $ @ @ @ @ O : + @ < > @ : @ @ @ $ % @ @ @ @ > o > $ @ > @ = = > : @ O > = = + > > O @ = 9 @ + + @ O % @ = > = 7 @ @ @ > : + @ % O 4 p > < 7 = @ 7 > @ > > > @ + 7 2 0 @ O = > > > % : % O % > > > 6 u d d d u d d u u + O % > 4 < > > > % : r > = > 9 > = > > i 7 6 r u a 6 7 u i 9 @ % + > 6 > 7 i = 0 0 @ > d 7 % @ > > > 2 7 p p > 9 4 @ > @ > @ = p = = 7 7 0 2 6 7 i i @ : > > > 7 7 > > i 2 6 > 2 < > = > > u p p d p p r i p p > = = = : = p u 2 0 a 7 l = 6 7 4 > > 4 d x d G L G d G x d r = < + = u p d x p i l c x 7 + + < > = 4 = i i 6 2 r d 6 : > < > = 7 i > = f x r 5 > u i 2 9 < @ @ 9 l x d d 5 p d c = 2 9 > = u p G d x s p G 5 u 4 @ : > > 0 6 6 i u 0 > f 2 a 7 0 9 , @ > 0 6 2 2 7 7 4 0 u = > @ : 7 p I G d A G G s Z G u + > > @ < 7 > < : > 2 7 0 4 > > > % $ @ f i @ = 4 - 9 = > 7 > = > % + @ i r 6 p H d u x d x 2 @ O > 7 = 2 6 > > > @ < 7 7 < O @ > > = 7 2 p > % < 0 > < % @ > > @ 9 : @ : @ % > : < O @ % @ @ > > : @ @ = : @ % @ O O @ > @ + @ < > % @ @ O = 7 @ @ + + % @ > + @ ",
"@ @ % O O @ O % @   o o O O % + @ o + % @ o + @ O + O > O @ @ @ + + + % @ > > @ > + @ : > @ % O + + @ o $ @ O % > @ > @ @ @ % + @ % @ $ o = > @ % @ > > @ o @ % > O % + @ > > = % $ O + > > @ 7 @ > @ + @ @ % : % O > + O @ @ % = O @ @ > > > O = O @ 9 0 @ : @ @ O , % @ @ 4 @ > > @ @ @ @ @ % @ @ @ > = = < @ @ = > 9 @ o > > % @ = > > + @ 7 o @ @ + > > < > % < : @ 2 4 % = + > @ @ > > @ @ > > 4 @ = = @ < > > 7 > @ @ : @ 9 > = @ @ > % @ 0 : % 0 @ + : > 7 f 5 @ % > 7 > @ 2 6 4 < @ @ < i > i p 6 > 6 s p 6 a < = q > @ = > = 9 = = : @ > 2 z > + @ 4 > > < @ > > > + : 0 > : > = % % % > 2 0 4 = i 9 = 7 + < > : = @ i > x r i i 7 @ < : 9 > > > 7 > 7 2 = > u 2 2 > > > + > 0 = < < > > @ > 7 4 @ > : @ > < q = i 4 = 4 9 i @ > < 4 > = p d l u d 0 7 2 % > > > > : @ @ > @ > 4 > > : > O @ = : O % @ @ 4 9 > @ = % = = @ @ + @ , > = > @ : 2 = @ @ 4 q O @ > @ @ % o @ @ @ > @ 2 = @ % @ O @ 2 7 > 9 > > @ O @ > > O @ @ @ + @ = @ > @ % : + % @ @ @ o > > % @ @ @ @ @ @ O O % @ o @ > O : @ o @ : O O O @ + < + O @ @ O @ @ ",
"@ O O @ @ , + O > O O @ + o @ > o $ % + @ % @ @ > > @ @ @ % O % @ @ = > > @ > @ , @ > O @ % @ $ % > % % O @ > @ @ > > : @ @ % O @ + @ % @ > > O @ @ + @ % @ > @ > % @ @ : @ @ 8 @ @ @ @ % , @ @ @ % % @ @ 1 @ @ @ @ % o % @ o & < @ O @ > : > @ + 1 > @ 4 > @ @ : > > @ + O % : % : > < > O % @ = $ $ @ > = > @ : > < + > : > < % : > = @ > > 9 @ : > 9 > > : O % @ % q @ > > > > @ @ > @ O O 9 @ @ @ % : O % > > @ 9 > > < @ > % > > q % : % + < > % @ = @ > > i 2 7 9 > a : @ @ 9 9 4 @ : > > 2 9 = = > @ % 6 > > @ > > 4 = 9 = > < @ > > 9 @ @ 2 = > : > : = 7 O > 7 @ q : @ = > % > a @ $ O : % % @ 4 7 @ @ 8 > 4 > : > > > o % > 7 > + % > % = < > > @ = % @ > @ > < < > 9 @ % > > > > > > = O 9 4 % > > @ > q @ > @ @ > % 2 O + O > z > > 4 @ @ < @ @ + % + * > > : > > + : > @ + > : % @ @ @ q = > @ % , @ > @ @ > @ % + > @ @ : > @ > > @ @ @ % @ @ 4 > % * > > % @ % % > O > @ > > : %   > % + > > + @ @ @ @ O o % @ @ + $ > + O : @ % > o O @ > @ @ @ % > O O @ @ @ + @ @ > + O @ @ % % + @ + + O O @ O @ O @ > @ O + % O + + ",
"@ % O O > + O @ + : @ @ O + % @ @ % % @ @ + > : = @ o @ > @ % @ @ @ % > @ O + + @ > < O > > + + @ @ < > > > 7 @ O @ @ > @ O > % > > % % @ = @ @ > @ > @ % o @ + @ O % = > + @ @ @ % % % @ @ + > @ = > + > % % @ @ $ @ @ 4 > @ % @ @ + > @ @ > @ + > > O > > 0 : > > = @ > > < O @ @ > 4 > @ % @ > # % > > 4 = 9 > = > @ @ > > @ 4 : > > > > > % @ > @ : @ O > @ 4 4 O % @ @ @ + > @ : > > 4 > : = 7 > @ q > > @ > O > @ @ @ > 4 % > : % = : @ : 7 > % > > 9 > > < @ @ > @ 4 < 4 > @ % > @ @ > > = 7 > = : q % % @ > > % : < @ > : > = @ < 7 9 $ @ 9 > > q = > 4 = O @ 9 > > @ q 7 > > > > > > 2 = * > % 4 7 9 > > > > > > % > > 8 & : > 6 > @ > 4 : < @ > = a @ $ : : : > > > = @ > 9 4 > = 4 > 9 @ > @ : : = > % : @ o : = < > > @ @ > < 7 > < 4 > @ > % < : @ % : 4 = + % + > : > + > > @ @ @ > $ > > > % @ 9 > > > @ % : % @ > @ 4 > @ % + % @ > > % > @ % O > O @ : @ @ > > > > % @ @ @ @ % = < = @ o @ @ + % + % @ @ O O @ @ > O @ @ > O O > % @ > : o O > o @ @ O o > > @ o O % > @ > > @ @ > @ > > % @ @ @ % % O o > > @ @ O @ @ ",
"% + O < = % % @ O > + O % % @ + = > O @ % = > > < + $ O @ @ + > @ @ > 4 @ > % O @ @ @ % > = > 6 2 7 = = 9 r 4 > O @ O @ : 4 = = > 7 > = @ 4 > > > @ @ @ = = < = > $ 4 > 4 > : % % > > @ + @ 9 > = @ = 2 > 4 : @ @ O @ > 7 = @ > < > = > > > @ > @ 4 = : = @ > @ @ < > > @ 4 > O % @ + < 7 = = > u @ @ > < @ > > + 6 = > @ > > @ > = @ % = + q O @ 9 @ O % > = = > > % O > > 4 @ @ = 7 > > 7 7 O > 0 @ o @ : r 4 7 0 > > 9 > 7 7 > 9 > = = @ = < 0 > @ > 6 6 > > @ > : @ 4 4 @ > : < < 9 2 > : < > 7 0 > = > = = > < a = > > 4 = 2 6 > = < > < > = < 7 > > > 7 u 0 > > 2 7 > > 9 > > > @ @ 2 d p 6 > > > = 2 = @ % 0 > > 4 > 7 @ = O @ 2 2 > : > 7 = @ > > @ 7 > + > 7 = > : % @ 4 > - = @ > i @ 4 > 9 > > > > 4 @ > : + > > > @ > 7 + : < > : > 9 > @ < = @ > + 7 @ > < @ % @ > @ > > < > @ @ 7 > < + > > @ = > @ > > @ @ + @ 4 > > > @ @ > > > @ > > > > @ > O @ @ O @ @ > @ + 4 > > > % @ @ 4 > < @ @ : > O > > @ + > < @ @ @ @ < + O @ @ @ @ @ % > @ O O % O o > > @ @ @ @ + + @ % @ @ @ @ O o @ % = > > @ o = @ @ O O @ > O @ @ % @ ",
"% O @ > + + > = > @ @ @ O @ @ > < > > = 4 > @ > 7 > o @ 9 = < q % @ > 6 7 > < @ : > @ + > > r 2 6 s d p r p f > @ > + % @ > 6 4 6 @ < 6 2 > @ > @ O % p z r 6 7 u 4 9 0 0 i @ @ % @ + o 4 4 < 7 , 7 > > @ > @ > % o @ 4 > 0 % @ > = > = > > > @ 7 = > 6 r 7 > > o > = < @ O @ > + > > > > > < : > : i > > > : 2 i 6 > 7 5 6 9 4 r 6 @ @ 9 4 @ @ < i 2 > > 7 6 2 7 > > < % > > 2 2 2 > < > 9 2 @ 4 i > + 2 p s 2 6 p 7 9 7 4 > O = @ < 9 2 2 0 7 2 6 d r i 6 q $ , f 7 < = 2 i 7 6 7 > 7 7 > : @ = 6 u 5 7 u u i a 6 > > 7 4 < 6 p s d p d d d z > > a 4 = 7 > 0 4 d 6 4 7 p d r > > @ 7 q > > r 5 q p 5 i u r d 6 > > % > p p 6 a p r 6 p i > > > > > < 4 < @ > 6 - 9 + O % > 2 i > @ 6 d = > < = 7 < = i > @ $ > 0 6 > 4 4 < p 6 > 2 4 > = @ > = 7 7 @ = = > 7 < > < + 7 > @ < > 6 0 @ > 4 4 6 2 0 > > > > > < > 7 4 u 6 > 4 = @ < @ @ @ @ > > > : % % = : > @ = 2 > > @ % @ = 4 6 < p f 6 6 i @ @ : + > < = > % @ @ @ = 9 @ $ + % @ % + @ > > @ @ @ @ > $ O @ + > < > % O + @ @ @ @ 2 7 @ o % @ > @ @ @ < 4 % : @ O O o O $ @ + % + > ",
"@ @ > @ O O > @ % % O o O @ O < = > i 9 < + @ = 7 @ @ @ = 2 > = @ > > > = = = 4 @ @ @ o > a u p r r 5 i s p r i > @ : @ > < = = f > 2 6 i = = > @ % O 2 p r u d u 5 i 2 r 5 > % > > O @ > @ 9 5 @ 2 > 4 = > @ = : % : 4 = > < > 6 @ 4 > > > = @ > : 4 i = 6 > > : % > > % > % = q @ > 6 6 = < @ < @ 0 0 @ % > > 2 p 6 2 p p 5 = f 0 > > 7 7 > 7 0 6 r 7 p u > d 2 > @ > 7 > 2 c r c > % > 7 2 7 p > = > > d s 0 u p u 5 6 i = @ > > 4 4 p d 6 u 2 r p f 6 = @ > % 6 6 > 7 p f r x p 6 0 7 > > % @ d p 5 p f d s r 6 a 0 4 0 > 5 G s G t x x d r d 6 < = > < < 6 2 f i 6 2 u z r 9 @ > O > 6 5 x u u z x 2 r G s 6 = 4 : 7 p d s p u p x p x 6 > q > 9 > 7 p 6 2 p 0 i 2 4 = = > 2 @ i p d u p f f d p u = + % % > > p 2 4 2 > 6 p 2 4 = > > @ = 2 2 f u p q > i 7 0 7 @ < < : @ 2 u 5 i > > u u 5 p 0 @ > @ > u r u p r l i = 9 a 4 @ % = @ o 4 2 > % > > a = @ 7 4 > > % + : 4 r p 7 5 r u 2 6 < o @ @ 4 > > = + > > > 4 > + > + + > > > @ > 7 @ + : 4 > @ @ @ O + > @ : @ + : @ > > 0 = O O @ < > @ > = O @ @ > > O % O O @ O > o O O ",
"> O + @ @ % + : + * o + + % : > < > = + > % % > % > % O o @ 7 @ > > @ o % % + 0 = O % @ = 7 = 6 6 2 6 5 p = = 7 7 O @ + 4 9 = = > @ = 4 > 2 > @ @ @ @ 2 t r 0 i r i 6 = 6 r > @ @ + > q % > 7 @ > @ 4 4 > = = @ % @ < @ > > > > > > > 2 < % @ , : > > 2 > > 2 = 4 < 7 > > > + + > > 2 0 2 @ < > > 4 > > : @ = 2 u p r 2 0 6 5 = > r 6 > % @ 9 7 2 0 f = i 2 6 7 2 > + % q 6 7 i 6 7 @ @ < 2 6 u = o > = a p 2 > 0 2 2 7 = 6 f 9 @ 4 = > 0 7 > r u c p r 7 9 @ @ > = u u p u f f = 6 d x d @ : 9 4 u 6 7 6 u > p 6 s c > @ @ = > L f 5 G G d s G G u = > i > < p 2 4 = 6 u 6 5 = p 7 9 @ > G G G 2 r f p > f d d d 2 2 : > 5 r p 5 7 d d r p p > % = i = = 0 0 u 6 i s d p > 4 @ = 7 d l p p x r d H f s z = > : > 4 p > = 2 0 = > 6 0 @ > > > > i 7 2 6 6 6 0 > p p 0 0 @ > @ = > 0 7 2 0 u 6 > 6 6 4 % q % @ r u 2 i r r p 0 6 0 r 0 > % > = 6 i > % @ @ > > > 7 > O O + > > p = 2 d 6 p 7 6 0 % @ @ O > < i 9 6 9 5 > = > @ < = @ @ > 4 $ % > < 4 > 4 > > O % @ @ @ @ @ = @ @ O @ > @ + @ O @ : % @ @ > @ @ @ + > : @ % O O @ @ @ > = ",
"> % > > % O o : @ O + @ > + @ = = @ > > > @ > < @ > % % O O : > < % > % O $ @ > > @ % @ > 7 > = > 2 2 : = > 9 > = @ O : 7 = % < , > 9 @ = p 6 @ + o @ u d 6 > > 0 2 7 6 2 6 > > > > > 7 = > > > > : < @ 2 2 4 % = > > O @ @ = < < % = 0 7 O @ @ O > > @ > 9 6 2 7 > > 0 < 0 q @ @ a 7 > > 4 = > < 2 > > > : 2 6 u u p u 7 > r a % p 9 2 @ @ < r r 2 > = 7 5 7 9 6 @ 9 = = i = = 2 7 7 0 f = > 2 O @ > 7 2 i 6 < 7 = 4 > 7 0 5 @ % > 7 0 > > 7 p 6 p 5 0 2 6 @ @ 4 7 4 d d 2 l 4 @ d s G d = < < = 7 i 2 7 = 0 u 6 p u > : + @ 0 L p p s d p d d 6 6 6 < > = 9 u 7 > = 7 0 > p 6 7 6 + > > G Z d d d G 5 d r r r d > > > > H d 0 @ d f d f r 2 > @ @ = 9 > 6 p p 2 2 5 5 5 2 > : > 6 s u 6 p 5 r t s p s p > > q + 7 r 6 > > 9 < 0 = 9 7 = < > > u p > 2 2 6 0 = d t i 7 @ @ % = > 7 > = u i > = 7 = i > % O = p p 2 7 7 2 r u r 2 u u > O + > > 7 7 > @ @ + > 0 + % @ > > @ 2 r 0 u 6 > 4 = > i = @ @ @ > > > 6 2 4 > < = @ > @ > O @ < = O : = > < > > 6 @ + > O O @ O > > @ > + @ > O o : + @ @ @ > @ = > % O @ @ @ @ = O o @ @ @ % : ",
"> $ $ @ > + O : @ @ @ + > O @ > 2 % % : @ @ > > @ + > % % @ > @ @ > % 4 @ < % @ = + @ O % 9 = 9 4 6 6 7 > 2 2 < @ @ % @ @ > > @ = > @ 9 2 2 4 > O @ O 4 d p u 2 0 7 2 7 7 7 2 > @ @ @ 2 2 @ : : = > > @ > = > , @ > 9 O @ @ > @ > @ = > = < : O % > @ 9 i 2 = > > = @ i r > > + > 6 > % % 9 @ + 2 = 7 7 > O + = 0 6 u 2 6 u u i 2 7 > @ @ + > f 4 = 0 0 2 2 u 6 6 @ : @ > = 2 6 = > 4 7 p 2 > 7 0 > > : 5 p i < r 6 2 6 f p = > = @ 7 f r 7 0 = u d > 7 9 0 < 7 @ 7 u 7 f r = i 2 p 6 f u 4 @ @ > 6 5 2 i > 7 p i 6 0 4 4 : + 0 d r d 5 d d d 6 = i 2 > @ > 2 6 6 a u 2 u i 6 u 6 2 4 > = p p d d 2 p d d 7 6 x d = % > = i 2 > p p > 7 6 d 5 9 q : % 7 i u i 6 6 u : t u i = < @ = u 6 p r x p s 6 x Z p 2 @ O > 9 2 7 9 @ = 4 r = > 0 @ $ @ < d 6 < > 2 u 7 > > s f 4 : + @ > z > 0 u = > 4 2 = = @ > % o + p 6 r a 9 r p - 0 6 6 > 9 @ : > = = = < 9 8 4 > 4 @ > = + O < 6 5 r p r + > f p f @ O @ > 2 @ @ < 6 @ @ > > = % > > o @ 4 > > > + @ @ : = 6 = > > + > 4 @ + 4 < > > @ % @ @ @ + + > @ > = @ > @ @ @ @ @ > = % @ O > @ o o ",
"@ o % @ @ > @ @ > : @ > O > > @ @ > < % @ > 7 > > > % O @ @ > > > @ > = > 7 @ = < @ o O @ > 7 6 > r r 2 2 = 6 i @ @ + + @ > > @ 2 > > > > : 6 2 % $ @ 7 6 r f 6 i 5 6 = 6 7 > > @ O > > 2 > + @ 6 @ = > > % > $ @ > 2 = > + = : - % > > > > < O @ @ > > = = > < 9 9 4 7 7 > > @ @ 6 7 + @ = 7 4 4 > 6 0 + o % 4 u 6 0 = 6 t d = u 4 < < = @ 9 > @ > i > 6 6 u 6 p O : > > 4 > 6 > : = 6 6 > 9 0 = = > 2 = d 6 2 s 6 6 p - r i > 4 : 6 d r 5 > 6 i 2 u u > > = 4 = p 7 u 0 z r 6 6 6 u > u > > 4 i > u u 6 2 p p p p p i = : @ i u p d 6 d d p 6 0 z 2 > % > i 7 = > 5 i 5 6 2 r i = @ + > i 6 d s < 5 p d i 5 x s 7 @ = 6 u > 0 s p u 2 2 p l 2 = > @ = p u > u r 2 u 6 2 0 0 q < 2 f d 2 p u 5 H 6 l d 6 > % O > i 2 6 7 9 > < u 9 > 2 > % @ < r > 7 > 9 4 5 0 > s u = @ = @ > = @ i a 7 7 a = > p > @ @ : @ i p > d 6 p p 5 2 u p 2 + @ @ > 4 = < @ = = 7 7 = > > = % > = i 6 6 5 p > < u r p = O @ > 5 > = + 4 % @ > = > % @ @ O @ : % > > = > + + > > > < O > 2 > > @ > + @ = @ + @ > @ @ @ + @ > > % + > O > > % @ > @ @ O o @ O @ ",
"@ O @ % + $ @ > @ O O o O > 7 = = % @ % > @ = > > O % O % + = < > @ = = > + @ > > @ + : = 2 i 6 = r r = = 4 2 2 % @ @ + @ 4 > @ = 6 6 + = > 7 6 @ O < 6 u - 5 - - = 0 6 i f > @ @ O % @ @ > @ > 7 < > @ > > % @ O @ > > 6 > @ : > > > > > > > $ % 7 4 2 : 7 < : = 9 = 2 7 @ @ O @ 9 9 < : @ = > 2 > 7 = % 4 4 0 7 u 6 i 7 6 u u 5 7 6 + > 7 9 7 2 u 0 - 9 = 6 = i = > @ + 4 u 2 2 2 > 7 2 > > > > 9 9 > 2 = = p p r 2 4 2 r i q = > > 4 2 u 6 0 5 0 6 d p 2 : < @ > 7 p 2 i f 5 = u p u i > > : > d 6 = 2 0 r 6 r s d 2 @ + @ i J z s d x s x s 6 > > > a @ > < p > > 2 6 > < d > 7 @ > @ 0 p r d b p 6 p 6 6 t 0 7 > O 7 p 7 7 6 u u u u u 4 % @ > < 7 r 2 7 i - l p > = 9 4 @ = = i f r p s u r p s d p @ @ @ @ i i > = p p 2 = 7 0 2 > % @ : > 2 p 6 p 2 > 6 6 2 p > > 7 = = 6 2 > 7 2 > > 7 % 6 7 @ : > > 4 u 6 0 u t u z 6 r p > @ : @ < : @ : : > @ > > > + > : > + @ 4 4 r 4 2 a 6 5 u 2 = * % o : > @ % > @ % > > = = @ + > + > > > @ > @ > > % @ : @ + o = @ @ > > @ @ @ > @ + > @ @ % O % % $ > = > O @ @ < > @ @ + @ @ + % + ",
"$ @ @ @ @ @ O @ > O O o % + = 2 = $ @ > @ @ + > @ @ @ @ @ % @ @ 2 O @ > @ % @ > = + > @ = 6 = > 7 r u > > 6 4 7 > > > + @ > = > > 2 : > > < = 7 O @ > 6 6 2 < > u 2 4 u p u > > O @ $ % @ % @ * @ 7 7 < 4 @ @ > o @ : 7 7 < @ + > > > - = > @ % O 7 u = % > = 0 2 > 7 u 7 % $ @ 4 = 2 = % > 7 0 7 2 9 > > : 2 u < p u r 7 7 > p 2 z 2 o % @ 2 p 6 u 5 7 = p c > p = @ % @ 2 0 6 p r i = > , > 7 > @ @ > 0 > < d r > > > = s p @ @ @ < i 5 2 0 u @ p 6 p p > @ @ @ 9 > u 2 u 0 p 7 5 p l 2 = > @ @ p 6 6 0 2 = = r s s > % * % 2 Z p x G d d f d p u > 2 a @ > 0 u 9 : > = @ = 7 i 0 < 1 @ > x s r x s 2 i r i u 6 > % @ 4 p r p 2 p 5 p i u @ @ > @ 2 7 7 > 0 u 6 2 = 9 < > @ : @ 9 p = p H d r r 6 r d l > @ + o 7 i < @ 9 2 2 > 7 > i + @ > % = 6 d 2 u < 9 2 p 7 6 p 2 = > 6 6 0 7 + > 9 @ > 4 9 7 @ @ % @ 7 6 d 2 7 i p s r r s 6 > > > @ @ > @ @ > 4 : @ > > > @ o o @ 7 2 7 < > r 6 6 2 4 > O & % > > > > @ 2 > > < < = o O @ @ > % @ > > = 4 6 @ @ O @ % X : > = = % % O @ > > @ % @ 4 O @ = > + + = % o @ + > @ @ O @ > % @ % @ ",
"> @ > = = @ > @ @   O o + @ @ % @ o @ + > @ > @ = = $ % O > < @ > @ @ % = = 2 > @ O @ @ @ = > > 5 < % 2 4 r = > @ o % O > > > < 6 @ @ @ 6 > = > = > > > 7 = 2 5 7 > > > > s 2 @ $ @ : @ > @ % % 4 : @ = 7 > @ + % O > @ @ : < > < = < @ > + O # 0 7 @ : : > 2 > 4 > = > = > 7 = 7 7 6 @ : , @ % 7 < 7 4 @ : = 7 6 i @ > 6 i 2 7 : r 2 @ % O q 7 i f u 6 2 6 7 > 6 4 > = % < : 2 = 6 4 > 4 = 4 > > @ O o > 0 5 u 2 9 = 4 r 5 6 7 % > = 2 > 9 2 : > % 7 i 4 > : @ O u p = 5 G p : > 5 q > @ @ : < = 0 c r u l 7 u i 5 p = $ > @ 2 d 2 r p u r p s > a 7 = > : 7 9 6 7 2 - 4 a 7 7 9 7 > > : 6 l u d 5 p p a f 2 2 0 @ , @ 7 7 6 2 u 0 6 < > 6 c 7 > > > 0 5 6 q > 5 > i u a 4 + = 2 d d 6 u z 2 u x d r G p O % % = d p @ < : = 2 = : > > > 4 2 4 2 = 6 2 r 2 i 6 < 6 2 i + O @ > 7 @ % 2 6 > : > 5 = 0 > : : > - @ 4 s f 5 7 6 s 6 p > > % + @ a > = % > = > > @ 2 : + @ = > > 2 s 2 > 9 > 6 2 = 5 O O 4 > + : + @ > > + : > @ @ @ @ > 9 % O > 7 > > : 4 < @ > @ . > 2 > $ % @ > + > @ > > @ O + 7 + @ = > < @ + O @ % @ O O o + @ O + @ ",
"@ @ > = = O + @ @ O o o > > > % > % + + > % + @ = > O   O @ > = @ : = > : = > > @ < @ @ : > > > 2 > < @ + = > i + @ @ > @ : > 4 > @ > @ @ > + % > @ O : = = > i 2 = > > > 7 < o % % @ @ @ = > < = @ % > = > 7 O O @ @ @ > 7 @ @ > = > @ < % @ @ % 9 = > = 7 2 > @ > 4 < > @ % % 2 6 = > = > 4 > > % > > O & O 6 u 2 > p > 5 6 9 6 7 4 > @ + : > 2 6 u 2 i 7 - p > o @ > > % > 6 9 4 2 6 2 7 > < @ > > + 7 r i 7 2 2 = 9 6 > 4 < @ > q 9 > > > 2 6 < 7 u - = + > O d a 6 r i 6 2 p p > 9 9 @ 8 > > p = 7 r 6 5 6 r s r = q 9 = d x 0 s d 0 > p l 2 0 = > = % > = 7 7 2 = 7 > > @ 7 2 : @ + 2 p r p 0 6 6 u u r 2 6 = O > 7 2 0 0 2 5 > 0 2 i f > > : O 7 p 2 = 6 6 2 5 5 7 9 @ @ @ 6 f u 5 d p u p p d x r i q o + 7 0 4 @ i 7 7 7 > > > @ + + 7 a > 2 u p 7 6 6 7 r r 7 < @ + < 7 > 7 7 5 @ @ 7 > 4 4 > > @ > i > = > 7 6 2 6 6 4 5 = @ @ @ > u > > > > > > > < 7 @ O < > > : > H s 6 2 = 6 a 4 @ @ @ > @ @ > % > = > = + = = = > > @ < = @ @ < : 2 = > = + o > O > = @ = + > @ + = 7 @ $ @ O @ @ > @ @ @ + > > O @ @ % @ O @ % O @ + % ",
"% O @ : @ @ @ 4 > $ + % @ % > @ @ O = < > > O > > @ + > : o o > @ > : @ @ @ @ @ % > @ @ O @ > > < 4 > > > > : > + @ % @ O % > @ @ > 7 > > = : @ % O % > > > o : i > = i 9 9 O o @ O $ > > > > 9 > > > : % > > @ $ O > u 7 @ % 7 > @ 6 7 > @ > = O @ 2 p 6 7 6 2 @ > 7 4 > @ @ O > > > 2 0 0 > > @ @ = < = % o 8 p 7 > p u p 7 > d > > @ = % @ 6 6 p 0 > i 2 6 i > @ @ O @ > < 7 4 6 = = 7 7 4 q @ > 4 6 u < 0 u 7 i 7 6 4 4 q = > > @ > > > 7 2 0 < = r p 4 % 8 > < 0 u r 5 6 u r 5 6 d r 7 > > @ p 5 l 6 5 r d a p r 7 @ @ > H l x r s u i u 6 d u - , : % @ > p > > 4 6 u 2 i r 6 @ @ @ c u u 0 0 u f p 6 s u > 7 > @ q p 6 7 > 2 2 0 i f 2 = > @ @ > 4 5 p i 6 d 6 s f % @ % @ 7 d d d d d - d d G r r i @ @ @ % 7 u 6 2 7 4 6 > 6 9 > o > > 4 = > i u 2 u 2 u x f > + % > = > 6 r 9 4 2 > = 6 7 > @ @ @ > 6 p 6 9 < 9 u s 6 6 u 7 + @ O > G = > 2 4 + > @ > 2 o o = @ > : = = r d 6 6 6 u > @ < @ O @ 9 > @ + 7 2 + % % @ > @ @ + + @ > > @ = > 7 7 @ < @ O > @ @ 4 7 > @ O @ > i O   o > > O : > @ , @ + = @ @ @ = @ @ O @ % @ % o ",
"@ O   @ @ > O @ @ @ @ % @ o @ = @ @ 4 > % @ @ @ > @ @ > @ O @ % @ @ + @ @ @ @ > > > @ O o @ % O + @ @ = @ + O @ = @ > @ @ > @ > @ @ = < > = > < O O + + q % @ > = q > > 5 O O % = O @ > @ > @ > 6 % @ : = @ @ + @ O @ 0 p @ % 7 > @ 4 7 = @ > < : < > > = 7 > = > > + = < 9 @ @ q = 7 4 i > = > @ < 9 > @ < > + = 7 > = 5 2 6 = f @ > = > > > 7 i 9 > 7 4 7 6 2 7 : O % > > = > > 9 9 4 0 + @ > + @ @ = p > > > > 7 6 > > > @ @ > > @ @ @ > 4 7 9 < 7 6 2 > @ @ > % > i = p 0 7 p > > r 5 9 = > @ > 9 > i z u 5 = 0 u @ @ > > - > 5 d f i 7 0 6 6 2 7 @ O > 6 H 0 < > 6 7 6 7 0 p 4 O % O 2 p d u 6 u u f 6 l 7 @ 9 7 @ > 2 4 0 i > z i = = 6 > < @ : > > i t t - u 6 2 < @ @ : > q 7 d s p d z p l f 6 i 2 < > @ @ @ i 6 7 = > 2 < > > < > = = > > 7 6 2 6 0 = 2 6 0 @ % : @ > 2 5 7 = > 9 6 7 4 > > > @ > @ = f 2 > 9 = 6 u u = 9 2 > > % @ 6 > > 7 > @ 7 2 < 7 > < : % @ 2 : 6 u 7 9 7 6 6 > + @ @ O % > @ > + 7 > > @ @ @ : O > > > : 4 > @ % > > > = @ % @ < > + > > = > O @ > @ @ % @ @ % % + + o @ % % > % @ @ % > O o O @ @ @ O ",
"@ @ @ O @ % O @ O @ $ o O @ O % = > = o @ O @ @ @ @ $ @ o > % % @ : @ O @ % + % = @ O % @ @ < @ + O $ @ @ % O @ @ @ @ O + % o % @ % @ @ 4 = O @ @ O @ @ @ O % @ @ @ o = @ > @ @ % + : > o @ + o < o O @ @ % : O + % @ + > > @ @ @ @ @ @ > : % @ < @ o + % @ > + O O o > > > @ @ O > > = @ + @ > > > : % @ > > @ @ @ < @ @ > > < @ % @ > % $ + 4 % @ + > @ = < @ = : % > @ @ O = % O @ < > > > < = > @ @ > @ + @ > = > @ > > > @ @ = > > 7 @ > > % @ > @ = > @ @ = % > = = 7 > @ > 9 > 4 2 9 = % > @ % > > < > @ > @ > > 0 > % @ 7 = 7 @ 7 < > % + > 4 @ = > > < > 0 > 9 = 7 < = > @ % > @ = > = = > 2 = = 7 > % @ > @ > + > @ > 7 @ > = + @ @ @ 4 = < < > 2 = @ = > > > + % > @ @ @ : : = = 4 > = = > @ @ + < > + % @ @ O = > < @ + 9 > > q + @ > > > @ O < > < > > @ = > 8 > @ 4 7 @ > > > > > = @ + @ % % @ @ + @ = @ : @ @ = 7 @ O % > > @ + > @ : @ > = = > > > > O @ O > @ > > @ @ @ > > @ o + @ @ O + = > @ + @ > , @ > @ @ @ @ + + > @ % @ @ O O @ + @ @ O + % O O $ > @ 4 + o @ @ @ @ @ @ > > + @ % o % @ + @ @ @ o O O = o O @ ",
"@ : @ O O O @ O O @ @ @ O $ O @ @ > > O O % : % @ %   @ @ < @ @ @ + @ % o @ + @ + @ + > > @ O O % O o @ : = O O % % : @ @ : @ @ @ > O O O > , O , @ @ % O o : > % > @ @ @ @ = @ @ > @ O o $ % & @ @ % @ @ + @ @ @ O @ @ o > @ @ = > @ O @ @ @ @ % > @ o @ @ @ = @ $ @ = = > % O O 9 7 > % + + > > % + % > > > @ @ % @ @ % @ = @ @ 1 @ = @ % @ 9 + % @ @ = @ % @ O = > > > 1 % % @ $ @ > = > @ > > : > @ O < @ : @ % 1 + > 4 > + @ 4 7 % 9 @ % @ % @ = % + q 7 @ > > > = 7 @ @ % @ < + > < < @ > 6 * + > > o @ > q O % > = @ > q 2 O : > > > > @ 1 @ > @ % < > + O @ < 7 = @ @ > @ @ > , @ > @ < = < : > @ % @ O % @ = > @ O O > @ : @ > : $ @ > > > > < > @ @ @ @ $ > % * > > , > > 4 > @ @ $ @ > O % % + @ @ > + 7 4 , O % < % O > > % % > = > > @ @ % : % > @ + @ > q @ = @ @ : @ @ @ > : @ > @ < : + % @ : > @ o : > @ O : O > % @ % + @ % @ @ % : O > + @ @ > @ = + O % @ @ @ O % O % > = , @ @ % % @ + @ : o @ > O @ > : @ O @ > O O > @ % @ > @ % @ @ @ O O @ $ O O @ O + > O # @ O @ O O O O @ @ @ o O O @ @ @ @ o @ + O O O + @ ",
"@ O @ @ @ @ O O % @   @ @ O : > + . + > < + O @ + + @ $ O @ % % @ > > @ % 4 2 > o @ $ @ @ % O O @ @ > > + o @ % O @ % + @ + > > @ @ @ @ O o O $ @ O O @ > + @ o O @ + O % $ @ + % @ O $ + @ o @ @ O @ @ @ < % @ O @ % % = @ O @ O @ % % @ @ > @ @ @ : , + > > @ = O > @ = > % O > > : : O @ @ @ > O % @ % @ @ > : @ @ % % % O @ > @ % > @ + = : > @ < > @ + O + # O @ @ % > + > % > > + : @ O @ > @ @ @ > q @ @ @ @ : > + O @ @ : > > > > < = @ > @ @ : % @ @ @ : @ @ > 7 @ : 9 @ 7 4 + % % % @ > < % q > > > < @ = % > > @ : > > . @ > % O = + > % @ > @ % > @ : + + > : @ O > : @ > > 9 < @ : @ > @ = % + @ : q < 9 @ % @ @ > @ = @ > < > @ > > @ @ > 4 > > = > @ @ % + = > = > > > > + % @ @ : @ : > @ > % @ % > > > O @ < @ @ : + @ > > % > @ O % @ @ : @ > q @ > % = > > > % o + < = % @ @ + > % > = @ @ @ % O % : O @ @ @ $ @ > > > O % > + > = + < O < % + + > @ % @ @ < + @ @ @ O o o = % % O O @ > > = @ @ % O = @ + @ @ = o @ % O % O % % @ @ + @ % + @ O O O @ O @ @ o @ > O o @ % + @ O % O O o @ @ > + O O O $ O O o @ + o ",
"@ O @ , + @ @ @ @ % @ > @ @ @ @ > O % > > + O 9 q @ @ @ o O + + @ > > % > > > > > $ @ O O @ > : > 7 > = > % : O @ > @ @ > : @ @ : = @ > + @ > + @ % + = > > > % > : : > = + : % @ O % @ > > @ @ u > @ : + = > @ $ @ @ @ > > : @ O = = > > @ O @ > @ @ > > = < > > + > > > > @ O 7 = = @ > > > @ > @ > = @ @ @ : > @ + 0 @ @ @ < = = @ @ @ @ > = i 7 > = 4 @ @ % + @ : @ @ > > = = > 9 i > + > > @ > = > < @ @ = 9 > = > : @ @ > : = @ = > 2 = > 9 7 > + @ > : = @ = 9 7 2 0 @ < 6 2 i > : @ > : @ @ % @ 2 i i 4 > : 9 > > 4 @ > 4 > = 7 4 @ > 2 > < @ < , % @ > > > 4 @ > > @ % @ > @ > > + < > O % @ > > > 9 2 @ > 7 = q 7 7 = > 2 < 7 > > = > < = O @ = @ @ @ @ > 9 > 9 > + > = > > < < 8 + < % > < > > + @ + % > = > = + % > > @ : < @ % @ : @ % % = > = + > = + = = @ % > % @ % < < > @ + @ = @ @ > : : > @ @ > O O + > @ O : > O + : $ @ @ > > @ > > O @ O O O > : = + @ @ @ > @ + o : > > o % % @ @ = > % > @ O > > @ % @ @ @ @ % @ O % O @ @ + @ @ @ = O @ + @ + @ O % > * % @ + o % @ O @ % + o @ + @ = @ > @ o + $ @ + % % @ @ ",
"% @ O % @ : @ O O @ > O o @ @ @ > % > % $ @ = = > % @ @ % % o @ > @ + = = q @ 9 @ @ @ = > @ @ > = > 7 = > @ 4 4 = @ $ > = @ : > s 7 > 7 7 6 7 @ : @ > > < > = % # u > : @ > : O @ @ @ : = 6 7 > d f 6 i > = > @ % % @ > = > : > > < @ = > $ @ > > > > % @ + > a 6 7 7 > > > > % 9 i p r 0 7 p 6 P 7 > = 9 @ > 4 @ 0 7 6 i > 9 = > u 9 @ @ % % 4 6 7 2 = 0 6 i 6 > > > @ > a 9 : 9 > > 7 7 > > 9 + + q : > = q > > > 0 6 > > > > 6 @ < 6 p > < 7 6 4 > 2 2 @ % @ % u r u 7 6 6 6 i 6 @ 4 7 > 9 @ 6 > 6 p p 0 > 7 7 = > > 9 % = > f u r G t d u p 5 2 7 7 @ @ 9 = l c 6 6 < 7 u p 4 @ O < 6 = : 4 : 9 i = 7 6 2 > 7 = < > 9 2 r f p p r 7 = p i 2 = < < @ @ q > > 6 7 = < @ 7 > @ > 7 @ 6 z : O 2 = 0 2 7 > > @ % @ > 2 7 0 % + = 9 p p < @ > > > O 7 r = 7 4 > 2 u 6 a 4 = = > @ + u p = > q > 7 7 : @ @ 4 @ > 2 > 0 4 > : q > > 7 q + : = + > > @ < > @ % @ + < > @ @ @ @ > @ = + > < @ > < @ + O > $ @ @ @ > @ : > + > > @ + @ @ @ > @ @ = > > 4 > > > > @ @ O : 7 > > @ > @ = = > % @ + O > % @ @ @ % @ @ > @ @ @ @ > % o O @ $ @ @ + ",
"@ % % O O % @ O @ @ @ % O % @ > @ + : = + % @ > > @ @ @ @ > > @ @ O : > > = = 7 % o @ @ + : > > 0 > @ % = 7 7 > @ @ O @ > > > 6 t d 2 = > i 4 $ O @ @ > 2 @ > > @ = 7 > = 4 > + > > @ 9 6 5 7 6 s 6 u u 0 5 % @ $ O > : 2 < = > 2 > = > q @ o O @ > > > % > 6 6 u 7 : > = > @ @ 2 s d s p p t f d t c % > + O = > 0 2 i u 7 0 7 2 d > + > 4 = 9 7 6 7 0 5 5 t s 6 > @ : > > @ > > > > : 2 7 6 > @ > < = < 7 9 > 7 2 2 q = 7 > > 7 < 9 2 6 > > > 6 = 2 i 7 > > : @ 6 2 6 9 = 7 i r = 9 0 = 2 q @ > 6 u 6 r 9 r d 6 4 7 > @ % @ 9 x p s P s d p G r p 7 : = > @ 0 p 6 2 p p u u p i @ o < = = 6 > 7 > r r u 0 9 > u 9 4 = 6 6 x d r p p 7 2 f u = @ @ > 9 = > > 4 = 7 > > > 7 @ O @ 9 7 = 0 6 > 7 6 d u u u % > < @ 7 p 7 > 9 9 6 > t p 0 + > > > % 0 i 6 < u 0 7 l s r > + : > < > 6 r > 7 7 i > 6 @ 2 @ @ > @ > = p i = > = > > > 5 > < > 9 > > < > > > @ @ = = 0 @ @ > @ @ % > > > 4 < = % % > < @ @ o > : > > > = < > 7 > @ + @ @ > @ @ > < = = = > a 2 > @ % + < = @ 4 > @ , = @ @ > @ + % + @ % @ + @ > @ @ % @ % > @ @ O % % : + @ ",
"@ O > @ O @ > + > @ @ O % @ % @ > @ @ > > > > % 4 O o @ @ : < % + o > + @ @ > = @ O @ % = < = = = O % % @ > @ @ % O @ O 7 < = 2 = 7 4 7 7 > 9 % O O @ : = @ > : > : = > 4 < = @ % % @ = = 6 2 6 > 0 2 r d f - @ @ @ > > > < + > = < 4 @ @ @ @ % O 4 = > > % @ = @ = > % % @ @ O > p s 5 5 f p - = s G > O @ @ > p 7 2 = @ 6 7 > 5 r 2 O % > = 7 2 6 = = > 7 = 4 > O @ > = > > 6 @ = = < 4 4 + > > < @ @ < < > % 7 > @ : < > 4 , + % i 2 > 2 7 7 u 4 6 q = @ 6 > @ > u > 6 > 2 2 u > 5 6 0 0 % > > c l > @ 2 r s 7 4 0 0 > % @ 4 f x s t f u p p G u > @ 7 > @ p 6 r x 6 6 6 p 2 p 2 @ @ @ 6 u = > 5 r p = 7 u p 2 > @ = 2 p 2 6 u 7 6 6 p 2 2 > > @ > 9 @ 2 i 4 = = = 2 6 4 % % @ 7 9 > > i 9 6 @ 6 s - 2 @ + @ @ i 7 + > 7 i > a 0 5 0 7 @ @ @ 9 7 = 7 0 6 6 6 0 2 l > O : + = = 9 7 @ = < = 7 i 5 0 > @ @ > < = = 2 7 u = = < @ = > + @ % @ > > < < @ @ < 2 > > : @ O @ @ > : % @ % > = : 2 > @ @ % @ > > 9 4 + = i @ @ = < + $ % @ > @ @ + @ > + < > @ @ @ @ @ @ @ > > < > > O @ > > % : O O + @ > @ > @ o = O % + O @ > + @ O $ O @ ",
"% o O = > % O @ > O   $ @ @ @ < 2 @ @ > = > % @ < $ o o @ > @ @ @ @ @ % @ > @ > : = O @ = 2 2 < @ $ @ o @ @ > @ + @ @ > @ > > 7 4 = < 9 = > = @ O @ = 7 = + < @ > @ @ % @ @ % @ @   @ 7 7 7 = 2 > > > 6 r p 6 + 1 @ @ = > @ > @ > 4 = 9 @ > : > @ > 5 = @ : > q % 7 a > @ @ @ O 4 u r 0 6 p r > > 2 6 @ : O % > p 7 > @ > 4 > > 9 p 7 > o 8 > < > 7 > @ @ 4 0 > : % % > > > q 6 : > > > = @ + q @ 7 > @ % @ % > > @ @ > > @ < @ @ @ > : > = 2 > > 7 4 4 = = 6 > : % 4 2 6 > < 2 7 p 6 r u @ @ = = p 2 7 > 6 2 r 9 @ 7 0 = @ @ 9 u u s u p = 6 d s = @ + > > = 7 5 d p > 7 0 u 5 2 < 0 @ : 7 < 7 p r f r p 0 = p < o : = 2 a p 2 a 0 > u p > 7 > > : @ : : 5 > > < > > 7 r > % @ @ @ @ > > 7 4 > = = 7 > = @ @ @ @ > > @ > @ = 4 6 9 p 4 2 > % + 2 9 : > 6 > i 9 = 2 0 > O @ 4 > 4 4 = @ 9 > = 6 > u 2 @ + > % 7 < > > 4 5 @ < 9 @ > > O % o @ > > > > @ > > > : + % > > + @ > @ : @ O @ > > 7 = O $ @ > > = = @ O 9 2 > = < 7 @ O @ + 4 = o @ @ : = : < % O O O @ + , = > = @ + % 7 < + + o > % % > = = @ O @ @ @ : @ % @ @ O @ % + % : ",
"O @ @ + O O O = < : @ @ + % @ > = @ > + = : @ @ @ $ o O % @ o @ > > O % @ @ o @ < > @ = = @ = > > @ @ > @ @ : = @ O % > @ = > 5 9 > > > 6 2 : > @ % > = : % > > > @ @ @ > < @ @ % o @ 7 p > 2 7 i u 2 > > @ = @ % < > = > > > > : @ > > % @ @ > @ > = > < > @ > @ > > > @ @ @ @ q r x > = i 6 2 0 7 4 9 @ @ + > 6 = > i p 2 > > i 7 = @ % > = 7 7 2 > 7 > 4 = @ 7 % @ @ @ > > 7 = > > = 7 > = > > @ % < q : > 6 > > 1 @ = 9 > + @ 4 @ 2 9 > = < @ @ > 2 z > O % @ = @ 6 7 4 > i l 7 = i 2 @ + % r > u 2 a z p 2 < 2 7 i > > = 0 d i u x p u p s d 5 < > = > 4 = 6 u > : p 6 p z 6 @ + % O : > 9 r 7 i 2 i 6 6 r 0 o < @ > 6 d z p 2 0 4 2 d f > @ @ < > > 7 > = 6 > > < 7 2 > @ + = 4 : > > > > 7 7 7 > > 7 : @ : < = @ < 6 9 > > > 4 @ o 7 7 @ 0 6 6 > 2 4 > 7 i i 7 6 > + = = + 2 4 6 4 < @ 9 > > 4 @ @ > @ 7 : 9 @ = 7 > 4 2 > > O @ $ @ + @ 4 > > @ > = < > 4 > % + + @ @ > @ = > > @ @ > % > @ % = = 7 > > 7 4 7 = > > @ > % O @ > 4 @ @ > @ 9 = @ O % % @ o > : @ = @ > > @ = 4 + > O O @ = + > > o > @ @ @ + O @ $ o @ $ @ o @ O ",
"O @ > @ O % % O $ O @ @ @ O @ @ < % @ > = = > > > @ @ $ + O @ > = > = o % > > > O @ @ @ @ : @ = = @ @ 4 4 > > > > > o + < = 7 i = 2 = > > 2 6 > @ @ > + > > = : @ < : @ > > = @ @ O % 9 = 2 9 < 5 f p u i > > @ O > = 9 = = @ = = O @ > 4 O o @ @ > > @ > @ > @ @ @ > < < % > > > r d 9 < i r r 2 7 = @ = > @ 7 > < i - s p p 2 5 > > > : @ @ 2 > = > 9 2 = 7 2 2 % > @ @ = > > 4 9 = 4 : @ @ > > % = @ 7 0 2 d d @ > > > = > = > = 7 2 7 = < 4 @ @ > r f 4 @ $ > 4 = = 4 0 6 7 > 4 2 0 > @ % % f 9 0 6 f 2 6 i 2 u 5 > 9 % = u s 6 x 2 5 p p 6 G p 7 > > > 7 2 r 7 2 4 6 d r = p @ % + + = < 6 Z 2 = > > d d 0 4 > > : > 6 i 5 r u > 2 u p r @ @ @ > > 7 4 = > 5 7 > > > q 7 > > @ 7 > < < > 4 2 @ 4 > 6 4 > O @ > 2 i = 9 = > 6 0 4 @ > > > 9 i > 2 6 > a u > 6 2 2 2 > 9 : + : 4 5 6 2 < < > > < : @ > @ @ > > 7 @ = : 4 0 - 7 < > > o : > + + : @ + 8 @ = < 4 q + @ : > + 7 = = > 9 O % @ @ > O > > > > @ > 6 > > 2 2 : @ @ @ @ O @ @ > = @ + = > > > @ % @ @ > = > > @ : > = > > O O % o @ @ @ % @ $ : @ O o O + @ O O % % O 4 = O ",
"@ > + @ @ @ @ @ @ o % : o @ @ @ > $ @ > > @ > > @ > @ O O % @ : + > @ @ > = @ > @ @ % O @ @ > : @ @ > @ @ @ > > O : < + + : 2 @ > = > : > 2 = > @ > % + @ > + @ @ % > @ 4 > @ $ : > @ > 2 > 4 7 s 4 = = 6 < 9 O O > > > < @ @ > > @ 7 = 9 > @ @ @ > 0 > : @ < i > @ > 7 4 @ @ % 4 = 6 d u 7 6 s r 5 u > @ % @ > 4 < 6 2 6 5 9 2 - u p @ < @ @ 7 2 > > 7 = = > 6 2 @ > < + 4 @ < = > > > = > : 4 7 > > @ > 6 6 = 7 6 > > > 4 > @ 2 = i > 6 6 0 < 4 > > 0 6 0 > > @ > 9 u c 2 > 2 > 6 6 > q @ O @ 7 u 0 = i 6 6 p > 2 0 @ % @ @ 6 r 7 d f f s d p d p = @ @ @ 7 i 6 i 2 i u - 5 > = 7 0 @ @ = 7 2 r > = z 5 i 2 = 4 : % 4 r r 0 6 2 p 7 7 5 t 0 > = @ < > < 9 7 < @ > : 9 > > > 4 > 4 9 = = > > 7 u > 7 4 = @ + > @ = 7 4 = > = > 7 i 7 @ > @ + = 7 > > i 2 2 p > 2 5 i @ + > : @ 0 0 2 6 = 7 4 = > > 7 > @ @ O 4 @ p p = @ 6 i = % 7 < > @ @ = > @ < > 7 0 > @ < @ > @ @ + % @ @ : > > > + < @ @ @ @ @ @ > @ + > < @ @ 9 - 2 : @ O > @ > = + % 4 O 0 6 7 9 O + = : > + > 4 @ + > @ : @ : @ + O + @ > @ O @ > % @ @ + @ O o : O @ % > @ @ ",
"@ > % o @ 4 = = O @ % O + > @ @ @ > % = > % > > > < @ @ @ @ @ > @ < @ @ + : = > + = @ @ o @ : = = > : @ @ @ = % O @ @ @ > > @ + : % = = > @ : + O O > @ : : + @ @ O > < = > > O $ + @ > < > @ > = % > = 6 7 @ @ O O > = > @ O > < 6 > = > > > @ o % = @ @ % 2 6 > > : > > O % > < i u t d 0 7 0 7 > 4 6 O O $ 2 0 9 > 4 > > > > 2 p 5 O @ O < 4 = 6 = > 9 9 > 6 7 = O @ < > @ = > = % 4 % > = 7 2 @ @ O O 6 i O > 2 0 7 4 < < : @ > 4 @ p r p > > = 7 > > 4 < = , @ 0 i > = > 1 7 u d r > @ % @ 4 u 2 > > u 6 r p 0 > : @ : @ > c 0 = u r s p - G d @ > @ % = > p u 5 p 0 7 p < 7 i > O < 9 p @ 6 4 < 6 u > % i 7 O % 6 s r > > 4 f f 4 7 p 9 @ > @ > > > > > : % 7 > - = @ @ < @ = 4 < = > < 7 > : < @ @ # @ : > 9 2 = > : @ 4 7 6 i = : % @ < 0 2 < 2 - 6 u > : p 2 o O @ > = 7 > > q 7 0 = : 2 2 > @ % @ % = 0 6 s 6 2 7 = % % @ @ + % + = 4 @ % > = @ > = 7 > $ @ % @ = > O = > > O @ > > : o @ O % @ @ > > > > > 2 = 4 > O @ @ @ @ > O @ @ % 7 2 2 > % % + @ : > = % > O > > @ @ % @ @ > @ O @ > = > > = @ o @ > o o % + @ O @ @ @ ",
"@ @ % O $ @ + @ O o o @ O $ O < @ : @ > < > O @ + @ @ O @ % @ > @ = = > > = @ > < o $ @ @ < > > @ @ + o @ = @ @ @ @ @ = @ , O > u % @ @ @ @ > > % + @ 9 > o O O % @ o @ 9 = % o @ > 6 5 = @ @ 2 s 7 > u d x % & O @ + = p 4 = 2 > @ < @ @ : = > @ < = = 9 > = = f = > 2 @ @ @ + > u 5 6 7 p 5 5 2 = 4 2 @ @   = 4 > 2 i 2 > > = @ i 2 = $ O + 7 > > 7 > > @ @ > @ > : O % + > + 4 @ + - p 6 @ > 4 O @ 6 = @ % > 6 7 > = 2 > > 9 @ + 6 5 7 < > u r 2 > > > % O % > @ > i > 6 i 6 4 = > > 4 @ % @ 7 7 > p 2 4 5 u < 7 > q O O > r t u r r = 4 > r t p 6 + > @ : 6 s 5 6 > 0 i 2 7 = 4 > = 6 7 = 6 i p p 5 r p 6 u 0 > % O % u s > r % = = p u > = @ > > 2 = > 4 7 5 + > > > 7 @ @ % % % = > > > 7 > > @ = i > O @ > > 6 4 = > > @ > 4 7 > @ > = @ > 9 6 6 > 7 7 > @ u i O % > > @ % = 7 2 9 > % > 2 2 r @ @ O @ p 9 > @ = < > % = 4 > @ > @ > > > > > > > = = = = 6 O O O O : 0 = @ > = @ @ > = @ @ % @ = = > > = = > > % @ % @ > @ > > = > > 4 > = > % > = = > @ @ @ $ + @ @ > > @ O @ > > = + > @ O O @ = > + @ > > = > + + @ @ @ @ o @ ",
"@ + @ @ O @ @ @ + % @ % o + @ @ > @ @ % @ @ @ @ O & @ O @ % @ % O > @ + @ > > @ @ O $ @ @ = @ @ % @ @ > @ > > O + @ + : @ + O @ 9 % 4 < > 6 = % @ O @ @ > + @ % @ + @ @ > : @ O O % = r = 4 > 7 6 0 > 6 s 0 @ o @ O = > > @ = > : > > % = + @ @ @ = > O > 9 > @ > @ @ < < O @ @ > i = i 0 > i i t 2 > @ @ @ @ > : @ 4 > > = 7 4 @ = 4 + @ @ @ 0 + 4 6 > = = > 9 7 O = O O > 4 = > @ > 0 2 < = < 2 @ % > 4 @ = < q > > 9 < = > > > > 4 0 2 7 7 7 i = 4 > = = > > + > @ 7 i 6 5 > < > > 2 7 > : + @ 7 i 2 7 = 6 6 > > = : > @ = 7 6 6 i p 6 0 2 u r f = @ > @ > z = 9 i 7 > 7 0 7 = @ @ 9 7 > 7 6 7 2 u 5 6 7 > u > % o @ > u 6 9 7 @ z 0 0 > > : @ % @ < > = > > < > > > 9 9 @ @ 4 @ @ > = > @ 9 9 % = = 7 = @ > : > > > > > > 4 7 = : < @ @ @ > @ < 2 4 q > > 7 2 5 4 @ @ @ @ > = = 7 7 @ @ @ > 7 > > 4 @ o @ = o 9 < > < @ + > 7 > @ + @ @ 4 = = @ @ > = 4 > 9 > @ % O @ @ @ > O % > > + % % > + @ + > : > @ @ > @ @ > % = = = < O % @ @ 4 @ @ > O @ < @ @ % @ O $ @ @ : % @ + @ @ @ @ @ + @ @ % @ O O @ @ > @ > @ : % o @ $ % @ @ @ O ",
"@ @ O @ + O O > @ % + O @ % @ O @ @ o + @ O + = O @ o @ > = @ O O % @ > @ O $ @ + O @ O $ @ @ > @ % > + + > @ @ @ O % O @ > > % + < 7 @ > 7 @ @ O @ @ @ @ > > % O > q > > % O @ O   o = 4 7 > > > 4 6 4 = > + @ % % : + O % > > @ % @ O < > > @ @ > = = + = > < @ % , 4 @ @ @ % 9 > 7 > > @ + > 6 > @ % O % > % @ : > + > > @ > 4 @ % @ > @ % > 4 > > > > @ > 4 6 % > @ % : = p > > % > @ @ = : @ + > O : < + > > > > % % < = + : q % * @ 6 0 7 = > 9 r 6 6 > = > @ @ @ 4 @ < > O > > < = < > @ % @ = > 7 % q < = > > > < > @ @ > 6 4 > > 5 6 i > @ > > > < @ % O > = 0 > % 9 i @ > O % > > 4 > 7 i p > > 7 2 6 + @ @ @ 4 > > 2 i > 2 4 = @ > q = % % : : > 2 > > % @ @ : @ @ @ > % > 0 < > o : > O > 0 < @ @ @ @ > < @ = > > = 7 6 > O @ @ @ : > @ 7 > : < 6 7 i 4 > = O @ O > = = > @ O O > > @ @ + q % % @ + % > @ @ O % 4 O o = @ O @ @ @ > @ @ > > % > @ @ O 0 > @ % @ > > @ : > % @ % @ O @ % O O O > > > @ = < + @ > = @ > @ O + % : O o O = % @ @ O O + @ O % > O @ o O O 2 7 @ @ @ % O o > @ @ o O @ > > o @ O @ @ O @ @ % > o ",
"@ o O @ % @ @ O % = % O O $ O O @ % @ O @ O @ % + O O @ + @ % O % @ O % @ o + + > @ @ O o o @ @ O O % + > + @ @ % @ : O O > > + O @ @ o + @ @ O @ O + $ o O @ o @ % = O @ o o O @ % o @ = = > > + @ @ % o @ = + % @ @ @ % @ @ > > o % = = > @ : = > @ @ % > + : + + @ > + + @ @ @ @ > > O @ % = > 7 @ @ @ % @ % O @ % @ @ @ @ % @ > @ @ @ > @ O > @ + = 7 = + @ @ % @ @ > @ % 6 O @ @ @ @ : > = = % > % @ , + > @ = % O % + : % > @ O O O 7 7 7 @ % : 2 = 9 % % > @ > % @ % = @ : @ @ q @ + % > > + O @ > @ % > = > @ = @ % > O O 6 > @ < 2 @ > @ @ : > + 7 7 + % , + = = @ @ > o > > > > @ @ + > % > = = @ 2 4 > % > @ = @ % > 2 @ O > = > @ + > @ + @ > = @ : > @ @ + > + > > > : > : 7 > > > = % + > < @ @ @ % % @ > : > 7 = O > > O @ @ + @ O : > + @ > @ @ 6 , O @ % o % = > @ = @ @ @ > > + % > > @ % % @ > % > O o < < o O > : + @ + + = % % O @ o + @ + O > = $ @ O > O > % + > > @ % @ $ % O O + @ @ > @ > @ O % O O > O @ @ @ @ % o @ @ @ @ @ @ $ o O + O > % @ @ o O % > @ @ + + @ $ @ @ @ @ + o o % @ o % @ @ O o @ O O O @ ",
"@ O @ O o % : + @ O O @ O O @ @ O % @ O % @ O O @ > % O O @ @ % = @ @ > o O @ % @ @ @ @ @ @ @ + = O @ @ @ @ @ O @ > > % @ > > > a @ @ @ @ . O @ @ % @ > @ O % @ + @ @ O > % O % % % @ O @ > = % O O o @ O + O % > O @ @ > @ o o $ O @ @ = o o + > @ @ % + : O o > > @ @ > @ @ @ % 4 > @ % @ 4 @ O @ @ + > , @ @ > @ @ @ @ @ % @ o @ @ @ + : @ % @ O @ > = @ @ O = @ @ @ @ > > O @ @ @ > > > % @ @ $ : @ o @ @ 7 = @ + @ % @ O % @ > 9 @ 9 > @ @ > > @ + > @ o O > @ % % @ > @ > 4 O : @ @ @ = > > , % > = O + = > > @ @ @ : % > > = > @ % + = 7 > $ @ > = = 7 < = 4 @ @ > > > + @ @ @ > = > @ > @ O @ = 0 % > @ % 4 @ : > > 9 O @ @ $ > > > @ @ @ + 4 > @ % % > @ @ % < 7 @ > < @ @ @ @ + > @ + @ > > + O + % @ + 4 = @ O @ > = > O @ @ > @ : + @ O @ > > @ O @ @ # o @ @ > @ % % @ = > @ % > + > > % O @ % > @ @ @ = + > > @ @ > @ @ @ @ @ @ O % % % @ % % O + = @ + % > o $ + @ % o + @ @ @ @ > @ @ @ : > @ @ % + o O @ @ O @ O @ + @ @ O O $ % O O @ @ O @ % % % O @ @ % , @ > O o > + @ @ o > O @ > 2 % O $ o o o % % @ @ O O o O @ ",
"+ O @ @ % % @ > O @ O @ % @ % < > @ % + @ @ @ @ @ @ @ o O o @ @ + O @ + O > @ @ O @ O + @ o @ : < @ O @ @ @ @ @ + @ + @ @ @ % : > @ > > O O o @ @ : + @ @ % + + + > > % > % > % @ + @ @ @ : @ > @ o @ @ @ % + > + O % @ = < % O > * @ @ @ % 8 % @ @ : @ @ % % O + % > > @ % O @ @ > = o @ = > > + + = > @ @ % > > @ % > > @ + = > @ , @ @ @ + > @ : @ @ > @ % + + > > @ > > @ + 7 = @ @ @ @ % @ @ O @ @ > @ > > 9 = % @ @ > @ @ > @ > < = @ > > > > @ @ > @ + @ > < > + @ > @ > @ > : o @ : @ @ @ @ @ + @ @ @ > @ > : > $ > @ : i % > @ @ @ % 7 @ O @ : > + : > 7 > = < > @ 4 @ < > @ > > 4 @ < @ , > @ 9 > = @ > @ 4 > @ > 0 @ @ > O 4 < @ : > > @ > > % % + % @ + > : @ > > @ % @ @ @ @ : = @ = > 7 % @ $ = > @ = > O O : < > @ o + @ @ > > @ > @ @ + + @ @ > + O % : % + @ @ % @ > 4 @ @ @ > = : O @ % @ = > > % > @ % % > > + @ > > % > @ O @ + > % @ % @ > @ % @ @ % @ = @ @ % O > @ @ @ % > + = O + > % O @ $ $ O @ @ @ % @ @ @ @ % > % + + % O > : O $ % o @ + O @ @ @ % @ % O @ @ @ O O   O @ > @ + o @ O % O o % @ @ O O o $ % ",
"@ o o > > O + @ @ @ O @ @ @ @ @ > > @ 7 > > 4 4 o O @ @ @ @ % @ > % @ O % @ 4 = @ , O + @ 2 @ % O > @ > > @ : 4 @ @ O % + + % > + 7 u < = 0 > + O @ @ % @ > = > > @ o @ @ @ @ 4 O % > = > > @ 4 > @ @ 4 = > @ + : : O @ > 4 < > @ 7 > + @ % @ > = @ 7 @ > + > = o + @ > @ @ O @ + @ > > < @ o @ > + @ > @ @ @ @ @ 4 = u p 6 > a 7 @ @ @ : @ @ @ : 9 + O > @ o > > @ @ % @ = 4 7 > > < @ > > > @ + > @ % 2 a i = > 0 > @ 4 9 6 < @ > > > = = > > + 7 2 < + = @ @ O 7 6 7 r u p 4 > 7 = > 2 < > < 2 < = > < q 9 7 % + = > + % > @ 5 @ > 6 : @ = @ @ < 7 @ % @ % @ > > = 7 @ > 9 7 = > @ > > > = + @ & @ @ O $ @ 0 > % > @ : = @ < @ > @ > > + 4 > @ > @ @ = 9 @ + @ = = @ O $ @ @ = > @ @ > @ > > @ > 9 + @ > = > > = > % @ @ @ @ % > @ + $ @ @ < = : 9 + > > > @ @ > @ @ = % @ O @ @ @ > = > + @ @ % > @ @ @ > = 7 > @ @ @ @ O @ > > = o $ @ > : @ @ + > > > = + > % @ @ > @ @ @ + O % > > > @ @ @ @ o > @ @ + + O @ @ @ : > = % 2   O > = > @ % O O O , @ o $ @ o > @ @ + @ @ @ O @ @   % O o @ o O O O @ % @ @ @ @ > o > > O o o . $ @ ",
"= % @ @ @ O $ % @ O o O @ @ @ @ = @ @ 2 = = = = $ : @ + O > > > @ @ = + @ @ > @ $ @ @ O + > > @ O > > + + o @ > % @ O O > < > > @ 6 2 = 6 6 0 O @ % : > @ q > @ % : q = + : o @ $ @ > = > @ @ > @ > = > > > @ @ @ @ @ > + > > < > > < > + : > @ > > > = > o = > < = q > > % @ > @ > > > > q % , i % @ = @ @ > : 7 6 i 6 6 i 2 2 > 4 = > @ @ + > @ @ = > = : > 2 4 + > @ @ 2 2 6 > > 4 > > 4 > @ O > % @ = r p a = 2 0 4 7 6 u 4 o < 7 9 a 7 7 < = > i > @ > > > @ r p 6 s x 6 i 9 7 7 r 6 = = > > 7 6 9 7 > > < @ > 7 > % % + 4 d < 7 i u 6 z 2 4 p 7 @ @ @ > > @ % @ i 2 @ 7 4 q = > @ + < i 4 4 @ = 9 > @ > > @ % O = > @ < > = 7 9 > < > = > > @ > q @ 2 < = 7 a < @ + O O > > 7 = 7 > 7 > @ @ = < % % @ @ @ @ : > > < @ O > > 7 4 @ O O @ > @ = > < @ @ @ @ > 7 @ @ > > @ @ > @ @ < < > < = > = 4 + > @ O @ > > @ @ > % @ : > > > @ + @ > = @ @ > + + > > = : > @ + @ @ : % + % @ > < = 7 : , O O @ : @ @ > @ : > @ = > @ > 7 O @ = @ > 9 @ > @ @ > + @ > @ @ > @ > + O % > O @ @ + O % + @ @ @ O O O + = @ > > % @ @ @ @ O @ % O o ",
"= . % @ > @ O % % @ % O O O O + 2 4 > = > = > @ > @ o o : > @ @ @ > > @ o @ @ > + % % O O @ > @ @ @ > @ @ 2 < @ + % O @ @ : > = @ > = @ : > 4 @ $ @ % @ @ @ @ o @ > % O + 7 @ O     @ 2 = > @ 7 o @ : > > @ @ + @ > > + % @ + > > @ > > > @ @ @ @ > > = > @ @ @ > 0 @ > > O @ @ > @ > > 7 7 7 > > r > @ @ % @ > 2 i d r r 0 > 6 6 = = @ @ @ @ > = = 4 > > > > > = % > % = @ > @ 4 < > 0 2 2 > > @ @ > @ = 9 u 2 2 > > < 9 4 < : @ = 2 p 4 > 5 2 6 2 2 2 9 < > @ > = 0 u = 0 6 7 2 > 0 r 5 > $ @ 9 7 2 2 > < > = < % = > @ : O = u p > > p r u 7 2 a = $ % = 9 5 @ d 6 : = 9 7 > O @ > = > @ > 0 7 < : > 6 a > > + % @ > 7 % > = = > = > O @ > @ @ > 4 7 = 9 @ > O 0 9 = 6 < @ % O + > < > > 0 = 6 @ > > > o O > O % @ > 9 > o @ 9 > % > @ = > > > @ @ > > @ : > @ > > > > O @ p a + : 4 6 9 2 4 @ > @ = > O @ 7 0 = < 2 2 2 > @ @ % @ % @ + @ 4 = > % < > > = : @ = > O @ @ > > : @ : @ @ @ 9 > O % % o @ > > = > > @ > > 7 < @ O @ O @ > @ @ @ 4 8 + = > O O @ 9 @ @ > @ @ > % O @ % @ O @ O @ = + @ @ : @ > O @ @ % O o O % o + $ > @ ",
"% : @ o @ % @ > @ @ @ O @ O O @ > = r 6 @ @ > < > @ O o @ O O + 7 $ @ < @ + > = @ % @ % @ > % @ @ > @ = = = < : % O O @ > 9 @ < @ > 4 @ > 4 @ @ @ O : < + > @ @ > > @ @ = > @ o . o @ 2 6 @ @ 2 % @ @ @ @ > > @ O @ > = % @ @ @ > > < = 9 O @ % @ @ > % > + % = = > = > @ @ % + > = < > < 9 @ = > 6 0 @ @ O O 2 r 2 7 6 u 7 > 2 s > > @ O O > : > > : = = > > = 7 O O > @ @ + @ > = > i 6 = > > + @ > > a 7 > 5 p = > 7 = 7 = @ O - : 2 @ 4 > = r i 6 2 4 @ 9 > + > 9 4 5 6 5 0 5 i 2 p 6 < > @ @ > = 7 > = = q > < @ @ % > @ + p 6 > 7 6 r u 9 6 4 + O @ = a r = p f > 7 7 @ > : > @ = > < > @ 4 = = > 2 2 @ < @ > > = : @ % < 0 > = < @ @ 7 < @ @ > = 7 7 4 = + o @ 6 = @ : % @ 7 9 = > 4 > > d 4 = > @ @ O + @ @ O @ > @ + @ = 7 + O @ = @ > < > @ + > % @ > @ > @ @ @ + = u r + : 4 2 = > @ > 7 9 + + @ O > u = = i 2 u 6 > @ > = @ @ % > @ > > + @ > > : @ @ 7 > O @ 9 + + > = @ @ + > > % O > O O % > = = = + @ @ > = > @ o O O @ @ + % + 7 @ : > = > @ O % O + @ @ @ + @ @ @ + @ O o @ > > @ @ @ = @ % O @ + O % O % % O @ % + O ",
"@ O @ O O O + O @ $ @ O @ @ > 4 = > > @ @ @ @ = @ + > o % @ @ @ 4 O + > > % + @ > O O % @ : @ @ = @ + > > = + = > O O O % > = 7 6 @ = = @ > 7 O @ @ % @ % % % > O @ @ > + > @ > @ % > + > > > = > % @ @ @ 4 7 @ O @ 7 % + @ > @ @ > > @ @ o @ @ O O @ > 2 % > 4 > @ < < > > = > = > > % = > @ > > @ @ > @ % + 9 r 7 < i 6 7 9 2 5 i 2 + $ @ + + o > > : % @ % @ = @ @ @ > 4 @ i 6 > > i 2 > a < + @ @ + 2 4 2 > i > q < > 7 0 > O > > 7 f 5 > 7 u p r 7 7 @ + @ = z 2 = > r p 2 6 0 u 2 = o > @ + 0 6 @ > 7 4 < @ 9 4 @ > @ > 7 4 u u 6 7 7 2 5 6 i 7 O > a 0 2 > 6 = 2 0 = 2 r @ > > > < > : @ @ > < > @ = = > @ = > o % > > 6 7 = 7 @ @ 9 > @ > @ = 7 6 > 9 > > + > a > = = > O @ 7 > > i > = = 9 2 6 < = @ + % + @ = @ : @ > O > < > @ @ + = > > % @ @ > + = > 2 > @ @ @ = O 6 9 4 7 7 7 > < > < > + > : @ + = : @ > > 6 u = = > % @ O @ > @ @ > > O @ : > @ = @ @ : % O @ > 7 @ o 7 > @ + % @ @ O % > @ > = > + @ + @ @ @ @ O % < > @ @ < @ > > > > @ @ @ % @ @ @ @ > @ @ @ @ @ @ O O @ % @ @ @ > % O + O % > @ @ % % o O @ > + @ @ ",
"@ O O > $ @ > @ > + O @ O O @ 6 = > > o % @ @ > = > % O @ @ > + = @ > < + O @ % @ O O O = @ @ % @ @ @ @ @ @ : > @ $ O > = 7 2 = = > : : @ = < + + % @ @ @ > @ @ @ o @ > @ > o O = @ @ @ : 9 @ @ > % : : > = = + @ @ : > = > > = % > @ > : : @ O o : @ = > @ @ > 4 > @ = > > > @ > @ @ @ > = > @ @ @ > @ @ % O 6 d = 7 4 = 7 r 6 p 2 > o @ @ > @ + < = @ @ @ % > = > @ O % > 9 > = > > > 6 6 6 @ < : @ > 0 4 6 4 = = > 2 9 7 < 9 % O @ > u 0 r 6 u p 2 > 9 > @ : @ = > < 7 7 r 7 7 6 0 = 4 + % @ > < 7 = 2 7 > 2 > > > @ + @ @ > 2 6 2 5 i - 6 d i 7 @ @ % = = + % 4 @ p = > 0 6 > O > @ @ 7 > @ > = > > > i a < > > > @ = > = = 2 = = > = = , $ = : @ = i > = > > 9 2 @ > < 9 @ O + : > 9 2 = 4 @ 9 - 5 p @ @ % @ @ > = + = > > @ @ > > @ @ + 7 > > : @ @ < @ + > < q O @ > > o 7 = > < > 2 = 4 @ > > @ = < = @ 4 9 > 9 > = 0 > = > % % @ o @ 1 % % > @ @ + > > : % @ @ > o % 9 > @ > 9 < @ % > > @ @ O @ @ > = @ $ @ @ = + % % + > @ > > @ > o @ > > 0 > @ O . O % + > + @ > = + O > @ + @ @ O @ > O @ O % @ + @ @ > @ > O @ % @ % > % ",
"@ @ O + @ @ @ @ @ > + + @ O @ > > > @ > > < 4 @ @ @ @ O > O @ @ > @ @ % o + @ > = > O o @ > > @ @ > = @ > % % > O @ @ @ = 7 > > = 0 > = = 0 4 @ @ O o + > @ @ @ > + : @ @ : > @ % O % > i 2 > > > > > > = < @ > @ > + > @ > = : > @ > > > @ % O @ : + @ > @ > > + < 4 > @ O > > > @ > > 4 > > 7 = = 9 @ O @ @ > p u 2 6 6 7 p u r 0 7 @ @ @ : @ @ : > @ @ < > > 6 @ > @ + @ < @ = < < = = i 2 2 + @ % : > > 4 2 > 2 > > > 4 > > $ = 4 = = 4 r p 7 r 6 = < q = > @ r 7 i u 9 = 6 7 > 9 0 > = : O 2 > = = 7 4 2 = < 2 7 @ + @ + > d 0 2 7 7 u 5 6 7 > O % @ @ 0 > 9 4 > < 0 7 6 6 i o % > @ : > < 0 9 @ O 4 0 2 > > O @ < > 4 9 @ @ @ % < = > > > = + < 0 > > > 7 @ 7 7 + > > = @ @ + < > = 7 < = = > 7 6 > @ @ o % @ > > > > 2 = @ O + > > : O @ > + 1 > > @ @ % O @ @ @ + @ > O 7 4 4 @ 2 2 2 2 = = = @ @ O O 9 = = > 7 = 4 = = = @ @ + @ < @ @ @ @ @ > 4 = > + @ : @ @ + + O : @ > > 4 = < = @ o @ 4 + = q 7 @ + > @ @ > @ % O O = O O > > = > 4 : @ = 7 O O @ @ @ > % @ + @ @ o + @ > @ + @ @ % + O : O > @ @ @ % @ @ % @ O o + @ @ @ ",
"O O @ O % @ O @ @ > @ @ @ @ @ > 6 @ = > > 7 : + + O O O : % O @ + > + o O % % = + @ @ @ + @ = @ O @ = @ @ @ @ > @ O @ @ % @ @ 9 @ 7 = @ > 7 > + * @   > = @ % O > @ @ O $ @ > @ @ O O > = > @ > + < > > > @ @ > = O > % + < 7 @ > @ @ 2 > @ O @ + : @ @ > > @ O + < 2 @ o O @ : + @ = = < = > 6 2 = > @ O % @ + > r 5 u r 7 - 5 > 6 > @ @ @ @ > = @ @ 4 @ 2 7 @ 2 + > @ @ @ @ = : > > 2 > = < u o @ > @ @ @ 2 > @ < 6 = = = > @ @ - 2 i > = 6 2 i 5 i 7 4 4 2 < @ s r 7 6 7 7 u 4 = 7 2 5 < > > 2 : 7 > 7 > > > = 7 4 @ > $ % @ d u 7 < @ p 0 @ 7 0 @ @ + > 4 > 2 > @ @ 7 = 2 > 2 < @ @ = > = 2 5 @ > = 7 7 = 7 @ % O @ > > > 4 > % = > @ % @ @ @ < > = 4 > 7 @ > = 6 @ O O = > @ % > > > < < = : @ 0 0 7 O o $ > @ > @ @ = < @ = O @ > @ > + = = @ > @ > > < < > O O : > % @ < > > : > = u 9 = > > < @ @ O , = > > > = : 7 = < > > @ @ : : @ > @ > > @ > > > = % = @ @ @ % % @ @ < > @ @ > 7 @ @ @ % > + > > > @ = @ > @ + @ O   > > . O = @ + > 2 @ 4 > o @ % @ @ = + % % @ @ @ : % @ @ @ % @ > > @ @ + > @ + @ @ o O $ o @ O % @ O > ",
"% o O O + = O @ > O O @ + @ @ @ + @ > > @ @ @ 4 = O @ O @ > > O o > > @ % O @ @ @ + @ @ @ @ + @ O = : + @ O > % @ % o @ O > < @ @ > > 2 > % % > @ O % % > % > > > @ @ @ > > O @ @ O O = = > > > @ @ @ @ > @ % @ + + < % = @ > > = > @ @ < + O @ @ 7 > @ = > = @ 7 % @ = > % O + + > > > > > > @ = > < > @ % = < 4 > > i - 2 4 6 > > = $ % o @ : = @ + > < > @ = = $ O + @ > @ @ > @ 4 2 7 > @ 7 > @ @ 7 i 9 = = > > 7 9 7 a + @ @ 2 = 6 2 4 2 > = 6 2 6 0 O % @ @ 6 6 6 i > > 2 i 2 0 a = > @ @ 7 4 : 9 < 4 + 2 > + : @ % > @ 7 5 6 2 2 7 2 5 > = > > @ % @ > 7 7 > 0 0 > > > 4 6 > O + > < 4 < < @ 7 : 2 > 4 > @ @ @ % > @ @ 4 q > + > @ @ > : O > 7 > 4 @ : < @ : = 4 , O @ + @ > > q > > = 9 > 9 @ > 4 O % % > + @ @ @ @ % > + > 7 @ @ @ % = > = % > > @ = > > : @ @ + % = = @ % @ 4 = = > @ > > >   $ @ % > = 7 < 9 = < 9 = = > @ > O o = 4 = > @ O > > > @ > 7 : @ @ O > > @ > @ @ > + @ : = O @ @ > @ @ @ : @ @ O O @ > > + > @ O @ = @ = @ % > 4 = @ O O % @ @ @ + % @ @ @ @ @ @ @ + $ o @ % > , O + > @ @ O + @ @ @ % O O O + O ",
"@ + @ o % $ @ O > @ @ O O @ + % O O % O O O @ > = @ + o + @ @ @ % O = 7 = @ o @ % $ @ o @ > @ @ > % O @ > % o @ > O o O $ % + + $ % = - 2 > @ + > % O @ @ @ > > @ @ @ 2 @ > @ @ @ @ @ O : @ @ 4 % O o O @ = > o o @ @ @ , @ + > @ > = > 9 @ @ % @ 7 = @ > > = = = @ @ > + @ @ o > > > @ @ O @ > > < < + + O @ @ 7 > % 7 2 5 i 6 t 6 > o $ @ @ O 8 @ @ + + $ @ % < % % O > > @ @ i 7 > > > > % % *   @ = t p p > = 7 > 6 2 > : @ O = 9 2 > = @ 9 6 4 2 2 4 @ O @ + 6 0 @ 7 7 i < 7 r p > + < 9 @ - > 2 = @ 4 4 4 7 @ @ @ > > = 7 > 2 > = 4 > u 6 7 6 @ @ @ @ 2 > @ > p 6 2 < = 0 0 O @ + > > 7 @ * 2 0 4 + > % @ > % % + @ $ : 7 = 7 % 7 8 < < @ @ > u > > > > 7 + % O 4 > @ % % > 7 @ 7 < > > 0 < < = = 6 + < 4 = > @ > = O @ > @ 6 5 = O o @ 7 > @ > = < 7 @ @ = u > @ @ @ < @ > > + @ @ > > 4 = @ @ o O @ + @ = 2 2 7 O @ 9 = = > < @   o % 2 5 > : O % : > = > > > O O @ > @ < @ @ @ @ + @ 7 @ $ O @ @ @ % < @ % % @ O % > > + @ O > O @ > @ @ + > = @ > % o O O % @ o @ = % O + o @ @ + o . @ = = = O % > @ @ @ , + O @ O O O O % O ",
"O $ % O O O O O @ o @ > + @ @ O > @ > > O @ > = @ @ @ # . O % @ O @ @ O @ q @ @ O + @ o @ % % @ % @ @ > > @ @ @ @ : @ O @ > : @ > : % @ @ O o O @ O % @ % > + o + O > > > % O + @ @ @ > 4 > : > @ % > = @ % O + > @ @ @ = 2 @ @ = > > > < @ @ @ % @ @ @ @ @ @ $ @ = > @ @ % + @ : > = 2 6 = = 4 > @ % < 0 O + % > p d p 6 r p 5 7 7 % : + @ : % O $ % > > @ 8 = % % O : > % @ = = > > > = = > > = + @ : 2 < 9 6 - 7 > @ > 2 2 > O @ @ > < 7 @ > 4 6 2 4 > > > > # 4 q 7 > 7 6 0 > = < > > o O < 2 > 7 > % 4 4 % $ O $ @ > * % > : > @ > p - 7 4 : > = > + @ 9 < i = 5 r = = q < > > % o > > 2 = > 4 > % % 7 > > % @ % % % 9 < > > O > > = O > % @ % o > 9 2 4 > q % + > > + o @ + < = = 4 > @ 4 4 2 > $ @ @ @ > @ @ @ > > > > < @ @ > % : @ @ 7 @ @ $ > = > > > > < @ @ @ > > i @ @ : @ @ > > > + @ : > > O @ > > @ = 9 @ > 7 $ O @ > @ @ @ % O 7 > @ > @ : @ = $ $ @ O o @ @ @ > p 2 @ % % 4 % @ $ % o @ $ % O : : % @ % > @ + @ @ O O @ > > @ @ @ O O @ @ @ O o % : @ @ > > @ O @ @ O @ @ > @ @ @ + + @ O @ > @ @ O @ @ O @ @ + O % % ",
"+ . O @ O @ % @ @ @ @ @ + > @ O o @ > % > O O : > @ @ @ O @ % + O @ O + > O O + @ @ O $ + @ O @ o @ % @ > O O @ O > O @ @ @ > @ @ O + + O @ O o @ O % @ O @ > @ % o @ > > o O > O o O @ > @ + @ + @ @ % @ O O > @ O : % @ > $ O @ : @ > > O @ % > > O O @ > @ @ O 7 = @ @ o @ + = < > @ % = > > @ @ @ @ > > @ @ @ 2 r 7 2 > 7 > > + > @ @ > @ @ @ O @ @ @ @ % + % @ O @ @ > % @ > @ > > > : @ > < % @ o > 7 = = > 7 7 @ @ 9 = @ @ + @ @ @ > > : > > > + 4 7 O % + % > = = @ > > > + > @ @ > > > > : = o = > > @ + @ > : > @ O > 9 @ @ 0 4 2 : > + : < @ = @ $ > % = 4 4 = @ + @ @ % @ @ + @ 9 : > @ @ > @ > > O + @ : > + @ + = 9 = @ % @ + % @ > : @ % @ @ : + @ @ + + @ @ + O @ > = = > % + > > > : @ @ > % + O , @ O @ @ @ @ @ < > O + % > = @ + @ @ = @ @ > > O % % @ O + > = > : @ @ @ % > > > > @ : > @ @ @ > > % % @ > O % o O % O @ + @ > > > : @ @ > @ + o = o O + O @ @ > > > + o > @ o @ > % > @ @ @ > o + @ @ + @ % O @ O O + @ @ > @ + @ < @ o O O o @ : @ @ % % O o : @ @ @ > @ @ @ @ % @ @ % @ @ @ @ o @ @ @ o @ % O + @ ",
"O O @ @ % @ > o @ > O % @ O O % @ > + o @ % @ + % @ @ @ @ > % o % O + @ @ O o + @ @ @ % @ @ @ O @ % o O @ % o % @ O O + O @ @ O O @ % @ @ @ + % O # o O % O O O + O @ O @ $ @ o $   O > @ @ O + = O O   O > @ @ . $ > O o o O @ o O + @ @ @ O O @ % = = + + O @ @ % o @ O @ @ > % > + o   % % o o % 7 o @ % @ > > $ o O > @ O @ O @ @ + % O + > < @ O @ % % + @ . @ > O O   @ : @ % @ @ @ O + % O % % @ @ @ @ @ @ @ @ O @ > @ @ > > + @ @ % O % o @ % = > @ O @ + O @ @ > @ $ > : + @ @ % < < @ > O > : > @ O @ % > % : > @ > @ @ @ = % @ : @ @ = @ % : @ @ @ % @ : @ @ @ < = @ + > < @ : @ + @ > O + % @ > < = @ @ @ + @ O O > @ 0 % O > > % = , @ @ @ % O @ + + $ @ @ : @ @ , : @ + > @ % + + > % O @ % @ % O O % @ @ @ > + + O @ > O % + + @ @ o % $ $ @ O @ O @ % > @ % @ @ > % @ O @ @ @ O @ @ + o % % > > + > @ o % > > @ 7 o o % O O % % @ o O + @ O O @ = @ @ > % O % @ O o O O @ @ @ = o : + o @ % > @ @ @ > @ @ @ % @ % o O % @ % @ @ $ @ + @ @ @ % @ @ > @ $ O o O o   . O > @ @ O O % O O @ @ $ O   @ @ % @ @ @ @ @ @ O @ o ",
"@ $ O @ > > O O @ @ O O O o @ % + % @ + O O O + O o @ @ @ % % o o O @ @ o o O O @ O O o % @ % O > O o @ @ @ + % @ O % O @ @ @ @ O O @ @ @ O O @ o + O @ @ O O O O @ O @ O @ O O @ O O O O $ @ O @ @ > o + @ + @ @ % O % + @   @ @ < : O @ O O % O $ + % @ + @ o O + @ : % @ @ % > O o % O @ O @ @ % @ % @ @ @ @ @ O @ % = O % O > % + @ % O @ > > O @ @ @ @ O + O @ @ + O   O O + @ @ @ @ @ % + @ @ + @ @ O O O @ @ @ @ O @ $ O @ * + % : : > @ > @ + > > @ @ @ @ @ > > > : @ @ @ @ % @ = > @ @ % @ + < > @ O > % @ % @ % @ : % + < @ % + > > O % @ @ > @ + 9 : > @ o O @ > > @ @ > % @ O @ > + % > % O @ = @ > = + % % % O @ @ @ > > > % > @ @ % @ % @ % O   @ @ @ @ + @ + @ @ @ > % : > @ @ + > O $ : > O O : @ % @ @ % @ > @ @ @ @ + @ > @ > $ @ > o + % @ @ % % % : + @ @ $ + O @ % O % @ @ @ > @ @ O o % + % @ @ @ @ O O % > $ o O @ % % @ @ @ @ @ : @ @ % > + @ > @ o : % O O o o % O @ @ O @ @ O o @ > @ O % @ o O @ @ O > o O @ + @ @ + O % % @ @ O + % @ @ O @ @ # o , $ @ O > > o o @ @ * $ O O O O o @ @ % O O @ O @ O O @ @ ",
"@ % + @ @ > @ @ @ @ % % o o O @ + @ % O O % > O o @ O @ @ + O % @ + @ @ O : @ + % @ O o @ @ @ > : O @ @ + @ % @ @ o O @ 4 q O % % @ @ @ @ $ O o % @ > @ % % O @ O O O > @ 1 * o @ @ % O O @ % O O = > > + @ @ + @ @ @ + @ @ @ @ @ @ @ % O O @ > % + @ @ O @ %   > @ @ @ @ @ @ O @ O @ : > + % % % o o @ @ @ @ $ O > $ @ + @ % O + @ O O $ O o > $ O O : @ o , + > > + $ % @ > @ + > > O @ @ @ @ > > + % O $ % O + @ o O @ O + + @ @ @ q + @ > > = = @ @ @ % % + % > = > = 1 + O % @ O > > + % $ @ @ > = = : @ @ @ O : o + O > : = < = + @ > 9 % @ < % O + > 4 + 5 : > @ @ @ O % > > + % O > 0 > O + O > % O @ : @ + % @ + : : @ @ + > = + O o @ @ + % > + % < % @ @ @ @ > % % + + : @ o + > > @ > o O O @ @ + > @ @ > @ o @ > % @ % @ @ + % @ % > + @ @ + @ @ + + > + + @ > @ @ % = @ @ @ O O O O O @ + % 8 @ o @ O @ O @ O O @ @ @ @ @ % @ O O : : @ O O O > @ % O O O O O % @ : > @ O @ O + @ @ @ % % @ @ + @ % @ o % @ : @ @ % O O @ > + @ @ $ @ O o O % + @ + O + @ @ O o O % + O . O @ + % # + @ O O @ O @ @ @ @ @ O @ O O O O O O ",
"@ + @ @ o % > > @ o : % O @ @ @ O @ O @ O @ @ + O + > % O + @ o O @ O @ @ > % % + @ @ > @ @ % % @ @ % + > % O O + O o @ > @ @ @ + @ % > : % O O @ @ @ > > @ O @ o > > O @ @ @ = O + % @ O > < @ $ > @ = > @ @ @ @ o % @ = 9 @ > + @ > @ @ O @ % + @ 4 @ O = @ @ @ @ @ @ * % O + @ O o < > O @ O @ O @ @ % @ @ + > @ % @ > = @ @ + @ @ @ @ o % @ O @ > : > o @ > = > o % + > > > : = @ @ > > = > @ @ @ @ @ % @ % : @ = > : > @ = @ o > % = > > 7 @ = : + + @ % @ o 9 6 < > > @ < > @ : 4 > @ o @ > @ = 0 @ : = + @ % @ > @ % O @ > 2 > O > > = O 8 7 > > = > > + @ > 2 @ = % @ > @ > < @ O : > = @ % @ > % > @ @ > @ @ + > 9 > > > & @ = 7 = @ O @ : @ @ > > @ > @ @ : > @ % % @ @ % @ @ @ > < % $ > > O   % @ @ @ > = % O % @ @ > > % @ @ @ @ @ > : @ > @ 9 : @ > : > o > : > > @ > > + > @ + % > % % + @ + + @ : O % > @ @ + @ o @ = @ % o @ % @ @ > @ @ % @ + @ O @ % @ @ @ @ + < = + o @ = @ : O @ @ > @ o O + @ @ @ > o + @ % O + @ @ @ = @ @ @ + o o > : o   @ @ @ @ @ > O + > + o o O O @ @ $ + O O @ @ @ @ + + @ @ O @ @ @ O O O ",
"@ @ @ O O o @ @ @ O o O @ O % $ > : + @ < > o % > + @ O o @ > O @ @ O @ + % > + @ o O @ @ > % @ @ @ @ > > @ @ % @ O O o @ @ @ = @ > = @ @ @ @ @ % O O = > + > > < @ @ O @ o : > % O O o @ > > O O @ % + > O O > @ o @ , @ = = @ 4 : O @ : O @ @ O @ > > 7 @ = < > < < @ % > % + O % % @ = @ O > 7 < > % @ @ + + % > @ + > = = @ @ > @ @ % + % @ % > @ + : o % 4 > o @ > O @ = > : @ > 7 2 < 4 > @ @ + @ > > < 9 < > 7 0 > > > % @ O > @ > 6 < % > < > + % > + $ % = = > @ @ 7 > 7 > 7 $ @ : = > i > @ > @ > 7 c = > @ > @ % @ q 4 = < 4 : @ @ 9 = @ @ @ > + @ 4 @ % > > > O > > O O > > @ > @ @ 7 < > 4 > 7 < > 4 > = @ @ 7 > > < 1 q i 0 < < @ > @ @ % @ > > @ O > > % > @ + % % % = < > > > 9 @ @ > O % > o @ @ : @ @ > % @ = 2 > < % % @ % @ > > > @ > @ 9 < @ = 9 % + + > @ @ > > % @ : > > O > 7 > > O O % @ o O @ @ : > @ > @ @ @ % o % : @ @ @ % % < > @ > + @ @ > @ * + & : O > < % > > o @ o + , @ + @ @ > + O O @ + @ + O o O O @ + @ O $ @ % > O O o O O @ @ O % % > @ < > O O O @ O @ @ O O @ @ O + + @ + @ @ % O + + @ O @ ",
"+ $ @ @ % @ O @ % O   + $ O O @ > % O > > % @ % : > @ o % > + @ % % @ > > @ @ + % O o @ @ @ = > % > @ @ > @ O > @ > @ O % @ > % @ @ : O + > + O % $ O @ = > = @ = @ + @ @ @ @ @ @ O O @ @ % + + = % : @ > % O % @ > + o > = : + @ O $ > @ O O @ < @ @ > = = > i 6 4 = > @ O @ > % @ @ > @ @ O % % 7 > O @ @ % % @ > > = @ > < @ > > 4 + @ > @ > @ > @ O : % @ > 6 @ @ : : @ @ > > > > = = 2 9 + @ $ O @ = @ > 2 = = > 4 > > > + > @ @ = 4 @ = @ = < > > > q O @ 4 9 @ = < > 9 > 7 > 4 > + @ 9 4 2 < @ @ @ > > l 0 + : @ > @ @ > % > = > > + @ > @ > > @ % % % 7 @ > @ @ % % + 7 @ O @ < 4 @ > > 2 @ > > > 7 = > + @ @ % @ @ 9 > @ = 6 = > = > @ > O @ + = = > : = > + = > > : O @ @ < > = @ + @ > % @ @ > O + > : o + 4 % O < : 8 @ > + + @ @ = @ > > @ q > = > % @ @ > + @ % @ $ % = % @ > > = + > > @ o @ + $ @ > @ @ @ = > @ 2 > + @ O O @ > 9 > @ : + @ > @ > > = O @ O O O @ % @ @ @ o > > o = % + > @ @ @ % + + O @ > @ @ > o O > % O @ @ @ O @ > > + O O @ @ O O   @ @ % + % > @ $ @ % O @ % o @ % $ O O @ O @ @ O @ $ @ @ @ % + ",
"@ o O % @ o @ O % O O @ @ O % % @ > + O O + > @ @ @ O O @ % @ + O @ + 2 > # @ < > O o @ > > > > > > + O = > > $ O % O O # @ > @ O + @ @ O % O % + < > = > < > > > > @ @ > @ O o $ @ @ @ > @ % % > @ @ < = @ @ % @ O O @ > + % @ 4 @ O @ > @ O O + + : > > @ > % > > = 6 = $ O @ @ @ % , @ = @ + = % @ @ O , : % > @ @ > > = @ > O 7 < o % % @ @ > O @ > > + > + < @ @ = > > @ 4 > @ > > > > > : o : O + @ < 7 = > % @ > > < : @ % O @ 9 > @ 9 > > @ < = 2 @ @ @ + p % o $ 7 0 > @ > < 9 = = : O @ < : > > 6 < > > = > > > $ @ : = > > @ % 7 > < > < + % : @ > @ 7 + > : + + 0 > < @ O q @ @ % > 4 > @ 6 > > > @ @ : @ + > + > 4 6 0 7 = < = > > @ % % @ = > @ > > @ @ > O % @ O + @ @ + % > > % > = : > > @ + o % > 9 7 > @ = > > 6 2 @ > @ @ + 7 > @ = 7 = < > 6 7 < @ % O @ + @ @ % @ @ > > @ @ @ % + @ @ @ = < < > @ % @ > > > < > @ O O > > : @ @ @ : @ + @ 9 > O > O > > = > @ @ O o : > @ @ o @ % $ > @ @ + O : % O > > @ @ @ @ > = @ @ % > + @ % @ o o + @ % @ @ > @ @ o O = @ O o $ @ O @ = @ + @ @ @ O @ % @ % % O $ O @ + O % ",
"@ O @ + @ @ @ o .   @ @ @ . o % = + % O O % @ > % O @ O o : @ @ O $ O > > @ O 9 @ O O O @ @ > > + @ @ @ @ + % % O O @ + o O @ O % @ @ @ @ > $ + @ @ = % @ + > = @ 9 @ @ @ % % o @ % o + @ @ > + @ > = O @ % O @ : O O @ @ % O @ @ @ > > > % o O @ > > 2 > > > % < @ @ r > o O > @ < @ + = @ @ O = % @ 1 = O O > > = > > > = > > @ > $ @ @ @ @ @ % + @ > @ > > @ O o % @ % > > 2 @ = @ > = @ > > + @ O % = > > > 4 = @ @ @ O O @ $   @ = > > > + 4 + > @ > = o @ @ = > * o > 2 7 @ > > : @ @ % % @ @ = = > 9 @ > @ 7 > @ = + o > = + > > = > 7 = @ < @ @ O @ 7 > @ @ > @ < @ > > 7 @ o @ 7 > o 4 : : % 0 = @ @ > @ @ @ O @ @ > 7 < = > < > > < < @ @ @ > > > @ > @ @ @ @ : > @ # @ O @ > > + + @ = > = > @ @ % < @ > > : = @ % @ > = 9 * o @ + : 7 > @ : > > = < > = : @ + % + % > @ = + + @ > > % @ O @ @ @ @ : > = > O : > @ = @ @ O % # o > = 4 + O % > + @ @ = @ o : O O @ @ @ @ @ O O < > o + % @ @ o @ < % o $ O O $ : > o o + @ > = = @ @ % @ @ > @ @ O % @ > @ = @ > > + $ > % O o O O @ o < > o O @ % @ @ @ @ @ @ o o O + @ O O ",
"@ + > % o : % @ O O % % + O o o > @ @ @ % q > > + % @ o o @ @ : @ O O > @ < > O @ % O @ @ > = @ @ @ : > @ % @ > : O O O * % + @ @ $ % @ % > > @ O o > @ + @ % @ > + > > + @ % $ O   @ @ : + % @ % @ = @ > @ @ % % + O % @ % @ @ @ % @ > @ @ @ O O > < < > = > @ @ % = 2 9 o o % @ + O @ @ O > @ = @ > o o @ : > @ 4 = + O q o q 7 % @ @ @ @ O > @ 7 = @ O + = > + $ O @ + > < > @ 4 @ > = > 7 > @ > @ @ % > < @ = 7 > > > + 4 : @ @ @ @ @ 7 = > > 4 @ @ > 0 @ > > @ > a > + % % 2 > > 4 @ @ @ : o < 7 > < @ > 4 = @ @ + % = 9 = = O > : > @ 7 = < @ + @ @ @ < 4 : > 7 @ < % + > > @ @ % % @ > > % @ % > > @ + > > + : > @ > > > % 7 > > < 4 + @ + % % @ @ % = > @ @ > % @ @ @ @ > O $ 9 2 > + > + 7 > 2 7 % O % 8 > @ : % * $ @ 7 = > > > + + > = < 2 > @ 7 > = > > @ > % > @ @ > @ @ > > O @ $ @ + > O O $ @ @ @ @ : @ @ @ @ = @ O @ @ % o O = : @ > + + + > > @ o + @ 9 % O O $ > @ @ > O O : @ @ O @ O @ % = % % > O @ > @ O $ @ > + = % + % @ @ > % O % % @ @ @ @ > > + + @ @ O % @ + * % @ O @ % O O + @ > + @ + % @ O O O o O o O ",
"+ @ > @ @ % + O + @ O % @ o # O @ O @ % + o @ > % @ @ O O O % @ @ O o % @ = > + $ O @ O o @ > % + % + > O @ > > @ @ o O @ @ + @ + O O @ o > > o @ @ @ + : O @ @ + O @ > > % O O O @ @ @ @ @ @ @ O o > @ @ @ O $ O + % o + @ @ > > @ + @ @ @ @ : @ 4 > > = 7 = @ > 7 = 7 9 + @ > O @ @ O @ o @ = = @ > @ @ + O @ @ @ @ O @ : O > > < > O O O @ : @ < @ @ > % : > % % @ @ @ > > > = 2 4 > = = 0 > > > > @ > > > @ @ > = = 2 6 < o O = O > 4 > 2 > @ > = < > > @ > > 7 > > 7 > @ % 4 4 @ > 7 9 + :   < > = > @ + > < @ % @ o % > < 2 $ > = 7 4 @ @ > < @ @ > > > 0 % > > > = O @ < = @ > @ @ % 7 > % > > + : = = > : @ = @ > < @ 4 > 7 7 7 > 0 + @ + > @ @ < < % + O < > O @ : @ @ @ + o @ = > 9 > , 4 = 2 a > = O @ > > < = @ % > > @ > @ > > : > = > 2 > @ @ 7 < @ q + + > + @ > @ > @ = = O % $ > > > > O o @ > % @ @ + O @ @ > @ O > @ @ % O @ > + % @ > @ < > @ o @ @ @ > > % @ > @ + @ O O % @ o O @ O = @ @ > @ @ > o @ @ @ O > @ O > @ @ @ % + @ @ O $ + O @ = @ + > > @ @ @ @ < > o + O O $ O o @ @ @ o @ O + @ @ @ @ @ o O O O O ",
"% O o O > O @ > @ @ @ @ + O O O < @ % O o < @ @ > O @ @ > = O @ @ @ O @ > @ @ % O @ @ @ > + @ , O @ + > % O % + % O @ @ > > O @ @ @ > @ @ @ @ @ @ > % @ % @ % $ O % O % = @ @ @ % @ + $ @ % @ % o @ @ @ > + O @ @ @ O @ @ O @ % 7 > @ O @ O O @ o > = > > = @ < 9 @ = 2 > % o @ % > @ O @ > @ @ @ + : % O > @ O = @ @ 7 > @ > > > @ % @ % O o @ % O O : > > < @ % @ O + : > > > > > > @ + % > > o O o O > > @ = > @ > @ @ < = + % @ : > + > < > : > = > > @ + % O > > @ = < 4 < > > @ > 7 = : @ > > + > > 2 > > = > > > > O o > 4 > @ : > = = > > @ O @ @ > % > O > + + @ @ O @ = + , o @ > @ > > % < = > > = > @ @ @ @ @ > > = > 9 > > < < < > @ O @ @ 9 @ @ @ % @ @ + + @ @ > % : > @ @ 4 = > @ @ O = > @ + @ + > > 7 = < a < @ : > @ O @ @ o = = : + > 4 = = = < > = > O O > o @ : + > % % @ @ % O @ O O + @ @ @ @ > = @ > @ : @ o % % O O % @ % O > > @ @ @ : % > O o > > + @ > > + @ @ < + @ % O > @ % + o @ > @ > + + @ % O o @ % % O @ % $ @ + + @ @ @ @ % % % O @ O @ % O @ @ o O O O o % o O % O O O % @ @ @ O O   @ % + % % o ",
"@ o O O @ O O @ > O o O @ O O + @ % > O % > @ o % > O O > @ + @ @ % @ = % o % @ o % @ @ 8 + o O @ O % O O % @ o > @ O O @ @ @ % % @ > @ @ @ + @ O O @ @ O @ > > @ O O @ @ + = @ @ @ + o O @ O @ @ @ + @ % @ @ % = $ o % @ o @ @ @ @ @ @ @ % @ o o O > > > > > > = % < > @ @ O O > > @ % + % @ @ > + > @ O % @ > @ @ @ > 9 @ : @ @ % @ O @ + = O $ % @ > = @ = @ @ * @ @ > > = = > 9 > > < > @ : > O O + : > > @ 7 > O @ O > > @ >   @ % > O @ = > @ > > > > O @ O 7 > @ @ < 7 2 : > @ 7 7 @ + O 2 q @ @ > > 4 > @ < = = : o O > > 7 > + : < = @ 7 % O @ @ @ O + @ > % $ @ > % O 4 @ @ % @ % @ > & > > > > > % 4 > @ @ @ O > > = > : + @ : > = % @ % % > > @ $ @ > O % @ % > $ % O > < : @ @ + + % @ < 7 > o @ + > 7 > > > > = > = = > @ @ + $ o 4 > > > % 9 4 > > > > > @ O O O % @ @ @ @ % @ > + : @ o % % @ @ @ > @ O > 0 > + @ @ O * O @ @ O O % @ > > + % @ = = @ @ % @ > > + + < @ O = > @ = O O = @ @ @ : @ @ + @ > > > + O $ @ @ @ O + @ O % > O O @ + @ @ + % % @ @ @ @ @ % % O O o O % @ % + > % O O % @ @ @ O O o O @ O @ = % ",
"@ % @ O O @ o @ o O O o @ % @ @ o % @ O @ @ @ @ @ @ + o O % @ % + : @ O % % > @ O o O O @ > > % @ @ > @ + > @ > % @ $ @ + @ + % O $ O % : @ + + O O : % @ @ @ @ > + = % O > > @ + O @ $ @ @ % $ @ % % o o % : + O % % $ @ % @ + @ % : < % @ $ $ : @ % > 7 > @ = + = 7 2 > @ O @ O > > @ % % + > > @ = > + O O @ > % O = > @ @ > @ % + + @ @ : % % % @ @ + > > > @ @ O % > % + 2 @ @ + > @ > = > O O @ : @ + + @ : @ @ : > O $ @ = O @ < > > @ > > = > < > @ % = @ = : @ > = > 7 : @ : > > = O % > = % @ < = > > > @ % > @ @ , = > > = > > @ > > : @ O @ > > : : @ @ @ < : < + @ @ @ % @ + + @ > @ = 7 > > % @ > @ O % O @ q 4 @ = > = > > @ @ @ @ % > > @ @ @ @ @ % > O % > @ @ @ o > > @ : % @ > > : > : @ > : + 2 < o O % > @ = > > @ @ : @ % > @ > : o > > > = > : % > $ O > @ % + @ @ @ @ @ @ + : % % @ @ @ = @ : @ O > < % O > % O O > > % > @ + @ @ O @ q > % o $ @ @ @ @ % @ @ O o @ @ > % @ % O @ O O , % @ % + @ : % o o @ @ @ o @ : > + @ O + @ O @ O o > = @ O > % $ @ o O @ o @ @ @ % @ O O @ % @ + > @ @ % O O @ o @ O O O ",
"O = > : o @ % o   O @ o @ @ O @ % @ @ @ > % @ + @ + > @ o $ @ + > @ o o O @ @ % O O O O @ > > @ @ 7 > + @ % = 7 = @ O @ @ : > % @ . $ % + % @ o o @ O + @ % % + O = > @   @ > > % O @ + @ + O @ = @ % O O O % @ O + = @ o % % O @ O O + % + @ > + @ % 7 2 > > > = 2 > r 9 + @ % % > > > @ + + 9 > 2 > @ O % O @ > + @ > = @ @ > > @ @ O O + @ $ > > < @ : @ > > > > % > > $ + @ + @ 7 > = > > @ > @ O @ @ @ @ = @ @ + > = @ @ 9 > % > > > 0 @ > 2 = @ = : = @ > % O % > 7 = > @ > 2 0 < : @ @ > @ @ @ 9 > % > < : O O @ @ + % % < > @ @ > : @ = @ % @ = > = < 7 > % + > > > % @ @ @ % > @ > > @ > = < @ O % @ > @ O @ O + > 2 > = > 2 @ 7 > % O @ > + O @ > > % > @ > > @ : + @ $ O , > @ @ > > = 4 = > 9 > + @ = > @ O & @ % + $ 5 = % O O O > % > > = > > @ > = @ % + @ @ > @ % % @ + % @ @ @ = O > % o @ > O 4 @ @ + % @ @ @ $ = O o o % > > = o @ # O % @ @ @ % % O O @ @ o O = @ @ $ O O = o + + O O @ O O O @ = > @ @ @ $ O @ O @ $ O + @ + $ % @ @ @ % o , > = O @ > O o @ @ % O O O % O @ @ O o o > : O @ O @ > O @ O   @ @ @ O ",
"o o + @ @ %   @ O O O @ @ @ @ O @ = @ % . @ O < > o O % @ > @ @ + o @ % @ = = @ O + @ @ O O @ @ @ @ % @ @ @ @ .   @ O o O o @ % > < o   % @ o O O @ o O @ = + @ @ o o > @ % > + % % o @ @ % > > + @ % O O % @ @ @ @ % @ + % + O = % @ > @ % o O @ > < + @ @ + @ 4 , @ = O O % @ % O O O @ @ @ % @ @ @ % : @ O @ > 4 > > > > % = @ @ @ > @ @ > > @ @ O o @ % @ @ > @ @ @ $ o + > @ @ @ @ % o @ = = @ @ = < @ > > = @ $ > < @ O O O @ % = > > > < > > @ = 2 < < % @ < 6 > @ = : @ @ * @ @ @ @ , > O @ < @ @ % = > @ % $ > $ % @ @ : @ @ $ 4 4 @ * > = @ @ < > @ % @ = 4 @ 9 < @ > @ : < > @ O > = % O @ : = = 4 > @ o % = 7 @ > 6 > : 7 > > 2 0 % > < < > > < > = @ 7 + @ % % @ > @ % > @ O > > @ : O @ % @ 4 @ $ o < = @ : @ > > < @ > > @ @ % o + @ < > = + @ 9 @ % O o % > @ @ : > % @ @ + @ @ @ > > @ O o O @ + O @ % @ @ > = @ @ @ O O O O % @ @ O @ @ = + @   > 7 O @ @ > > % O O O @ @ % O @ @ + > 4 @ @ @ 4 = O > > o O % @ O o : @ + @ @ % > @ @ O + < @   @ > % @ @ > = O > @ @ @ $ O % O O o O @ @ O @ # % O O @ O @ @ @ O O @ ",
"@ O @ O o + > @ @ @ + > > > O O O > > @ @ > @ @ O O % % % @ @ @ = o @ @ + > < + $ + O O o @ > O @ O @ O + O O O O % + o $ @ O @ O o O % $ o O > @ % @ o O % @ O o % @ % % @ % @ > % O $ > O @ > @ O @ o O % @ > % @ > O @ > O @ + O > @ @ @ O % % @ > % > + > > + @ + @ @ o + : % + @ % + @ % @ @ O @ O O @ O % > = @ @ @ + < @ 9 > + O + > : % > @ O > @ @ % % + % > % % o + 9 < > > = @ + @ > $ > @ > > % @ @ > + @ @ > > > @ @ @ O > > @ % @ @ > > > < : @ % % + > > : % > < @ o @ > : % O @ @ : > @ > @ % @ @ + > + % * o > % @ @ , + : > + : : > + > < % @ O @ : @ 8 @ @ = @ + @ > @ + > = @ > % % @ : , O % @ @ % > + < > @ > = > 4 = q @ + @ = : O = @ > o + % > @ O @ @ % @ : > O % > % + @ @ O + @ @ @ o > > > % + % @ % @ % + @ @ @ + @ @ > = > = @ > + 8 @ o @ @ = + > @ @ > % > + @ % @ @ $ @ @ @ % O $ % % @ @ @ : % @ + @ o > O @ @ @ % % @ @ @ @ o @ + o + @ : @ % % o @ > > + O o > @ O % @ > : > @ O @ o @ > o $ + O O @ > @ % @ O + > + @ @ $ o @ O O @ $ @ @ O @ @ + O @ o @ O $ o @ % O O @ o O o > @ O O o @ O O @ ",
"@ = @ O O @ > + @ + % + O @ @ O O o % @ @ @ % O @ @ O @ O @ % % > @ > > @ O O @ @ @ o $ @ + O O + @ @ O $ + % < O o O O O + o o o @ $ % o o + > @ @ < @ @ @ @ @ o % O @ @ @ + o @ o o O @ $ O O % $ O @ @ % @ O @ o @ @ @ O o > @ O @ O $ O % @ % o % : > < > > % > > + % @ o o o @ @ > > + @ O % * @ @ @ o $ % O @ > > @ @ @ @ @ O @ o + @ @ @ O @ % > > > > @ + @ O @ @ @ < > % < > @ @ > 7 > O O $ O > > @ : > @ % O @ @ @ : % = @ > @ O > O O : @ O O o @ @ O O > @ % > O 4 @ = + @ % % $ > = % @ O O % O O + > > O @ @ $ @ = % 8 @ + > O < = > @ % + O O % % O + @ O @ % < > @ @ O $ 7 > @ O @ = @ $ O + > + @ $ * > % @ @ @ % @ > @   o : + O @ = @ @ @ o = + O , @ @ @ % @ O @ @ % O @ % @ = 4 O O o @ % O O @ @ + @ @ % @ @ : O O @ @ @ @ @ > @ @ @ + > 4 > @ o O @ @ @ O + @ o o % > > > > @ $ @ @ + % O O @ @ O O $ O $ o + O + O O @ @ @ @ O @ @ @ @ > o O O @ > : @ @ o @ O @ % @ % * % O O O o o > @ @ < + O > @ @ O @ > O @ $ O O % @ @ > O o @ @ @ + O O + @ @ o O % % @ O O O O @ @ O @ O O @ % O $ @ % O @ o O @ O o   ",
"@ @ @ O O % > O % : + o % @ O % O @ @ % = @ + $ O @ O o O @ @ @ % @ O % O O O O @ @ O @ @ @ O % O o $ o O @ @ @ % O . O O + @ O O @ o O O % % O @ O @ @ > O O % + > O $ @ @ O   @ @ O + @ o @ O o o   @ + O @ O o O % @ O O % o + O % O @ O @ @ % O o + @ 7 @ + O > 9 O % @ o % @ O = @ = > + % @ $ @ O o + + O @ @ o @ % O + @ O $ @ o O O @ O @ > @ @ = @ @ O @ O O O @ > @ @ O @ @ @ O : @ O + O O @ @ @ @ @ @ @ O @ @ > O + @ + @ @ > @ @ @ O O + @ ,   @ @ O O : + @ @ % = O % @ > @ o @ @ @ @ O @ @ @ O O O 9 @ + O O @ > a O o @ > @ @ > O + @ % @ @ % @ $ o o @ + + $ + @ % O o O @ O @ @ + 1 @ + @ @ q $ @ @ O o % O O O % > O : .   @ @ $ @ @ > O O o > : + O $ % + @ @ @ o O % @ @ O @ + % @ @ % @ + * @ O o @ @ @ @ o O % o + @ % O % @ O O O + % @ @ O $ O % @ o % O @ > . o o O : = @ % o @ > @ O o @ @ @ @ O O o @ O O o $ @ O % + @ O O @ @ @ @ = O O $ $ o o @ % $ @ O O @ @ * @ o % % % > @ + + @ @ O % @ @ @ @ @ $ O o + + @ @ @ o @ @ o O @ O @ O O O O O O O @ O o O O O o > @ O % % @ O O % @ O O @ @ o O O O @ o ",
"@ $ @ O O o + O O o O O @ % + @ > % @ o + % + o o o @ % + @ @ + O $ @ o O O @ % O $ @ @ @ @ o O @ o @ O @ O o O @ @ O % O + @ + @ O @ % + @ $ O O O @ @ O O O o + % @ o O # @ @ @ @ # $ O o O O $ o O O + @ o   + @ % @ O $ % o % . + @ @ + % O O O O @ @ o O @ + o % @ + @ O % $ O + O @ @ o @ + o % @ @ % + o O @ @ @ @ + O O @ O @ $ O @ % O @ @ @ @ O + = @ o O @ @ @ $ o % @ @ O O > @ @ @ @ > + O @ > @ @ @ : @ @ @ O o % @ O O @ > = : o > O @ @ > + @ % @ @ @ + > > % @ O @ O + @ O + o @ O O : @ @ % % > $ o O O @ @ < @ $ @ % @ @ O @ : @ : % O : @ O @ % > O @ @ O o o % @ % @ % O > > @ > % % @ % @ O @ @ > @ > @ % @ o @ + @ O : @ > @ @ + + o % % + @ + O O @ @ O + + $ O @ % > # @ % O % + O + @ @ @ O % @ + @ @   @ + @ @ O @ o o @ @ + O @ + O O + % @ o O @ + O @ $ O @ @ O $ > % + @ +   o O @ O @ O O % O O O @ @ % + o @ @ % % @ @ @ O O @ @ @ O O O O @ O > o o @ @ O o o @ . % @ O @ @ @ % @ o > > @ O O O O @ % @ % % $ @ @ O o + % @ O   @ @ O o $ % % O O @ O   + @ % o o O O o @ o + O @ @ o O % o o + @ % o ",
"O o o O @ # o @ O O O o @ . O @ @ + @ @ @ O O O O O @ @ % @ @ @ O O @ o o @ + o O o O O @ + + + O O @ O + @ o O + + @ O o % > @ + . O > % o @ o o O $ O O O O O O % @ @ o O O @ o O   O O O @ O O O @ @ $ O O @ @ > O O @ @ O o @ o % , + o @ O O o > o o O O @ @ O O % > O % + O @ % @ @ O O @ @ O @ % > > + O @ O @ @ O % o @ $ + > O @ = % @ @ O o o $ % + O o @ + @ @ @ O @ > O o $ + @ + % @ @ @ O % > > % @ O > % + @ % + @ @ O @ > > > + % > > > @ % O O % < + o @ % @ : O @ @ > @ O > @ + o % + = @ @ @ > o @ % @ @ % @ o @ : @ @ O @ @ @ % @ % + % O O @ > + > @ % O O @ O @ > O O O @ O O @ > > > @ + O @ @ % > % @ @ O @ @ % O @ @ @ : > @ + @ > > @ @ @ > @ @ $ % o @ @ @ o @ @ @ @ > O @ O @ + % @ O @ @ @ @ > @ O % > % @ % + o o o $ % @ @ $ % @ @ O O @ $ @ @ O @ O O @ % O o o @ @ % > @ . o + % @ % O @ @ @ o $ @ @ @ o @ $ o @ o @ % $ O O % O > @ o % + O o > @ + + o % O O % @ O @ @ O + $   @ % < > % O O O O + @ O + % + + O @ $ O O @ @ o % O + O O O + $ O o O O + @ O O o O O O $ @ @ O $ @ o O O   + @ @ O @ ",
"% o O @ o O @ o O O O O o O o O @ @ O O @   O + O O @ > = @ O @ % @ @ @ o o O @ # O   O % @ > @ > O @ O O @ @ % @ @ O @ @ @ + @ @ @ @ o % @ @ + @ O % o o @ @ % O @ > % @ > % o @ o O $ > % % o o @ % O + @ + @ O @ + O % @ + @ O @ @ @ % o O @ + % O o O O O O # @ > % @ @ @ O @ O @ @ % O o O O @ O > + O + % % % O @ @ % @ @ O + % > O O O + > : @ o O @ @ @ % % O O @ % > @ @ + $ % @ > @ + @ @ @ @ < + @ > @ > = + @ @ @ @ + > > @ O O @ > > 6 > @ @ @ @ O O % % : @ = @ + = > @ % : > @ @ > @ % @ < > + > > % @ @ % @ @ @ $ > @ @ @ @ : % @ % + @ @ > + > % + @ @ > @ o > > @ @ O % O > > @ + = @ O < @ @ 9 + @ O + % : @ O > > @ % % + + + > < @ > 8 = o @ > > @ > @ O + % @ @ > @ @ + O > @ @ @ @ @ @ O @ @ @ o O @ > O > @ @ o > % @ @ @ @ @ > o o O @ % @ O @ @ @ % @ $ @ @ @ % @ % @ O @ > + @ $ O % @ + @ @ @ @ O O o @ @ > O @ O O @ @ @ O % O O @ o % : O O @ @ > + = % + O O @ O o + @ + % @ o O o % o + + O O O O O @ @ + O + @ O o % $ @ O O O O @ $ @ @ @ O @ @ @ > : @ o o O @ O O O @ O @ O @ O @ O @ $ O % . O O % ",
"@ @ @ o O @ @ o + @ + O o @ o % o @ @ @ + @ o @ O O o @ : O O O > O o @ @ O @ $ @ $   o @ % + @ > $ % @ % O @ @ $ @ O @ O @ @ O @ + O @ % O O @ @ O @ @ O @ + @ O @ @ @ @ @ @ o @ . @ % + O @ O + % O   % @ O O @ @ % % @ = : @ @ + + % % o O % @ > O O O O o O % = > @ + $ @ @ % + @ @ > % $ O @ @ @ @ O @ @ @ @ % @ % @ + % @ > @ @ @ O @ O O @ @ O @ @ @ @ @ > > @ o : > @ > % + > @ + @ > O @ = > O = % @ = : 4 = @ > % > > q @ > > + O @ @ > > < > @ % % o @ % : > @ % % @ > > : > = > > @ > @ + > > @ @ > % + % + @ > @ : % > O : @ = < > % > @ @ > > @ > @ % @ > > @ @ > : @ + @ O > @ = O @ > > % @ % = > @ % @ @ + + @ > = @ @ @ > % @ @ @ @ > : > > @ = > > @ > @ @ % O @ > > @ @ % > $ > @ 9 : O @ O % % > $ O O % O % = @ % @ + @ O > % @ @ @ O . % =   @ @ O @ + @ > > + @ @ : % + % > @ @ O @ @ @ O @ @ + @ $ @ @ O O @ = % O O % O $ O O + @ + O $ @ @ @ O O @ > @ > > @ O O > @ o O @ @ + @ @ $ o + O $ + O O @ @ O O > > % O * % % O O * @ O O % O O @ @ O o @ O O + @ o O # O @ @ % O @ O O @ $ O @ @ o O @ O @ O o @ ",
"O + @ % @ % O o % o O % @ % @ @ @ @ @ O @ O @ O % O % O O O @ > o o @ < > > O @ @ O o % > @ O < O o O @ O + % @ O O @ @ O O @ O @ % @ O @ @ % @ o O : % @ @ % % O O O + @ + O @ + @ O o @ + @ @ > O o > 7 : O o O % @ $ O O % @ @ % O O o % % % O + % % O @ % @ % O + = < O o O O O @ O @ % O @ > > @ % % O O @ $ @ O O O % O @ + % O O : : @ O = @ @ > @ O $ @ % > @ @ O = : + % O , = = > + @ > > % o @ > = @ @ @ > @ < > 7 $ @ @ @ @ 4 + > > 6 : % O : > @ @ % > @ @ @ @ + : @ % > > > @ @ @ % % > @ > = > o > @ @ > @ O @ @ < + @ > @ @ % O @ @ % @ = > O @ O 0 @ @ @ o @ = @ > % O O > @ > > @ O @ + @ @ % @ : O + @ @ > @ > > + @ @ O O O $ @ @ @ > @ > <   % > + + % % O O O O + % @ @ > $ @ % O O @ % O O @ @ @ > > + o @ % @ < % + O @ % > @ > : $ @ O 7 O @ @ @ % @ % @ > @ % % O @ O @ @ @ @ @ * O + @ o O @ O + % $ % O @ > @ o O > @ O @ > @ @ @ O % @ o O O % < o @ @ @ O $ @ @ % + O @   O > @ O o O $ @ O @ + @ O % % O @ @ % @ @ @ @ @ % @ + @ $ @ + + + @ O $ O % @ O @ @ @ @ @ % > % % @ @ O @ % @ O o @ O O @ @ @ @ ",
"O @ % @ O O O @ % O o @ + @ o + > @ O O O $ $ O O O + O % o o O @ o % % + @ @ $ $ @ O + = % + > % o O > @ @ O @ o o o > @ O % @ + @ @ O % @ @ O @ @ % @ @ % @ % > O o @ @ @ @ % . O @ % @ @ @ @ : $ @ @ = > O O @ o + @ O o O > @ O O @ @ $ > > O O > @ @ : @ @ @ O $ @ > O O % o @ > O @ @ @ @ > @ @ O o @ : @ > @ + % O O O : @ + @ o % @ O @ O > > @ % @ @ @ @ % @ @ @ > % : @ + + > @ > @ + o + @ o @ + > > < > > @ @ > > O > @ O : @ + > 4 4 = @ o % @ % @ O > > % < + % : > = @ : = = @ % @ = : > > @ : > O @ @ > @ @ O @ > @ % > @ @ , O + o O @ @ > O + O 7 @ O o o % > % + @ @ @ @ + @ @ O = : @ > % O @ @ O : @ % @ @ @ > > $ + % @ o % @ @ > = + @ > O @ > % @ + @ O % @ @ @ @ + < > @ @ + % % % @ @ @ O O @ % % = O : > @ % > @ > $ O @ % @ + > @ O > @ % $ @ O @ @ % @ @ % o $ % > > = @ @ % @ O o % O O @ @ : O @ + % > @ @ O O @ + % O @ > @ O @ @ @   # O + % @ O = >   @ > + @ + @ @ O @ @ % @ + @ @ O O o O > @ @ @ O @ O + @ + @ % O @ @ @ @ O @ > @   O @ $ + @ @ @ O @ @ + + @ O + % O @ O O O O O @ @ O O O O + $ ",
"@ O O @ o O O % O + % @ O O O @ @ @ o O $ @ O o % O O @ @ o @ @ $ @ @ @ + @ @ @ O O O O @ O % o o @ % + @ o + > % $ o o O O @ O @ @ % O   o O @ @ O o + + + % o @ O @ + @ % + O o % : @ o % O % @ % > @ @ % @ O > O O O @ % O o @ @ % > @   O O @ @ + @ @ % @ @ @ @ @ + @ O % $ @ > o + % O o > + O @ O O O O @ > @ @ % @ @ > > > + % + O O O @ o % % O @ O @ @ % @ @ @ + @ @ % @ > @ @ @ @ : @ O @ @ > > > @ : > : @ @ = > > + @ < @ $ % @ > = @ % % < = + O > % > + % > @ > @ > @ O = < > @ + @ @ + + > * @ @ > % @ < > : + @ @ o $ > @ @ % O O % > > @ o > : % > @ O o @ + @ : @ @ > > @ @ O O @ > > @ = @ @ @ > 0 O O @ O @ + @ % % % : 8 % % @ O + @ : > = O $ > % % @ + @ @ : @ @ > @ % @ % o O > > o @ @ @ O : > + % + @ + @ % : + > = O o @ @ @ O O % % O + @ $ o @ > @ O @ % O O > + % % + @ o O @ @ @ @ @ @ + @ @ @ @ o @ > o @ @ : @ % > O > > O @ @ @ % @ o O > @ @ @ % % @ o $ @ + > O o @ @ + + @ @ + @ @ > @ @ @ o o @ @ @ @ + + O O % @ O o @ @   $ @ % @ o @ @ O O O > O O o O O > %   O + @ % o + O O @ O o O @ o @ O ",
"> o   > < O o = O @ + @ % o @ @ @ O @ + O % O O @ @ O + @ @ @ O O % + O o @ O @ @ O @ @ + @ O O O @ @ % O @ o @ @ + @ @ O @ @ % $ @ @ O O @ O % O . % % @ o O O o O O $ % @ % $ @ @ + @ % : @ % O o @ @ o O % @ + @ % @ + > @ O @ : @ @ > @ O @ @ @ @ @ + @ > @ > > @ % @ > O O O > @ > @ O O @ $ o @ @ % @ @ + > @ O O @ > = @ = @ @ > @ # + = @ @ O @ @ O % % % O O 4 @ @ > @ @ + @ % @ @ @ + % O @ > = + @ > > @ + @ > @ % % > @ + O > > > + O @ > % > O @ O > > > > @ > > @ @ % @ > @ > > @ % > : % = @ @ @ : O % > + + @ > % @ O @ @ > > @ + @ @ @ @ @ > > > + > O @ > @ + @ @ % = > @ $ @ : @ @ > > O > @ + = > o @ O @ % > O 1 O @ @ > @ % @ @ @ % > > > @ @ @ @ @ % @ : + @ @ @ : +   % O O O @ @ % O % % % % % @ % @ > @ + @ @ % > @ % @ > @ % @ O @ O O O O @ O % @ O o % @ O O O O + @ @ O O O > O @ @ % % @ + O @ @ + @ > O o @ % @ @ O o $ % o O O @   * @ O @ @ @ O O + @ % O + % % O o O % % O O @ @ @ @ @ @ O O @ % @ @ @ O @ O O $ % @ O @ % @ $ > @ @ @ @ + O @ @ @ @ O @ @ O $ + $ o O % @ @ @ O O O O # o O < O   o ",
"% o $ @ > $ @ > @ @ O O % $ @ O o @ % @ O O O O O @ O O o O @ o O @ O . O @ @   % O % O o > O % % O O O O O O @ @ + @ @ O @ @ @ O o o > % @ @ o O o O % @ @ @ $ . O O o $ O o @ @ O o @ @ @ O o @ O @ + > @ @ @ o @ @ @ @ @ @ @ > @ o o O O @ > O % @ o @ > > @ @ O @ @ > + o @ O O @ + O @ % % @ @ * @ @ @ $ @ O % @ @ O @ O @ > % O @ % O o O @ + @ > > @ @ > > @ + O @ @ @ % @ + % o @ % @ > > = % o O > : @ + @ > @ % > % O = o @ @ 9 > @ @ @ $ @ + o % @ + @ O % = @ @ > @ % @ > 8 > @ + % @ 6 4 > @ @ @ > @ @ > > O + @ + = @ % @ $ @ @ O % @ @ + @ @ % @ 4 o o O @ O @ > > @ @ @ = @ : + > @ @ % % % O o > @ o > + @ > @ @ > : @ @ @ + > O @ @ @ % > 9 % @ @ @ O O @ > @ @ @ O % O @ % % > @ < @ o O @ @ o $ + @ @ @ % $ @ + + O O o O > + O @ @ @ $ @ @ @ * % O + > o o @ @ + $ O o % O o @ @ @ % @ @ + O O @ @ > > O O : o o > @ . O @ @ > % % O O O @ > O o @ @ O O @ O @ O @ > > @   O : O   + % o % @ @ @ O O O @ O @ O > > @ O O O @ @ o @ @ % % . O O O O + @ @ @ O % @ @ + % @ O O o % O O + O % % > @ O O @ O . @ o O @ ",
"@ o % @ O % @ + O O o o + @ @ O O o O % > @ o @ O O O % O % @ o o O @ o $ O O O @ o o o O : @ O > .   o + O @ @ o O @ @ > O % O o $ O O @ + @ O @ o O O > @ @ @ @ O o O % $ O O O O @ % + @ $ o + % O + @ > + O @ o @ % O @ % + 2 $ O $ O o + % + @ @ O % @ @ > @ O > @ + o % > > + % > % O + + @ % : = @ o O @ @ @ : > O O > : > > @ O O O > O @ > + @ @ < % @ = % $ O o @ > > $ + @ o O $ % @ % @ O o O @ O @ % = @ @ @ @ @ O = O > > > o > > % O % % @ @ @ % > $ @ @ 4 % : @ > = = > > > : @ > > @ @ % > = > O > 9 + O @ > @ % < = o O @ > = > @ @ @ @ > > > = % o % @ O % @ < @ + @ > % = > @ @ < @ % O . @ @ % O $ @ > @ @ > 4 @ @ % > @ + O @ @ @ o @ = O % > % O o @ @ O O @ O % o @ > O @ > < @ @ @ O O O @ % + > @ O $ + $ < @ O O + @ % % % @ @ @ + > > @ @ @ @ @ % O @ + @ @ @ @ o @ @ % @ @ @ @ @ @ O O > @ : > + @ 7 $ % @ @ % O O O % % % o % @ @ % % o + O O @ O O > @ O O > @ o   @ @ @ o @ + > @ O o $ $ O $ O O O @ O + O o O @ @ % % @ @ O O   + @ O @ o @ @ @ O o % O O O O O @ @ $ O @ @ O o @ % @ O o O O O @ @ o ",
"O @ , O @ @ @ O > % @ % @ O O O @ O + o @ O @ @ O + + + @ @ O % + O = + % > @ + o @ % @ @ O @ @ : O   O % O O O O O o @ % O % @ + @ @ o o > + O $ % o @ @ % @ O O > @ @ %   + + O @ + o O @ O % @ @ @ > O + @ % @ : O O O @ @ @ @ $ % @ @ o O @ @ @ @ @ @ % % > @ O + @ @ O O o @ @ O @ % O O @ @ o > @ @ O O > : + > @ @ O O O o % > @ O @ % % @ > @ + O + @ = < O @ @ @ @ > @ > O % = @ % @ o @ @ % @ @ > @ O > @ > @ @ @ @ @ @ > > O @ = % @ @ > O @ : @ O O > % > @ o O % @ 7 = = % o $ @ > @ 0 @ + > > > O @ @ + > @ @ @ @ > o @ > $ O % > > : @ + @ @ @ @ % @ % + % % @ @ @ > > @ $ O @ > @ @ O + % o @ @ @ % @ @ $ O + $ > @ @ @ > O O @ O O @ % > @ @ : @ @ > @ % % % @ O @ @ % + < > O @ < @ o % O % O > : @ + @ < % @ = @ > $ o O % O @ % O @ @ > @ O O O o > O @ + O @ % @ o @ > % > + @ % % @ @ @ o @ O @ @ o o O @ @ O @ O @ @ @ O @ O O O @ @ o @ > % o o O @ O $ O O % O + o O $ % O o o O O O % % O % @ O O @ $ @ > % O % @ O % O @ @ @ + > O o % O @ @ O @ @ @ O O O O @ O @ @ , % O O @ + @ O @ O o O @ @ O O @ $ $ O ",
"O @ @ O $ O O O @ > > @ @ @ @ @ O O @ @ @ @ @ O % O O O @ @ @ % @ O + @ = @ @ @ O @ @ @ @ O $ + > % @ @ @ + @ O @ O O O @ @ @ @ @ O O @ O @ @ @ O $ O + O @ @ O @ @ + % @ O @ @ @ @ @ @ @ O @ $ @ % @ @ @ @ @ @ O % @ + @ O O @ % @ @ @ @ o O @ @ @ O @ @ @ @ @ @ @ @ @ > @ O O O @ @ @ @ O @ @ % O @ @ % O % @ = @ @ @ @ @ O @ @ % % @ O O > = @ @ > > % @ % @ > @ @ @ @ @ @ > @ @ @ > @ @ O @ @ @ @ @ @ % @ + > @ > @ @ % @ > = % + @ @ @ > % O % @ @ + @ O O @ @ > @ % @ > % > > > = @ + $ % > > % @ @ > > > % @ $ @ @ @ @ @ @ O $ > % @ @ > > = @ @ @ @ @ = > = % @ @ @ @ @ = @ @ @ @ % @ @ @ @ @ + @ @ @ @ @ O @ % @ @ % @ @ O @ @ @ % @ @ @ @ @ % @ O @ > = @ % @ > @ @ @ % @ @ @ @ % % @ = @ @ + @ @ = > = > @ @ % > = > @ @ @ O % @ @ O + @ @ % @ @ % @ O @ @ O % $ @ O O @ @ @ o @ > > + @ O O @ @ @ O O O $ $ O . o @ O O + + @ @ > @ @ @ @ @ O @ O O @ @ @ @ O O O @ @ O @ @ @ O O @ @ $ @ + O O + @ @ @ O O O @ O O @ @ @ @ @ @ $ @ O O O + + @ @ O @ O @ @ @ @ O O O O @ @ O @ @ @ @ @ O O @ O o O O o O @ @ O @ @ O O O O "
};
